(G-CODE GENERATED BY FLATCAM v8.95 - www.flatcam.org - Version Date: 2019/08/17)

(Name: Karat2_screen v0.dxf_cnc)
(Type: G-code from Geometry)
(Units: MM)

(Created on Saturday, 27 June 2020 at 15:11)

(TOOL DIAMETER: 0.8 mm)
(Feedrate: 40.0 mm/min)
(Feedrate_Z: 79.9998 mm/min)
(Feedrate rapids 79.9998 mm/min)

(Z_Cut: -2.4 mm)
(DepthPerCut: 0.05 mm <=>48 passes)
(Z_Move: 1.999 mm)
(Z Toolchange: 12.7 mm)
(X,Y Toolchange: 0.0000, 0.0000 mm)
(Z Start: None mm)
(Z End: 12.7 mm)
(Steps per circle: 128)
(Postprocessor Geometry: default)

(X range:    0.8786 ...   37.3786  mm)
(Y range:  -11.5624 ...   -1.0624  mm)

(Spindle Speed: None RPM)

G21
G90
G94

G01 F40.00
G00 Z1.9990

M03
G00 X35.8786 Y-11.5624
G01 F80.00
G01 Z-0.0500
G01 F40.00
G01 X2.3786 Y-11.5624
G01 X0.8786 Y-10.0624
G01 X0.8786 Y-2.5624
G01 X2.3786 Y-1.0624
G01 X35.8786 Y-1.0624
G01 X37.3786 Y-2.5624
G01 X37.3786 Y-10.0624
G01 X35.8786 Y-11.5624
G00 X35.8786 Y-11.5624
G01 F80.00
G01 Z-0.1000
G01 F40.00
G01 X37.3786 Y-10.0624
G01 X37.3786 Y-2.5624
G01 X35.8786 Y-1.0624
G01 X2.3786 Y-1.0624
G01 X0.8786 Y-2.5624
G01 X0.8786 Y-10.0624
G01 X2.3786 Y-11.5624
G01 X35.8786 Y-11.5624
G00 X35.8786 Y-11.5624
G01 F80.00
G01 Z-0.1500
G01 F40.00
G01 X2.3786 Y-11.5624
G01 X0.8786 Y-10.0624
G01 X0.8786 Y-2.5624
G01 X2.3786 Y-1.0624
G01 X35.8786 Y-1.0624
G01 X37.3786 Y-2.5624
G01 X37.3786 Y-10.0624
G01 X35.8786 Y-11.5624
G00 X35.8786 Y-11.5624
G01 F80.00
G01 Z-0.2000
G01 F40.00
G01 X37.3786 Y-10.0624
G01 X37.3786 Y-2.5624
G01 X35.8786 Y-1.0624
G01 X2.3786 Y-1.0624
G01 X0.8786 Y-2.5624
G01 X0.8786 Y-10.0624
G01 X2.3786 Y-11.5624
G01 X35.8786 Y-11.5624
G00 X35.8786 Y-11.5624
G01 F80.00
G01 Z-0.2500
G01 F40.00
G01 X2.3786 Y-11.5624
G01 X0.8786 Y-10.0624
G01 X0.8786 Y-2.5624
G01 X2.3786 Y-1.0624
G01 X35.8786 Y-1.0624
G01 X37.3786 Y-2.5624
G01 X37.3786 Y-10.0624
G01 X35.8786 Y-11.5624
G00 X35.8786 Y-11.5624
G01 F80.00
G01 Z-0.3000
G01 F40.00
G01 X37.3786 Y-10.0624
G01 X37.3786 Y-2.5624
G01 X35.8786 Y-1.0624
G01 X2.3786 Y-1.0624
G01 X0.8786 Y-2.5624
G01 X0.8786 Y-10.0624
G01 X2.3786 Y-11.5624
G01 X35.8786 Y-11.5624
G00 X35.8786 Y-11.5624
G01 F80.00
G01 Z-0.3500
G01 F40.00
G01 X2.3786 Y-11.5624
G01 X0.8786 Y-10.0624
G01 X0.8786 Y-2.5624
G01 X2.3786 Y-1.0624
G01 X35.8786 Y-1.0624
G01 X37.3786 Y-2.5624
G01 X37.3786 Y-10.0624
G01 X35.8786 Y-11.5624
G00 X35.8786 Y-11.5624
G01 F80.00
G01 Z-0.4000
G01 F40.00
G01 X37.3786 Y-10.0624
G01 X37.3786 Y-2.5624
G01 X35.8786 Y-1.0624
G01 X2.3786 Y-1.0624
G01 X0.8786 Y-2.5624
G01 X0.8786 Y-10.0624
G01 X2.3786 Y-11.5624
G01 X35.8786 Y-11.5624
G00 X35.8786 Y-11.5624
G01 F80.00
G01 Z-0.4500
G01 F40.00
G01 X2.3786 Y-11.5624
G01 X0.8786 Y-10.0624
G01 X0.8786 Y-2.5624
G01 X2.3786 Y-1.0624
G01 X35.8786 Y-1.0624
G01 X37.3786 Y-2.5624
G01 X37.3786 Y-10.0624
G01 X35.8786 Y-11.5624
G00 X35.8786 Y-11.5624
G01 F80.00
G01 Z-0.5000
G01 F40.00
G01 X37.3786 Y-10.0624
G01 X37.3786 Y-2.5624
G01 X35.8786 Y-1.0624
G01 X2.3786 Y-1.0624
G01 X0.8786 Y-2.5624
G01 X0.8786 Y-10.0624
G01 X2.3786 Y-11.5624
G01 X35.8786 Y-11.5624
G00 X35.8786 Y-11.5624
G01 F80.00
G01 Z-0.5500
G01 F40.00
G01 X2.3786 Y-11.5624
G01 X0.8786 Y-10.0624
G01 X0.8786 Y-2.5624
G01 X2.3786 Y-1.0624
G01 X35.8786 Y-1.0624
G01 X37.3786 Y-2.5624
G01 X37.3786 Y-10.0624
G01 X35.8786 Y-11.5624
G00 X35.8786 Y-11.5624
G01 F80.00
G01 Z-0.6000
G01 F40.00
G01 X37.3786 Y-10.0624
G01 X37.3786 Y-2.5624
G01 X35.8786 Y-1.0624
G01 X2.3786 Y-1.0624
G01 X0.8786 Y-2.5624
G01 X0.8786 Y-10.0624
G01 X2.3786 Y-11.5624
G01 X35.8786 Y-11.5624
G00 X35.8786 Y-11.5624
G01 F80.00
G01 Z-0.6500
G01 F40.00
G01 X2.3786 Y-11.5624
G01 X0.8786 Y-10.0624
G01 X0.8786 Y-2.5624
G01 X2.3786 Y-1.0624
G01 X35.8786 Y-1.0624
G01 X37.3786 Y-2.5624
G01 X37.3786 Y-10.0624
G01 X35.8786 Y-11.5624
G00 X35.8786 Y-11.5624
G01 F80.00
G01 Z-0.7000
G01 F40.00
G01 X37.3786 Y-10.0624
G01 X37.3786 Y-2.5624
G01 X35.8786 Y-1.0624
G01 X2.3786 Y-1.0624
G01 X0.8786 Y-2.5624
G01 X0.8786 Y-10.0624
G01 X2.3786 Y-11.5624
G01 X35.8786 Y-11.5624
G00 X35.8786 Y-11.5624
G01 F80.00
G01 Z-0.7500
G01 F40.00
G01 X2.3786 Y-11.5624
G01 X0.8786 Y-10.0624
G01 X0.8786 Y-2.5624
G01 X2.3786 Y-1.0624
G01 X35.8786 Y-1.0624
G01 X37.3786 Y-2.5624
G01 X37.3786 Y-10.0624
G01 X35.8786 Y-11.5624
G00 X35.8786 Y-11.5624
G01 F80.00
G01 Z-0.8000
G01 F40.00
G01 X37.3786 Y-10.0624
G01 X37.3786 Y-2.5624
G01 X35.8786 Y-1.0624
G01 X2.3786 Y-1.0624
G01 X0.8786 Y-2.5624
G01 X0.8786 Y-10.0624
G01 X2.3786 Y-11.5624
G01 X35.8786 Y-11.5624
G00 X35.8786 Y-11.5624
G01 F80.00
G01 Z-0.8500
G01 F40.00
G01 X2.3786 Y-11.5624
G01 X0.8786 Y-10.0624
G01 X0.8786 Y-2.5624
G01 X2.3786 Y-1.0624
G01 X35.8786 Y-1.0624
G01 X37.3786 Y-2.5624
G01 X37.3786 Y-10.0624
G01 X35.8786 Y-11.5624
G00 X35.8786 Y-11.5624
G01 F80.00
G01 Z-0.9000
G01 F40.00
G01 X37.3786 Y-10.0624
G01 X37.3786 Y-2.5624
G01 X35.8786 Y-1.0624
G01 X2.3786 Y-1.0624
G01 X0.8786 Y-2.5624
G01 X0.8786 Y-10.0624
G01 X2.3786 Y-11.5624
G01 X35.8786 Y-11.5624
G00 X35.8786 Y-11.5624
G01 F80.00
G01 Z-0.9500
G01 F40.00
G01 X2.3786 Y-11.5624
G01 X0.8786 Y-10.0624
G01 X0.8786 Y-2.5624
G01 X2.3786 Y-1.0624
G01 X35.8786 Y-1.0624
G01 X37.3786 Y-2.5624
G01 X37.3786 Y-10.0624
G01 X35.8786 Y-11.5624
G00 X35.8786 Y-11.5624
G01 F80.00
G01 Z-1.0000
G01 F40.00
G01 X37.3786 Y-10.0624
G01 X37.3786 Y-2.5624
G01 X35.8786 Y-1.0624
G01 X2.3786 Y-1.0624
G01 X0.8786 Y-2.5624
G01 X0.8786 Y-10.0624
G01 X2.3786 Y-11.5624
G01 X35.8786 Y-11.5624
G00 X35.8786 Y-11.5624
G01 F80.00
G01 Z-1.0500
G01 F40.00
G01 X2.3786 Y-11.5624
G01 X0.8786 Y-10.0624
G01 X0.8786 Y-2.5624
G01 X2.3786 Y-1.0624
G01 X35.8786 Y-1.0624
G01 X37.3786 Y-2.5624
G01 X37.3786 Y-10.0624
G01 X35.8786 Y-11.5624
G00 X35.8786 Y-11.5624
G01 F80.00
G01 Z-1.1000
G01 F40.00
G01 X37.3786 Y-10.0624
G01 X37.3786 Y-2.5624
G01 X35.8786 Y-1.0624
G01 X2.3786 Y-1.0624
G01 X0.8786 Y-2.5624
G01 X0.8786 Y-10.0624
G01 X2.3786 Y-11.5624
G01 X35.8786 Y-11.5624
G00 X35.8786 Y-11.5624
G01 F80.00
G01 Z-1.1500
G01 F40.00
G01 X2.3786 Y-11.5624
G01 X0.8786 Y-10.0624
G01 X0.8786 Y-2.5624
G01 X2.3786 Y-1.0624
G01 X35.8786 Y-1.0624
G01 X37.3786 Y-2.5624
G01 X37.3786 Y-10.0624
G01 X35.8786 Y-11.5624
G00 X35.8786 Y-11.5624
G01 F80.00
G01 Z-1.2000
G01 F40.00
G01 X37.3786 Y-10.0624
G01 X37.3786 Y-2.5624
G01 X35.8786 Y-1.0624
G01 X2.3786 Y-1.0624
G01 X0.8786 Y-2.5624
G01 X0.8786 Y-10.0624
G01 X2.3786 Y-11.5624
G01 X35.8786 Y-11.5624
G00 X35.8786 Y-11.5624
G01 F80.00
G01 Z-1.2500
G01 F40.00
G01 X2.3786 Y-11.5624
G01 X0.8786 Y-10.0624
G01 X0.8786 Y-2.5624
G01 X2.3786 Y-1.0624
G01 X35.8786 Y-1.0624
G01 X37.3786 Y-2.5624
G01 X37.3786 Y-10.0624
G01 X35.8786 Y-11.5624
G00 X35.8786 Y-11.5624
G01 F80.00
G01 Z-1.3000
G01 F40.00
G01 X37.3786 Y-10.0624
G01 X37.3786 Y-2.5624
G01 X35.8786 Y-1.0624
G01 X2.3786 Y-1.0624
G01 X0.8786 Y-2.5624
G01 X0.8786 Y-10.0624
G01 X2.3786 Y-11.5624
G01 X35.8786 Y-11.5624
G00 X35.8786 Y-11.5624
G01 F80.00
G01 Z-1.3500
G01 F40.00
G01 X2.3786 Y-11.5624
G01 X0.8786 Y-10.0624
G01 X0.8786 Y-2.5624
G01 X2.3786 Y-1.0624
G01 X35.8786 Y-1.0624
G01 X37.3786 Y-2.5624
G01 X37.3786 Y-10.0624
G01 X35.8786 Y-11.5624
G00 X35.8786 Y-11.5624
G01 F80.00
G01 Z-1.4000
G01 F40.00
G01 X37.3786 Y-10.0624
G01 X37.3786 Y-2.5624
G01 X35.8786 Y-1.0624
G01 X2.3786 Y-1.0624
G01 X0.8786 Y-2.5624
G01 X0.8786 Y-10.0624
G01 X2.3786 Y-11.5624
G01 X35.8786 Y-11.5624
G00 X35.8786 Y-11.5624
G01 F80.00
G01 Z-1.4500
G01 F40.00
G01 X2.3786 Y-11.5624
G01 X0.8786 Y-10.0624
G01 X0.8786 Y-2.5624
G01 X2.3786 Y-1.0624
G01 X35.8786 Y-1.0624
G01 X37.3786 Y-2.5624
G01 X37.3786 Y-10.0624
G01 X35.8786 Y-11.5624
G00 X35.8786 Y-11.5624
G01 F80.00
G01 Z-1.5000
G01 F40.00
G01 X37.3786 Y-10.0624
G01 X37.3786 Y-2.5624
G01 X35.8786 Y-1.0624
G01 X2.3786 Y-1.0624
G01 X0.8786 Y-2.5624
G01 X0.8786 Y-10.0624
G01 X2.3786 Y-11.5624
G01 X35.8786 Y-11.5624
G00 X35.8786 Y-11.5624
G01 F80.00
G01 Z-1.5500
G01 F40.00
G01 X2.3786 Y-11.5624
G01 X0.8786 Y-10.0624
G01 X0.8786 Y-2.5624
G01 X2.3786 Y-1.0624
G01 X35.8786 Y-1.0624
G01 X37.3786 Y-2.5624
G01 X37.3786 Y-10.0624
G01 X35.8786 Y-11.5624
G00 X35.8786 Y-11.5624
G01 F80.00
G01 Z-1.6000
G01 F40.00
G01 X37.3786 Y-10.0624
G01 X37.3786 Y-2.5624
G01 X35.8786 Y-1.0624
G01 X2.3786 Y-1.0624
G01 X0.8786 Y-2.5624
G01 X0.8786 Y-10.0624
G01 X2.3786 Y-11.5624
G01 X35.8786 Y-11.5624
G00 X35.8786 Y-11.5624
G01 F80.00
G01 Z-1.6500
G01 F40.00
G01 X2.3786 Y-11.5624
G01 X0.8786 Y-10.0624
G01 X0.8786 Y-2.5624
G01 X2.3786 Y-1.0624
G01 X35.8786 Y-1.0624
G01 X37.3786 Y-2.5624
G01 X37.3786 Y-10.0624
G01 X35.8786 Y-11.5624
G00 X35.8786 Y-11.5624
G01 F80.00
G01 Z-1.7000
G01 F40.00
G01 X37.3786 Y-10.0624
G01 X37.3786 Y-2.5624
G01 X35.8786 Y-1.0624
G01 X2.3786 Y-1.0624
G01 X0.8786 Y-2.5624
G01 X0.8786 Y-10.0624
G01 X2.3786 Y-11.5624
G01 X35.8786 Y-11.5624
G00 X35.8786 Y-11.5624
G01 F80.00
G01 Z-1.7500
G01 F40.00
G01 X2.3786 Y-11.5624
G01 X0.8786 Y-10.0624
G01 X0.8786 Y-2.5624
G01 X2.3786 Y-1.0624
G01 X35.8786 Y-1.0624
G01 X37.3786 Y-2.5624
G01 X37.3786 Y-10.0624
G01 X35.8786 Y-11.5624
G00 X35.8786 Y-11.5624
G01 F80.00
G01 Z-1.8000
G01 F40.00
G01 X37.3786 Y-10.0624
G01 X37.3786 Y-2.5624
G01 X35.8786 Y-1.0624
G01 X2.3786 Y-1.0624
G01 X0.8786 Y-2.5624
G01 X0.8786 Y-10.0624
G01 X2.3786 Y-11.5624
G01 X35.8786 Y-11.5624
G00 X35.8786 Y-11.5624
G01 F80.00
G01 Z-1.8500
G01 F40.00
G01 X2.3786 Y-11.5624
G01 X0.8786 Y-10.0624
G01 X0.8786 Y-2.5624
G01 X2.3786 Y-1.0624
G01 X35.8786 Y-1.0624
G01 X37.3786 Y-2.5624
G01 X37.3786 Y-10.0624
G01 X35.8786 Y-11.5624
G00 X35.8786 Y-11.5624
G01 F80.00
G01 Z-1.9000
G01 F40.00
G01 X37.3786 Y-10.0624
G01 X37.3786 Y-2.5624
G01 X35.8786 Y-1.0624
G01 X2.3786 Y-1.0624
G01 X0.8786 Y-2.5624
G01 X0.8786 Y-10.0624
G01 X2.3786 Y-11.5624
G01 X35.8786 Y-11.5624
G00 X35.8786 Y-11.5624
G01 F80.00
G01 Z-1.9500
G01 F40.00
G01 X2.3786 Y-11.5624
G01 X0.8786 Y-10.0624
G01 X0.8786 Y-2.5624
G01 X2.3786 Y-1.0624
G01 X35.8786 Y-1.0624
G01 X37.3786 Y-2.5624
G01 X37.3786 Y-10.0624
G01 X35.8786 Y-11.5624
G00 X35.8786 Y-11.5624
G01 F80.00
G01 Z-2.0000
G01 F40.00
G01 X37.3786 Y-10.0624
G01 X37.3786 Y-2.5624
G01 X35.8786 Y-1.0624
G01 X2.3786 Y-1.0624
G01 X0.8786 Y-2.5624
G01 X0.8786 Y-10.0624
G01 X2.3786 Y-11.5624
G01 X35.8786 Y-11.5624
G00 X35.8786 Y-11.5624
G01 F80.00
G01 Z-2.0500
G01 F40.00
G01 X2.3786 Y-11.5624
G01 X0.8786 Y-10.0624
G01 X0.8786 Y-2.5624
G01 X2.3786 Y-1.0624
G01 X35.8786 Y-1.0624
G01 X37.3786 Y-2.5624
G01 X37.3786 Y-10.0624
G01 X35.8786 Y-11.5624
G00 X35.8786 Y-11.5624
G01 F80.00
G01 Z-2.1000
G01 F40.00
G01 X37.3786 Y-10.0624
G01 X37.3786 Y-2.5624
G01 X35.8786 Y-1.0624
G01 X2.3786 Y-1.0624
G01 X0.8786 Y-2.5624
G01 X0.8786 Y-10.0624
G01 X2.3786 Y-11.5624
G01 X35.8786 Y-11.5624
G00 X35.8786 Y-11.5624
G01 F80.00
G01 Z-2.1500
G01 F40.00
G01 X2.3786 Y-11.5624
G01 X0.8786 Y-10.0624
G01 X0.8786 Y-2.5624
G01 X2.3786 Y-1.0624
G01 X35.8786 Y-1.0624
G01 X37.3786 Y-2.5624
G01 X37.3786 Y-10.0624
G01 X35.8786 Y-11.5624
G00 X35.8786 Y-11.5624
G01 F80.00
G01 Z-2.2000
G01 F40.00
G01 X37.3786 Y-10.0624
G01 X37.3786 Y-2.5624
G01 X35.8786 Y-1.0624
G01 X2.3786 Y-1.0624
G01 X0.8786 Y-2.5624
G01 X0.8786 Y-10.0624
G01 X2.3786 Y-11.5624
G01 X35.8786 Y-11.5624
G00 X35.8786 Y-11.5624
G01 F80.00
G01 Z-2.2500
G01 F40.00
G01 X2.3786 Y-11.5624
G01 X0.8786 Y-10.0624
G01 X0.8786 Y-2.5624
G01 X2.3786 Y-1.0624
G01 X35.8786 Y-1.0624
G01 X37.3786 Y-2.5624
G01 X37.3786 Y-10.0624
G01 X35.8786 Y-11.5624
G00 X35.8786 Y-11.5624
G01 F80.00
G01 Z-2.3000
G01 F40.00
G01 X37.3786 Y-10.0624
G01 X37.3786 Y-2.5624
G01 X35.8786 Y-1.0624
G01 X2.3786 Y-1.0624
G01 X0.8786 Y-2.5624
G01 X0.8786 Y-10.0624
G01 X2.3786 Y-11.5624
G01 X35.8786 Y-11.5624
G00 X35.8786 Y-11.5624
G01 F80.00
G01 Z-2.3500
G01 F40.00
G01 X2.3786 Y-11.5624
G01 X0.8786 Y-10.0624
G01 X0.8786 Y-2.5624
G01 X2.3786 Y-1.0624
G01 X35.8786 Y-1.0624
G01 X37.3786 Y-2.5624
G01 X37.3786 Y-10.0624
G01 X35.8786 Y-11.5624
G00 X35.8786 Y-11.5624
G01 F80.00
G01 Z-2.4000
G01 F40.00
G01 X37.3786 Y-10.0624
G01 X37.3786 Y-2.5624
G01 X35.8786 Y-1.0624
G01 X2.3786 Y-1.0624
G01 X0.8786 Y-2.5624
G01 X0.8786 Y-10.0624
G01 X2.3786 Y-11.5624
G01 X35.8786 Y-11.5624
G00 Z1.9990
M05
G00 Z1.9990
G00 Z12.70
G00 X0.0 Y0.0

M02