(G-CODE GENERATED BY FLATCAM v8.95 - www.flatcam.org - Version Date: 2019/08/17)

(Name: Karat2_screen v3.dxf_cutout_cnc2)
(Type: G-code from Geometry)
(Units: MM)

(Created on Friday, 03 July 2020 at 07:28)

(TOOL DIAMETER: 0.8 mm)
(Feedrate: 50.0 mm/min)
(Feedrate_Z: 50.0 mm/min)
(Feedrate rapids 79.9998 mm/min)

(Z_Cut: -2.3 mm)
(DepthPerCut: 0.05 mm <=>46 passes)
(Z_Move: 5.0 mm)
(Z Toolchange: 12.7 mm)
(X,Y Toolchange: 0.0000, 0.0000 mm)
(Z Start: None mm)
(Z End: 12.7 mm)
(Steps per circle: 128)
(Postprocessor Geometry: default)

(X range:    0.8795 ...   38.3777  mm)
(Y range:  -12.5615 ...   -1.0633  mm)

(Spindle Speed: None RPM)

G21
G90
G94

G01 F50.00
G00 Z5.0000

M03
G00 X0.8795 Y-6.2133
G01 F50.00
G01 Z-0.0500
G01 F50.00
G01 X0.8795 Y-2.5624
G01 X0.8819 Y-2.5135
G01 X0.8891 Y-2.4650
G01 X0.9010 Y-2.4175
G01 X0.9175 Y-2.3714
G01 X0.9384 Y-2.3271
G01 X0.9636 Y-2.2851
G01 X0.9928 Y-2.2458
G01 X1.0257 Y-2.2095
G01 X2.0257 Y-1.2095
G01 X2.0620 Y-1.1766
G01 X2.1013 Y-1.1474
G01 X2.1433 Y-1.1222
G01 X2.1876 Y-1.1013
G01 X2.2337 Y-1.0848
G01 X2.2812 Y-1.0729
G01 X2.3297 Y-1.0657
G01 X2.3786 Y-1.0633
G01 X36.8786 Y-1.0633
G01 X36.9275 Y-1.0657
G01 X36.9760 Y-1.0729
G01 X37.0235 Y-1.0848
G01 X37.0696 Y-1.1013
G01 X37.1139 Y-1.1222
G01 X37.1559 Y-1.1474
G01 X37.1952 Y-1.1766
G01 X37.2315 Y-1.2095
G01 X38.2315 Y-2.2095
G01 X38.2644 Y-2.2458
G01 X38.2936 Y-2.2851
G01 X38.3188 Y-2.3271
G01 X38.3397 Y-2.3714
G01 X38.3562 Y-2.4175
G01 X38.3681 Y-2.4650
G01 X38.3753 Y-2.5135
G01 X38.3777 Y-2.5624
G01 X38.3777 Y-6.2133
G00 X38.3777 Y-6.2133
G01 F50.00
G01 Z-0.1000
G01 F50.00
G01 X38.3777 Y-2.5624
G01 X38.3753 Y-2.5135
G01 X38.3681 Y-2.4650
G01 X38.3562 Y-2.4175
G01 X38.3397 Y-2.3714
G01 X38.3188 Y-2.3271
G01 X38.2936 Y-2.2851
G01 X38.2644 Y-2.2458
G01 X38.2315 Y-2.2095
G01 X37.2315 Y-1.2095
G01 X37.1952 Y-1.1766
G01 X37.1559 Y-1.1474
G01 X37.1139 Y-1.1222
G01 X37.0696 Y-1.1013
G01 X37.0235 Y-1.0848
G01 X36.9760 Y-1.0729
G01 X36.9275 Y-1.0657
G01 X36.8786 Y-1.0633
G01 X2.3786 Y-1.0633
G01 X2.3297 Y-1.0657
G01 X2.2812 Y-1.0729
G01 X2.2337 Y-1.0848
G01 X2.1876 Y-1.1013
G01 X2.1433 Y-1.1222
G01 X2.1013 Y-1.1474
G01 X2.0620 Y-1.1766
G01 X2.0257 Y-1.2095
G01 X1.0257 Y-2.2095
G01 X0.9928 Y-2.2458
G01 X0.9636 Y-2.2851
G01 X0.9384 Y-2.3271
G01 X0.9175 Y-2.3714
G01 X0.9010 Y-2.4175
G01 X0.8891 Y-2.4650
G01 X0.8819 Y-2.5135
G01 X0.8795 Y-2.5624
G01 X0.8795 Y-6.2133
G00 X0.8795 Y-6.2133
G01 F50.00
G01 Z-0.1500
G01 F50.00
G01 X0.8795 Y-2.5624
G01 X0.8819 Y-2.5135
G01 X0.8891 Y-2.4650
G01 X0.9010 Y-2.4175
G01 X0.9175 Y-2.3714
G01 X0.9384 Y-2.3271
G01 X0.9636 Y-2.2851
G01 X0.9928 Y-2.2458
G01 X1.0257 Y-2.2095
G01 X2.0257 Y-1.2095
G01 X2.0620 Y-1.1766
G01 X2.1013 Y-1.1474
G01 X2.1433 Y-1.1222
G01 X2.1876 Y-1.1013
G01 X2.2337 Y-1.0848
G01 X2.2812 Y-1.0729
G01 X2.3297 Y-1.0657
G01 X2.3786 Y-1.0633
G01 X36.8786 Y-1.0633
G01 X36.9275 Y-1.0657
G01 X36.9760 Y-1.0729
G01 X37.0235 Y-1.0848
G01 X37.0696 Y-1.1013
G01 X37.1139 Y-1.1222
G01 X37.1559 Y-1.1474
G01 X37.1952 Y-1.1766
G01 X37.2315 Y-1.2095
G01 X38.2315 Y-2.2095
G01 X38.2644 Y-2.2458
G01 X38.2936 Y-2.2851
G01 X38.3188 Y-2.3271
G01 X38.3397 Y-2.3714
G01 X38.3562 Y-2.4175
G01 X38.3681 Y-2.4650
G01 X38.3753 Y-2.5135
G01 X38.3777 Y-2.5624
G01 X38.3777 Y-6.2133
G00 X38.3777 Y-6.2133
G01 F50.00
G01 Z-0.2000
G01 F50.00
G01 X38.3777 Y-2.5624
G01 X38.3753 Y-2.5135
G01 X38.3681 Y-2.4650
G01 X38.3562 Y-2.4175
G01 X38.3397 Y-2.3714
G01 X38.3188 Y-2.3271
G01 X38.2936 Y-2.2851
G01 X38.2644 Y-2.2458
G01 X38.2315 Y-2.2095
G01 X37.2315 Y-1.2095
G01 X37.1952 Y-1.1766
G01 X37.1559 Y-1.1474
G01 X37.1139 Y-1.1222
G01 X37.0696 Y-1.1013
G01 X37.0235 Y-1.0848
G01 X36.9760 Y-1.0729
G01 X36.9275 Y-1.0657
G01 X36.8786 Y-1.0633
G01 X2.3786 Y-1.0633
G01 X2.3297 Y-1.0657
G01 X2.2812 Y-1.0729
G01 X2.2337 Y-1.0848
G01 X2.1876 Y-1.1013
G01 X2.1433 Y-1.1222
G01 X2.1013 Y-1.1474
G01 X2.0620 Y-1.1766
G01 X2.0257 Y-1.2095
G01 X1.0257 Y-2.2095
G01 X0.9928 Y-2.2458
G01 X0.9636 Y-2.2851
G01 X0.9384 Y-2.3271
G01 X0.9175 Y-2.3714
G01 X0.9010 Y-2.4175
G01 X0.8891 Y-2.4650
G01 X0.8819 Y-2.5135
G01 X0.8795 Y-2.5624
G01 X0.8795 Y-6.2133
G00 X0.8795 Y-6.2133
G01 F50.00
G01 Z-0.2500
G01 F50.00
G01 X0.8795 Y-2.5624
G01 X0.8819 Y-2.5135
G01 X0.8891 Y-2.4650
G01 X0.9010 Y-2.4175
G01 X0.9175 Y-2.3714
G01 X0.9384 Y-2.3271
G01 X0.9636 Y-2.2851
G01 X0.9928 Y-2.2458
G01 X1.0257 Y-2.2095
G01 X2.0257 Y-1.2095
G01 X2.0620 Y-1.1766
G01 X2.1013 Y-1.1474
G01 X2.1433 Y-1.1222
G01 X2.1876 Y-1.1013
G01 X2.2337 Y-1.0848
G01 X2.2812 Y-1.0729
G01 X2.3297 Y-1.0657
G01 X2.3786 Y-1.0633
G01 X36.8786 Y-1.0633
G01 X36.9275 Y-1.0657
G01 X36.9760 Y-1.0729
G01 X37.0235 Y-1.0848
G01 X37.0696 Y-1.1013
G01 X37.1139 Y-1.1222
G01 X37.1559 Y-1.1474
G01 X37.1952 Y-1.1766
G01 X37.2315 Y-1.2095
G01 X38.2315 Y-2.2095
G01 X38.2644 Y-2.2458
G01 X38.2936 Y-2.2851
G01 X38.3188 Y-2.3271
G01 X38.3397 Y-2.3714
G01 X38.3562 Y-2.4175
G01 X38.3681 Y-2.4650
G01 X38.3753 Y-2.5135
G01 X38.3777 Y-2.5624
G01 X38.3777 Y-6.2133
G00 X38.3777 Y-6.2133
G01 F50.00
G01 Z-0.3000
G01 F50.00
G01 X38.3777 Y-2.5624
G01 X38.3753 Y-2.5135
G01 X38.3681 Y-2.4650
G01 X38.3562 Y-2.4175
G01 X38.3397 Y-2.3714
G01 X38.3188 Y-2.3271
G01 X38.2936 Y-2.2851
G01 X38.2644 Y-2.2458
G01 X38.2315 Y-2.2095
G01 X37.2315 Y-1.2095
G01 X37.1952 Y-1.1766
G01 X37.1559 Y-1.1474
G01 X37.1139 Y-1.1222
G01 X37.0696 Y-1.1013
G01 X37.0235 Y-1.0848
G01 X36.9760 Y-1.0729
G01 X36.9275 Y-1.0657
G01 X36.8786 Y-1.0633
G01 X2.3786 Y-1.0633
G01 X2.3297 Y-1.0657
G01 X2.2812 Y-1.0729
G01 X2.2337 Y-1.0848
G01 X2.1876 Y-1.1013
G01 X2.1433 Y-1.1222
G01 X2.1013 Y-1.1474
G01 X2.0620 Y-1.1766
G01 X2.0257 Y-1.2095
G01 X1.0257 Y-2.2095
G01 X0.9928 Y-2.2458
G01 X0.9636 Y-2.2851
G01 X0.9384 Y-2.3271
G01 X0.9175 Y-2.3714
G01 X0.9010 Y-2.4175
G01 X0.8891 Y-2.4650
G01 X0.8819 Y-2.5135
G01 X0.8795 Y-2.5624
G01 X0.8795 Y-6.2133
G00 X0.8795 Y-6.2133
G01 F50.00
G01 Z-0.3500
G01 F50.00
G01 X0.8795 Y-2.5624
G01 X0.8819 Y-2.5135
G01 X0.8891 Y-2.4650
G01 X0.9010 Y-2.4175
G01 X0.9175 Y-2.3714
G01 X0.9384 Y-2.3271
G01 X0.9636 Y-2.2851
G01 X0.9928 Y-2.2458
G01 X1.0257 Y-2.2095
G01 X2.0257 Y-1.2095
G01 X2.0620 Y-1.1766
G01 X2.1013 Y-1.1474
G01 X2.1433 Y-1.1222
G01 X2.1876 Y-1.1013
G01 X2.2337 Y-1.0848
G01 X2.2812 Y-1.0729
G01 X2.3297 Y-1.0657
G01 X2.3786 Y-1.0633
G01 X36.8786 Y-1.0633
G01 X36.9275 Y-1.0657
G01 X36.9760 Y-1.0729
G01 X37.0235 Y-1.0848
G01 X37.0696 Y-1.1013
G01 X37.1139 Y-1.1222
G01 X37.1559 Y-1.1474
G01 X37.1952 Y-1.1766
G01 X37.2315 Y-1.2095
G01 X38.2315 Y-2.2095
G01 X38.2644 Y-2.2458
G01 X38.2936 Y-2.2851
G01 X38.3188 Y-2.3271
G01 X38.3397 Y-2.3714
G01 X38.3562 Y-2.4175
G01 X38.3681 Y-2.4650
G01 X38.3753 Y-2.5135
G01 X38.3777 Y-2.5624
G01 X38.3777 Y-6.2133
G00 X38.3777 Y-6.2133
G01 F50.00
G01 Z-0.4000
G01 F50.00
G01 X38.3777 Y-2.5624
G01 X38.3753 Y-2.5135
G01 X38.3681 Y-2.4650
G01 X38.3562 Y-2.4175
G01 X38.3397 Y-2.3714
G01 X38.3188 Y-2.3271
G01 X38.2936 Y-2.2851
G01 X38.2644 Y-2.2458
G01 X38.2315 Y-2.2095
G01 X37.2315 Y-1.2095
G01 X37.1952 Y-1.1766
G01 X37.1559 Y-1.1474
G01 X37.1139 Y-1.1222
G01 X37.0696 Y-1.1013
G01 X37.0235 Y-1.0848
G01 X36.9760 Y-1.0729
G01 X36.9275 Y-1.0657
G01 X36.8786 Y-1.0633
G01 X2.3786 Y-1.0633
G01 X2.3297 Y-1.0657
G01 X2.2812 Y-1.0729
G01 X2.2337 Y-1.0848
G01 X2.1876 Y-1.1013
G01 X2.1433 Y-1.1222
G01 X2.1013 Y-1.1474
G01 X2.0620 Y-1.1766
G01 X2.0257 Y-1.2095
G01 X1.0257 Y-2.2095
G01 X0.9928 Y-2.2458
G01 X0.9636 Y-2.2851
G01 X0.9384 Y-2.3271
G01 X0.9175 Y-2.3714
G01 X0.9010 Y-2.4175
G01 X0.8891 Y-2.4650
G01 X0.8819 Y-2.5135
G01 X0.8795 Y-2.5624
G01 X0.8795 Y-6.2133
G00 X0.8795 Y-6.2133
G01 F50.00
G01 Z-0.4500
G01 F50.00
G01 X0.8795 Y-2.5624
G01 X0.8819 Y-2.5135
G01 X0.8891 Y-2.4650
G01 X0.9010 Y-2.4175
G01 X0.9175 Y-2.3714
G01 X0.9384 Y-2.3271
G01 X0.9636 Y-2.2851
G01 X0.9928 Y-2.2458
G01 X1.0257 Y-2.2095
G01 X2.0257 Y-1.2095
G01 X2.0620 Y-1.1766
G01 X2.1013 Y-1.1474
G01 X2.1433 Y-1.1222
G01 X2.1876 Y-1.1013
G01 X2.2337 Y-1.0848
G01 X2.2812 Y-1.0729
G01 X2.3297 Y-1.0657
G01 X2.3786 Y-1.0633
G01 X36.8786 Y-1.0633
G01 X36.9275 Y-1.0657
G01 X36.9760 Y-1.0729
G01 X37.0235 Y-1.0848
G01 X37.0696 Y-1.1013
G01 X37.1139 Y-1.1222
G01 X37.1559 Y-1.1474
G01 X37.1952 Y-1.1766
G01 X37.2315 Y-1.2095
G01 X38.2315 Y-2.2095
G01 X38.2644 Y-2.2458
G01 X38.2936 Y-2.2851
G01 X38.3188 Y-2.3271
G01 X38.3397 Y-2.3714
G01 X38.3562 Y-2.4175
G01 X38.3681 Y-2.4650
G01 X38.3753 Y-2.5135
G01 X38.3777 Y-2.5624
G01 X38.3777 Y-6.2133
G00 X38.3777 Y-6.2133
G01 F50.00
G01 Z-0.5000
G01 F50.00
G01 X38.3777 Y-2.5624
G01 X38.3753 Y-2.5135
G01 X38.3681 Y-2.4650
G01 X38.3562 Y-2.4175
G01 X38.3397 Y-2.3714
G01 X38.3188 Y-2.3271
G01 X38.2936 Y-2.2851
G01 X38.2644 Y-2.2458
G01 X38.2315 Y-2.2095
G01 X37.2315 Y-1.2095
G01 X37.1952 Y-1.1766
G01 X37.1559 Y-1.1474
G01 X37.1139 Y-1.1222
G01 X37.0696 Y-1.1013
G01 X37.0235 Y-1.0848
G01 X36.9760 Y-1.0729
G01 X36.9275 Y-1.0657
G01 X36.8786 Y-1.0633
G01 X2.3786 Y-1.0633
G01 X2.3297 Y-1.0657
G01 X2.2812 Y-1.0729
G01 X2.2337 Y-1.0848
G01 X2.1876 Y-1.1013
G01 X2.1433 Y-1.1222
G01 X2.1013 Y-1.1474
G01 X2.0620 Y-1.1766
G01 X2.0257 Y-1.2095
G01 X1.0257 Y-2.2095
G01 X0.9928 Y-2.2458
G01 X0.9636 Y-2.2851
G01 X0.9384 Y-2.3271
G01 X0.9175 Y-2.3714
G01 X0.9010 Y-2.4175
G01 X0.8891 Y-2.4650
G01 X0.8819 Y-2.5135
G01 X0.8795 Y-2.5624
G01 X0.8795 Y-6.2133
G00 X0.8795 Y-6.2133
G01 F50.00
G01 Z-0.5500
G01 F50.00
G01 X0.8795 Y-2.5624
G01 X0.8819 Y-2.5135
G01 X0.8891 Y-2.4650
G01 X0.9010 Y-2.4175
G01 X0.9175 Y-2.3714
G01 X0.9384 Y-2.3271
G01 X0.9636 Y-2.2851
G01 X0.9928 Y-2.2458
G01 X1.0257 Y-2.2095
G01 X2.0257 Y-1.2095
G01 X2.0620 Y-1.1766
G01 X2.1013 Y-1.1474
G01 X2.1433 Y-1.1222
G01 X2.1876 Y-1.1013
G01 X2.2337 Y-1.0848
G01 X2.2812 Y-1.0729
G01 X2.3297 Y-1.0657
G01 X2.3786 Y-1.0633
G01 X36.8786 Y-1.0633
G01 X36.9275 Y-1.0657
G01 X36.9760 Y-1.0729
G01 X37.0235 Y-1.0848
G01 X37.0696 Y-1.1013
G01 X37.1139 Y-1.1222
G01 X37.1559 Y-1.1474
G01 X37.1952 Y-1.1766
G01 X37.2315 Y-1.2095
G01 X38.2315 Y-2.2095
G01 X38.2644 Y-2.2458
G01 X38.2936 Y-2.2851
G01 X38.3188 Y-2.3271
G01 X38.3397 Y-2.3714
G01 X38.3562 Y-2.4175
G01 X38.3681 Y-2.4650
G01 X38.3753 Y-2.5135
G01 X38.3777 Y-2.5624
G01 X38.3777 Y-6.2133
G00 X38.3777 Y-6.2133
G01 F50.00
G01 Z-0.6000
G01 F50.00
G01 X38.3777 Y-2.5624
G01 X38.3753 Y-2.5135
G01 X38.3681 Y-2.4650
G01 X38.3562 Y-2.4175
G01 X38.3397 Y-2.3714
G01 X38.3188 Y-2.3271
G01 X38.2936 Y-2.2851
G01 X38.2644 Y-2.2458
G01 X38.2315 Y-2.2095
G01 X37.2315 Y-1.2095
G01 X37.1952 Y-1.1766
G01 X37.1559 Y-1.1474
G01 X37.1139 Y-1.1222
G01 X37.0696 Y-1.1013
G01 X37.0235 Y-1.0848
G01 X36.9760 Y-1.0729
G01 X36.9275 Y-1.0657
G01 X36.8786 Y-1.0633
G01 X2.3786 Y-1.0633
G01 X2.3297 Y-1.0657
G01 X2.2812 Y-1.0729
G01 X2.2337 Y-1.0848
G01 X2.1876 Y-1.1013
G01 X2.1433 Y-1.1222
G01 X2.1013 Y-1.1474
G01 X2.0620 Y-1.1766
G01 X2.0257 Y-1.2095
G01 X1.0257 Y-2.2095
G01 X0.9928 Y-2.2458
G01 X0.9636 Y-2.2851
G01 X0.9384 Y-2.3271
G01 X0.9175 Y-2.3714
G01 X0.9010 Y-2.4175
G01 X0.8891 Y-2.4650
G01 X0.8819 Y-2.5135
G01 X0.8795 Y-2.5624
G01 X0.8795 Y-6.2133
G00 X0.8795 Y-6.2133
G01 F50.00
G01 Z-0.6500
G01 F50.00
G01 X0.8795 Y-2.5624
G01 X0.8819 Y-2.5135
G01 X0.8891 Y-2.4650
G01 X0.9010 Y-2.4175
G01 X0.9175 Y-2.3714
G01 X0.9384 Y-2.3271
G01 X0.9636 Y-2.2851
G01 X0.9928 Y-2.2458
G01 X1.0257 Y-2.2095
G01 X2.0257 Y-1.2095
G01 X2.0620 Y-1.1766
G01 X2.1013 Y-1.1474
G01 X2.1433 Y-1.1222
G01 X2.1876 Y-1.1013
G01 X2.2337 Y-1.0848
G01 X2.2812 Y-1.0729
G01 X2.3297 Y-1.0657
G01 X2.3786 Y-1.0633
G01 X36.8786 Y-1.0633
G01 X36.9275 Y-1.0657
G01 X36.9760 Y-1.0729
G01 X37.0235 Y-1.0848
G01 X37.0696 Y-1.1013
G01 X37.1139 Y-1.1222
G01 X37.1559 Y-1.1474
G01 X37.1952 Y-1.1766
G01 X37.2315 Y-1.2095
G01 X38.2315 Y-2.2095
G01 X38.2644 Y-2.2458
G01 X38.2936 Y-2.2851
G01 X38.3188 Y-2.3271
G01 X38.3397 Y-2.3714
G01 X38.3562 Y-2.4175
G01 X38.3681 Y-2.4650
G01 X38.3753 Y-2.5135
G01 X38.3777 Y-2.5624
G01 X38.3777 Y-6.2133
G00 X38.3777 Y-6.2133
G01 F50.00
G01 Z-0.7000
G01 F50.00
G01 X38.3777 Y-2.5624
G01 X38.3753 Y-2.5135
G01 X38.3681 Y-2.4650
G01 X38.3562 Y-2.4175
G01 X38.3397 Y-2.3714
G01 X38.3188 Y-2.3271
G01 X38.2936 Y-2.2851
G01 X38.2644 Y-2.2458
G01 X38.2315 Y-2.2095
G01 X37.2315 Y-1.2095
G01 X37.1952 Y-1.1766
G01 X37.1559 Y-1.1474
G01 X37.1139 Y-1.1222
G01 X37.0696 Y-1.1013
G01 X37.0235 Y-1.0848
G01 X36.9760 Y-1.0729
G01 X36.9275 Y-1.0657
G01 X36.8786 Y-1.0633
G01 X2.3786 Y-1.0633
G01 X2.3297 Y-1.0657
G01 X2.2812 Y-1.0729
G01 X2.2337 Y-1.0848
G01 X2.1876 Y-1.1013
G01 X2.1433 Y-1.1222
G01 X2.1013 Y-1.1474
G01 X2.0620 Y-1.1766
G01 X2.0257 Y-1.2095
G01 X1.0257 Y-2.2095
G01 X0.9928 Y-2.2458
G01 X0.9636 Y-2.2851
G01 X0.9384 Y-2.3271
G01 X0.9175 Y-2.3714
G01 X0.9010 Y-2.4175
G01 X0.8891 Y-2.4650
G01 X0.8819 Y-2.5135
G01 X0.8795 Y-2.5624
G01 X0.8795 Y-6.2133
G00 X0.8795 Y-6.2133
G01 F50.00
G01 Z-0.7500
G01 F50.00
G01 X0.8795 Y-2.5624
G01 X0.8819 Y-2.5135
G01 X0.8891 Y-2.4650
G01 X0.9010 Y-2.4175
G01 X0.9175 Y-2.3714
G01 X0.9384 Y-2.3271
G01 X0.9636 Y-2.2851
G01 X0.9928 Y-2.2458
G01 X1.0257 Y-2.2095
G01 X2.0257 Y-1.2095
G01 X2.0620 Y-1.1766
G01 X2.1013 Y-1.1474
G01 X2.1433 Y-1.1222
G01 X2.1876 Y-1.1013
G01 X2.2337 Y-1.0848
G01 X2.2812 Y-1.0729
G01 X2.3297 Y-1.0657
G01 X2.3786 Y-1.0633
G01 X36.8786 Y-1.0633
G01 X36.9275 Y-1.0657
G01 X36.9760 Y-1.0729
G01 X37.0235 Y-1.0848
G01 X37.0696 Y-1.1013
G01 X37.1139 Y-1.1222
G01 X37.1559 Y-1.1474
G01 X37.1952 Y-1.1766
G01 X37.2315 Y-1.2095
G01 X38.2315 Y-2.2095
G01 X38.2644 Y-2.2458
G01 X38.2936 Y-2.2851
G01 X38.3188 Y-2.3271
G01 X38.3397 Y-2.3714
G01 X38.3562 Y-2.4175
G01 X38.3681 Y-2.4650
G01 X38.3753 Y-2.5135
G01 X38.3777 Y-2.5624
G01 X38.3777 Y-6.2133
G00 X38.3777 Y-6.2133
G01 F50.00
G01 Z-0.8000
G01 F50.00
G01 X38.3777 Y-2.5624
G01 X38.3753 Y-2.5135
G01 X38.3681 Y-2.4650
G01 X38.3562 Y-2.4175
G01 X38.3397 Y-2.3714
G01 X38.3188 Y-2.3271
G01 X38.2936 Y-2.2851
G01 X38.2644 Y-2.2458
G01 X38.2315 Y-2.2095
G01 X37.2315 Y-1.2095
G01 X37.1952 Y-1.1766
G01 X37.1559 Y-1.1474
G01 X37.1139 Y-1.1222
G01 X37.0696 Y-1.1013
G01 X37.0235 Y-1.0848
G01 X36.9760 Y-1.0729
G01 X36.9275 Y-1.0657
G01 X36.8786 Y-1.0633
G01 X2.3786 Y-1.0633
G01 X2.3297 Y-1.0657
G01 X2.2812 Y-1.0729
G01 X2.2337 Y-1.0848
G01 X2.1876 Y-1.1013
G01 X2.1433 Y-1.1222
G01 X2.1013 Y-1.1474
G01 X2.0620 Y-1.1766
G01 X2.0257 Y-1.2095
G01 X1.0257 Y-2.2095
G01 X0.9928 Y-2.2458
G01 X0.9636 Y-2.2851
G01 X0.9384 Y-2.3271
G01 X0.9175 Y-2.3714
G01 X0.9010 Y-2.4175
G01 X0.8891 Y-2.4650
G01 X0.8819 Y-2.5135
G01 X0.8795 Y-2.5624
G01 X0.8795 Y-6.2133
G00 X0.8795 Y-6.2133
G01 F50.00
G01 Z-0.8500
G01 F50.00
G01 X0.8795 Y-2.5624
G01 X0.8819 Y-2.5135
G01 X0.8891 Y-2.4650
G01 X0.9010 Y-2.4175
G01 X0.9175 Y-2.3714
G01 X0.9384 Y-2.3271
G01 X0.9636 Y-2.2851
G01 X0.9928 Y-2.2458
G01 X1.0257 Y-2.2095
G01 X2.0257 Y-1.2095
G01 X2.0620 Y-1.1766
G01 X2.1013 Y-1.1474
G01 X2.1433 Y-1.1222
G01 X2.1876 Y-1.1013
G01 X2.2337 Y-1.0848
G01 X2.2812 Y-1.0729
G01 X2.3297 Y-1.0657
G01 X2.3786 Y-1.0633
G01 X36.8786 Y-1.0633
G01 X36.9275 Y-1.0657
G01 X36.9760 Y-1.0729
G01 X37.0235 Y-1.0848
G01 X37.0696 Y-1.1013
G01 X37.1139 Y-1.1222
G01 X37.1559 Y-1.1474
G01 X37.1952 Y-1.1766
G01 X37.2315 Y-1.2095
G01 X38.2315 Y-2.2095
G01 X38.2644 Y-2.2458
G01 X38.2936 Y-2.2851
G01 X38.3188 Y-2.3271
G01 X38.3397 Y-2.3714
G01 X38.3562 Y-2.4175
G01 X38.3681 Y-2.4650
G01 X38.3753 Y-2.5135
G01 X38.3777 Y-2.5624
G01 X38.3777 Y-6.2133
G00 X38.3777 Y-6.2133
G01 F50.00
G01 Z-0.9000
G01 F50.00
G01 X38.3777 Y-2.5624
G01 X38.3753 Y-2.5135
G01 X38.3681 Y-2.4650
G01 X38.3562 Y-2.4175
G01 X38.3397 Y-2.3714
G01 X38.3188 Y-2.3271
G01 X38.2936 Y-2.2851
G01 X38.2644 Y-2.2458
G01 X38.2315 Y-2.2095
G01 X37.2315 Y-1.2095
G01 X37.1952 Y-1.1766
G01 X37.1559 Y-1.1474
G01 X37.1139 Y-1.1222
G01 X37.0696 Y-1.1013
G01 X37.0235 Y-1.0848
G01 X36.9760 Y-1.0729
G01 X36.9275 Y-1.0657
G01 X36.8786 Y-1.0633
G01 X2.3786 Y-1.0633
G01 X2.3297 Y-1.0657
G01 X2.2812 Y-1.0729
G01 X2.2337 Y-1.0848
G01 X2.1876 Y-1.1013
G01 X2.1433 Y-1.1222
G01 X2.1013 Y-1.1474
G01 X2.0620 Y-1.1766
G01 X2.0257 Y-1.2095
G01 X1.0257 Y-2.2095
G01 X0.9928 Y-2.2458
G01 X0.9636 Y-2.2851
G01 X0.9384 Y-2.3271
G01 X0.9175 Y-2.3714
G01 X0.9010 Y-2.4175
G01 X0.8891 Y-2.4650
G01 X0.8819 Y-2.5135
G01 X0.8795 Y-2.5624
G01 X0.8795 Y-6.2133
G00 X0.8795 Y-6.2133
G01 F50.00
G01 Z-0.9500
G01 F50.00
G01 X0.8795 Y-2.5624
G01 X0.8819 Y-2.5135
G01 X0.8891 Y-2.4650
G01 X0.9010 Y-2.4175
G01 X0.9175 Y-2.3714
G01 X0.9384 Y-2.3271
G01 X0.9636 Y-2.2851
G01 X0.9928 Y-2.2458
G01 X1.0257 Y-2.2095
G01 X2.0257 Y-1.2095
G01 X2.0620 Y-1.1766
G01 X2.1013 Y-1.1474
G01 X2.1433 Y-1.1222
G01 X2.1876 Y-1.1013
G01 X2.2337 Y-1.0848
G01 X2.2812 Y-1.0729
G01 X2.3297 Y-1.0657
G01 X2.3786 Y-1.0633
G01 X36.8786 Y-1.0633
G01 X36.9275 Y-1.0657
G01 X36.9760 Y-1.0729
G01 X37.0235 Y-1.0848
G01 X37.0696 Y-1.1013
G01 X37.1139 Y-1.1222
G01 X37.1559 Y-1.1474
G01 X37.1952 Y-1.1766
G01 X37.2315 Y-1.2095
G01 X38.2315 Y-2.2095
G01 X38.2644 Y-2.2458
G01 X38.2936 Y-2.2851
G01 X38.3188 Y-2.3271
G01 X38.3397 Y-2.3714
G01 X38.3562 Y-2.4175
G01 X38.3681 Y-2.4650
G01 X38.3753 Y-2.5135
G01 X38.3777 Y-2.5624
G01 X38.3777 Y-6.2133
G00 X38.3777 Y-6.2133
G01 F50.00
G01 Z-1.0000
G01 F50.00
G01 X38.3777 Y-2.5624
G01 X38.3753 Y-2.5135
G01 X38.3681 Y-2.4650
G01 X38.3562 Y-2.4175
G01 X38.3397 Y-2.3714
G01 X38.3188 Y-2.3271
G01 X38.2936 Y-2.2851
G01 X38.2644 Y-2.2458
G01 X38.2315 Y-2.2095
G01 X37.2315 Y-1.2095
G01 X37.1952 Y-1.1766
G01 X37.1559 Y-1.1474
G01 X37.1139 Y-1.1222
G01 X37.0696 Y-1.1013
G01 X37.0235 Y-1.0848
G01 X36.9760 Y-1.0729
G01 X36.9275 Y-1.0657
G01 X36.8786 Y-1.0633
G01 X2.3786 Y-1.0633
G01 X2.3297 Y-1.0657
G01 X2.2812 Y-1.0729
G01 X2.2337 Y-1.0848
G01 X2.1876 Y-1.1013
G01 X2.1433 Y-1.1222
G01 X2.1013 Y-1.1474
G01 X2.0620 Y-1.1766
G01 X2.0257 Y-1.2095
G01 X1.0257 Y-2.2095
G01 X0.9928 Y-2.2458
G01 X0.9636 Y-2.2851
G01 X0.9384 Y-2.3271
G01 X0.9175 Y-2.3714
G01 X0.9010 Y-2.4175
G01 X0.8891 Y-2.4650
G01 X0.8819 Y-2.5135
G01 X0.8795 Y-2.5624
G01 X0.8795 Y-6.2133
G00 X0.8795 Y-6.2133
G01 F50.00
G01 Z-1.0500
G01 F50.00
G01 X0.8795 Y-2.5624
G01 X0.8819 Y-2.5135
G01 X0.8891 Y-2.4650
G01 X0.9010 Y-2.4175
G01 X0.9175 Y-2.3714
G01 X0.9384 Y-2.3271
G01 X0.9636 Y-2.2851
G01 X0.9928 Y-2.2458
G01 X1.0257 Y-2.2095
G01 X2.0257 Y-1.2095
G01 X2.0620 Y-1.1766
G01 X2.1013 Y-1.1474
G01 X2.1433 Y-1.1222
G01 X2.1876 Y-1.1013
G01 X2.2337 Y-1.0848
G01 X2.2812 Y-1.0729
G01 X2.3297 Y-1.0657
G01 X2.3786 Y-1.0633
G01 X36.8786 Y-1.0633
G01 X36.9275 Y-1.0657
G01 X36.9760 Y-1.0729
G01 X37.0235 Y-1.0848
G01 X37.0696 Y-1.1013
G01 X37.1139 Y-1.1222
G01 X37.1559 Y-1.1474
G01 X37.1952 Y-1.1766
G01 X37.2315 Y-1.2095
G01 X38.2315 Y-2.2095
G01 X38.2644 Y-2.2458
G01 X38.2936 Y-2.2851
G01 X38.3188 Y-2.3271
G01 X38.3397 Y-2.3714
G01 X38.3562 Y-2.4175
G01 X38.3681 Y-2.4650
G01 X38.3753 Y-2.5135
G01 X38.3777 Y-2.5624
G01 X38.3777 Y-6.2133
G00 X38.3777 Y-6.2133
G01 F50.00
G01 Z-1.1000
G01 F50.00
G01 X38.3777 Y-2.5624
G01 X38.3753 Y-2.5135
G01 X38.3681 Y-2.4650
G01 X38.3562 Y-2.4175
G01 X38.3397 Y-2.3714
G01 X38.3188 Y-2.3271
G01 X38.2936 Y-2.2851
G01 X38.2644 Y-2.2458
G01 X38.2315 Y-2.2095
G01 X37.2315 Y-1.2095
G01 X37.1952 Y-1.1766
G01 X37.1559 Y-1.1474
G01 X37.1139 Y-1.1222
G01 X37.0696 Y-1.1013
G01 X37.0235 Y-1.0848
G01 X36.9760 Y-1.0729
G01 X36.9275 Y-1.0657
G01 X36.8786 Y-1.0633
G01 X2.3786 Y-1.0633
G01 X2.3297 Y-1.0657
G01 X2.2812 Y-1.0729
G01 X2.2337 Y-1.0848
G01 X2.1876 Y-1.1013
G01 X2.1433 Y-1.1222
G01 X2.1013 Y-1.1474
G01 X2.0620 Y-1.1766
G01 X2.0257 Y-1.2095
G01 X1.0257 Y-2.2095
G01 X0.9928 Y-2.2458
G01 X0.9636 Y-2.2851
G01 X0.9384 Y-2.3271
G01 X0.9175 Y-2.3714
G01 X0.9010 Y-2.4175
G01 X0.8891 Y-2.4650
G01 X0.8819 Y-2.5135
G01 X0.8795 Y-2.5624
G01 X0.8795 Y-6.2133
G00 X0.8795 Y-6.2133
G01 F50.00
G01 Z-1.1500
G01 F50.00
G01 X0.8795 Y-2.5624
G01 X0.8819 Y-2.5135
G01 X0.8891 Y-2.4650
G01 X0.9010 Y-2.4175
G01 X0.9175 Y-2.3714
G01 X0.9384 Y-2.3271
G01 X0.9636 Y-2.2851
G01 X0.9928 Y-2.2458
G01 X1.0257 Y-2.2095
G01 X2.0257 Y-1.2095
G01 X2.0620 Y-1.1766
G01 X2.1013 Y-1.1474
G01 X2.1433 Y-1.1222
G01 X2.1876 Y-1.1013
G01 X2.2337 Y-1.0848
G01 X2.2812 Y-1.0729
G01 X2.3297 Y-1.0657
G01 X2.3786 Y-1.0633
G01 X36.8786 Y-1.0633
G01 X36.9275 Y-1.0657
G01 X36.9760 Y-1.0729
G01 X37.0235 Y-1.0848
G01 X37.0696 Y-1.1013
G01 X37.1139 Y-1.1222
G01 X37.1559 Y-1.1474
G01 X37.1952 Y-1.1766
G01 X37.2315 Y-1.2095
G01 X38.2315 Y-2.2095
G01 X38.2644 Y-2.2458
G01 X38.2936 Y-2.2851
G01 X38.3188 Y-2.3271
G01 X38.3397 Y-2.3714
G01 X38.3562 Y-2.4175
G01 X38.3681 Y-2.4650
G01 X38.3753 Y-2.5135
G01 X38.3777 Y-2.5624
G01 X38.3777 Y-6.2133
G00 X38.3777 Y-6.2133
G01 F50.00
G01 Z-1.2000
G01 F50.00
G01 X38.3777 Y-2.5624
G01 X38.3753 Y-2.5135
G01 X38.3681 Y-2.4650
G01 X38.3562 Y-2.4175
G01 X38.3397 Y-2.3714
G01 X38.3188 Y-2.3271
G01 X38.2936 Y-2.2851
G01 X38.2644 Y-2.2458
G01 X38.2315 Y-2.2095
G01 X37.2315 Y-1.2095
G01 X37.1952 Y-1.1766
G01 X37.1559 Y-1.1474
G01 X37.1139 Y-1.1222
G01 X37.0696 Y-1.1013
G01 X37.0235 Y-1.0848
G01 X36.9760 Y-1.0729
G01 X36.9275 Y-1.0657
G01 X36.8786 Y-1.0633
G01 X2.3786 Y-1.0633
G01 X2.3297 Y-1.0657
G01 X2.2812 Y-1.0729
G01 X2.2337 Y-1.0848
G01 X2.1876 Y-1.1013
G01 X2.1433 Y-1.1222
G01 X2.1013 Y-1.1474
G01 X2.0620 Y-1.1766
G01 X2.0257 Y-1.2095
G01 X1.0257 Y-2.2095
G01 X0.9928 Y-2.2458
G01 X0.9636 Y-2.2851
G01 X0.9384 Y-2.3271
G01 X0.9175 Y-2.3714
G01 X0.9010 Y-2.4175
G01 X0.8891 Y-2.4650
G01 X0.8819 Y-2.5135
G01 X0.8795 Y-2.5624
G01 X0.8795 Y-6.2133
G00 X0.8795 Y-6.2133
G01 F50.00
G01 Z-1.2500
G01 F50.00
G01 X0.8795 Y-2.5624
G01 X0.8819 Y-2.5135
G01 X0.8891 Y-2.4650
G01 X0.9010 Y-2.4175
G01 X0.9175 Y-2.3714
G01 X0.9384 Y-2.3271
G01 X0.9636 Y-2.2851
G01 X0.9928 Y-2.2458
G01 X1.0257 Y-2.2095
G01 X2.0257 Y-1.2095
G01 X2.0620 Y-1.1766
G01 X2.1013 Y-1.1474
G01 X2.1433 Y-1.1222
G01 X2.1876 Y-1.1013
G01 X2.2337 Y-1.0848
G01 X2.2812 Y-1.0729
G01 X2.3297 Y-1.0657
G01 X2.3786 Y-1.0633
G01 X36.8786 Y-1.0633
G01 X36.9275 Y-1.0657
G01 X36.9760 Y-1.0729
G01 X37.0235 Y-1.0848
G01 X37.0696 Y-1.1013
G01 X37.1139 Y-1.1222
G01 X37.1559 Y-1.1474
G01 X37.1952 Y-1.1766
G01 X37.2315 Y-1.2095
G01 X38.2315 Y-2.2095
G01 X38.2644 Y-2.2458
G01 X38.2936 Y-2.2851
G01 X38.3188 Y-2.3271
G01 X38.3397 Y-2.3714
G01 X38.3562 Y-2.4175
G01 X38.3681 Y-2.4650
G01 X38.3753 Y-2.5135
G01 X38.3777 Y-2.5624
G01 X38.3777 Y-6.2133
G00 X38.3777 Y-6.2133
G01 F50.00
G01 Z-1.3000
G01 F50.00
G01 X38.3777 Y-2.5624
G01 X38.3753 Y-2.5135
G01 X38.3681 Y-2.4650
G01 X38.3562 Y-2.4175
G01 X38.3397 Y-2.3714
G01 X38.3188 Y-2.3271
G01 X38.2936 Y-2.2851
G01 X38.2644 Y-2.2458
G01 X38.2315 Y-2.2095
G01 X37.2315 Y-1.2095
G01 X37.1952 Y-1.1766
G01 X37.1559 Y-1.1474
G01 X37.1139 Y-1.1222
G01 X37.0696 Y-1.1013
G01 X37.0235 Y-1.0848
G01 X36.9760 Y-1.0729
G01 X36.9275 Y-1.0657
G01 X36.8786 Y-1.0633
G01 X2.3786 Y-1.0633
G01 X2.3297 Y-1.0657
G01 X2.2812 Y-1.0729
G01 X2.2337 Y-1.0848
G01 X2.1876 Y-1.1013
G01 X2.1433 Y-1.1222
G01 X2.1013 Y-1.1474
G01 X2.0620 Y-1.1766
G01 X2.0257 Y-1.2095
G01 X1.0257 Y-2.2095
G01 X0.9928 Y-2.2458
G01 X0.9636 Y-2.2851
G01 X0.9384 Y-2.3271
G01 X0.9175 Y-2.3714
G01 X0.9010 Y-2.4175
G01 X0.8891 Y-2.4650
G01 X0.8819 Y-2.5135
G01 X0.8795 Y-2.5624
G01 X0.8795 Y-6.2133
G00 X0.8795 Y-6.2133
G01 F50.00
G01 Z-1.3500
G01 F50.00
G01 X0.8795 Y-2.5624
G01 X0.8819 Y-2.5135
G01 X0.8891 Y-2.4650
G01 X0.9010 Y-2.4175
G01 X0.9175 Y-2.3714
G01 X0.9384 Y-2.3271
G01 X0.9636 Y-2.2851
G01 X0.9928 Y-2.2458
G01 X1.0257 Y-2.2095
G01 X2.0257 Y-1.2095
G01 X2.0620 Y-1.1766
G01 X2.1013 Y-1.1474
G01 X2.1433 Y-1.1222
G01 X2.1876 Y-1.1013
G01 X2.2337 Y-1.0848
G01 X2.2812 Y-1.0729
G01 X2.3297 Y-1.0657
G01 X2.3786 Y-1.0633
G01 X36.8786 Y-1.0633
G01 X36.9275 Y-1.0657
G01 X36.9760 Y-1.0729
G01 X37.0235 Y-1.0848
G01 X37.0696 Y-1.1013
G01 X37.1139 Y-1.1222
G01 X37.1559 Y-1.1474
G01 X37.1952 Y-1.1766
G01 X37.2315 Y-1.2095
G01 X38.2315 Y-2.2095
G01 X38.2644 Y-2.2458
G01 X38.2936 Y-2.2851
G01 X38.3188 Y-2.3271
G01 X38.3397 Y-2.3714
G01 X38.3562 Y-2.4175
G01 X38.3681 Y-2.4650
G01 X38.3753 Y-2.5135
G01 X38.3777 Y-2.5624
G01 X38.3777 Y-6.2133
G00 X38.3777 Y-6.2133
G01 F50.00
G01 Z-1.4000
G01 F50.00
G01 X38.3777 Y-2.5624
G01 X38.3753 Y-2.5135
G01 X38.3681 Y-2.4650
G01 X38.3562 Y-2.4175
G01 X38.3397 Y-2.3714
G01 X38.3188 Y-2.3271
G01 X38.2936 Y-2.2851
G01 X38.2644 Y-2.2458
G01 X38.2315 Y-2.2095
G01 X37.2315 Y-1.2095
G01 X37.1952 Y-1.1766
G01 X37.1559 Y-1.1474
G01 X37.1139 Y-1.1222
G01 X37.0696 Y-1.1013
G01 X37.0235 Y-1.0848
G01 X36.9760 Y-1.0729
G01 X36.9275 Y-1.0657
G01 X36.8786 Y-1.0633
G01 X2.3786 Y-1.0633
G01 X2.3297 Y-1.0657
G01 X2.2812 Y-1.0729
G01 X2.2337 Y-1.0848
G01 X2.1876 Y-1.1013
G01 X2.1433 Y-1.1222
G01 X2.1013 Y-1.1474
G01 X2.0620 Y-1.1766
G01 X2.0257 Y-1.2095
G01 X1.0257 Y-2.2095
G01 X0.9928 Y-2.2458
G01 X0.9636 Y-2.2851
G01 X0.9384 Y-2.3271
G01 X0.9175 Y-2.3714
G01 X0.9010 Y-2.4175
G01 X0.8891 Y-2.4650
G01 X0.8819 Y-2.5135
G01 X0.8795 Y-2.5624
G01 X0.8795 Y-6.2133
G00 X0.8795 Y-6.2133
G01 F50.00
G01 Z-1.4500
G01 F50.00
G01 X0.8795 Y-2.5624
G01 X0.8819 Y-2.5135
G01 X0.8891 Y-2.4650
G01 X0.9010 Y-2.4175
G01 X0.9175 Y-2.3714
G01 X0.9384 Y-2.3271
G01 X0.9636 Y-2.2851
G01 X0.9928 Y-2.2458
G01 X1.0257 Y-2.2095
G01 X2.0257 Y-1.2095
G01 X2.0620 Y-1.1766
G01 X2.1013 Y-1.1474
G01 X2.1433 Y-1.1222
G01 X2.1876 Y-1.1013
G01 X2.2337 Y-1.0848
G01 X2.2812 Y-1.0729
G01 X2.3297 Y-1.0657
G01 X2.3786 Y-1.0633
G01 X36.8786 Y-1.0633
G01 X36.9275 Y-1.0657
G01 X36.9760 Y-1.0729
G01 X37.0235 Y-1.0848
G01 X37.0696 Y-1.1013
G01 X37.1139 Y-1.1222
G01 X37.1559 Y-1.1474
G01 X37.1952 Y-1.1766
G01 X37.2315 Y-1.2095
G01 X38.2315 Y-2.2095
G01 X38.2644 Y-2.2458
G01 X38.2936 Y-2.2851
G01 X38.3188 Y-2.3271
G01 X38.3397 Y-2.3714
G01 X38.3562 Y-2.4175
G01 X38.3681 Y-2.4650
G01 X38.3753 Y-2.5135
G01 X38.3777 Y-2.5624
G01 X38.3777 Y-6.2133
G00 X38.3777 Y-6.2133
G01 F50.00
G01 Z-1.5000
G01 F50.00
G01 X38.3777 Y-2.5624
G01 X38.3753 Y-2.5135
G01 X38.3681 Y-2.4650
G01 X38.3562 Y-2.4175
G01 X38.3397 Y-2.3714
G01 X38.3188 Y-2.3271
G01 X38.2936 Y-2.2851
G01 X38.2644 Y-2.2458
G01 X38.2315 Y-2.2095
G01 X37.2315 Y-1.2095
G01 X37.1952 Y-1.1766
G01 X37.1559 Y-1.1474
G01 X37.1139 Y-1.1222
G01 X37.0696 Y-1.1013
G01 X37.0235 Y-1.0848
G01 X36.9760 Y-1.0729
G01 X36.9275 Y-1.0657
G01 X36.8786 Y-1.0633
G01 X2.3786 Y-1.0633
G01 X2.3297 Y-1.0657
G01 X2.2812 Y-1.0729
G01 X2.2337 Y-1.0848
G01 X2.1876 Y-1.1013
G01 X2.1433 Y-1.1222
G01 X2.1013 Y-1.1474
G01 X2.0620 Y-1.1766
G01 X2.0257 Y-1.2095
G01 X1.0257 Y-2.2095
G01 X0.9928 Y-2.2458
G01 X0.9636 Y-2.2851
G01 X0.9384 Y-2.3271
G01 X0.9175 Y-2.3714
G01 X0.9010 Y-2.4175
G01 X0.8891 Y-2.4650
G01 X0.8819 Y-2.5135
G01 X0.8795 Y-2.5624
G01 X0.8795 Y-6.2133
G00 X0.8795 Y-6.2133
G01 F50.00
G01 Z-1.5500
G01 F50.00
G01 X0.8795 Y-2.5624
G01 X0.8819 Y-2.5135
G01 X0.8891 Y-2.4650
G01 X0.9010 Y-2.4175
G01 X0.9175 Y-2.3714
G01 X0.9384 Y-2.3271
G01 X0.9636 Y-2.2851
G01 X0.9928 Y-2.2458
G01 X1.0257 Y-2.2095
G01 X2.0257 Y-1.2095
G01 X2.0620 Y-1.1766
G01 X2.1013 Y-1.1474
G01 X2.1433 Y-1.1222
G01 X2.1876 Y-1.1013
G01 X2.2337 Y-1.0848
G01 X2.2812 Y-1.0729
G01 X2.3297 Y-1.0657
G01 X2.3786 Y-1.0633
G01 X36.8786 Y-1.0633
G01 X36.9275 Y-1.0657
G01 X36.9760 Y-1.0729
G01 X37.0235 Y-1.0848
G01 X37.0696 Y-1.1013
G01 X37.1139 Y-1.1222
G01 X37.1559 Y-1.1474
G01 X37.1952 Y-1.1766
G01 X37.2315 Y-1.2095
G01 X38.2315 Y-2.2095
G01 X38.2644 Y-2.2458
G01 X38.2936 Y-2.2851
G01 X38.3188 Y-2.3271
G01 X38.3397 Y-2.3714
G01 X38.3562 Y-2.4175
G01 X38.3681 Y-2.4650
G01 X38.3753 Y-2.5135
G01 X38.3777 Y-2.5624
G01 X38.3777 Y-6.2133
G00 X38.3777 Y-6.2133
G01 F50.00
G01 Z-1.6000
G01 F50.00
G01 X38.3777 Y-2.5624
G01 X38.3753 Y-2.5135
G01 X38.3681 Y-2.4650
G01 X38.3562 Y-2.4175
G01 X38.3397 Y-2.3714
G01 X38.3188 Y-2.3271
G01 X38.2936 Y-2.2851
G01 X38.2644 Y-2.2458
G01 X38.2315 Y-2.2095
G01 X37.2315 Y-1.2095
G01 X37.1952 Y-1.1766
G01 X37.1559 Y-1.1474
G01 X37.1139 Y-1.1222
G01 X37.0696 Y-1.1013
G01 X37.0235 Y-1.0848
G01 X36.9760 Y-1.0729
G01 X36.9275 Y-1.0657
G01 X36.8786 Y-1.0633
G01 X2.3786 Y-1.0633
G01 X2.3297 Y-1.0657
G01 X2.2812 Y-1.0729
G01 X2.2337 Y-1.0848
G01 X2.1876 Y-1.1013
G01 X2.1433 Y-1.1222
G01 X2.1013 Y-1.1474
G01 X2.0620 Y-1.1766
G01 X2.0257 Y-1.2095
G01 X1.0257 Y-2.2095
G01 X0.9928 Y-2.2458
G01 X0.9636 Y-2.2851
G01 X0.9384 Y-2.3271
G01 X0.9175 Y-2.3714
G01 X0.9010 Y-2.4175
G01 X0.8891 Y-2.4650
G01 X0.8819 Y-2.5135
G01 X0.8795 Y-2.5624
G01 X0.8795 Y-6.2133
G00 X0.8795 Y-6.2133
G01 F50.00
G01 Z-1.6500
G01 F50.00
G01 X0.8795 Y-2.5624
G01 X0.8819 Y-2.5135
G01 X0.8891 Y-2.4650
G01 X0.9010 Y-2.4175
G01 X0.9175 Y-2.3714
G01 X0.9384 Y-2.3271
G01 X0.9636 Y-2.2851
G01 X0.9928 Y-2.2458
G01 X1.0257 Y-2.2095
G01 X2.0257 Y-1.2095
G01 X2.0620 Y-1.1766
G01 X2.1013 Y-1.1474
G01 X2.1433 Y-1.1222
G01 X2.1876 Y-1.1013
G01 X2.2337 Y-1.0848
G01 X2.2812 Y-1.0729
G01 X2.3297 Y-1.0657
G01 X2.3786 Y-1.0633
G01 X36.8786 Y-1.0633
G01 X36.9275 Y-1.0657
G01 X36.9760 Y-1.0729
G01 X37.0235 Y-1.0848
G01 X37.0696 Y-1.1013
G01 X37.1139 Y-1.1222
G01 X37.1559 Y-1.1474
G01 X37.1952 Y-1.1766
G01 X37.2315 Y-1.2095
G01 X38.2315 Y-2.2095
G01 X38.2644 Y-2.2458
G01 X38.2936 Y-2.2851
G01 X38.3188 Y-2.3271
G01 X38.3397 Y-2.3714
G01 X38.3562 Y-2.4175
G01 X38.3681 Y-2.4650
G01 X38.3753 Y-2.5135
G01 X38.3777 Y-2.5624
G01 X38.3777 Y-6.2133
G00 X38.3777 Y-6.2133
G01 F50.00
G01 Z-1.7000
G01 F50.00
G01 X38.3777 Y-2.5624
G01 X38.3753 Y-2.5135
G01 X38.3681 Y-2.4650
G01 X38.3562 Y-2.4175
G01 X38.3397 Y-2.3714
G01 X38.3188 Y-2.3271
G01 X38.2936 Y-2.2851
G01 X38.2644 Y-2.2458
G01 X38.2315 Y-2.2095
G01 X37.2315 Y-1.2095
G01 X37.1952 Y-1.1766
G01 X37.1559 Y-1.1474
G01 X37.1139 Y-1.1222
G01 X37.0696 Y-1.1013
G01 X37.0235 Y-1.0848
G01 X36.9760 Y-1.0729
G01 X36.9275 Y-1.0657
G01 X36.8786 Y-1.0633
G01 X2.3786 Y-1.0633
G01 X2.3297 Y-1.0657
G01 X2.2812 Y-1.0729
G01 X2.2337 Y-1.0848
G01 X2.1876 Y-1.1013
G01 X2.1433 Y-1.1222
G01 X2.1013 Y-1.1474
G01 X2.0620 Y-1.1766
G01 X2.0257 Y-1.2095
G01 X1.0257 Y-2.2095
G01 X0.9928 Y-2.2458
G01 X0.9636 Y-2.2851
G01 X0.9384 Y-2.3271
G01 X0.9175 Y-2.3714
G01 X0.9010 Y-2.4175
G01 X0.8891 Y-2.4650
G01 X0.8819 Y-2.5135
G01 X0.8795 Y-2.5624
G01 X0.8795 Y-6.2133
G00 X0.8795 Y-6.2133
G01 F50.00
G01 Z-1.7500
G01 F50.00
G01 X0.8795 Y-2.5624
G01 X0.8819 Y-2.5135
G01 X0.8891 Y-2.4650
G01 X0.9010 Y-2.4175
G01 X0.9175 Y-2.3714
G01 X0.9384 Y-2.3271
G01 X0.9636 Y-2.2851
G01 X0.9928 Y-2.2458
G01 X1.0257 Y-2.2095
G01 X2.0257 Y-1.2095
G01 X2.0620 Y-1.1766
G01 X2.1013 Y-1.1474
G01 X2.1433 Y-1.1222
G01 X2.1876 Y-1.1013
G01 X2.2337 Y-1.0848
G01 X2.2812 Y-1.0729
G01 X2.3297 Y-1.0657
G01 X2.3786 Y-1.0633
G01 X36.8786 Y-1.0633
G01 X36.9275 Y-1.0657
G01 X36.9760 Y-1.0729
G01 X37.0235 Y-1.0848
G01 X37.0696 Y-1.1013
G01 X37.1139 Y-1.1222
G01 X37.1559 Y-1.1474
G01 X37.1952 Y-1.1766
G01 X37.2315 Y-1.2095
G01 X38.2315 Y-2.2095
G01 X38.2644 Y-2.2458
G01 X38.2936 Y-2.2851
G01 X38.3188 Y-2.3271
G01 X38.3397 Y-2.3714
G01 X38.3562 Y-2.4175
G01 X38.3681 Y-2.4650
G01 X38.3753 Y-2.5135
G01 X38.3777 Y-2.5624
G01 X38.3777 Y-6.2133
G00 X38.3777 Y-6.2133
G01 F50.00
G01 Z-1.8000
G01 F50.00
G01 X38.3777 Y-2.5624
G01 X38.3753 Y-2.5135
G01 X38.3681 Y-2.4650
G01 X38.3562 Y-2.4175
G01 X38.3397 Y-2.3714
G01 X38.3188 Y-2.3271
G01 X38.2936 Y-2.2851
G01 X38.2644 Y-2.2458
G01 X38.2315 Y-2.2095
G01 X37.2315 Y-1.2095
G01 X37.1952 Y-1.1766
G01 X37.1559 Y-1.1474
G01 X37.1139 Y-1.1222
G01 X37.0696 Y-1.1013
G01 X37.0235 Y-1.0848
G01 X36.9760 Y-1.0729
G01 X36.9275 Y-1.0657
G01 X36.8786 Y-1.0633
G01 X2.3786 Y-1.0633
G01 X2.3297 Y-1.0657
G01 X2.2812 Y-1.0729
G01 X2.2337 Y-1.0848
G01 X2.1876 Y-1.1013
G01 X2.1433 Y-1.1222
G01 X2.1013 Y-1.1474
G01 X2.0620 Y-1.1766
G01 X2.0257 Y-1.2095
G01 X1.0257 Y-2.2095
G01 X0.9928 Y-2.2458
G01 X0.9636 Y-2.2851
G01 X0.9384 Y-2.3271
G01 X0.9175 Y-2.3714
G01 X0.9010 Y-2.4175
G01 X0.8891 Y-2.4650
G01 X0.8819 Y-2.5135
G01 X0.8795 Y-2.5624
G01 X0.8795 Y-6.2133
G00 X0.8795 Y-6.2133
G01 F50.00
G01 Z-1.8500
G01 F50.00
G01 X0.8795 Y-2.5624
G01 X0.8819 Y-2.5135
G01 X0.8891 Y-2.4650
G01 X0.9010 Y-2.4175
G01 X0.9175 Y-2.3714
G01 X0.9384 Y-2.3271
G01 X0.9636 Y-2.2851
G01 X0.9928 Y-2.2458
G01 X1.0257 Y-2.2095
G01 X2.0257 Y-1.2095
G01 X2.0620 Y-1.1766
G01 X2.1013 Y-1.1474
G01 X2.1433 Y-1.1222
G01 X2.1876 Y-1.1013
G01 X2.2337 Y-1.0848
G01 X2.2812 Y-1.0729
G01 X2.3297 Y-1.0657
G01 X2.3786 Y-1.0633
G01 X36.8786 Y-1.0633
G01 X36.9275 Y-1.0657
G01 X36.9760 Y-1.0729
G01 X37.0235 Y-1.0848
G01 X37.0696 Y-1.1013
G01 X37.1139 Y-1.1222
G01 X37.1559 Y-1.1474
G01 X37.1952 Y-1.1766
G01 X37.2315 Y-1.2095
G01 X38.2315 Y-2.2095
G01 X38.2644 Y-2.2458
G01 X38.2936 Y-2.2851
G01 X38.3188 Y-2.3271
G01 X38.3397 Y-2.3714
G01 X38.3562 Y-2.4175
G01 X38.3681 Y-2.4650
G01 X38.3753 Y-2.5135
G01 X38.3777 Y-2.5624
G01 X38.3777 Y-6.2133
G00 X38.3777 Y-6.2133
G01 F50.00
G01 Z-1.9000
G01 F50.00
G01 X38.3777 Y-2.5624
G01 X38.3753 Y-2.5135
G01 X38.3681 Y-2.4650
G01 X38.3562 Y-2.4175
G01 X38.3397 Y-2.3714
G01 X38.3188 Y-2.3271
G01 X38.2936 Y-2.2851
G01 X38.2644 Y-2.2458
G01 X38.2315 Y-2.2095
G01 X37.2315 Y-1.2095
G01 X37.1952 Y-1.1766
G01 X37.1559 Y-1.1474
G01 X37.1139 Y-1.1222
G01 X37.0696 Y-1.1013
G01 X37.0235 Y-1.0848
G01 X36.9760 Y-1.0729
G01 X36.9275 Y-1.0657
G01 X36.8786 Y-1.0633
G01 X2.3786 Y-1.0633
G01 X2.3297 Y-1.0657
G01 X2.2812 Y-1.0729
G01 X2.2337 Y-1.0848
G01 X2.1876 Y-1.1013
G01 X2.1433 Y-1.1222
G01 X2.1013 Y-1.1474
G01 X2.0620 Y-1.1766
G01 X2.0257 Y-1.2095
G01 X1.0257 Y-2.2095
G01 X0.9928 Y-2.2458
G01 X0.9636 Y-2.2851
G01 X0.9384 Y-2.3271
G01 X0.9175 Y-2.3714
G01 X0.9010 Y-2.4175
G01 X0.8891 Y-2.4650
G01 X0.8819 Y-2.5135
G01 X0.8795 Y-2.5624
G01 X0.8795 Y-6.2133
G00 X0.8795 Y-6.2133
G01 F50.00
G01 Z-1.9500
G01 F50.00
G01 X0.8795 Y-2.5624
G01 X0.8819 Y-2.5135
G01 X0.8891 Y-2.4650
G01 X0.9010 Y-2.4175
G01 X0.9175 Y-2.3714
G01 X0.9384 Y-2.3271
G01 X0.9636 Y-2.2851
G01 X0.9928 Y-2.2458
G01 X1.0257 Y-2.2095
G01 X2.0257 Y-1.2095
G01 X2.0620 Y-1.1766
G01 X2.1013 Y-1.1474
G01 X2.1433 Y-1.1222
G01 X2.1876 Y-1.1013
G01 X2.2337 Y-1.0848
G01 X2.2812 Y-1.0729
G01 X2.3297 Y-1.0657
G01 X2.3786 Y-1.0633
G01 X36.8786 Y-1.0633
G01 X36.9275 Y-1.0657
G01 X36.9760 Y-1.0729
G01 X37.0235 Y-1.0848
G01 X37.0696 Y-1.1013
G01 X37.1139 Y-1.1222
G01 X37.1559 Y-1.1474
G01 X37.1952 Y-1.1766
G01 X37.2315 Y-1.2095
G01 X38.2315 Y-2.2095
G01 X38.2644 Y-2.2458
G01 X38.2936 Y-2.2851
G01 X38.3188 Y-2.3271
G01 X38.3397 Y-2.3714
G01 X38.3562 Y-2.4175
G01 X38.3681 Y-2.4650
G01 X38.3753 Y-2.5135
G01 X38.3777 Y-2.5624
G01 X38.3777 Y-6.2133
G00 X38.3777 Y-6.2133
G01 F50.00
G01 Z-2.0000
G01 F50.00
G01 X38.3777 Y-2.5624
G01 X38.3753 Y-2.5135
G01 X38.3681 Y-2.4650
G01 X38.3562 Y-2.4175
G01 X38.3397 Y-2.3714
G01 X38.3188 Y-2.3271
G01 X38.2936 Y-2.2851
G01 X38.2644 Y-2.2458
G01 X38.2315 Y-2.2095
G01 X37.2315 Y-1.2095
G01 X37.1952 Y-1.1766
G01 X37.1559 Y-1.1474
G01 X37.1139 Y-1.1222
G01 X37.0696 Y-1.1013
G01 X37.0235 Y-1.0848
G01 X36.9760 Y-1.0729
G01 X36.9275 Y-1.0657
G01 X36.8786 Y-1.0633
G01 X2.3786 Y-1.0633
G01 X2.3297 Y-1.0657
G01 X2.2812 Y-1.0729
G01 X2.2337 Y-1.0848
G01 X2.1876 Y-1.1013
G01 X2.1433 Y-1.1222
G01 X2.1013 Y-1.1474
G01 X2.0620 Y-1.1766
G01 X2.0257 Y-1.2095
G01 X1.0257 Y-2.2095
G01 X0.9928 Y-2.2458
G01 X0.9636 Y-2.2851
G01 X0.9384 Y-2.3271
G01 X0.9175 Y-2.3714
G01 X0.9010 Y-2.4175
G01 X0.8891 Y-2.4650
G01 X0.8819 Y-2.5135
G01 X0.8795 Y-2.5624
G01 X0.8795 Y-6.2133
G00 X0.8795 Y-6.2133
G01 F50.00
G01 Z-2.0500
G01 F50.00
G01 X0.8795 Y-2.5624
G01 X0.8819 Y-2.5135
G01 X0.8891 Y-2.4650
G01 X0.9010 Y-2.4175
G01 X0.9175 Y-2.3714
G01 X0.9384 Y-2.3271
G01 X0.9636 Y-2.2851
G01 X0.9928 Y-2.2458
G01 X1.0257 Y-2.2095
G01 X2.0257 Y-1.2095
G01 X2.0620 Y-1.1766
G01 X2.1013 Y-1.1474
G01 X2.1433 Y-1.1222
G01 X2.1876 Y-1.1013
G01 X2.2337 Y-1.0848
G01 X2.2812 Y-1.0729
G01 X2.3297 Y-1.0657
G01 X2.3786 Y-1.0633
G01 X36.8786 Y-1.0633
G01 X36.9275 Y-1.0657
G01 X36.9760 Y-1.0729
G01 X37.0235 Y-1.0848
G01 X37.0696 Y-1.1013
G01 X37.1139 Y-1.1222
G01 X37.1559 Y-1.1474
G01 X37.1952 Y-1.1766
G01 X37.2315 Y-1.2095
G01 X38.2315 Y-2.2095
G01 X38.2644 Y-2.2458
G01 X38.2936 Y-2.2851
G01 X38.3188 Y-2.3271
G01 X38.3397 Y-2.3714
G01 X38.3562 Y-2.4175
G01 X38.3681 Y-2.4650
G01 X38.3753 Y-2.5135
G01 X38.3777 Y-2.5624
G01 X38.3777 Y-6.2133
G00 X38.3777 Y-6.2133
G01 F50.00
G01 Z-2.1000
G01 F50.00
G01 X38.3777 Y-2.5624
G01 X38.3753 Y-2.5135
G01 X38.3681 Y-2.4650
G01 X38.3562 Y-2.4175
G01 X38.3397 Y-2.3714
G01 X38.3188 Y-2.3271
G01 X38.2936 Y-2.2851
G01 X38.2644 Y-2.2458
G01 X38.2315 Y-2.2095
G01 X37.2315 Y-1.2095
G01 X37.1952 Y-1.1766
G01 X37.1559 Y-1.1474
G01 X37.1139 Y-1.1222
G01 X37.0696 Y-1.1013
G01 X37.0235 Y-1.0848
G01 X36.9760 Y-1.0729
G01 X36.9275 Y-1.0657
G01 X36.8786 Y-1.0633
G01 X2.3786 Y-1.0633
G01 X2.3297 Y-1.0657
G01 X2.2812 Y-1.0729
G01 X2.2337 Y-1.0848
G01 X2.1876 Y-1.1013
G01 X2.1433 Y-1.1222
G01 X2.1013 Y-1.1474
G01 X2.0620 Y-1.1766
G01 X2.0257 Y-1.2095
G01 X1.0257 Y-2.2095
G01 X0.9928 Y-2.2458
G01 X0.9636 Y-2.2851
G01 X0.9384 Y-2.3271
G01 X0.9175 Y-2.3714
G01 X0.9010 Y-2.4175
G01 X0.8891 Y-2.4650
G01 X0.8819 Y-2.5135
G01 X0.8795 Y-2.5624
G01 X0.8795 Y-6.2133
G00 X0.8795 Y-6.2133
G01 F50.00
G01 Z-2.1500
G01 F50.00
G01 X0.8795 Y-2.5624
G01 X0.8819 Y-2.5135
G01 X0.8891 Y-2.4650
G01 X0.9010 Y-2.4175
G01 X0.9175 Y-2.3714
G01 X0.9384 Y-2.3271
G01 X0.9636 Y-2.2851
G01 X0.9928 Y-2.2458
G01 X1.0257 Y-2.2095
G01 X2.0257 Y-1.2095
G01 X2.0620 Y-1.1766
G01 X2.1013 Y-1.1474
G01 X2.1433 Y-1.1222
G01 X2.1876 Y-1.1013
G01 X2.2337 Y-1.0848
G01 X2.2812 Y-1.0729
G01 X2.3297 Y-1.0657
G01 X2.3786 Y-1.0633
G01 X36.8786 Y-1.0633
G01 X36.9275 Y-1.0657
G01 X36.9760 Y-1.0729
G01 X37.0235 Y-1.0848
G01 X37.0696 Y-1.1013
G01 X37.1139 Y-1.1222
G01 X37.1559 Y-1.1474
G01 X37.1952 Y-1.1766
G01 X37.2315 Y-1.2095
G01 X38.2315 Y-2.2095
G01 X38.2644 Y-2.2458
G01 X38.2936 Y-2.2851
G01 X38.3188 Y-2.3271
G01 X38.3397 Y-2.3714
G01 X38.3562 Y-2.4175
G01 X38.3681 Y-2.4650
G01 X38.3753 Y-2.5135
G01 X38.3777 Y-2.5624
G01 X38.3777 Y-6.2133
G00 X38.3777 Y-6.2133
G01 F50.00
G01 Z-2.2000
G01 F50.00
G01 X38.3777 Y-2.5624
G01 X38.3753 Y-2.5135
G01 X38.3681 Y-2.4650
G01 X38.3562 Y-2.4175
G01 X38.3397 Y-2.3714
G01 X38.3188 Y-2.3271
G01 X38.2936 Y-2.2851
G01 X38.2644 Y-2.2458
G01 X38.2315 Y-2.2095
G01 X37.2315 Y-1.2095
G01 X37.1952 Y-1.1766
G01 X37.1559 Y-1.1474
G01 X37.1139 Y-1.1222
G01 X37.0696 Y-1.1013
G01 X37.0235 Y-1.0848
G01 X36.9760 Y-1.0729
G01 X36.9275 Y-1.0657
G01 X36.8786 Y-1.0633
G01 X2.3786 Y-1.0633
G01 X2.3297 Y-1.0657
G01 X2.2812 Y-1.0729
G01 X2.2337 Y-1.0848
G01 X2.1876 Y-1.1013
G01 X2.1433 Y-1.1222
G01 X2.1013 Y-1.1474
G01 X2.0620 Y-1.1766
G01 X2.0257 Y-1.2095
G01 X1.0257 Y-2.2095
G01 X0.9928 Y-2.2458
G01 X0.9636 Y-2.2851
G01 X0.9384 Y-2.3271
G01 X0.9175 Y-2.3714
G01 X0.9010 Y-2.4175
G01 X0.8891 Y-2.4650
G01 X0.8819 Y-2.5135
G01 X0.8795 Y-2.5624
G01 X0.8795 Y-6.2133
G00 X0.8795 Y-6.2133
G01 F50.00
G01 Z-2.2500
G01 F50.00
G01 X0.8795 Y-2.5624
G01 X0.8819 Y-2.5135
G01 X0.8891 Y-2.4650
G01 X0.9010 Y-2.4175
G01 X0.9175 Y-2.3714
G01 X0.9384 Y-2.3271
G01 X0.9636 Y-2.2851
G01 X0.9928 Y-2.2458
G01 X1.0257 Y-2.2095
G01 X2.0257 Y-1.2095
G01 X2.0620 Y-1.1766
G01 X2.1013 Y-1.1474
G01 X2.1433 Y-1.1222
G01 X2.1876 Y-1.1013
G01 X2.2337 Y-1.0848
G01 X2.2812 Y-1.0729
G01 X2.3297 Y-1.0657
G01 X2.3786 Y-1.0633
G01 X36.8786 Y-1.0633
G01 X36.9275 Y-1.0657
G01 X36.9760 Y-1.0729
G01 X37.0235 Y-1.0848
G01 X37.0696 Y-1.1013
G01 X37.1139 Y-1.1222
G01 X37.1559 Y-1.1474
G01 X37.1952 Y-1.1766
G01 X37.2315 Y-1.2095
G01 X38.2315 Y-2.2095
G01 X38.2644 Y-2.2458
G01 X38.2936 Y-2.2851
G01 X38.3188 Y-2.3271
G01 X38.3397 Y-2.3714
G01 X38.3562 Y-2.4175
G01 X38.3681 Y-2.4650
G01 X38.3753 Y-2.5135
G01 X38.3777 Y-2.5624
G01 X38.3777 Y-6.2133
G00 X38.3777 Y-6.2133
G01 F50.00
G01 Z-2.3000
G01 F50.00
G01 X38.3777 Y-2.5624
G01 X38.3753 Y-2.5135
G01 X38.3681 Y-2.4650
G01 X38.3562 Y-2.4175
G01 X38.3397 Y-2.3714
G01 X38.3188 Y-2.3271
G01 X38.2936 Y-2.2851
G01 X38.2644 Y-2.2458
G01 X38.2315 Y-2.2095
G01 X37.2315 Y-1.2095
G01 X37.1952 Y-1.1766
G01 X37.1559 Y-1.1474
G01 X37.1139 Y-1.1222
G01 X37.0696 Y-1.1013
G01 X37.0235 Y-1.0848
G01 X36.9760 Y-1.0729
G01 X36.9275 Y-1.0657
G01 X36.8786 Y-1.0633
G01 X2.3786 Y-1.0633
G01 X2.3297 Y-1.0657
G01 X2.2812 Y-1.0729
G01 X2.2337 Y-1.0848
G01 X2.1876 Y-1.1013
G01 X2.1433 Y-1.1222
G01 X2.1013 Y-1.1474
G01 X2.0620 Y-1.1766
G01 X2.0257 Y-1.2095
G01 X1.0257 Y-2.2095
G01 X0.9928 Y-2.2458
G01 X0.9636 Y-2.2851
G01 X0.9384 Y-2.3271
G01 X0.9175 Y-2.3714
G01 X0.9010 Y-2.4175
G01 X0.8891 Y-2.4650
G01 X0.8819 Y-2.5135
G01 X0.8795 Y-2.5624
G01 X0.8795 Y-6.2133
G00 Z5.0000
G00 X0.8795 Y-7.2133
G01 F50.00
G01 Z-0.0500
G01 F50.00
G01 X0.8795 Y-11.0624
G01 X0.8819 Y-11.1113
G01 X0.8891 Y-11.1598
G01 X0.9010 Y-11.2073
G01 X0.9175 Y-11.2534
G01 X0.9384 Y-11.2977
G01 X0.9636 Y-11.3397
G01 X0.9928 Y-11.3790
G01 X1.0257 Y-11.4153
G01 X2.0257 Y-12.4153
G01 X2.0620 Y-12.4482
G01 X2.1013 Y-12.4774
G01 X2.1433 Y-12.5026
G01 X2.1876 Y-12.5235
G01 X2.2337 Y-12.5400
G01 X2.2812 Y-12.5519
G01 X2.3297 Y-12.5591
G01 X2.3786 Y-12.5615
G00 X2.3786 Y-12.5615
G01 F50.00
G01 Z-0.1000
G01 F50.00
G01 X2.3297 Y-12.5591
G01 X2.2812 Y-12.5519
G01 X2.2337 Y-12.5400
G01 X2.1876 Y-12.5235
G01 X2.1433 Y-12.5026
G01 X2.1013 Y-12.4774
G01 X2.0620 Y-12.4482
G01 X2.0257 Y-12.4153
G01 X1.0257 Y-11.4153
G01 X0.9928 Y-11.3790
G01 X0.9636 Y-11.3397
G01 X0.9384 Y-11.2977
G01 X0.9175 Y-11.2534
G01 X0.9010 Y-11.2073
G01 X0.8891 Y-11.1598
G01 X0.8819 Y-11.1113
G01 X0.8795 Y-11.0624
G01 X0.8795 Y-7.2133
G00 X0.8795 Y-7.2133
G01 F50.00
G01 Z-0.1500
G01 F50.00
G01 X0.8795 Y-11.0624
G01 X0.8819 Y-11.1113
G01 X0.8891 Y-11.1598
G01 X0.9010 Y-11.2073
G01 X0.9175 Y-11.2534
G01 X0.9384 Y-11.2977
G01 X0.9636 Y-11.3397
G01 X0.9928 Y-11.3790
G01 X1.0257 Y-11.4153
G01 X2.0257 Y-12.4153
G01 X2.0620 Y-12.4482
G01 X2.1013 Y-12.4774
G01 X2.1433 Y-12.5026
G01 X2.1876 Y-12.5235
G01 X2.2337 Y-12.5400
G01 X2.2812 Y-12.5519
G01 X2.3297 Y-12.5591
G01 X2.3786 Y-12.5615
G00 X2.3786 Y-12.5615
G01 F50.00
G01 Z-0.2000
G01 F50.00
G01 X2.3297 Y-12.5591
G01 X2.2812 Y-12.5519
G01 X2.2337 Y-12.5400
G01 X2.1876 Y-12.5235
G01 X2.1433 Y-12.5026
G01 X2.1013 Y-12.4774
G01 X2.0620 Y-12.4482
G01 X2.0257 Y-12.4153
G01 X1.0257 Y-11.4153
G01 X0.9928 Y-11.3790
G01 X0.9636 Y-11.3397
G01 X0.9384 Y-11.2977
G01 X0.9175 Y-11.2534
G01 X0.9010 Y-11.2073
G01 X0.8891 Y-11.1598
G01 X0.8819 Y-11.1113
G01 X0.8795 Y-11.0624
G01 X0.8795 Y-7.2133
G00 X0.8795 Y-7.2133
G01 F50.00
G01 Z-0.2500
G01 F50.00
G01 X0.8795 Y-11.0624
G01 X0.8819 Y-11.1113
G01 X0.8891 Y-11.1598
G01 X0.9010 Y-11.2073
G01 X0.9175 Y-11.2534
G01 X0.9384 Y-11.2977
G01 X0.9636 Y-11.3397
G01 X0.9928 Y-11.3790
G01 X1.0257 Y-11.4153
G01 X2.0257 Y-12.4153
G01 X2.0620 Y-12.4482
G01 X2.1013 Y-12.4774
G01 X2.1433 Y-12.5026
G01 X2.1876 Y-12.5235
G01 X2.2337 Y-12.5400
G01 X2.2812 Y-12.5519
G01 X2.3297 Y-12.5591
G01 X2.3786 Y-12.5615
G00 X2.3786 Y-12.5615
G01 F50.00
G01 Z-0.3000
G01 F50.00
G01 X2.3297 Y-12.5591
G01 X2.2812 Y-12.5519
G01 X2.2337 Y-12.5400
G01 X2.1876 Y-12.5235
G01 X2.1433 Y-12.5026
G01 X2.1013 Y-12.4774
G01 X2.0620 Y-12.4482
G01 X2.0257 Y-12.4153
G01 X1.0257 Y-11.4153
G01 X0.9928 Y-11.3790
G01 X0.9636 Y-11.3397
G01 X0.9384 Y-11.2977
G01 X0.9175 Y-11.2534
G01 X0.9010 Y-11.2073
G01 X0.8891 Y-11.1598
G01 X0.8819 Y-11.1113
G01 X0.8795 Y-11.0624
G01 X0.8795 Y-7.2133
G00 X0.8795 Y-7.2133
G01 F50.00
G01 Z-0.3500
G01 F50.00
G01 X0.8795 Y-11.0624
G01 X0.8819 Y-11.1113
G01 X0.8891 Y-11.1598
G01 X0.9010 Y-11.2073
G01 X0.9175 Y-11.2534
G01 X0.9384 Y-11.2977
G01 X0.9636 Y-11.3397
G01 X0.9928 Y-11.3790
G01 X1.0257 Y-11.4153
G01 X2.0257 Y-12.4153
G01 X2.0620 Y-12.4482
G01 X2.1013 Y-12.4774
G01 X2.1433 Y-12.5026
G01 X2.1876 Y-12.5235
G01 X2.2337 Y-12.5400
G01 X2.2812 Y-12.5519
G01 X2.3297 Y-12.5591
G01 X2.3786 Y-12.5615
G00 X2.3786 Y-12.5615
G01 F50.00
G01 Z-0.4000
G01 F50.00
G01 X2.3297 Y-12.5591
G01 X2.2812 Y-12.5519
G01 X2.2337 Y-12.5400
G01 X2.1876 Y-12.5235
G01 X2.1433 Y-12.5026
G01 X2.1013 Y-12.4774
G01 X2.0620 Y-12.4482
G01 X2.0257 Y-12.4153
G01 X1.0257 Y-11.4153
G01 X0.9928 Y-11.3790
G01 X0.9636 Y-11.3397
G01 X0.9384 Y-11.2977
G01 X0.9175 Y-11.2534
G01 X0.9010 Y-11.2073
G01 X0.8891 Y-11.1598
G01 X0.8819 Y-11.1113
G01 X0.8795 Y-11.0624
G01 X0.8795 Y-7.2133
G00 X0.8795 Y-7.2133
G01 F50.00
G01 Z-0.4500
G01 F50.00
G01 X0.8795 Y-11.0624
G01 X0.8819 Y-11.1113
G01 X0.8891 Y-11.1598
G01 X0.9010 Y-11.2073
G01 X0.9175 Y-11.2534
G01 X0.9384 Y-11.2977
G01 X0.9636 Y-11.3397
G01 X0.9928 Y-11.3790
G01 X1.0257 Y-11.4153
G01 X2.0257 Y-12.4153
G01 X2.0620 Y-12.4482
G01 X2.1013 Y-12.4774
G01 X2.1433 Y-12.5026
G01 X2.1876 Y-12.5235
G01 X2.2337 Y-12.5400
G01 X2.2812 Y-12.5519
G01 X2.3297 Y-12.5591
G01 X2.3786 Y-12.5615
G00 X2.3786 Y-12.5615
G01 F50.00
G01 Z-0.5000
G01 F50.00
G01 X2.3297 Y-12.5591
G01 X2.2812 Y-12.5519
G01 X2.2337 Y-12.5400
G01 X2.1876 Y-12.5235
G01 X2.1433 Y-12.5026
G01 X2.1013 Y-12.4774
G01 X2.0620 Y-12.4482
G01 X2.0257 Y-12.4153
G01 X1.0257 Y-11.4153
G01 X0.9928 Y-11.3790
G01 X0.9636 Y-11.3397
G01 X0.9384 Y-11.2977
G01 X0.9175 Y-11.2534
G01 X0.9010 Y-11.2073
G01 X0.8891 Y-11.1598
G01 X0.8819 Y-11.1113
G01 X0.8795 Y-11.0624
G01 X0.8795 Y-7.2133
G00 X0.8795 Y-7.2133
G01 F50.00
G01 Z-0.5500
G01 F50.00
G01 X0.8795 Y-11.0624
G01 X0.8819 Y-11.1113
G01 X0.8891 Y-11.1598
G01 X0.9010 Y-11.2073
G01 X0.9175 Y-11.2534
G01 X0.9384 Y-11.2977
G01 X0.9636 Y-11.3397
G01 X0.9928 Y-11.3790
G01 X1.0257 Y-11.4153
G01 X2.0257 Y-12.4153
G01 X2.0620 Y-12.4482
G01 X2.1013 Y-12.4774
G01 X2.1433 Y-12.5026
G01 X2.1876 Y-12.5235
G01 X2.2337 Y-12.5400
G01 X2.2812 Y-12.5519
G01 X2.3297 Y-12.5591
G01 X2.3786 Y-12.5615
G00 X2.3786 Y-12.5615
G01 F50.00
G01 Z-0.6000
G01 F50.00
G01 X2.3297 Y-12.5591
G01 X2.2812 Y-12.5519
G01 X2.2337 Y-12.5400
G01 X2.1876 Y-12.5235
G01 X2.1433 Y-12.5026
G01 X2.1013 Y-12.4774
G01 X2.0620 Y-12.4482
G01 X2.0257 Y-12.4153
G01 X1.0257 Y-11.4153
G01 X0.9928 Y-11.3790
G01 X0.9636 Y-11.3397
G01 X0.9384 Y-11.2977
G01 X0.9175 Y-11.2534
G01 X0.9010 Y-11.2073
G01 X0.8891 Y-11.1598
G01 X0.8819 Y-11.1113
G01 X0.8795 Y-11.0624
G01 X0.8795 Y-7.2133
G00 X0.8795 Y-7.2133
G01 F50.00
G01 Z-0.6500
G01 F50.00
G01 X0.8795 Y-11.0624
G01 X0.8819 Y-11.1113
G01 X0.8891 Y-11.1598
G01 X0.9010 Y-11.2073
G01 X0.9175 Y-11.2534
G01 X0.9384 Y-11.2977
G01 X0.9636 Y-11.3397
G01 X0.9928 Y-11.3790
G01 X1.0257 Y-11.4153
G01 X2.0257 Y-12.4153
G01 X2.0620 Y-12.4482
G01 X2.1013 Y-12.4774
G01 X2.1433 Y-12.5026
G01 X2.1876 Y-12.5235
G01 X2.2337 Y-12.5400
G01 X2.2812 Y-12.5519
G01 X2.3297 Y-12.5591
G01 X2.3786 Y-12.5615
G00 X2.3786 Y-12.5615
G01 F50.00
G01 Z-0.7000
G01 F50.00
G01 X2.3297 Y-12.5591
G01 X2.2812 Y-12.5519
G01 X2.2337 Y-12.5400
G01 X2.1876 Y-12.5235
G01 X2.1433 Y-12.5026
G01 X2.1013 Y-12.4774
G01 X2.0620 Y-12.4482
G01 X2.0257 Y-12.4153
G01 X1.0257 Y-11.4153
G01 X0.9928 Y-11.3790
G01 X0.9636 Y-11.3397
G01 X0.9384 Y-11.2977
G01 X0.9175 Y-11.2534
G01 X0.9010 Y-11.2073
G01 X0.8891 Y-11.1598
G01 X0.8819 Y-11.1113
G01 X0.8795 Y-11.0624
G01 X0.8795 Y-7.2133
G00 X0.8795 Y-7.2133
G01 F50.00
G01 Z-0.7500
G01 F50.00
G01 X0.8795 Y-11.0624
G01 X0.8819 Y-11.1113
G01 X0.8891 Y-11.1598
G01 X0.9010 Y-11.2073
G01 X0.9175 Y-11.2534
G01 X0.9384 Y-11.2977
G01 X0.9636 Y-11.3397
G01 X0.9928 Y-11.3790
G01 X1.0257 Y-11.4153
G01 X2.0257 Y-12.4153
G01 X2.0620 Y-12.4482
G01 X2.1013 Y-12.4774
G01 X2.1433 Y-12.5026
G01 X2.1876 Y-12.5235
G01 X2.2337 Y-12.5400
G01 X2.2812 Y-12.5519
G01 X2.3297 Y-12.5591
G01 X2.3786 Y-12.5615
G00 X2.3786 Y-12.5615
G01 F50.00
G01 Z-0.8000
G01 F50.00
G01 X2.3297 Y-12.5591
G01 X2.2812 Y-12.5519
G01 X2.2337 Y-12.5400
G01 X2.1876 Y-12.5235
G01 X2.1433 Y-12.5026
G01 X2.1013 Y-12.4774
G01 X2.0620 Y-12.4482
G01 X2.0257 Y-12.4153
G01 X1.0257 Y-11.4153
G01 X0.9928 Y-11.3790
G01 X0.9636 Y-11.3397
G01 X0.9384 Y-11.2977
G01 X0.9175 Y-11.2534
G01 X0.9010 Y-11.2073
G01 X0.8891 Y-11.1598
G01 X0.8819 Y-11.1113
G01 X0.8795 Y-11.0624
G01 X0.8795 Y-7.2133
G00 X0.8795 Y-7.2133
G01 F50.00
G01 Z-0.8500
G01 F50.00
G01 X0.8795 Y-11.0624
G01 X0.8819 Y-11.1113
G01 X0.8891 Y-11.1598
G01 X0.9010 Y-11.2073
G01 X0.9175 Y-11.2534
G01 X0.9384 Y-11.2977
G01 X0.9636 Y-11.3397
G01 X0.9928 Y-11.3790
G01 X1.0257 Y-11.4153
G01 X2.0257 Y-12.4153
G01 X2.0620 Y-12.4482
G01 X2.1013 Y-12.4774
G01 X2.1433 Y-12.5026
G01 X2.1876 Y-12.5235
G01 X2.2337 Y-12.5400
G01 X2.2812 Y-12.5519
G01 X2.3297 Y-12.5591
G01 X2.3786 Y-12.5615
G00 X2.3786 Y-12.5615
G01 F50.00
G01 Z-0.9000
G01 F50.00
G01 X2.3297 Y-12.5591
G01 X2.2812 Y-12.5519
G01 X2.2337 Y-12.5400
G01 X2.1876 Y-12.5235
G01 X2.1433 Y-12.5026
G01 X2.1013 Y-12.4774
G01 X2.0620 Y-12.4482
G01 X2.0257 Y-12.4153
G01 X1.0257 Y-11.4153
G01 X0.9928 Y-11.3790
G01 X0.9636 Y-11.3397
G01 X0.9384 Y-11.2977
G01 X0.9175 Y-11.2534
G01 X0.9010 Y-11.2073
G01 X0.8891 Y-11.1598
G01 X0.8819 Y-11.1113
G01 X0.8795 Y-11.0624
G01 X0.8795 Y-7.2133
G00 X0.8795 Y-7.2133
G01 F50.00
G01 Z-0.9500
G01 F50.00
G01 X0.8795 Y-11.0624
G01 X0.8819 Y-11.1113
G01 X0.8891 Y-11.1598
G01 X0.9010 Y-11.2073
G01 X0.9175 Y-11.2534
G01 X0.9384 Y-11.2977
G01 X0.9636 Y-11.3397
G01 X0.9928 Y-11.3790
G01 X1.0257 Y-11.4153
G01 X2.0257 Y-12.4153
G01 X2.0620 Y-12.4482
G01 X2.1013 Y-12.4774
G01 X2.1433 Y-12.5026
G01 X2.1876 Y-12.5235
G01 X2.2337 Y-12.5400
G01 X2.2812 Y-12.5519
G01 X2.3297 Y-12.5591
G01 X2.3786 Y-12.5615
G00 X2.3786 Y-12.5615
G01 F50.00
G01 Z-1.0000
G01 F50.00
G01 X2.3297 Y-12.5591
G01 X2.2812 Y-12.5519
G01 X2.2337 Y-12.5400
G01 X2.1876 Y-12.5235
G01 X2.1433 Y-12.5026
G01 X2.1013 Y-12.4774
G01 X2.0620 Y-12.4482
G01 X2.0257 Y-12.4153
G01 X1.0257 Y-11.4153
G01 X0.9928 Y-11.3790
G01 X0.9636 Y-11.3397
G01 X0.9384 Y-11.2977
G01 X0.9175 Y-11.2534
G01 X0.9010 Y-11.2073
G01 X0.8891 Y-11.1598
G01 X0.8819 Y-11.1113
G01 X0.8795 Y-11.0624
G01 X0.8795 Y-7.2133
G00 X0.8795 Y-7.2133
G01 F50.00
G01 Z-1.0500
G01 F50.00
G01 X0.8795 Y-11.0624
G01 X0.8819 Y-11.1113
G01 X0.8891 Y-11.1598
G01 X0.9010 Y-11.2073
G01 X0.9175 Y-11.2534
G01 X0.9384 Y-11.2977
G01 X0.9636 Y-11.3397
G01 X0.9928 Y-11.3790
G01 X1.0257 Y-11.4153
G01 X2.0257 Y-12.4153
G01 X2.0620 Y-12.4482
G01 X2.1013 Y-12.4774
G01 X2.1433 Y-12.5026
G01 X2.1876 Y-12.5235
G01 X2.2337 Y-12.5400
G01 X2.2812 Y-12.5519
G01 X2.3297 Y-12.5591
G01 X2.3786 Y-12.5615
G00 X2.3786 Y-12.5615
G01 F50.00
G01 Z-1.1000
G01 F50.00
G01 X2.3297 Y-12.5591
G01 X2.2812 Y-12.5519
G01 X2.2337 Y-12.5400
G01 X2.1876 Y-12.5235
G01 X2.1433 Y-12.5026
G01 X2.1013 Y-12.4774
G01 X2.0620 Y-12.4482
G01 X2.0257 Y-12.4153
G01 X1.0257 Y-11.4153
G01 X0.9928 Y-11.3790
G01 X0.9636 Y-11.3397
G01 X0.9384 Y-11.2977
G01 X0.9175 Y-11.2534
G01 X0.9010 Y-11.2073
G01 X0.8891 Y-11.1598
G01 X0.8819 Y-11.1113
G01 X0.8795 Y-11.0624
G01 X0.8795 Y-7.2133
G00 X0.8795 Y-7.2133
G01 F50.00
G01 Z-1.1500
G01 F50.00
G01 X0.8795 Y-11.0624
G01 X0.8819 Y-11.1113
G01 X0.8891 Y-11.1598
G01 X0.9010 Y-11.2073
G01 X0.9175 Y-11.2534
G01 X0.9384 Y-11.2977
G01 X0.9636 Y-11.3397
G01 X0.9928 Y-11.3790
G01 X1.0257 Y-11.4153
G01 X2.0257 Y-12.4153
G01 X2.0620 Y-12.4482
G01 X2.1013 Y-12.4774
G01 X2.1433 Y-12.5026
G01 X2.1876 Y-12.5235
G01 X2.2337 Y-12.5400
G01 X2.2812 Y-12.5519
G01 X2.3297 Y-12.5591
G01 X2.3786 Y-12.5615
G00 X2.3786 Y-12.5615
G01 F50.00
G01 Z-1.2000
G01 F50.00
G01 X2.3297 Y-12.5591
G01 X2.2812 Y-12.5519
G01 X2.2337 Y-12.5400
G01 X2.1876 Y-12.5235
G01 X2.1433 Y-12.5026
G01 X2.1013 Y-12.4774
G01 X2.0620 Y-12.4482
G01 X2.0257 Y-12.4153
G01 X1.0257 Y-11.4153
G01 X0.9928 Y-11.3790
G01 X0.9636 Y-11.3397
G01 X0.9384 Y-11.2977
G01 X0.9175 Y-11.2534
G01 X0.9010 Y-11.2073
G01 X0.8891 Y-11.1598
G01 X0.8819 Y-11.1113
G01 X0.8795 Y-11.0624
G01 X0.8795 Y-7.2133
G00 X0.8795 Y-7.2133
G01 F50.00
G01 Z-1.2500
G01 F50.00
G01 X0.8795 Y-11.0624
G01 X0.8819 Y-11.1113
G01 X0.8891 Y-11.1598
G01 X0.9010 Y-11.2073
G01 X0.9175 Y-11.2534
G01 X0.9384 Y-11.2977
G01 X0.9636 Y-11.3397
G01 X0.9928 Y-11.3790
G01 X1.0257 Y-11.4153
G01 X2.0257 Y-12.4153
G01 X2.0620 Y-12.4482
G01 X2.1013 Y-12.4774
G01 X2.1433 Y-12.5026
G01 X2.1876 Y-12.5235
G01 X2.2337 Y-12.5400
G01 X2.2812 Y-12.5519
G01 X2.3297 Y-12.5591
G01 X2.3786 Y-12.5615
G00 X2.3786 Y-12.5615
G01 F50.00
G01 Z-1.3000
G01 F50.00
G01 X2.3297 Y-12.5591
G01 X2.2812 Y-12.5519
G01 X2.2337 Y-12.5400
G01 X2.1876 Y-12.5235
G01 X2.1433 Y-12.5026
G01 X2.1013 Y-12.4774
G01 X2.0620 Y-12.4482
G01 X2.0257 Y-12.4153
G01 X1.0257 Y-11.4153
G01 X0.9928 Y-11.3790
G01 X0.9636 Y-11.3397
G01 X0.9384 Y-11.2977
G01 X0.9175 Y-11.2534
G01 X0.9010 Y-11.2073
G01 X0.8891 Y-11.1598
G01 X0.8819 Y-11.1113
G01 X0.8795 Y-11.0624
G01 X0.8795 Y-7.2133
G00 X0.8795 Y-7.2133
G01 F50.00
G01 Z-1.3500
G01 F50.00
G01 X0.8795 Y-11.0624
G01 X0.8819 Y-11.1113
G01 X0.8891 Y-11.1598
G01 X0.9010 Y-11.2073
G01 X0.9175 Y-11.2534
G01 X0.9384 Y-11.2977
G01 X0.9636 Y-11.3397
G01 X0.9928 Y-11.3790
G01 X1.0257 Y-11.4153
G01 X2.0257 Y-12.4153
G01 X2.0620 Y-12.4482
G01 X2.1013 Y-12.4774
G01 X2.1433 Y-12.5026
G01 X2.1876 Y-12.5235
G01 X2.2337 Y-12.5400
G01 X2.2812 Y-12.5519
G01 X2.3297 Y-12.5591
G01 X2.3786 Y-12.5615
G00 X2.3786 Y-12.5615
G01 F50.00
G01 Z-1.4000
G01 F50.00
G01 X2.3297 Y-12.5591
G01 X2.2812 Y-12.5519
G01 X2.2337 Y-12.5400
G01 X2.1876 Y-12.5235
G01 X2.1433 Y-12.5026
G01 X2.1013 Y-12.4774
G01 X2.0620 Y-12.4482
G01 X2.0257 Y-12.4153
G01 X1.0257 Y-11.4153
G01 X0.9928 Y-11.3790
G01 X0.9636 Y-11.3397
G01 X0.9384 Y-11.2977
G01 X0.9175 Y-11.2534
G01 X0.9010 Y-11.2073
G01 X0.8891 Y-11.1598
G01 X0.8819 Y-11.1113
G01 X0.8795 Y-11.0624
G01 X0.8795 Y-7.2133
G00 X0.8795 Y-7.2133
G01 F50.00
G01 Z-1.4500
G01 F50.00
G01 X0.8795 Y-11.0624
G01 X0.8819 Y-11.1113
G01 X0.8891 Y-11.1598
G01 X0.9010 Y-11.2073
G01 X0.9175 Y-11.2534
G01 X0.9384 Y-11.2977
G01 X0.9636 Y-11.3397
G01 X0.9928 Y-11.3790
G01 X1.0257 Y-11.4153
G01 X2.0257 Y-12.4153
G01 X2.0620 Y-12.4482
G01 X2.1013 Y-12.4774
G01 X2.1433 Y-12.5026
G01 X2.1876 Y-12.5235
G01 X2.2337 Y-12.5400
G01 X2.2812 Y-12.5519
G01 X2.3297 Y-12.5591
G01 X2.3786 Y-12.5615
G00 X2.3786 Y-12.5615
G01 F50.00
G01 Z-1.5000
G01 F50.00
G01 X2.3297 Y-12.5591
G01 X2.2812 Y-12.5519
G01 X2.2337 Y-12.5400
G01 X2.1876 Y-12.5235
G01 X2.1433 Y-12.5026
G01 X2.1013 Y-12.4774
G01 X2.0620 Y-12.4482
G01 X2.0257 Y-12.4153
G01 X1.0257 Y-11.4153
G01 X0.9928 Y-11.3790
G01 X0.9636 Y-11.3397
G01 X0.9384 Y-11.2977
G01 X0.9175 Y-11.2534
G01 X0.9010 Y-11.2073
G01 X0.8891 Y-11.1598
G01 X0.8819 Y-11.1113
G01 X0.8795 Y-11.0624
G01 X0.8795 Y-7.2133
G00 X0.8795 Y-7.2133
G01 F50.00
G01 Z-1.5500
G01 F50.00
G01 X0.8795 Y-11.0624
G01 X0.8819 Y-11.1113
G01 X0.8891 Y-11.1598
G01 X0.9010 Y-11.2073
G01 X0.9175 Y-11.2534
G01 X0.9384 Y-11.2977
G01 X0.9636 Y-11.3397
G01 X0.9928 Y-11.3790
G01 X1.0257 Y-11.4153
G01 X2.0257 Y-12.4153
G01 X2.0620 Y-12.4482
G01 X2.1013 Y-12.4774
G01 X2.1433 Y-12.5026
G01 X2.1876 Y-12.5235
G01 X2.2337 Y-12.5400
G01 X2.2812 Y-12.5519
G01 X2.3297 Y-12.5591
G01 X2.3786 Y-12.5615
G00 X2.3786 Y-12.5615
G01 F50.00
G01 Z-1.6000
G01 F50.00
G01 X2.3297 Y-12.5591
G01 X2.2812 Y-12.5519
G01 X2.2337 Y-12.5400
G01 X2.1876 Y-12.5235
G01 X2.1433 Y-12.5026
G01 X2.1013 Y-12.4774
G01 X2.0620 Y-12.4482
G01 X2.0257 Y-12.4153
G01 X1.0257 Y-11.4153
G01 X0.9928 Y-11.3790
G01 X0.9636 Y-11.3397
G01 X0.9384 Y-11.2977
G01 X0.9175 Y-11.2534
G01 X0.9010 Y-11.2073
G01 X0.8891 Y-11.1598
G01 X0.8819 Y-11.1113
G01 X0.8795 Y-11.0624
G01 X0.8795 Y-7.2133
G00 X0.8795 Y-7.2133
G01 F50.00
G01 Z-1.6500
G01 F50.00
G01 X0.8795 Y-11.0624
G01 X0.8819 Y-11.1113
G01 X0.8891 Y-11.1598
G01 X0.9010 Y-11.2073
G01 X0.9175 Y-11.2534
G01 X0.9384 Y-11.2977
G01 X0.9636 Y-11.3397
G01 X0.9928 Y-11.3790
G01 X1.0257 Y-11.4153
G01 X2.0257 Y-12.4153
G01 X2.0620 Y-12.4482
G01 X2.1013 Y-12.4774
G01 X2.1433 Y-12.5026
G01 X2.1876 Y-12.5235
G01 X2.2337 Y-12.5400
G01 X2.2812 Y-12.5519
G01 X2.3297 Y-12.5591
G01 X2.3786 Y-12.5615
G00 X2.3786 Y-12.5615
G01 F50.00
G01 Z-1.7000
G01 F50.00
G01 X2.3297 Y-12.5591
G01 X2.2812 Y-12.5519
G01 X2.2337 Y-12.5400
G01 X2.1876 Y-12.5235
G01 X2.1433 Y-12.5026
G01 X2.1013 Y-12.4774
G01 X2.0620 Y-12.4482
G01 X2.0257 Y-12.4153
G01 X1.0257 Y-11.4153
G01 X0.9928 Y-11.3790
G01 X0.9636 Y-11.3397
G01 X0.9384 Y-11.2977
G01 X0.9175 Y-11.2534
G01 X0.9010 Y-11.2073
G01 X0.8891 Y-11.1598
G01 X0.8819 Y-11.1113
G01 X0.8795 Y-11.0624
G01 X0.8795 Y-7.2133
G00 X0.8795 Y-7.2133
G01 F50.00
G01 Z-1.7500
G01 F50.00
G01 X0.8795 Y-11.0624
G01 X0.8819 Y-11.1113
G01 X0.8891 Y-11.1598
G01 X0.9010 Y-11.2073
G01 X0.9175 Y-11.2534
G01 X0.9384 Y-11.2977
G01 X0.9636 Y-11.3397
G01 X0.9928 Y-11.3790
G01 X1.0257 Y-11.4153
G01 X2.0257 Y-12.4153
G01 X2.0620 Y-12.4482
G01 X2.1013 Y-12.4774
G01 X2.1433 Y-12.5026
G01 X2.1876 Y-12.5235
G01 X2.2337 Y-12.5400
G01 X2.2812 Y-12.5519
G01 X2.3297 Y-12.5591
G01 X2.3786 Y-12.5615
G00 X2.3786 Y-12.5615
G01 F50.00
G01 Z-1.8000
G01 F50.00
G01 X2.3297 Y-12.5591
G01 X2.2812 Y-12.5519
G01 X2.2337 Y-12.5400
G01 X2.1876 Y-12.5235
G01 X2.1433 Y-12.5026
G01 X2.1013 Y-12.4774
G01 X2.0620 Y-12.4482
G01 X2.0257 Y-12.4153
G01 X1.0257 Y-11.4153
G01 X0.9928 Y-11.3790
G01 X0.9636 Y-11.3397
G01 X0.9384 Y-11.2977
G01 X0.9175 Y-11.2534
G01 X0.9010 Y-11.2073
G01 X0.8891 Y-11.1598
G01 X0.8819 Y-11.1113
G01 X0.8795 Y-11.0624
G01 X0.8795 Y-7.2133
G00 X0.8795 Y-7.2133
G01 F50.00
G01 Z-1.8500
G01 F50.00
G01 X0.8795 Y-11.0624
G01 X0.8819 Y-11.1113
G01 X0.8891 Y-11.1598
G01 X0.9010 Y-11.2073
G01 X0.9175 Y-11.2534
G01 X0.9384 Y-11.2977
G01 X0.9636 Y-11.3397
G01 X0.9928 Y-11.3790
G01 X1.0257 Y-11.4153
G01 X2.0257 Y-12.4153
G01 X2.0620 Y-12.4482
G01 X2.1013 Y-12.4774
G01 X2.1433 Y-12.5026
G01 X2.1876 Y-12.5235
G01 X2.2337 Y-12.5400
G01 X2.2812 Y-12.5519
G01 X2.3297 Y-12.5591
G01 X2.3786 Y-12.5615
G00 X2.3786 Y-12.5615
G01 F50.00
G01 Z-1.9000
G01 F50.00
G01 X2.3297 Y-12.5591
G01 X2.2812 Y-12.5519
G01 X2.2337 Y-12.5400
G01 X2.1876 Y-12.5235
G01 X2.1433 Y-12.5026
G01 X2.1013 Y-12.4774
G01 X2.0620 Y-12.4482
G01 X2.0257 Y-12.4153
G01 X1.0257 Y-11.4153
G01 X0.9928 Y-11.3790
G01 X0.9636 Y-11.3397
G01 X0.9384 Y-11.2977
G01 X0.9175 Y-11.2534
G01 X0.9010 Y-11.2073
G01 X0.8891 Y-11.1598
G01 X0.8819 Y-11.1113
G01 X0.8795 Y-11.0624
G01 X0.8795 Y-7.2133
G00 X0.8795 Y-7.2133
G01 F50.00
G01 Z-1.9500
G01 F50.00
G01 X0.8795 Y-11.0624
G01 X0.8819 Y-11.1113
G01 X0.8891 Y-11.1598
G01 X0.9010 Y-11.2073
G01 X0.9175 Y-11.2534
G01 X0.9384 Y-11.2977
G01 X0.9636 Y-11.3397
G01 X0.9928 Y-11.3790
G01 X1.0257 Y-11.4153
G01 X2.0257 Y-12.4153
G01 X2.0620 Y-12.4482
G01 X2.1013 Y-12.4774
G01 X2.1433 Y-12.5026
G01 X2.1876 Y-12.5235
G01 X2.2337 Y-12.5400
G01 X2.2812 Y-12.5519
G01 X2.3297 Y-12.5591
G01 X2.3786 Y-12.5615
G00 X2.3786 Y-12.5615
G01 F50.00
G01 Z-2.0000
G01 F50.00
G01 X2.3297 Y-12.5591
G01 X2.2812 Y-12.5519
G01 X2.2337 Y-12.5400
G01 X2.1876 Y-12.5235
G01 X2.1433 Y-12.5026
G01 X2.1013 Y-12.4774
G01 X2.0620 Y-12.4482
G01 X2.0257 Y-12.4153
G01 X1.0257 Y-11.4153
G01 X0.9928 Y-11.3790
G01 X0.9636 Y-11.3397
G01 X0.9384 Y-11.2977
G01 X0.9175 Y-11.2534
G01 X0.9010 Y-11.2073
G01 X0.8891 Y-11.1598
G01 X0.8819 Y-11.1113
G01 X0.8795 Y-11.0624
G01 X0.8795 Y-7.2133
G00 X0.8795 Y-7.2133
G01 F50.00
G01 Z-2.0500
G01 F50.00
G01 X0.8795 Y-11.0624
G01 X0.8819 Y-11.1113
G01 X0.8891 Y-11.1598
G01 X0.9010 Y-11.2073
G01 X0.9175 Y-11.2534
G01 X0.9384 Y-11.2977
G01 X0.9636 Y-11.3397
G01 X0.9928 Y-11.3790
G01 X1.0257 Y-11.4153
G01 X2.0257 Y-12.4153
G01 X2.0620 Y-12.4482
G01 X2.1013 Y-12.4774
G01 X2.1433 Y-12.5026
G01 X2.1876 Y-12.5235
G01 X2.2337 Y-12.5400
G01 X2.2812 Y-12.5519
G01 X2.3297 Y-12.5591
G01 X2.3786 Y-12.5615
G00 X2.3786 Y-12.5615
G01 F50.00
G01 Z-2.1000
G01 F50.00
G01 X2.3297 Y-12.5591
G01 X2.2812 Y-12.5519
G01 X2.2337 Y-12.5400
G01 X2.1876 Y-12.5235
G01 X2.1433 Y-12.5026
G01 X2.1013 Y-12.4774
G01 X2.0620 Y-12.4482
G01 X2.0257 Y-12.4153
G01 X1.0257 Y-11.4153
G01 X0.9928 Y-11.3790
G01 X0.9636 Y-11.3397
G01 X0.9384 Y-11.2977
G01 X0.9175 Y-11.2534
G01 X0.9010 Y-11.2073
G01 X0.8891 Y-11.1598
G01 X0.8819 Y-11.1113
G01 X0.8795 Y-11.0624
G01 X0.8795 Y-7.2133
G00 X0.8795 Y-7.2133
G01 F50.00
G01 Z-2.1500
G01 F50.00
G01 X0.8795 Y-11.0624
G01 X0.8819 Y-11.1113
G01 X0.8891 Y-11.1598
G01 X0.9010 Y-11.2073
G01 X0.9175 Y-11.2534
G01 X0.9384 Y-11.2977
G01 X0.9636 Y-11.3397
G01 X0.9928 Y-11.3790
G01 X1.0257 Y-11.4153
G01 X2.0257 Y-12.4153
G01 X2.0620 Y-12.4482
G01 X2.1013 Y-12.4774
G01 X2.1433 Y-12.5026
G01 X2.1876 Y-12.5235
G01 X2.2337 Y-12.5400
G01 X2.2812 Y-12.5519
G01 X2.3297 Y-12.5591
G01 X2.3786 Y-12.5615
G00 X2.3786 Y-12.5615
G01 F50.00
G01 Z-2.2000
G01 F50.00
G01 X2.3297 Y-12.5591
G01 X2.2812 Y-12.5519
G01 X2.2337 Y-12.5400
G01 X2.1876 Y-12.5235
G01 X2.1433 Y-12.5026
G01 X2.1013 Y-12.4774
G01 X2.0620 Y-12.4482
G01 X2.0257 Y-12.4153
G01 X1.0257 Y-11.4153
G01 X0.9928 Y-11.3790
G01 X0.9636 Y-11.3397
G01 X0.9384 Y-11.2977
G01 X0.9175 Y-11.2534
G01 X0.9010 Y-11.2073
G01 X0.8891 Y-11.1598
G01 X0.8819 Y-11.1113
G01 X0.8795 Y-11.0624
G01 X0.8795 Y-7.2133
G00 X0.8795 Y-7.2133
G01 F50.00
G01 Z-2.2500
G01 F50.00
G01 X0.8795 Y-11.0624
G01 X0.8819 Y-11.1113
G01 X0.8891 Y-11.1598
G01 X0.9010 Y-11.2073
G01 X0.9175 Y-11.2534
G01 X0.9384 Y-11.2977
G01 X0.9636 Y-11.3397
G01 X0.9928 Y-11.3790
G01 X1.0257 Y-11.4153
G01 X2.0257 Y-12.4153
G01 X2.0620 Y-12.4482
G01 X2.1013 Y-12.4774
G01 X2.1433 Y-12.5026
G01 X2.1876 Y-12.5235
G01 X2.2337 Y-12.5400
G01 X2.2812 Y-12.5519
G01 X2.3297 Y-12.5591
G01 X2.3786 Y-12.5615
G00 X2.3786 Y-12.5615
G01 F50.00
G01 Z-2.3000
G01 F50.00
G01 X2.3297 Y-12.5591
G01 X2.2812 Y-12.5519
G01 X2.2337 Y-12.5400
G01 X2.1876 Y-12.5235
G01 X2.1433 Y-12.5026
G01 X2.1013 Y-12.4774
G01 X2.0620 Y-12.4482
G01 X2.0257 Y-12.4153
G01 X1.0257 Y-11.4153
G01 X0.9928 Y-11.3790
G01 X0.9636 Y-11.3397
G01 X0.9384 Y-11.2977
G01 X0.9175 Y-11.2534
G01 X0.9010 Y-11.2073
G01 X0.8891 Y-11.1598
G01 X0.8819 Y-11.1113
G01 X0.8795 Y-11.0624
G01 X0.8795 Y-7.2133
G00 Z5.0000
G00 X2.3786 Y-12.5615
G01 F50.00
G01 Z-0.0500
G01 F50.00
G01 X36.8786 Y-12.5615
G01 X36.9275 Y-12.5591
G01 X36.9760 Y-12.5519
G01 X37.0235 Y-12.5400
G01 X37.0696 Y-12.5235
G01 X37.1139 Y-12.5026
G01 X37.1559 Y-12.4774
G01 X37.1952 Y-12.4482
G01 X37.2315 Y-12.4153
G01 X38.2315 Y-11.4153
G01 X38.2644 Y-11.3790
G01 X38.2936 Y-11.3397
G01 X38.3188 Y-11.2977
G01 X38.3397 Y-11.2534
G01 X38.3562 Y-11.2073
G01 X38.3681 Y-11.1598
G01 X38.3753 Y-11.1113
G01 X38.3777 Y-11.0624
G01 X38.3777 Y-7.2133
G00 X38.3777 Y-7.2133
G01 F50.00
G01 Z-0.1000
G01 F50.00
G01 X38.3777 Y-11.0624
G01 X38.3753 Y-11.1113
G01 X38.3681 Y-11.1598
G01 X38.3562 Y-11.2073
G01 X38.3397 Y-11.2534
G01 X38.3188 Y-11.2977
G01 X38.2936 Y-11.3397
G01 X38.2644 Y-11.3790
G01 X38.2315 Y-11.4153
G01 X37.2315 Y-12.4153
G01 X37.1952 Y-12.4482
G01 X37.1559 Y-12.4774
G01 X37.1139 Y-12.5026
G01 X37.0696 Y-12.5235
G01 X37.0235 Y-12.5400
G01 X36.9760 Y-12.5519
G01 X36.9275 Y-12.5591
G01 X36.8786 Y-12.5615
G01 X2.3786 Y-12.5615
G00 X2.3786 Y-12.5615
G01 F50.00
G01 Z-0.1500
G01 F50.00
G01 X36.8786 Y-12.5615
G01 X36.9275 Y-12.5591
G01 X36.9760 Y-12.5519
G01 X37.0235 Y-12.5400
G01 X37.0696 Y-12.5235
G01 X37.1139 Y-12.5026
G01 X37.1559 Y-12.4774
G01 X37.1952 Y-12.4482
G01 X37.2315 Y-12.4153
G01 X38.2315 Y-11.4153
G01 X38.2644 Y-11.3790
G01 X38.2936 Y-11.3397
G01 X38.3188 Y-11.2977
G01 X38.3397 Y-11.2534
G01 X38.3562 Y-11.2073
G01 X38.3681 Y-11.1598
G01 X38.3753 Y-11.1113
G01 X38.3777 Y-11.0624
G01 X38.3777 Y-7.2133
G00 X38.3777 Y-7.2133
G01 F50.00
G01 Z-0.2000
G01 F50.00
G01 X38.3777 Y-11.0624
G01 X38.3753 Y-11.1113
G01 X38.3681 Y-11.1598
G01 X38.3562 Y-11.2073
G01 X38.3397 Y-11.2534
G01 X38.3188 Y-11.2977
G01 X38.2936 Y-11.3397
G01 X38.2644 Y-11.3790
G01 X38.2315 Y-11.4153
G01 X37.2315 Y-12.4153
G01 X37.1952 Y-12.4482
G01 X37.1559 Y-12.4774
G01 X37.1139 Y-12.5026
G01 X37.0696 Y-12.5235
G01 X37.0235 Y-12.5400
G01 X36.9760 Y-12.5519
G01 X36.9275 Y-12.5591
G01 X36.8786 Y-12.5615
G01 X2.3786 Y-12.5615
G00 X2.3786 Y-12.5615
G01 F50.00
G01 Z-0.2500
G01 F50.00
G01 X36.8786 Y-12.5615
G01 X36.9275 Y-12.5591
G01 X36.9760 Y-12.5519
G01 X37.0235 Y-12.5400
G01 X37.0696 Y-12.5235
G01 X37.1139 Y-12.5026
G01 X37.1559 Y-12.4774
G01 X37.1952 Y-12.4482
G01 X37.2315 Y-12.4153
G01 X38.2315 Y-11.4153
G01 X38.2644 Y-11.3790
G01 X38.2936 Y-11.3397
G01 X38.3188 Y-11.2977
G01 X38.3397 Y-11.2534
G01 X38.3562 Y-11.2073
G01 X38.3681 Y-11.1598
G01 X38.3753 Y-11.1113
G01 X38.3777 Y-11.0624
G01 X38.3777 Y-7.2133
G00 X38.3777 Y-7.2133
G01 F50.00
G01 Z-0.3000
G01 F50.00
G01 X38.3777 Y-11.0624
G01 X38.3753 Y-11.1113
G01 X38.3681 Y-11.1598
G01 X38.3562 Y-11.2073
G01 X38.3397 Y-11.2534
G01 X38.3188 Y-11.2977
G01 X38.2936 Y-11.3397
G01 X38.2644 Y-11.3790
G01 X38.2315 Y-11.4153
G01 X37.2315 Y-12.4153
G01 X37.1952 Y-12.4482
G01 X37.1559 Y-12.4774
G01 X37.1139 Y-12.5026
G01 X37.0696 Y-12.5235
G01 X37.0235 Y-12.5400
G01 X36.9760 Y-12.5519
G01 X36.9275 Y-12.5591
G01 X36.8786 Y-12.5615
G01 X2.3786 Y-12.5615
G00 X2.3786 Y-12.5615
G01 F50.00
G01 Z-0.3500
G01 F50.00
G01 X36.8786 Y-12.5615
G01 X36.9275 Y-12.5591
G01 X36.9760 Y-12.5519
G01 X37.0235 Y-12.5400
G01 X37.0696 Y-12.5235
G01 X37.1139 Y-12.5026
G01 X37.1559 Y-12.4774
G01 X37.1952 Y-12.4482
G01 X37.2315 Y-12.4153
G01 X38.2315 Y-11.4153
G01 X38.2644 Y-11.3790
G01 X38.2936 Y-11.3397
G01 X38.3188 Y-11.2977
G01 X38.3397 Y-11.2534
G01 X38.3562 Y-11.2073
G01 X38.3681 Y-11.1598
G01 X38.3753 Y-11.1113
G01 X38.3777 Y-11.0624
G01 X38.3777 Y-7.2133
G00 X38.3777 Y-7.2133
G01 F50.00
G01 Z-0.4000
G01 F50.00
G01 X38.3777 Y-11.0624
G01 X38.3753 Y-11.1113
G01 X38.3681 Y-11.1598
G01 X38.3562 Y-11.2073
G01 X38.3397 Y-11.2534
G01 X38.3188 Y-11.2977
G01 X38.2936 Y-11.3397
G01 X38.2644 Y-11.3790
G01 X38.2315 Y-11.4153
G01 X37.2315 Y-12.4153
G01 X37.1952 Y-12.4482
G01 X37.1559 Y-12.4774
G01 X37.1139 Y-12.5026
G01 X37.0696 Y-12.5235
G01 X37.0235 Y-12.5400
G01 X36.9760 Y-12.5519
G01 X36.9275 Y-12.5591
G01 X36.8786 Y-12.5615
G01 X2.3786 Y-12.5615
G00 X2.3786 Y-12.5615
G01 F50.00
G01 Z-0.4500
G01 F50.00
G01 X36.8786 Y-12.5615
G01 X36.9275 Y-12.5591
G01 X36.9760 Y-12.5519
G01 X37.0235 Y-12.5400
G01 X37.0696 Y-12.5235
G01 X37.1139 Y-12.5026
G01 X37.1559 Y-12.4774
G01 X37.1952 Y-12.4482
G01 X37.2315 Y-12.4153
G01 X38.2315 Y-11.4153
G01 X38.2644 Y-11.3790
G01 X38.2936 Y-11.3397
G01 X38.3188 Y-11.2977
G01 X38.3397 Y-11.2534
G01 X38.3562 Y-11.2073
G01 X38.3681 Y-11.1598
G01 X38.3753 Y-11.1113
G01 X38.3777 Y-11.0624
G01 X38.3777 Y-7.2133
G00 X38.3777 Y-7.2133
G01 F50.00
G01 Z-0.5000
G01 F50.00
G01 X38.3777 Y-11.0624
G01 X38.3753 Y-11.1113
G01 X38.3681 Y-11.1598
G01 X38.3562 Y-11.2073
G01 X38.3397 Y-11.2534
G01 X38.3188 Y-11.2977
G01 X38.2936 Y-11.3397
G01 X38.2644 Y-11.3790
G01 X38.2315 Y-11.4153
G01 X37.2315 Y-12.4153
G01 X37.1952 Y-12.4482
G01 X37.1559 Y-12.4774
G01 X37.1139 Y-12.5026
G01 X37.0696 Y-12.5235
G01 X37.0235 Y-12.5400
G01 X36.9760 Y-12.5519
G01 X36.9275 Y-12.5591
G01 X36.8786 Y-12.5615
G01 X2.3786 Y-12.5615
G00 X2.3786 Y-12.5615
G01 F50.00
G01 Z-0.5500
G01 F50.00
G01 X36.8786 Y-12.5615
G01 X36.9275 Y-12.5591
G01 X36.9760 Y-12.5519
G01 X37.0235 Y-12.5400
G01 X37.0696 Y-12.5235
G01 X37.1139 Y-12.5026
G01 X37.1559 Y-12.4774
G01 X37.1952 Y-12.4482
G01 X37.2315 Y-12.4153
G01 X38.2315 Y-11.4153
G01 X38.2644 Y-11.3790
G01 X38.2936 Y-11.3397
G01 X38.3188 Y-11.2977
G01 X38.3397 Y-11.2534
G01 X38.3562 Y-11.2073
G01 X38.3681 Y-11.1598
G01 X38.3753 Y-11.1113
G01 X38.3777 Y-11.0624
G01 X38.3777 Y-7.2133
G00 X38.3777 Y-7.2133
G01 F50.00
G01 Z-0.6000
G01 F50.00
G01 X38.3777 Y-11.0624
G01 X38.3753 Y-11.1113
G01 X38.3681 Y-11.1598
G01 X38.3562 Y-11.2073
G01 X38.3397 Y-11.2534
G01 X38.3188 Y-11.2977
G01 X38.2936 Y-11.3397
G01 X38.2644 Y-11.3790
G01 X38.2315 Y-11.4153
G01 X37.2315 Y-12.4153
G01 X37.1952 Y-12.4482
G01 X37.1559 Y-12.4774
G01 X37.1139 Y-12.5026
G01 X37.0696 Y-12.5235
G01 X37.0235 Y-12.5400
G01 X36.9760 Y-12.5519
G01 X36.9275 Y-12.5591
G01 X36.8786 Y-12.5615
G01 X2.3786 Y-12.5615
G00 X2.3786 Y-12.5615
G01 F50.00
G01 Z-0.6500
G01 F50.00
G01 X36.8786 Y-12.5615
G01 X36.9275 Y-12.5591
G01 X36.9760 Y-12.5519
G01 X37.0235 Y-12.5400
G01 X37.0696 Y-12.5235
G01 X37.1139 Y-12.5026
G01 X37.1559 Y-12.4774
G01 X37.1952 Y-12.4482
G01 X37.2315 Y-12.4153
G01 X38.2315 Y-11.4153
G01 X38.2644 Y-11.3790
G01 X38.2936 Y-11.3397
G01 X38.3188 Y-11.2977
G01 X38.3397 Y-11.2534
G01 X38.3562 Y-11.2073
G01 X38.3681 Y-11.1598
G01 X38.3753 Y-11.1113
G01 X38.3777 Y-11.0624
G01 X38.3777 Y-7.2133
G00 X38.3777 Y-7.2133
G01 F50.00
G01 Z-0.7000
G01 F50.00
G01 X38.3777 Y-11.0624
G01 X38.3753 Y-11.1113
G01 X38.3681 Y-11.1598
G01 X38.3562 Y-11.2073
G01 X38.3397 Y-11.2534
G01 X38.3188 Y-11.2977
G01 X38.2936 Y-11.3397
G01 X38.2644 Y-11.3790
G01 X38.2315 Y-11.4153
G01 X37.2315 Y-12.4153
G01 X37.1952 Y-12.4482
G01 X37.1559 Y-12.4774
G01 X37.1139 Y-12.5026
G01 X37.0696 Y-12.5235
G01 X37.0235 Y-12.5400
G01 X36.9760 Y-12.5519
G01 X36.9275 Y-12.5591
G01 X36.8786 Y-12.5615
G01 X2.3786 Y-12.5615
G00 X2.3786 Y-12.5615
G01 F50.00
G01 Z-0.7500
G01 F50.00
G01 X36.8786 Y-12.5615
G01 X36.9275 Y-12.5591
G01 X36.9760 Y-12.5519
G01 X37.0235 Y-12.5400
G01 X37.0696 Y-12.5235
G01 X37.1139 Y-12.5026
G01 X37.1559 Y-12.4774
G01 X37.1952 Y-12.4482
G01 X37.2315 Y-12.4153
G01 X38.2315 Y-11.4153
G01 X38.2644 Y-11.3790
G01 X38.2936 Y-11.3397
G01 X38.3188 Y-11.2977
G01 X38.3397 Y-11.2534
G01 X38.3562 Y-11.2073
G01 X38.3681 Y-11.1598
G01 X38.3753 Y-11.1113
G01 X38.3777 Y-11.0624
G01 X38.3777 Y-7.2133
G00 X38.3777 Y-7.2133
G01 F50.00
G01 Z-0.8000
G01 F50.00
G01 X38.3777 Y-11.0624
G01 X38.3753 Y-11.1113
G01 X38.3681 Y-11.1598
G01 X38.3562 Y-11.2073
G01 X38.3397 Y-11.2534
G01 X38.3188 Y-11.2977
G01 X38.2936 Y-11.3397
G01 X38.2644 Y-11.3790
G01 X38.2315 Y-11.4153
G01 X37.2315 Y-12.4153
G01 X37.1952 Y-12.4482
G01 X37.1559 Y-12.4774
G01 X37.1139 Y-12.5026
G01 X37.0696 Y-12.5235
G01 X37.0235 Y-12.5400
G01 X36.9760 Y-12.5519
G01 X36.9275 Y-12.5591
G01 X36.8786 Y-12.5615
G01 X2.3786 Y-12.5615
G00 X2.3786 Y-12.5615
G01 F50.00
G01 Z-0.8500
G01 F50.00
G01 X36.8786 Y-12.5615
G01 X36.9275 Y-12.5591
G01 X36.9760 Y-12.5519
G01 X37.0235 Y-12.5400
G01 X37.0696 Y-12.5235
G01 X37.1139 Y-12.5026
G01 X37.1559 Y-12.4774
G01 X37.1952 Y-12.4482
G01 X37.2315 Y-12.4153
G01 X38.2315 Y-11.4153
G01 X38.2644 Y-11.3790
G01 X38.2936 Y-11.3397
G01 X38.3188 Y-11.2977
G01 X38.3397 Y-11.2534
G01 X38.3562 Y-11.2073
G01 X38.3681 Y-11.1598
G01 X38.3753 Y-11.1113
G01 X38.3777 Y-11.0624
G01 X38.3777 Y-7.2133
G00 X38.3777 Y-7.2133
G01 F50.00
G01 Z-0.9000
G01 F50.00
G01 X38.3777 Y-11.0624
G01 X38.3753 Y-11.1113
G01 X38.3681 Y-11.1598
G01 X38.3562 Y-11.2073
G01 X38.3397 Y-11.2534
G01 X38.3188 Y-11.2977
G01 X38.2936 Y-11.3397
G01 X38.2644 Y-11.3790
G01 X38.2315 Y-11.4153
G01 X37.2315 Y-12.4153
G01 X37.1952 Y-12.4482
G01 X37.1559 Y-12.4774
G01 X37.1139 Y-12.5026
G01 X37.0696 Y-12.5235
G01 X37.0235 Y-12.5400
G01 X36.9760 Y-12.5519
G01 X36.9275 Y-12.5591
G01 X36.8786 Y-12.5615
G01 X2.3786 Y-12.5615
G00 X2.3786 Y-12.5615
G01 F50.00
G01 Z-0.9500
G01 F50.00
G01 X36.8786 Y-12.5615
G01 X36.9275 Y-12.5591
G01 X36.9760 Y-12.5519
G01 X37.0235 Y-12.5400
G01 X37.0696 Y-12.5235
G01 X37.1139 Y-12.5026
G01 X37.1559 Y-12.4774
G01 X37.1952 Y-12.4482
G01 X37.2315 Y-12.4153
G01 X38.2315 Y-11.4153
G01 X38.2644 Y-11.3790
G01 X38.2936 Y-11.3397
G01 X38.3188 Y-11.2977
G01 X38.3397 Y-11.2534
G01 X38.3562 Y-11.2073
G01 X38.3681 Y-11.1598
G01 X38.3753 Y-11.1113
G01 X38.3777 Y-11.0624
G01 X38.3777 Y-7.2133
G00 X38.3777 Y-7.2133
G01 F50.00
G01 Z-1.0000
G01 F50.00
G01 X38.3777 Y-11.0624
G01 X38.3753 Y-11.1113
G01 X38.3681 Y-11.1598
G01 X38.3562 Y-11.2073
G01 X38.3397 Y-11.2534
G01 X38.3188 Y-11.2977
G01 X38.2936 Y-11.3397
G01 X38.2644 Y-11.3790
G01 X38.2315 Y-11.4153
G01 X37.2315 Y-12.4153
G01 X37.1952 Y-12.4482
G01 X37.1559 Y-12.4774
G01 X37.1139 Y-12.5026
G01 X37.0696 Y-12.5235
G01 X37.0235 Y-12.5400
G01 X36.9760 Y-12.5519
G01 X36.9275 Y-12.5591
G01 X36.8786 Y-12.5615
G01 X2.3786 Y-12.5615
G00 X2.3786 Y-12.5615
G01 F50.00
G01 Z-1.0500
G01 F50.00
G01 X36.8786 Y-12.5615
G01 X36.9275 Y-12.5591
G01 X36.9760 Y-12.5519
G01 X37.0235 Y-12.5400
G01 X37.0696 Y-12.5235
G01 X37.1139 Y-12.5026
G01 X37.1559 Y-12.4774
G01 X37.1952 Y-12.4482
G01 X37.2315 Y-12.4153
G01 X38.2315 Y-11.4153
G01 X38.2644 Y-11.3790
G01 X38.2936 Y-11.3397
G01 X38.3188 Y-11.2977
G01 X38.3397 Y-11.2534
G01 X38.3562 Y-11.2073
G01 X38.3681 Y-11.1598
G01 X38.3753 Y-11.1113
G01 X38.3777 Y-11.0624
G01 X38.3777 Y-7.2133
G00 X38.3777 Y-7.2133
G01 F50.00
G01 Z-1.1000
G01 F50.00
G01 X38.3777 Y-11.0624
G01 X38.3753 Y-11.1113
G01 X38.3681 Y-11.1598
G01 X38.3562 Y-11.2073
G01 X38.3397 Y-11.2534
G01 X38.3188 Y-11.2977
G01 X38.2936 Y-11.3397
G01 X38.2644 Y-11.3790
G01 X38.2315 Y-11.4153
G01 X37.2315 Y-12.4153
G01 X37.1952 Y-12.4482
G01 X37.1559 Y-12.4774
G01 X37.1139 Y-12.5026
G01 X37.0696 Y-12.5235
G01 X37.0235 Y-12.5400
G01 X36.9760 Y-12.5519
G01 X36.9275 Y-12.5591
G01 X36.8786 Y-12.5615
G01 X2.3786 Y-12.5615
G00 X2.3786 Y-12.5615
G01 F50.00
G01 Z-1.1500
G01 F50.00
G01 X36.8786 Y-12.5615
G01 X36.9275 Y-12.5591
G01 X36.9760 Y-12.5519
G01 X37.0235 Y-12.5400
G01 X37.0696 Y-12.5235
G01 X37.1139 Y-12.5026
G01 X37.1559 Y-12.4774
G01 X37.1952 Y-12.4482
G01 X37.2315 Y-12.4153
G01 X38.2315 Y-11.4153
G01 X38.2644 Y-11.3790
G01 X38.2936 Y-11.3397
G01 X38.3188 Y-11.2977
G01 X38.3397 Y-11.2534
G01 X38.3562 Y-11.2073
G01 X38.3681 Y-11.1598
G01 X38.3753 Y-11.1113
G01 X38.3777 Y-11.0624
G01 X38.3777 Y-7.2133
G00 X38.3777 Y-7.2133
G01 F50.00
G01 Z-1.2000
G01 F50.00
G01 X38.3777 Y-11.0624
G01 X38.3753 Y-11.1113
G01 X38.3681 Y-11.1598
G01 X38.3562 Y-11.2073
G01 X38.3397 Y-11.2534
G01 X38.3188 Y-11.2977
G01 X38.2936 Y-11.3397
G01 X38.2644 Y-11.3790
G01 X38.2315 Y-11.4153
G01 X37.2315 Y-12.4153
G01 X37.1952 Y-12.4482
G01 X37.1559 Y-12.4774
G01 X37.1139 Y-12.5026
G01 X37.0696 Y-12.5235
G01 X37.0235 Y-12.5400
G01 X36.9760 Y-12.5519
G01 X36.9275 Y-12.5591
G01 X36.8786 Y-12.5615
G01 X2.3786 Y-12.5615
G00 X2.3786 Y-12.5615
G01 F50.00
G01 Z-1.2500
G01 F50.00
G01 X36.8786 Y-12.5615
G01 X36.9275 Y-12.5591
G01 X36.9760 Y-12.5519
G01 X37.0235 Y-12.5400
G01 X37.0696 Y-12.5235
G01 X37.1139 Y-12.5026
G01 X37.1559 Y-12.4774
G01 X37.1952 Y-12.4482
G01 X37.2315 Y-12.4153
G01 X38.2315 Y-11.4153
G01 X38.2644 Y-11.3790
G01 X38.2936 Y-11.3397
G01 X38.3188 Y-11.2977
G01 X38.3397 Y-11.2534
G01 X38.3562 Y-11.2073
G01 X38.3681 Y-11.1598
G01 X38.3753 Y-11.1113
G01 X38.3777 Y-11.0624
G01 X38.3777 Y-7.2133
G00 X38.3777 Y-7.2133
G01 F50.00
G01 Z-1.3000
G01 F50.00
G01 X38.3777 Y-11.0624
G01 X38.3753 Y-11.1113
G01 X38.3681 Y-11.1598
G01 X38.3562 Y-11.2073
G01 X38.3397 Y-11.2534
G01 X38.3188 Y-11.2977
G01 X38.2936 Y-11.3397
G01 X38.2644 Y-11.3790
G01 X38.2315 Y-11.4153
G01 X37.2315 Y-12.4153
G01 X37.1952 Y-12.4482
G01 X37.1559 Y-12.4774
G01 X37.1139 Y-12.5026
G01 X37.0696 Y-12.5235
G01 X37.0235 Y-12.5400
G01 X36.9760 Y-12.5519
G01 X36.9275 Y-12.5591
G01 X36.8786 Y-12.5615
G01 X2.3786 Y-12.5615
G00 X2.3786 Y-12.5615
G01 F50.00
G01 Z-1.3500
G01 F50.00
G01 X36.8786 Y-12.5615
G01 X36.9275 Y-12.5591
G01 X36.9760 Y-12.5519
G01 X37.0235 Y-12.5400
G01 X37.0696 Y-12.5235
G01 X37.1139 Y-12.5026
G01 X37.1559 Y-12.4774
G01 X37.1952 Y-12.4482
G01 X37.2315 Y-12.4153
G01 X38.2315 Y-11.4153
G01 X38.2644 Y-11.3790
G01 X38.2936 Y-11.3397
G01 X38.3188 Y-11.2977
G01 X38.3397 Y-11.2534
G01 X38.3562 Y-11.2073
G01 X38.3681 Y-11.1598
G01 X38.3753 Y-11.1113
G01 X38.3777 Y-11.0624
G01 X38.3777 Y-7.2133
G00 X38.3777 Y-7.2133
G01 F50.00
G01 Z-1.4000
G01 F50.00
G01 X38.3777 Y-11.0624
G01 X38.3753 Y-11.1113
G01 X38.3681 Y-11.1598
G01 X38.3562 Y-11.2073
G01 X38.3397 Y-11.2534
G01 X38.3188 Y-11.2977
G01 X38.2936 Y-11.3397
G01 X38.2644 Y-11.3790
G01 X38.2315 Y-11.4153
G01 X37.2315 Y-12.4153
G01 X37.1952 Y-12.4482
G01 X37.1559 Y-12.4774
G01 X37.1139 Y-12.5026
G01 X37.0696 Y-12.5235
G01 X37.0235 Y-12.5400
G01 X36.9760 Y-12.5519
G01 X36.9275 Y-12.5591
G01 X36.8786 Y-12.5615
G01 X2.3786 Y-12.5615
G00 X2.3786 Y-12.5615
G01 F50.00
G01 Z-1.4500
G01 F50.00
G01 X36.8786 Y-12.5615
G01 X36.9275 Y-12.5591
G01 X36.9760 Y-12.5519
G01 X37.0235 Y-12.5400
G01 X37.0696 Y-12.5235
G01 X37.1139 Y-12.5026
G01 X37.1559 Y-12.4774
G01 X37.1952 Y-12.4482
G01 X37.2315 Y-12.4153
G01 X38.2315 Y-11.4153
G01 X38.2644 Y-11.3790
G01 X38.2936 Y-11.3397
G01 X38.3188 Y-11.2977
G01 X38.3397 Y-11.2534
G01 X38.3562 Y-11.2073
G01 X38.3681 Y-11.1598
G01 X38.3753 Y-11.1113
G01 X38.3777 Y-11.0624
G01 X38.3777 Y-7.2133
G00 X38.3777 Y-7.2133
G01 F50.00
G01 Z-1.5000
G01 F50.00
G01 X38.3777 Y-11.0624
G01 X38.3753 Y-11.1113
G01 X38.3681 Y-11.1598
G01 X38.3562 Y-11.2073
G01 X38.3397 Y-11.2534
G01 X38.3188 Y-11.2977
G01 X38.2936 Y-11.3397
G01 X38.2644 Y-11.3790
G01 X38.2315 Y-11.4153
G01 X37.2315 Y-12.4153
G01 X37.1952 Y-12.4482
G01 X37.1559 Y-12.4774
G01 X37.1139 Y-12.5026
G01 X37.0696 Y-12.5235
G01 X37.0235 Y-12.5400
G01 X36.9760 Y-12.5519
G01 X36.9275 Y-12.5591
G01 X36.8786 Y-12.5615
G01 X2.3786 Y-12.5615
G00 X2.3786 Y-12.5615
G01 F50.00
G01 Z-1.5500
G01 F50.00
G01 X36.8786 Y-12.5615
G01 X36.9275 Y-12.5591
G01 X36.9760 Y-12.5519
G01 X37.0235 Y-12.5400
G01 X37.0696 Y-12.5235
G01 X37.1139 Y-12.5026
G01 X37.1559 Y-12.4774
G01 X37.1952 Y-12.4482
G01 X37.2315 Y-12.4153
G01 X38.2315 Y-11.4153
G01 X38.2644 Y-11.3790
G01 X38.2936 Y-11.3397
G01 X38.3188 Y-11.2977
G01 X38.3397 Y-11.2534
G01 X38.3562 Y-11.2073
G01 X38.3681 Y-11.1598
G01 X38.3753 Y-11.1113
G01 X38.3777 Y-11.0624
G01 X38.3777 Y-7.2133
G00 X38.3777 Y-7.2133
G01 F50.00
G01 Z-1.6000
G01 F50.00
G01 X38.3777 Y-11.0624
G01 X38.3753 Y-11.1113
G01 X38.3681 Y-11.1598
G01 X38.3562 Y-11.2073
G01 X38.3397 Y-11.2534
G01 X38.3188 Y-11.2977
G01 X38.2936 Y-11.3397
G01 X38.2644 Y-11.3790
G01 X38.2315 Y-11.4153
G01 X37.2315 Y-12.4153
G01 X37.1952 Y-12.4482
G01 X37.1559 Y-12.4774
G01 X37.1139 Y-12.5026
G01 X37.0696 Y-12.5235
G01 X37.0235 Y-12.5400
G01 X36.9760 Y-12.5519
G01 X36.9275 Y-12.5591
G01 X36.8786 Y-12.5615
G01 X2.3786 Y-12.5615
G00 X2.3786 Y-12.5615
G01 F50.00
G01 Z-1.6500
G01 F50.00
G01 X36.8786 Y-12.5615
G01 X36.9275 Y-12.5591
G01 X36.9760 Y-12.5519
G01 X37.0235 Y-12.5400
G01 X37.0696 Y-12.5235
G01 X37.1139 Y-12.5026
G01 X37.1559 Y-12.4774
G01 X37.1952 Y-12.4482
G01 X37.2315 Y-12.4153
G01 X38.2315 Y-11.4153
G01 X38.2644 Y-11.3790
G01 X38.2936 Y-11.3397
G01 X38.3188 Y-11.2977
G01 X38.3397 Y-11.2534
G01 X38.3562 Y-11.2073
G01 X38.3681 Y-11.1598
G01 X38.3753 Y-11.1113
G01 X38.3777 Y-11.0624
G01 X38.3777 Y-7.2133
G00 X38.3777 Y-7.2133
G01 F50.00
G01 Z-1.7000
G01 F50.00
G01 X38.3777 Y-11.0624
G01 X38.3753 Y-11.1113
G01 X38.3681 Y-11.1598
G01 X38.3562 Y-11.2073
G01 X38.3397 Y-11.2534
G01 X38.3188 Y-11.2977
G01 X38.2936 Y-11.3397
G01 X38.2644 Y-11.3790
G01 X38.2315 Y-11.4153
G01 X37.2315 Y-12.4153
G01 X37.1952 Y-12.4482
G01 X37.1559 Y-12.4774
G01 X37.1139 Y-12.5026
G01 X37.0696 Y-12.5235
G01 X37.0235 Y-12.5400
G01 X36.9760 Y-12.5519
G01 X36.9275 Y-12.5591
G01 X36.8786 Y-12.5615
G01 X2.3786 Y-12.5615
G00 X2.3786 Y-12.5615
G01 F50.00
G01 Z-1.7500
G01 F50.00
G01 X36.8786 Y-12.5615
G01 X36.9275 Y-12.5591
G01 X36.9760 Y-12.5519
G01 X37.0235 Y-12.5400
G01 X37.0696 Y-12.5235
G01 X37.1139 Y-12.5026
G01 X37.1559 Y-12.4774
G01 X37.1952 Y-12.4482
G01 X37.2315 Y-12.4153
G01 X38.2315 Y-11.4153
G01 X38.2644 Y-11.3790
G01 X38.2936 Y-11.3397
G01 X38.3188 Y-11.2977
G01 X38.3397 Y-11.2534
G01 X38.3562 Y-11.2073
G01 X38.3681 Y-11.1598
G01 X38.3753 Y-11.1113
G01 X38.3777 Y-11.0624
G01 X38.3777 Y-7.2133
G00 X38.3777 Y-7.2133
G01 F50.00
G01 Z-1.8000
G01 F50.00
G01 X38.3777 Y-11.0624
G01 X38.3753 Y-11.1113
G01 X38.3681 Y-11.1598
G01 X38.3562 Y-11.2073
G01 X38.3397 Y-11.2534
G01 X38.3188 Y-11.2977
G01 X38.2936 Y-11.3397
G01 X38.2644 Y-11.3790
G01 X38.2315 Y-11.4153
G01 X37.2315 Y-12.4153
G01 X37.1952 Y-12.4482
G01 X37.1559 Y-12.4774
G01 X37.1139 Y-12.5026
G01 X37.0696 Y-12.5235
G01 X37.0235 Y-12.5400
G01 X36.9760 Y-12.5519
G01 X36.9275 Y-12.5591
G01 X36.8786 Y-12.5615
G01 X2.3786 Y-12.5615
G00 X2.3786 Y-12.5615
G01 F50.00
G01 Z-1.8500
G01 F50.00
G01 X36.8786 Y-12.5615
G01 X36.9275 Y-12.5591
G01 X36.9760 Y-12.5519
G01 X37.0235 Y-12.5400
G01 X37.0696 Y-12.5235
G01 X37.1139 Y-12.5026
G01 X37.1559 Y-12.4774
G01 X37.1952 Y-12.4482
G01 X37.2315 Y-12.4153
G01 X38.2315 Y-11.4153
G01 X38.2644 Y-11.3790
G01 X38.2936 Y-11.3397
G01 X38.3188 Y-11.2977
G01 X38.3397 Y-11.2534
G01 X38.3562 Y-11.2073
G01 X38.3681 Y-11.1598
G01 X38.3753 Y-11.1113
G01 X38.3777 Y-11.0624
G01 X38.3777 Y-7.2133
G00 X38.3777 Y-7.2133
G01 F50.00
G01 Z-1.9000
G01 F50.00
G01 X38.3777 Y-11.0624
G01 X38.3753 Y-11.1113
G01 X38.3681 Y-11.1598
G01 X38.3562 Y-11.2073
G01 X38.3397 Y-11.2534
G01 X38.3188 Y-11.2977
G01 X38.2936 Y-11.3397
G01 X38.2644 Y-11.3790
G01 X38.2315 Y-11.4153
G01 X37.2315 Y-12.4153
G01 X37.1952 Y-12.4482
G01 X37.1559 Y-12.4774
G01 X37.1139 Y-12.5026
G01 X37.0696 Y-12.5235
G01 X37.0235 Y-12.5400
G01 X36.9760 Y-12.5519
G01 X36.9275 Y-12.5591
G01 X36.8786 Y-12.5615
G01 X2.3786 Y-12.5615
G00 X2.3786 Y-12.5615
G01 F50.00
G01 Z-1.9500
G01 F50.00
G01 X36.8786 Y-12.5615
G01 X36.9275 Y-12.5591
G01 X36.9760 Y-12.5519
G01 X37.0235 Y-12.5400
G01 X37.0696 Y-12.5235
G01 X37.1139 Y-12.5026
G01 X37.1559 Y-12.4774
G01 X37.1952 Y-12.4482
G01 X37.2315 Y-12.4153
G01 X38.2315 Y-11.4153
G01 X38.2644 Y-11.3790
G01 X38.2936 Y-11.3397
G01 X38.3188 Y-11.2977
G01 X38.3397 Y-11.2534
G01 X38.3562 Y-11.2073
G01 X38.3681 Y-11.1598
G01 X38.3753 Y-11.1113
G01 X38.3777 Y-11.0624
G01 X38.3777 Y-7.2133
G00 X38.3777 Y-7.2133
G01 F50.00
G01 Z-2.0000
G01 F50.00
G01 X38.3777 Y-11.0624
G01 X38.3753 Y-11.1113
G01 X38.3681 Y-11.1598
G01 X38.3562 Y-11.2073
G01 X38.3397 Y-11.2534
G01 X38.3188 Y-11.2977
G01 X38.2936 Y-11.3397
G01 X38.2644 Y-11.3790
G01 X38.2315 Y-11.4153
G01 X37.2315 Y-12.4153
G01 X37.1952 Y-12.4482
G01 X37.1559 Y-12.4774
G01 X37.1139 Y-12.5026
G01 X37.0696 Y-12.5235
G01 X37.0235 Y-12.5400
G01 X36.9760 Y-12.5519
G01 X36.9275 Y-12.5591
G01 X36.8786 Y-12.5615
G01 X2.3786 Y-12.5615
G00 X2.3786 Y-12.5615
G01 F50.00
G01 Z-2.0500
G01 F50.00
G01 X36.8786 Y-12.5615
G01 X36.9275 Y-12.5591
G01 X36.9760 Y-12.5519
G01 X37.0235 Y-12.5400
G01 X37.0696 Y-12.5235
G01 X37.1139 Y-12.5026
G01 X37.1559 Y-12.4774
G01 X37.1952 Y-12.4482
G01 X37.2315 Y-12.4153
G01 X38.2315 Y-11.4153
G01 X38.2644 Y-11.3790
G01 X38.2936 Y-11.3397
G01 X38.3188 Y-11.2977
G01 X38.3397 Y-11.2534
G01 X38.3562 Y-11.2073
G01 X38.3681 Y-11.1598
G01 X38.3753 Y-11.1113
G01 X38.3777 Y-11.0624
G01 X38.3777 Y-7.2133
G00 X38.3777 Y-7.2133
G01 F50.00
G01 Z-2.1000
G01 F50.00
G01 X38.3777 Y-11.0624
G01 X38.3753 Y-11.1113
G01 X38.3681 Y-11.1598
G01 X38.3562 Y-11.2073
G01 X38.3397 Y-11.2534
G01 X38.3188 Y-11.2977
G01 X38.2936 Y-11.3397
G01 X38.2644 Y-11.3790
G01 X38.2315 Y-11.4153
G01 X37.2315 Y-12.4153
G01 X37.1952 Y-12.4482
G01 X37.1559 Y-12.4774
G01 X37.1139 Y-12.5026
G01 X37.0696 Y-12.5235
G01 X37.0235 Y-12.5400
G01 X36.9760 Y-12.5519
G01 X36.9275 Y-12.5591
G01 X36.8786 Y-12.5615
G01 X2.3786 Y-12.5615
G00 X2.3786 Y-12.5615
G01 F50.00
G01 Z-2.1500
G01 F50.00
G01 X36.8786 Y-12.5615
G01 X36.9275 Y-12.5591
G01 X36.9760 Y-12.5519
G01 X37.0235 Y-12.5400
G01 X37.0696 Y-12.5235
G01 X37.1139 Y-12.5026
G01 X37.1559 Y-12.4774
G01 X37.1952 Y-12.4482
G01 X37.2315 Y-12.4153
G01 X38.2315 Y-11.4153
G01 X38.2644 Y-11.3790
G01 X38.2936 Y-11.3397
G01 X38.3188 Y-11.2977
G01 X38.3397 Y-11.2534
G01 X38.3562 Y-11.2073
G01 X38.3681 Y-11.1598
G01 X38.3753 Y-11.1113
G01 X38.3777 Y-11.0624
G01 X38.3777 Y-7.2133
G00 X38.3777 Y-7.2133
G01 F50.00
G01 Z-2.2000
G01 F50.00
G01 X38.3777 Y-11.0624
G01 X38.3753 Y-11.1113
G01 X38.3681 Y-11.1598
G01 X38.3562 Y-11.2073
G01 X38.3397 Y-11.2534
G01 X38.3188 Y-11.2977
G01 X38.2936 Y-11.3397
G01 X38.2644 Y-11.3790
G01 X38.2315 Y-11.4153
G01 X37.2315 Y-12.4153
G01 X37.1952 Y-12.4482
G01 X37.1559 Y-12.4774
G01 X37.1139 Y-12.5026
G01 X37.0696 Y-12.5235
G01 X37.0235 Y-12.5400
G01 X36.9760 Y-12.5519
G01 X36.9275 Y-12.5591
G01 X36.8786 Y-12.5615
G01 X2.3786 Y-12.5615
G00 X2.3786 Y-12.5615
G01 F50.00
G01 Z-2.2500
G01 F50.00
G01 X36.8786 Y-12.5615
G01 X36.9275 Y-12.5591
G01 X36.9760 Y-12.5519
G01 X37.0235 Y-12.5400
G01 X37.0696 Y-12.5235
G01 X37.1139 Y-12.5026
G01 X37.1559 Y-12.4774
G01 X37.1952 Y-12.4482
G01 X37.2315 Y-12.4153
G01 X38.2315 Y-11.4153
G01 X38.2644 Y-11.3790
G01 X38.2936 Y-11.3397
G01 X38.3188 Y-11.2977
G01 X38.3397 Y-11.2534
G01 X38.3562 Y-11.2073
G01 X38.3681 Y-11.1598
G01 X38.3753 Y-11.1113
G01 X38.3777 Y-11.0624
G01 X38.3777 Y-7.2133
G00 X38.3777 Y-7.2133
G01 F50.00
G01 Z-2.3000
G01 F50.00
G01 X38.3777 Y-11.0624
G01 X38.3753 Y-11.1113
G01 X38.3681 Y-11.1598
G01 X38.3562 Y-11.2073
G01 X38.3397 Y-11.2534
G01 X38.3188 Y-11.2977
G01 X38.2936 Y-11.3397
G01 X38.2644 Y-11.3790
G01 X38.2315 Y-11.4153
G01 X37.2315 Y-12.4153
G01 X37.1952 Y-12.4482
G01 X37.1559 Y-12.4774
G01 X37.1139 Y-12.5026
G01 X37.0696 Y-12.5235
G01 X37.0235 Y-12.5400
G01 X36.9760 Y-12.5519
G01 X36.9275 Y-12.5591
G01 X36.8786 Y-12.5615
G01 X2.3786 Y-12.5615
G00 Z5.0000
M05
G00 Z5.0000
G00 Z12.70
G00 X0.0 Y0.0

M02