(G-CODE GENERATED BY FLATCAM v8.95 - www.flatcam.org - Version Date: 2019/08/17)

(Name: Karat2_screen v2.dxf_1_cutout_cnc)
(Type: G-code from Geometry)
(Units: MM)

(Created on Saturday, 27 June 2020 at 18:22)

(TOOL DIAMETER: 0.8 mm)
(Feedrate: 40.0 mm/min)
(Feedrate_Z: 79.9998 mm/min)
(Feedrate rapids 79.9998 mm/min)

(Z_Cut: -2.3 mm)
(DepthPerCut: 0.1 mm <=>23 passes)
(Z_Move: 1.999 mm)
(Z Toolchange: 12.7 mm)
(X,Y Toolchange: 0.0000, 0.0000 mm)
(Z Start: None mm)
(Z End: 12.7 mm)
(Steps per circle: 128)
(Postprocessor Geometry: default)

(X range:    0.3795 ...   38.3777  mm)
(Y range:  -12.5615 ...   -0.5633  mm)

(Spindle Speed: None RPM)

G21
G90
G94

G01 F40.00
G00 Z1.9990

M03
G00 X0.3795 Y-5.9633
G01 F80.00
G01 Z-0.1000
G01 F40.00
G01 X0.3795 Y-2.0624
G01 X0.3819 Y-2.0135
G01 X0.3891 Y-1.9650
G01 X0.4010 Y-1.9175
G01 X0.4175 Y-1.8714
G01 X0.4384 Y-1.8271
G01 X0.4636 Y-1.7851
G01 X0.4928 Y-1.7458
G01 X0.5257 Y-1.7095
G01 X1.5257 Y-0.7095
G01 X1.5620 Y-0.6766
G01 X1.6013 Y-0.6474
G01 X1.6433 Y-0.6222
G01 X1.6876 Y-0.6013
G01 X1.7337 Y-0.5848
G01 X1.7812 Y-0.5729
G01 X1.8297 Y-0.5657
G01 X1.8786 Y-0.5633
G01 X36.8786 Y-0.5633
G01 X36.9275 Y-0.5657
G01 X36.9760 Y-0.5729
G01 X37.0235 Y-0.5848
G01 X37.0696 Y-0.6013
G01 X37.1139 Y-0.6222
G01 X37.1559 Y-0.6474
G01 X37.1952 Y-0.6766
G01 X37.2315 Y-0.7095
G01 X38.2315 Y-1.7095
G01 X38.2644 Y-1.7458
G01 X38.2936 Y-1.7851
G01 X38.3188 Y-1.8271
G01 X38.3397 Y-1.8714
G01 X38.3562 Y-1.9175
G01 X38.3681 Y-1.9650
G01 X38.3753 Y-2.0135
G01 X38.3777 Y-2.0624
G01 X38.3777 Y-5.9633
G00 X38.3777 Y-5.9633
G01 F80.00
G01 Z-0.2000
G01 F40.00
G01 X38.3777 Y-2.0624
G01 X38.3753 Y-2.0135
G01 X38.3681 Y-1.9650
G01 X38.3562 Y-1.9175
G01 X38.3397 Y-1.8714
G01 X38.3188 Y-1.8271
G01 X38.2936 Y-1.7851
G01 X38.2644 Y-1.7458
G01 X38.2315 Y-1.7095
G01 X37.2315 Y-0.7095
G01 X37.1952 Y-0.6766
G01 X37.1559 Y-0.6474
G01 X37.1139 Y-0.6222
G01 X37.0696 Y-0.6013
G01 X37.0235 Y-0.5848
G01 X36.9760 Y-0.5729
G01 X36.9275 Y-0.5657
G01 X36.8786 Y-0.5633
G01 X1.8786 Y-0.5633
G01 X1.8297 Y-0.5657
G01 X1.7812 Y-0.5729
G01 X1.7337 Y-0.5848
G01 X1.6876 Y-0.6013
G01 X1.6433 Y-0.6222
G01 X1.6013 Y-0.6474
G01 X1.5620 Y-0.6766
G01 X1.5257 Y-0.7095
G01 X0.5257 Y-1.7095
G01 X0.4928 Y-1.7458
G01 X0.4636 Y-1.7851
G01 X0.4384 Y-1.8271
G01 X0.4175 Y-1.8714
G01 X0.4010 Y-1.9175
G01 X0.3891 Y-1.9650
G01 X0.3819 Y-2.0135
G01 X0.3795 Y-2.0624
G01 X0.3795 Y-5.9633
G00 X0.3795 Y-5.9633
G01 F80.00
G01 Z-0.3000
G01 F40.00
G01 X0.3795 Y-2.0624
G01 X0.3819 Y-2.0135
G01 X0.3891 Y-1.9650
G01 X0.4010 Y-1.9175
G01 X0.4175 Y-1.8714
G01 X0.4384 Y-1.8271
G01 X0.4636 Y-1.7851
G01 X0.4928 Y-1.7458
G01 X0.5257 Y-1.7095
G01 X1.5257 Y-0.7095
G01 X1.5620 Y-0.6766
G01 X1.6013 Y-0.6474
G01 X1.6433 Y-0.6222
G01 X1.6876 Y-0.6013
G01 X1.7337 Y-0.5848
G01 X1.7812 Y-0.5729
G01 X1.8297 Y-0.5657
G01 X1.8786 Y-0.5633
G01 X36.8786 Y-0.5633
G01 X36.9275 Y-0.5657
G01 X36.9760 Y-0.5729
G01 X37.0235 Y-0.5848
G01 X37.0696 Y-0.6013
G01 X37.1139 Y-0.6222
G01 X37.1559 Y-0.6474
G01 X37.1952 Y-0.6766
G01 X37.2315 Y-0.7095
G01 X38.2315 Y-1.7095
G01 X38.2644 Y-1.7458
G01 X38.2936 Y-1.7851
G01 X38.3188 Y-1.8271
G01 X38.3397 Y-1.8714
G01 X38.3562 Y-1.9175
G01 X38.3681 Y-1.9650
G01 X38.3753 Y-2.0135
G01 X38.3777 Y-2.0624
G01 X38.3777 Y-5.9633
G00 X38.3777 Y-5.9633
G01 F80.00
G01 Z-0.4000
G01 F40.00
G01 X38.3777 Y-2.0624
G01 X38.3753 Y-2.0135
G01 X38.3681 Y-1.9650
G01 X38.3562 Y-1.9175
G01 X38.3397 Y-1.8714
G01 X38.3188 Y-1.8271
G01 X38.2936 Y-1.7851
G01 X38.2644 Y-1.7458
G01 X38.2315 Y-1.7095
G01 X37.2315 Y-0.7095
G01 X37.1952 Y-0.6766
G01 X37.1559 Y-0.6474
G01 X37.1139 Y-0.6222
G01 X37.0696 Y-0.6013
G01 X37.0235 Y-0.5848
G01 X36.9760 Y-0.5729
G01 X36.9275 Y-0.5657
G01 X36.8786 Y-0.5633
G01 X1.8786 Y-0.5633
G01 X1.8297 Y-0.5657
G01 X1.7812 Y-0.5729
G01 X1.7337 Y-0.5848
G01 X1.6876 Y-0.6013
G01 X1.6433 Y-0.6222
G01 X1.6013 Y-0.6474
G01 X1.5620 Y-0.6766
G01 X1.5257 Y-0.7095
G01 X0.5257 Y-1.7095
G01 X0.4928 Y-1.7458
G01 X0.4636 Y-1.7851
G01 X0.4384 Y-1.8271
G01 X0.4175 Y-1.8714
G01 X0.4010 Y-1.9175
G01 X0.3891 Y-1.9650
G01 X0.3819 Y-2.0135
G01 X0.3795 Y-2.0624
G01 X0.3795 Y-5.9633
G00 X0.3795 Y-5.9633
G01 F80.00
G01 Z-0.5000
G01 F40.00
G01 X0.3795 Y-2.0624
G01 X0.3819 Y-2.0135
G01 X0.3891 Y-1.9650
G01 X0.4010 Y-1.9175
G01 X0.4175 Y-1.8714
G01 X0.4384 Y-1.8271
G01 X0.4636 Y-1.7851
G01 X0.4928 Y-1.7458
G01 X0.5257 Y-1.7095
G01 X1.5257 Y-0.7095
G01 X1.5620 Y-0.6766
G01 X1.6013 Y-0.6474
G01 X1.6433 Y-0.6222
G01 X1.6876 Y-0.6013
G01 X1.7337 Y-0.5848
G01 X1.7812 Y-0.5729
G01 X1.8297 Y-0.5657
G01 X1.8786 Y-0.5633
G01 X36.8786 Y-0.5633
G01 X36.9275 Y-0.5657
G01 X36.9760 Y-0.5729
G01 X37.0235 Y-0.5848
G01 X37.0696 Y-0.6013
G01 X37.1139 Y-0.6222
G01 X37.1559 Y-0.6474
G01 X37.1952 Y-0.6766
G01 X37.2315 Y-0.7095
G01 X38.2315 Y-1.7095
G01 X38.2644 Y-1.7458
G01 X38.2936 Y-1.7851
G01 X38.3188 Y-1.8271
G01 X38.3397 Y-1.8714
G01 X38.3562 Y-1.9175
G01 X38.3681 Y-1.9650
G01 X38.3753 Y-2.0135
G01 X38.3777 Y-2.0624
G01 X38.3777 Y-5.9633
G00 X38.3777 Y-5.9633
G01 F80.00
G01 Z-0.6000
G01 F40.00
G01 X38.3777 Y-2.0624
G01 X38.3753 Y-2.0135
G01 X38.3681 Y-1.9650
G01 X38.3562 Y-1.9175
G01 X38.3397 Y-1.8714
G01 X38.3188 Y-1.8271
G01 X38.2936 Y-1.7851
G01 X38.2644 Y-1.7458
G01 X38.2315 Y-1.7095
G01 X37.2315 Y-0.7095
G01 X37.1952 Y-0.6766
G01 X37.1559 Y-0.6474
G01 X37.1139 Y-0.6222
G01 X37.0696 Y-0.6013
G01 X37.0235 Y-0.5848
G01 X36.9760 Y-0.5729
G01 X36.9275 Y-0.5657
G01 X36.8786 Y-0.5633
G01 X1.8786 Y-0.5633
G01 X1.8297 Y-0.5657
G01 X1.7812 Y-0.5729
G01 X1.7337 Y-0.5848
G01 X1.6876 Y-0.6013
G01 X1.6433 Y-0.6222
G01 X1.6013 Y-0.6474
G01 X1.5620 Y-0.6766
G01 X1.5257 Y-0.7095
G01 X0.5257 Y-1.7095
G01 X0.4928 Y-1.7458
G01 X0.4636 Y-1.7851
G01 X0.4384 Y-1.8271
G01 X0.4175 Y-1.8714
G01 X0.4010 Y-1.9175
G01 X0.3891 Y-1.9650
G01 X0.3819 Y-2.0135
G01 X0.3795 Y-2.0624
G01 X0.3795 Y-5.9633
G00 X0.3795 Y-5.9633
G01 F80.00
G01 Z-0.7000
G01 F40.00
G01 X0.3795 Y-2.0624
G01 X0.3819 Y-2.0135
G01 X0.3891 Y-1.9650
G01 X0.4010 Y-1.9175
G01 X0.4175 Y-1.8714
G01 X0.4384 Y-1.8271
G01 X0.4636 Y-1.7851
G01 X0.4928 Y-1.7458
G01 X0.5257 Y-1.7095
G01 X1.5257 Y-0.7095
G01 X1.5620 Y-0.6766
G01 X1.6013 Y-0.6474
G01 X1.6433 Y-0.6222
G01 X1.6876 Y-0.6013
G01 X1.7337 Y-0.5848
G01 X1.7812 Y-0.5729
G01 X1.8297 Y-0.5657
G01 X1.8786 Y-0.5633
G01 X36.8786 Y-0.5633
G01 X36.9275 Y-0.5657
G01 X36.9760 Y-0.5729
G01 X37.0235 Y-0.5848
G01 X37.0696 Y-0.6013
G01 X37.1139 Y-0.6222
G01 X37.1559 Y-0.6474
G01 X37.1952 Y-0.6766
G01 X37.2315 Y-0.7095
G01 X38.2315 Y-1.7095
G01 X38.2644 Y-1.7458
G01 X38.2936 Y-1.7851
G01 X38.3188 Y-1.8271
G01 X38.3397 Y-1.8714
G01 X38.3562 Y-1.9175
G01 X38.3681 Y-1.9650
G01 X38.3753 Y-2.0135
G01 X38.3777 Y-2.0624
G01 X38.3777 Y-5.9633
G00 X38.3777 Y-5.9633
G01 F80.00
G01 Z-0.8000
G01 F40.00
G01 X38.3777 Y-2.0624
G01 X38.3753 Y-2.0135
G01 X38.3681 Y-1.9650
G01 X38.3562 Y-1.9175
G01 X38.3397 Y-1.8714
G01 X38.3188 Y-1.8271
G01 X38.2936 Y-1.7851
G01 X38.2644 Y-1.7458
G01 X38.2315 Y-1.7095
G01 X37.2315 Y-0.7095
G01 X37.1952 Y-0.6766
G01 X37.1559 Y-0.6474
G01 X37.1139 Y-0.6222
G01 X37.0696 Y-0.6013
G01 X37.0235 Y-0.5848
G01 X36.9760 Y-0.5729
G01 X36.9275 Y-0.5657
G01 X36.8786 Y-0.5633
G01 X1.8786 Y-0.5633
G01 X1.8297 Y-0.5657
G01 X1.7812 Y-0.5729
G01 X1.7337 Y-0.5848
G01 X1.6876 Y-0.6013
G01 X1.6433 Y-0.6222
G01 X1.6013 Y-0.6474
G01 X1.5620 Y-0.6766
G01 X1.5257 Y-0.7095
G01 X0.5257 Y-1.7095
G01 X0.4928 Y-1.7458
G01 X0.4636 Y-1.7851
G01 X0.4384 Y-1.8271
G01 X0.4175 Y-1.8714
G01 X0.4010 Y-1.9175
G01 X0.3891 Y-1.9650
G01 X0.3819 Y-2.0135
G01 X0.3795 Y-2.0624
G01 X0.3795 Y-5.9633
G00 X0.3795 Y-5.9633
G01 F80.00
G01 Z-0.9000
G01 F40.00
G01 X0.3795 Y-2.0624
G01 X0.3819 Y-2.0135
G01 X0.3891 Y-1.9650
G01 X0.4010 Y-1.9175
G01 X0.4175 Y-1.8714
G01 X0.4384 Y-1.8271
G01 X0.4636 Y-1.7851
G01 X0.4928 Y-1.7458
G01 X0.5257 Y-1.7095
G01 X1.5257 Y-0.7095
G01 X1.5620 Y-0.6766
G01 X1.6013 Y-0.6474
G01 X1.6433 Y-0.6222
G01 X1.6876 Y-0.6013
G01 X1.7337 Y-0.5848
G01 X1.7812 Y-0.5729
G01 X1.8297 Y-0.5657
G01 X1.8786 Y-0.5633
G01 X36.8786 Y-0.5633
G01 X36.9275 Y-0.5657
G01 X36.9760 Y-0.5729
G01 X37.0235 Y-0.5848
G01 X37.0696 Y-0.6013
G01 X37.1139 Y-0.6222
G01 X37.1559 Y-0.6474
G01 X37.1952 Y-0.6766
G01 X37.2315 Y-0.7095
G01 X38.2315 Y-1.7095
G01 X38.2644 Y-1.7458
G01 X38.2936 Y-1.7851
G01 X38.3188 Y-1.8271
G01 X38.3397 Y-1.8714
G01 X38.3562 Y-1.9175
G01 X38.3681 Y-1.9650
G01 X38.3753 Y-2.0135
G01 X38.3777 Y-2.0624
G01 X38.3777 Y-5.9633
G00 X38.3777 Y-5.9633
G01 F80.00
G01 Z-1.0000
G01 F40.00
G01 X38.3777 Y-2.0624
G01 X38.3753 Y-2.0135
G01 X38.3681 Y-1.9650
G01 X38.3562 Y-1.9175
G01 X38.3397 Y-1.8714
G01 X38.3188 Y-1.8271
G01 X38.2936 Y-1.7851
G01 X38.2644 Y-1.7458
G01 X38.2315 Y-1.7095
G01 X37.2315 Y-0.7095
G01 X37.1952 Y-0.6766
G01 X37.1559 Y-0.6474
G01 X37.1139 Y-0.6222
G01 X37.0696 Y-0.6013
G01 X37.0235 Y-0.5848
G01 X36.9760 Y-0.5729
G01 X36.9275 Y-0.5657
G01 X36.8786 Y-0.5633
G01 X1.8786 Y-0.5633
G01 X1.8297 Y-0.5657
G01 X1.7812 Y-0.5729
G01 X1.7337 Y-0.5848
G01 X1.6876 Y-0.6013
G01 X1.6433 Y-0.6222
G01 X1.6013 Y-0.6474
G01 X1.5620 Y-0.6766
G01 X1.5257 Y-0.7095
G01 X0.5257 Y-1.7095
G01 X0.4928 Y-1.7458
G01 X0.4636 Y-1.7851
G01 X0.4384 Y-1.8271
G01 X0.4175 Y-1.8714
G01 X0.4010 Y-1.9175
G01 X0.3891 Y-1.9650
G01 X0.3819 Y-2.0135
G01 X0.3795 Y-2.0624
G01 X0.3795 Y-5.9633
G00 X0.3795 Y-5.9633
G01 F80.00
G01 Z-1.1000
G01 F40.00
G01 X0.3795 Y-2.0624
G01 X0.3819 Y-2.0135
G01 X0.3891 Y-1.9650
G01 X0.4010 Y-1.9175
G01 X0.4175 Y-1.8714
G01 X0.4384 Y-1.8271
G01 X0.4636 Y-1.7851
G01 X0.4928 Y-1.7458
G01 X0.5257 Y-1.7095
G01 X1.5257 Y-0.7095
G01 X1.5620 Y-0.6766
G01 X1.6013 Y-0.6474
G01 X1.6433 Y-0.6222
G01 X1.6876 Y-0.6013
G01 X1.7337 Y-0.5848
G01 X1.7812 Y-0.5729
G01 X1.8297 Y-0.5657
G01 X1.8786 Y-0.5633
G01 X36.8786 Y-0.5633
G01 X36.9275 Y-0.5657
G01 X36.9760 Y-0.5729
G01 X37.0235 Y-0.5848
G01 X37.0696 Y-0.6013
G01 X37.1139 Y-0.6222
G01 X37.1559 Y-0.6474
G01 X37.1952 Y-0.6766
G01 X37.2315 Y-0.7095
G01 X38.2315 Y-1.7095
G01 X38.2644 Y-1.7458
G01 X38.2936 Y-1.7851
G01 X38.3188 Y-1.8271
G01 X38.3397 Y-1.8714
G01 X38.3562 Y-1.9175
G01 X38.3681 Y-1.9650
G01 X38.3753 Y-2.0135
G01 X38.3777 Y-2.0624
G01 X38.3777 Y-5.9633
G00 X38.3777 Y-5.9633
G01 F80.00
G01 Z-1.2000
G01 F40.00
G01 X38.3777 Y-2.0624
G01 X38.3753 Y-2.0135
G01 X38.3681 Y-1.9650
G01 X38.3562 Y-1.9175
G01 X38.3397 Y-1.8714
G01 X38.3188 Y-1.8271
G01 X38.2936 Y-1.7851
G01 X38.2644 Y-1.7458
G01 X38.2315 Y-1.7095
G01 X37.2315 Y-0.7095
G01 X37.1952 Y-0.6766
G01 X37.1559 Y-0.6474
G01 X37.1139 Y-0.6222
G01 X37.0696 Y-0.6013
G01 X37.0235 Y-0.5848
G01 X36.9760 Y-0.5729
G01 X36.9275 Y-0.5657
G01 X36.8786 Y-0.5633
G01 X1.8786 Y-0.5633
G01 X1.8297 Y-0.5657
G01 X1.7812 Y-0.5729
G01 X1.7337 Y-0.5848
G01 X1.6876 Y-0.6013
G01 X1.6433 Y-0.6222
G01 X1.6013 Y-0.6474
G01 X1.5620 Y-0.6766
G01 X1.5257 Y-0.7095
G01 X0.5257 Y-1.7095
G01 X0.4928 Y-1.7458
G01 X0.4636 Y-1.7851
G01 X0.4384 Y-1.8271
G01 X0.4175 Y-1.8714
G01 X0.4010 Y-1.9175
G01 X0.3891 Y-1.9650
G01 X0.3819 Y-2.0135
G01 X0.3795 Y-2.0624
G01 X0.3795 Y-5.9633
G00 X0.3795 Y-5.9633
G01 F80.00
G01 Z-1.3000
G01 F40.00
G01 X0.3795 Y-2.0624
G01 X0.3819 Y-2.0135
G01 X0.3891 Y-1.9650
G01 X0.4010 Y-1.9175
G01 X0.4175 Y-1.8714
G01 X0.4384 Y-1.8271
G01 X0.4636 Y-1.7851
G01 X0.4928 Y-1.7458
G01 X0.5257 Y-1.7095
G01 X1.5257 Y-0.7095
G01 X1.5620 Y-0.6766
G01 X1.6013 Y-0.6474
G01 X1.6433 Y-0.6222
G01 X1.6876 Y-0.6013
G01 X1.7337 Y-0.5848
G01 X1.7812 Y-0.5729
G01 X1.8297 Y-0.5657
G01 X1.8786 Y-0.5633
G01 X36.8786 Y-0.5633
G01 X36.9275 Y-0.5657
G01 X36.9760 Y-0.5729
G01 X37.0235 Y-0.5848
G01 X37.0696 Y-0.6013
G01 X37.1139 Y-0.6222
G01 X37.1559 Y-0.6474
G01 X37.1952 Y-0.6766
G01 X37.2315 Y-0.7095
G01 X38.2315 Y-1.7095
G01 X38.2644 Y-1.7458
G01 X38.2936 Y-1.7851
G01 X38.3188 Y-1.8271
G01 X38.3397 Y-1.8714
G01 X38.3562 Y-1.9175
G01 X38.3681 Y-1.9650
G01 X38.3753 Y-2.0135
G01 X38.3777 Y-2.0624
G01 X38.3777 Y-5.9633
G00 X38.3777 Y-5.9633
G01 F80.00
G01 Z-1.4000
G01 F40.00
G01 X38.3777 Y-2.0624
G01 X38.3753 Y-2.0135
G01 X38.3681 Y-1.9650
G01 X38.3562 Y-1.9175
G01 X38.3397 Y-1.8714
G01 X38.3188 Y-1.8271
G01 X38.2936 Y-1.7851
G01 X38.2644 Y-1.7458
G01 X38.2315 Y-1.7095
G01 X37.2315 Y-0.7095
G01 X37.1952 Y-0.6766
G01 X37.1559 Y-0.6474
G01 X37.1139 Y-0.6222
G01 X37.0696 Y-0.6013
G01 X37.0235 Y-0.5848
G01 X36.9760 Y-0.5729
G01 X36.9275 Y-0.5657
G01 X36.8786 Y-0.5633
G01 X1.8786 Y-0.5633
G01 X1.8297 Y-0.5657
G01 X1.7812 Y-0.5729
G01 X1.7337 Y-0.5848
G01 X1.6876 Y-0.6013
G01 X1.6433 Y-0.6222
G01 X1.6013 Y-0.6474
G01 X1.5620 Y-0.6766
G01 X1.5257 Y-0.7095
G01 X0.5257 Y-1.7095
G01 X0.4928 Y-1.7458
G01 X0.4636 Y-1.7851
G01 X0.4384 Y-1.8271
G01 X0.4175 Y-1.8714
G01 X0.4010 Y-1.9175
G01 X0.3891 Y-1.9650
G01 X0.3819 Y-2.0135
G01 X0.3795 Y-2.0624
G01 X0.3795 Y-5.9633
G00 X0.3795 Y-5.9633
G01 F80.00
G01 Z-1.5000
G01 F40.00
G01 X0.3795 Y-2.0624
G01 X0.3819 Y-2.0135
G01 X0.3891 Y-1.9650
G01 X0.4010 Y-1.9175
G01 X0.4175 Y-1.8714
G01 X0.4384 Y-1.8271
G01 X0.4636 Y-1.7851
G01 X0.4928 Y-1.7458
G01 X0.5257 Y-1.7095
G01 X1.5257 Y-0.7095
G01 X1.5620 Y-0.6766
G01 X1.6013 Y-0.6474
G01 X1.6433 Y-0.6222
G01 X1.6876 Y-0.6013
G01 X1.7337 Y-0.5848
G01 X1.7812 Y-0.5729
G01 X1.8297 Y-0.5657
G01 X1.8786 Y-0.5633
G01 X36.8786 Y-0.5633
G01 X36.9275 Y-0.5657
G01 X36.9760 Y-0.5729
G01 X37.0235 Y-0.5848
G01 X37.0696 Y-0.6013
G01 X37.1139 Y-0.6222
G01 X37.1559 Y-0.6474
G01 X37.1952 Y-0.6766
G01 X37.2315 Y-0.7095
G01 X38.2315 Y-1.7095
G01 X38.2644 Y-1.7458
G01 X38.2936 Y-1.7851
G01 X38.3188 Y-1.8271
G01 X38.3397 Y-1.8714
G01 X38.3562 Y-1.9175
G01 X38.3681 Y-1.9650
G01 X38.3753 Y-2.0135
G01 X38.3777 Y-2.0624
G01 X38.3777 Y-5.9633
G00 X38.3777 Y-5.9633
G01 F80.00
G01 Z-1.6000
G01 F40.00
G01 X38.3777 Y-2.0624
G01 X38.3753 Y-2.0135
G01 X38.3681 Y-1.9650
G01 X38.3562 Y-1.9175
G01 X38.3397 Y-1.8714
G01 X38.3188 Y-1.8271
G01 X38.2936 Y-1.7851
G01 X38.2644 Y-1.7458
G01 X38.2315 Y-1.7095
G01 X37.2315 Y-0.7095
G01 X37.1952 Y-0.6766
G01 X37.1559 Y-0.6474
G01 X37.1139 Y-0.6222
G01 X37.0696 Y-0.6013
G01 X37.0235 Y-0.5848
G01 X36.9760 Y-0.5729
G01 X36.9275 Y-0.5657
G01 X36.8786 Y-0.5633
G01 X1.8786 Y-0.5633
G01 X1.8297 Y-0.5657
G01 X1.7812 Y-0.5729
G01 X1.7337 Y-0.5848
G01 X1.6876 Y-0.6013
G01 X1.6433 Y-0.6222
G01 X1.6013 Y-0.6474
G01 X1.5620 Y-0.6766
G01 X1.5257 Y-0.7095
G01 X0.5257 Y-1.7095
G01 X0.4928 Y-1.7458
G01 X0.4636 Y-1.7851
G01 X0.4384 Y-1.8271
G01 X0.4175 Y-1.8714
G01 X0.4010 Y-1.9175
G01 X0.3891 Y-1.9650
G01 X0.3819 Y-2.0135
G01 X0.3795 Y-2.0624
G01 X0.3795 Y-5.9633
G00 X0.3795 Y-5.9633
G01 F80.00
G01 Z-1.7000
G01 F40.00
G01 X0.3795 Y-2.0624
G01 X0.3819 Y-2.0135
G01 X0.3891 Y-1.9650
G01 X0.4010 Y-1.9175
G01 X0.4175 Y-1.8714
G01 X0.4384 Y-1.8271
G01 X0.4636 Y-1.7851
G01 X0.4928 Y-1.7458
G01 X0.5257 Y-1.7095
G01 X1.5257 Y-0.7095
G01 X1.5620 Y-0.6766
G01 X1.6013 Y-0.6474
G01 X1.6433 Y-0.6222
G01 X1.6876 Y-0.6013
G01 X1.7337 Y-0.5848
G01 X1.7812 Y-0.5729
G01 X1.8297 Y-0.5657
G01 X1.8786 Y-0.5633
G01 X36.8786 Y-0.5633
G01 X36.9275 Y-0.5657
G01 X36.9760 Y-0.5729
G01 X37.0235 Y-0.5848
G01 X37.0696 Y-0.6013
G01 X37.1139 Y-0.6222
G01 X37.1559 Y-0.6474
G01 X37.1952 Y-0.6766
G01 X37.2315 Y-0.7095
G01 X38.2315 Y-1.7095
G01 X38.2644 Y-1.7458
G01 X38.2936 Y-1.7851
G01 X38.3188 Y-1.8271
G01 X38.3397 Y-1.8714
G01 X38.3562 Y-1.9175
G01 X38.3681 Y-1.9650
G01 X38.3753 Y-2.0135
G01 X38.3777 Y-2.0624
G01 X38.3777 Y-5.9633
G00 X38.3777 Y-5.9633
G01 F80.00
G01 Z-1.8000
G01 F40.00
G01 X38.3777 Y-2.0624
G01 X38.3753 Y-2.0135
G01 X38.3681 Y-1.9650
G01 X38.3562 Y-1.9175
G01 X38.3397 Y-1.8714
G01 X38.3188 Y-1.8271
G01 X38.2936 Y-1.7851
G01 X38.2644 Y-1.7458
G01 X38.2315 Y-1.7095
G01 X37.2315 Y-0.7095
G01 X37.1952 Y-0.6766
G01 X37.1559 Y-0.6474
G01 X37.1139 Y-0.6222
G01 X37.0696 Y-0.6013
G01 X37.0235 Y-0.5848
G01 X36.9760 Y-0.5729
G01 X36.9275 Y-0.5657
G01 X36.8786 Y-0.5633
G01 X1.8786 Y-0.5633
G01 X1.8297 Y-0.5657
G01 X1.7812 Y-0.5729
G01 X1.7337 Y-0.5848
G01 X1.6876 Y-0.6013
G01 X1.6433 Y-0.6222
G01 X1.6013 Y-0.6474
G01 X1.5620 Y-0.6766
G01 X1.5257 Y-0.7095
G01 X0.5257 Y-1.7095
G01 X0.4928 Y-1.7458
G01 X0.4636 Y-1.7851
G01 X0.4384 Y-1.8271
G01 X0.4175 Y-1.8714
G01 X0.4010 Y-1.9175
G01 X0.3891 Y-1.9650
G01 X0.3819 Y-2.0135
G01 X0.3795 Y-2.0624
G01 X0.3795 Y-5.9633
G00 X0.3795 Y-5.9633
G01 F80.00
G01 Z-1.9000
G01 F40.00
G01 X0.3795 Y-2.0624
G01 X0.3819 Y-2.0135
G01 X0.3891 Y-1.9650
G01 X0.4010 Y-1.9175
G01 X0.4175 Y-1.8714
G01 X0.4384 Y-1.8271
G01 X0.4636 Y-1.7851
G01 X0.4928 Y-1.7458
G01 X0.5257 Y-1.7095
G01 X1.5257 Y-0.7095
G01 X1.5620 Y-0.6766
G01 X1.6013 Y-0.6474
G01 X1.6433 Y-0.6222
G01 X1.6876 Y-0.6013
G01 X1.7337 Y-0.5848
G01 X1.7812 Y-0.5729
G01 X1.8297 Y-0.5657
G01 X1.8786 Y-0.5633
G01 X36.8786 Y-0.5633
G01 X36.9275 Y-0.5657
G01 X36.9760 Y-0.5729
G01 X37.0235 Y-0.5848
G01 X37.0696 Y-0.6013
G01 X37.1139 Y-0.6222
G01 X37.1559 Y-0.6474
G01 X37.1952 Y-0.6766
G01 X37.2315 Y-0.7095
G01 X38.2315 Y-1.7095
G01 X38.2644 Y-1.7458
G01 X38.2936 Y-1.7851
G01 X38.3188 Y-1.8271
G01 X38.3397 Y-1.8714
G01 X38.3562 Y-1.9175
G01 X38.3681 Y-1.9650
G01 X38.3753 Y-2.0135
G01 X38.3777 Y-2.0624
G01 X38.3777 Y-5.9633
G00 X38.3777 Y-5.9633
G01 F80.00
G01 Z-2.0000
G01 F40.00
G01 X38.3777 Y-2.0624
G01 X38.3753 Y-2.0135
G01 X38.3681 Y-1.9650
G01 X38.3562 Y-1.9175
G01 X38.3397 Y-1.8714
G01 X38.3188 Y-1.8271
G01 X38.2936 Y-1.7851
G01 X38.2644 Y-1.7458
G01 X38.2315 Y-1.7095
G01 X37.2315 Y-0.7095
G01 X37.1952 Y-0.6766
G01 X37.1559 Y-0.6474
G01 X37.1139 Y-0.6222
G01 X37.0696 Y-0.6013
G01 X37.0235 Y-0.5848
G01 X36.9760 Y-0.5729
G01 X36.9275 Y-0.5657
G01 X36.8786 Y-0.5633
G01 X1.8786 Y-0.5633
G01 X1.8297 Y-0.5657
G01 X1.7812 Y-0.5729
G01 X1.7337 Y-0.5848
G01 X1.6876 Y-0.6013
G01 X1.6433 Y-0.6222
G01 X1.6013 Y-0.6474
G01 X1.5620 Y-0.6766
G01 X1.5257 Y-0.7095
G01 X0.5257 Y-1.7095
G01 X0.4928 Y-1.7458
G01 X0.4636 Y-1.7851
G01 X0.4384 Y-1.8271
G01 X0.4175 Y-1.8714
G01 X0.4010 Y-1.9175
G01 X0.3891 Y-1.9650
G01 X0.3819 Y-2.0135
G01 X0.3795 Y-2.0624
G01 X0.3795 Y-5.9633
G00 X0.3795 Y-5.9633
G01 F80.00
G01 Z-2.1000
G01 F40.00
G01 X0.3795 Y-2.0624
G01 X0.3819 Y-2.0135
G01 X0.3891 Y-1.9650
G01 X0.4010 Y-1.9175
G01 X0.4175 Y-1.8714
G01 X0.4384 Y-1.8271
G01 X0.4636 Y-1.7851
G01 X0.4928 Y-1.7458
G01 X0.5257 Y-1.7095
G01 X1.5257 Y-0.7095
G01 X1.5620 Y-0.6766
G01 X1.6013 Y-0.6474
G01 X1.6433 Y-0.6222
G01 X1.6876 Y-0.6013
G01 X1.7337 Y-0.5848
G01 X1.7812 Y-0.5729
G01 X1.8297 Y-0.5657
G01 X1.8786 Y-0.5633
G01 X36.8786 Y-0.5633
G01 X36.9275 Y-0.5657
G01 X36.9760 Y-0.5729
G01 X37.0235 Y-0.5848
G01 X37.0696 Y-0.6013
G01 X37.1139 Y-0.6222
G01 X37.1559 Y-0.6474
G01 X37.1952 Y-0.6766
G01 X37.2315 Y-0.7095
G01 X38.2315 Y-1.7095
G01 X38.2644 Y-1.7458
G01 X38.2936 Y-1.7851
G01 X38.3188 Y-1.8271
G01 X38.3397 Y-1.8714
G01 X38.3562 Y-1.9175
G01 X38.3681 Y-1.9650
G01 X38.3753 Y-2.0135
G01 X38.3777 Y-2.0624
G01 X38.3777 Y-5.9633
G00 X38.3777 Y-5.9633
G01 F80.00
G01 Z-2.2000
G01 F40.00
G01 X38.3777 Y-2.0624
G01 X38.3753 Y-2.0135
G01 X38.3681 Y-1.9650
G01 X38.3562 Y-1.9175
G01 X38.3397 Y-1.8714
G01 X38.3188 Y-1.8271
G01 X38.2936 Y-1.7851
G01 X38.2644 Y-1.7458
G01 X38.2315 Y-1.7095
G01 X37.2315 Y-0.7095
G01 X37.1952 Y-0.6766
G01 X37.1559 Y-0.6474
G01 X37.1139 Y-0.6222
G01 X37.0696 Y-0.6013
G01 X37.0235 Y-0.5848
G01 X36.9760 Y-0.5729
G01 X36.9275 Y-0.5657
G01 X36.8786 Y-0.5633
G01 X1.8786 Y-0.5633
G01 X1.8297 Y-0.5657
G01 X1.7812 Y-0.5729
G01 X1.7337 Y-0.5848
G01 X1.6876 Y-0.6013
G01 X1.6433 Y-0.6222
G01 X1.6013 Y-0.6474
G01 X1.5620 Y-0.6766
G01 X1.5257 Y-0.7095
G01 X0.5257 Y-1.7095
G01 X0.4928 Y-1.7458
G01 X0.4636 Y-1.7851
G01 X0.4384 Y-1.8271
G01 X0.4175 Y-1.8714
G01 X0.4010 Y-1.9175
G01 X0.3891 Y-1.9650
G01 X0.3819 Y-2.0135
G01 X0.3795 Y-2.0624
G01 X0.3795 Y-5.9633
G00 X0.3795 Y-5.9633
G01 F80.00
G01 Z-2.3000
G01 F40.00
G01 X0.3795 Y-2.0624
G01 X0.3819 Y-2.0135
G01 X0.3891 Y-1.9650
G01 X0.4010 Y-1.9175
G01 X0.4175 Y-1.8714
G01 X0.4384 Y-1.8271
G01 X0.4636 Y-1.7851
G01 X0.4928 Y-1.7458
G01 X0.5257 Y-1.7095
G01 X1.5257 Y-0.7095
G01 X1.5620 Y-0.6766
G01 X1.6013 Y-0.6474
G01 X1.6433 Y-0.6222
G01 X1.6876 Y-0.6013
G01 X1.7337 Y-0.5848
G01 X1.7812 Y-0.5729
G01 X1.8297 Y-0.5657
G01 X1.8786 Y-0.5633
G01 X36.8786 Y-0.5633
G01 X36.9275 Y-0.5657
G01 X36.9760 Y-0.5729
G01 X37.0235 Y-0.5848
G01 X37.0696 Y-0.6013
G01 X37.1139 Y-0.6222
G01 X37.1559 Y-0.6474
G01 X37.1952 Y-0.6766
G01 X37.2315 Y-0.7095
G01 X38.2315 Y-1.7095
G01 X38.2644 Y-1.7458
G01 X38.2936 Y-1.7851
G01 X38.3188 Y-1.8271
G01 X38.3397 Y-1.8714
G01 X38.3562 Y-1.9175
G01 X38.3681 Y-1.9650
G01 X38.3753 Y-2.0135
G01 X38.3777 Y-2.0624
G01 X38.3777 Y-5.9633
G00 Z1.9990
G00 X38.3777 Y-6.9633
G01 F80.00
G01 Z-0.1000
G01 F40.00
G01 X38.3777 Y-11.0624
G01 X38.3753 Y-11.1113
G01 X38.3681 Y-11.1598
G01 X38.3562 Y-11.2073
G01 X38.3397 Y-11.2534
G01 X38.3188 Y-11.2977
G01 X38.2936 Y-11.3397
G01 X38.2644 Y-11.3790
G01 X38.2315 Y-11.4153
G01 X37.2315 Y-12.4153
G01 X37.1952 Y-12.4482
G01 X37.1559 Y-12.4774
G01 X37.1139 Y-12.5026
G01 X37.0696 Y-12.5235
G01 X37.0235 Y-12.5400
G01 X36.9760 Y-12.5519
G01 X36.9275 Y-12.5591
G01 X36.8786 Y-12.5615
G01 X1.8786 Y-12.5615
G00 X1.8786 Y-12.5615
G01 F80.00
G01 Z-0.2000
G01 F40.00
G01 X36.8786 Y-12.5615
G01 X36.9275 Y-12.5591
G01 X36.9760 Y-12.5519
G01 X37.0235 Y-12.5400
G01 X37.0696 Y-12.5235
G01 X37.1139 Y-12.5026
G01 X37.1559 Y-12.4774
G01 X37.1952 Y-12.4482
G01 X37.2315 Y-12.4153
G01 X38.2315 Y-11.4153
G01 X38.2644 Y-11.3790
G01 X38.2936 Y-11.3397
G01 X38.3188 Y-11.2977
G01 X38.3397 Y-11.2534
G01 X38.3562 Y-11.2073
G01 X38.3681 Y-11.1598
G01 X38.3753 Y-11.1113
G01 X38.3777 Y-11.0624
G01 X38.3777 Y-6.9633
G00 X38.3777 Y-6.9633
G01 F80.00
G01 Z-0.3000
G01 F40.00
G01 X38.3777 Y-11.0624
G01 X38.3753 Y-11.1113
G01 X38.3681 Y-11.1598
G01 X38.3562 Y-11.2073
G01 X38.3397 Y-11.2534
G01 X38.3188 Y-11.2977
G01 X38.2936 Y-11.3397
G01 X38.2644 Y-11.3790
G01 X38.2315 Y-11.4153
G01 X37.2315 Y-12.4153
G01 X37.1952 Y-12.4482
G01 X37.1559 Y-12.4774
G01 X37.1139 Y-12.5026
G01 X37.0696 Y-12.5235
G01 X37.0235 Y-12.5400
G01 X36.9760 Y-12.5519
G01 X36.9275 Y-12.5591
G01 X36.8786 Y-12.5615
G01 X1.8786 Y-12.5615
G00 X1.8786 Y-12.5615
G01 F80.00
G01 Z-0.4000
G01 F40.00
G01 X36.8786 Y-12.5615
G01 X36.9275 Y-12.5591
G01 X36.9760 Y-12.5519
G01 X37.0235 Y-12.5400
G01 X37.0696 Y-12.5235
G01 X37.1139 Y-12.5026
G01 X37.1559 Y-12.4774
G01 X37.1952 Y-12.4482
G01 X37.2315 Y-12.4153
G01 X38.2315 Y-11.4153
G01 X38.2644 Y-11.3790
G01 X38.2936 Y-11.3397
G01 X38.3188 Y-11.2977
G01 X38.3397 Y-11.2534
G01 X38.3562 Y-11.2073
G01 X38.3681 Y-11.1598
G01 X38.3753 Y-11.1113
G01 X38.3777 Y-11.0624
G01 X38.3777 Y-6.9633
G00 X38.3777 Y-6.9633
G01 F80.00
G01 Z-0.5000
G01 F40.00
G01 X38.3777 Y-11.0624
G01 X38.3753 Y-11.1113
G01 X38.3681 Y-11.1598
G01 X38.3562 Y-11.2073
G01 X38.3397 Y-11.2534
G01 X38.3188 Y-11.2977
G01 X38.2936 Y-11.3397
G01 X38.2644 Y-11.3790
G01 X38.2315 Y-11.4153
G01 X37.2315 Y-12.4153
G01 X37.1952 Y-12.4482
G01 X37.1559 Y-12.4774
G01 X37.1139 Y-12.5026
G01 X37.0696 Y-12.5235
G01 X37.0235 Y-12.5400
G01 X36.9760 Y-12.5519
G01 X36.9275 Y-12.5591
G01 X36.8786 Y-12.5615
G01 X1.8786 Y-12.5615
G00 X1.8786 Y-12.5615
G01 F80.00
G01 Z-0.6000
G01 F40.00
G01 X36.8786 Y-12.5615
G01 X36.9275 Y-12.5591
G01 X36.9760 Y-12.5519
G01 X37.0235 Y-12.5400
G01 X37.0696 Y-12.5235
G01 X37.1139 Y-12.5026
G01 X37.1559 Y-12.4774
G01 X37.1952 Y-12.4482
G01 X37.2315 Y-12.4153
G01 X38.2315 Y-11.4153
G01 X38.2644 Y-11.3790
G01 X38.2936 Y-11.3397
G01 X38.3188 Y-11.2977
G01 X38.3397 Y-11.2534
G01 X38.3562 Y-11.2073
G01 X38.3681 Y-11.1598
G01 X38.3753 Y-11.1113
G01 X38.3777 Y-11.0624
G01 X38.3777 Y-6.9633
G00 X38.3777 Y-6.9633
G01 F80.00
G01 Z-0.7000
G01 F40.00
G01 X38.3777 Y-11.0624
G01 X38.3753 Y-11.1113
G01 X38.3681 Y-11.1598
G01 X38.3562 Y-11.2073
G01 X38.3397 Y-11.2534
G01 X38.3188 Y-11.2977
G01 X38.2936 Y-11.3397
G01 X38.2644 Y-11.3790
G01 X38.2315 Y-11.4153
G01 X37.2315 Y-12.4153
G01 X37.1952 Y-12.4482
G01 X37.1559 Y-12.4774
G01 X37.1139 Y-12.5026
G01 X37.0696 Y-12.5235
G01 X37.0235 Y-12.5400
G01 X36.9760 Y-12.5519
G01 X36.9275 Y-12.5591
G01 X36.8786 Y-12.5615
G01 X1.8786 Y-12.5615
G00 X1.8786 Y-12.5615
G01 F80.00
G01 Z-0.8000
G01 F40.00
G01 X36.8786 Y-12.5615
G01 X36.9275 Y-12.5591
G01 X36.9760 Y-12.5519
G01 X37.0235 Y-12.5400
G01 X37.0696 Y-12.5235
G01 X37.1139 Y-12.5026
G01 X37.1559 Y-12.4774
G01 X37.1952 Y-12.4482
G01 X37.2315 Y-12.4153
G01 X38.2315 Y-11.4153
G01 X38.2644 Y-11.3790
G01 X38.2936 Y-11.3397
G01 X38.3188 Y-11.2977
G01 X38.3397 Y-11.2534
G01 X38.3562 Y-11.2073
G01 X38.3681 Y-11.1598
G01 X38.3753 Y-11.1113
G01 X38.3777 Y-11.0624
G01 X38.3777 Y-6.9633
G00 X38.3777 Y-6.9633
G01 F80.00
G01 Z-0.9000
G01 F40.00
G01 X38.3777 Y-11.0624
G01 X38.3753 Y-11.1113
G01 X38.3681 Y-11.1598
G01 X38.3562 Y-11.2073
G01 X38.3397 Y-11.2534
G01 X38.3188 Y-11.2977
G01 X38.2936 Y-11.3397
G01 X38.2644 Y-11.3790
G01 X38.2315 Y-11.4153
G01 X37.2315 Y-12.4153
G01 X37.1952 Y-12.4482
G01 X37.1559 Y-12.4774
G01 X37.1139 Y-12.5026
G01 X37.0696 Y-12.5235
G01 X37.0235 Y-12.5400
G01 X36.9760 Y-12.5519
G01 X36.9275 Y-12.5591
G01 X36.8786 Y-12.5615
G01 X1.8786 Y-12.5615
G00 X1.8786 Y-12.5615
G01 F80.00
G01 Z-1.0000
G01 F40.00
G01 X36.8786 Y-12.5615
G01 X36.9275 Y-12.5591
G01 X36.9760 Y-12.5519
G01 X37.0235 Y-12.5400
G01 X37.0696 Y-12.5235
G01 X37.1139 Y-12.5026
G01 X37.1559 Y-12.4774
G01 X37.1952 Y-12.4482
G01 X37.2315 Y-12.4153
G01 X38.2315 Y-11.4153
G01 X38.2644 Y-11.3790
G01 X38.2936 Y-11.3397
G01 X38.3188 Y-11.2977
G01 X38.3397 Y-11.2534
G01 X38.3562 Y-11.2073
G01 X38.3681 Y-11.1598
G01 X38.3753 Y-11.1113
G01 X38.3777 Y-11.0624
G01 X38.3777 Y-6.9633
G00 X38.3777 Y-6.9633
G01 F80.00
G01 Z-1.1000
G01 F40.00
G01 X38.3777 Y-11.0624
G01 X38.3753 Y-11.1113
G01 X38.3681 Y-11.1598
G01 X38.3562 Y-11.2073
G01 X38.3397 Y-11.2534
G01 X38.3188 Y-11.2977
G01 X38.2936 Y-11.3397
G01 X38.2644 Y-11.3790
G01 X38.2315 Y-11.4153
G01 X37.2315 Y-12.4153
G01 X37.1952 Y-12.4482
G01 X37.1559 Y-12.4774
G01 X37.1139 Y-12.5026
G01 X37.0696 Y-12.5235
G01 X37.0235 Y-12.5400
G01 X36.9760 Y-12.5519
G01 X36.9275 Y-12.5591
G01 X36.8786 Y-12.5615
G01 X1.8786 Y-12.5615
G00 X1.8786 Y-12.5615
G01 F80.00
G01 Z-1.2000
G01 F40.00
G01 X36.8786 Y-12.5615
G01 X36.9275 Y-12.5591
G01 X36.9760 Y-12.5519
G01 X37.0235 Y-12.5400
G01 X37.0696 Y-12.5235
G01 X37.1139 Y-12.5026
G01 X37.1559 Y-12.4774
G01 X37.1952 Y-12.4482
G01 X37.2315 Y-12.4153
G01 X38.2315 Y-11.4153
G01 X38.2644 Y-11.3790
G01 X38.2936 Y-11.3397
G01 X38.3188 Y-11.2977
G01 X38.3397 Y-11.2534
G01 X38.3562 Y-11.2073
G01 X38.3681 Y-11.1598
G01 X38.3753 Y-11.1113
G01 X38.3777 Y-11.0624
G01 X38.3777 Y-6.9633
G00 X38.3777 Y-6.9633
G01 F80.00
G01 Z-1.3000
G01 F40.00
G01 X38.3777 Y-11.0624
G01 X38.3753 Y-11.1113
G01 X38.3681 Y-11.1598
G01 X38.3562 Y-11.2073
G01 X38.3397 Y-11.2534
G01 X38.3188 Y-11.2977
G01 X38.2936 Y-11.3397
G01 X38.2644 Y-11.3790
G01 X38.2315 Y-11.4153
G01 X37.2315 Y-12.4153
G01 X37.1952 Y-12.4482
G01 X37.1559 Y-12.4774
G01 X37.1139 Y-12.5026
G01 X37.0696 Y-12.5235
G01 X37.0235 Y-12.5400
G01 X36.9760 Y-12.5519
G01 X36.9275 Y-12.5591
G01 X36.8786 Y-12.5615
G01 X1.8786 Y-12.5615
G00 X1.8786 Y-12.5615
G01 F80.00
G01 Z-1.4000
G01 F40.00
G01 X36.8786 Y-12.5615
G01 X36.9275 Y-12.5591
G01 X36.9760 Y-12.5519
G01 X37.0235 Y-12.5400
G01 X37.0696 Y-12.5235
G01 X37.1139 Y-12.5026
G01 X37.1559 Y-12.4774
G01 X37.1952 Y-12.4482
G01 X37.2315 Y-12.4153
G01 X38.2315 Y-11.4153
G01 X38.2644 Y-11.3790
G01 X38.2936 Y-11.3397
G01 X38.3188 Y-11.2977
G01 X38.3397 Y-11.2534
G01 X38.3562 Y-11.2073
G01 X38.3681 Y-11.1598
G01 X38.3753 Y-11.1113
G01 X38.3777 Y-11.0624
G01 X38.3777 Y-6.9633
G00 X38.3777 Y-6.9633
G01 F80.00
G01 Z-1.5000
G01 F40.00
G01 X38.3777 Y-11.0624
G01 X38.3753 Y-11.1113
G01 X38.3681 Y-11.1598
G01 X38.3562 Y-11.2073
G01 X38.3397 Y-11.2534
G01 X38.3188 Y-11.2977
G01 X38.2936 Y-11.3397
G01 X38.2644 Y-11.3790
G01 X38.2315 Y-11.4153
G01 X37.2315 Y-12.4153
G01 X37.1952 Y-12.4482
G01 X37.1559 Y-12.4774
G01 X37.1139 Y-12.5026
G01 X37.0696 Y-12.5235
G01 X37.0235 Y-12.5400
G01 X36.9760 Y-12.5519
G01 X36.9275 Y-12.5591
G01 X36.8786 Y-12.5615
G01 X1.8786 Y-12.5615
G00 X1.8786 Y-12.5615
G01 F80.00
G01 Z-1.6000
G01 F40.00
G01 X36.8786 Y-12.5615
G01 X36.9275 Y-12.5591
G01 X36.9760 Y-12.5519
G01 X37.0235 Y-12.5400
G01 X37.0696 Y-12.5235
G01 X37.1139 Y-12.5026
G01 X37.1559 Y-12.4774
G01 X37.1952 Y-12.4482
G01 X37.2315 Y-12.4153
G01 X38.2315 Y-11.4153
G01 X38.2644 Y-11.3790
G01 X38.2936 Y-11.3397
G01 X38.3188 Y-11.2977
G01 X38.3397 Y-11.2534
G01 X38.3562 Y-11.2073
G01 X38.3681 Y-11.1598
G01 X38.3753 Y-11.1113
G01 X38.3777 Y-11.0624
G01 X38.3777 Y-6.9633
G00 X38.3777 Y-6.9633
G01 F80.00
G01 Z-1.7000
G01 F40.00
G01 X38.3777 Y-11.0624
G01 X38.3753 Y-11.1113
G01 X38.3681 Y-11.1598
G01 X38.3562 Y-11.2073
G01 X38.3397 Y-11.2534
G01 X38.3188 Y-11.2977
G01 X38.2936 Y-11.3397
G01 X38.2644 Y-11.3790
G01 X38.2315 Y-11.4153
G01 X37.2315 Y-12.4153
G01 X37.1952 Y-12.4482
G01 X37.1559 Y-12.4774
G01 X37.1139 Y-12.5026
G01 X37.0696 Y-12.5235
G01 X37.0235 Y-12.5400
G01 X36.9760 Y-12.5519
G01 X36.9275 Y-12.5591
G01 X36.8786 Y-12.5615
G01 X1.8786 Y-12.5615
G00 X1.8786 Y-12.5615
G01 F80.00
G01 Z-1.8000
G01 F40.00
G01 X36.8786 Y-12.5615
G01 X36.9275 Y-12.5591
G01 X36.9760 Y-12.5519
G01 X37.0235 Y-12.5400
G01 X37.0696 Y-12.5235
G01 X37.1139 Y-12.5026
G01 X37.1559 Y-12.4774
G01 X37.1952 Y-12.4482
G01 X37.2315 Y-12.4153
G01 X38.2315 Y-11.4153
G01 X38.2644 Y-11.3790
G01 X38.2936 Y-11.3397
G01 X38.3188 Y-11.2977
G01 X38.3397 Y-11.2534
G01 X38.3562 Y-11.2073
G01 X38.3681 Y-11.1598
G01 X38.3753 Y-11.1113
G01 X38.3777 Y-11.0624
G01 X38.3777 Y-6.9633
G00 X38.3777 Y-6.9633
G01 F80.00
G01 Z-1.9000
G01 F40.00
G01 X38.3777 Y-11.0624
G01 X38.3753 Y-11.1113
G01 X38.3681 Y-11.1598
G01 X38.3562 Y-11.2073
G01 X38.3397 Y-11.2534
G01 X38.3188 Y-11.2977
G01 X38.2936 Y-11.3397
G01 X38.2644 Y-11.3790
G01 X38.2315 Y-11.4153
G01 X37.2315 Y-12.4153
G01 X37.1952 Y-12.4482
G01 X37.1559 Y-12.4774
G01 X37.1139 Y-12.5026
G01 X37.0696 Y-12.5235
G01 X37.0235 Y-12.5400
G01 X36.9760 Y-12.5519
G01 X36.9275 Y-12.5591
G01 X36.8786 Y-12.5615
G01 X1.8786 Y-12.5615
G00 X1.8786 Y-12.5615
G01 F80.00
G01 Z-2.0000
G01 F40.00
G01 X36.8786 Y-12.5615
G01 X36.9275 Y-12.5591
G01 X36.9760 Y-12.5519
G01 X37.0235 Y-12.5400
G01 X37.0696 Y-12.5235
G01 X37.1139 Y-12.5026
G01 X37.1559 Y-12.4774
G01 X37.1952 Y-12.4482
G01 X37.2315 Y-12.4153
G01 X38.2315 Y-11.4153
G01 X38.2644 Y-11.3790
G01 X38.2936 Y-11.3397
G01 X38.3188 Y-11.2977
G01 X38.3397 Y-11.2534
G01 X38.3562 Y-11.2073
G01 X38.3681 Y-11.1598
G01 X38.3753 Y-11.1113
G01 X38.3777 Y-11.0624
G01 X38.3777 Y-6.9633
G00 X38.3777 Y-6.9633
G01 F80.00
G01 Z-2.1000
G01 F40.00
G01 X38.3777 Y-11.0624
G01 X38.3753 Y-11.1113
G01 X38.3681 Y-11.1598
G01 X38.3562 Y-11.2073
G01 X38.3397 Y-11.2534
G01 X38.3188 Y-11.2977
G01 X38.2936 Y-11.3397
G01 X38.2644 Y-11.3790
G01 X38.2315 Y-11.4153
G01 X37.2315 Y-12.4153
G01 X37.1952 Y-12.4482
G01 X37.1559 Y-12.4774
G01 X37.1139 Y-12.5026
G01 X37.0696 Y-12.5235
G01 X37.0235 Y-12.5400
G01 X36.9760 Y-12.5519
G01 X36.9275 Y-12.5591
G01 X36.8786 Y-12.5615
G01 X1.8786 Y-12.5615
G00 X1.8786 Y-12.5615
G01 F80.00
G01 Z-2.2000
G01 F40.00
G01 X36.8786 Y-12.5615
G01 X36.9275 Y-12.5591
G01 X36.9760 Y-12.5519
G01 X37.0235 Y-12.5400
G01 X37.0696 Y-12.5235
G01 X37.1139 Y-12.5026
G01 X37.1559 Y-12.4774
G01 X37.1952 Y-12.4482
G01 X37.2315 Y-12.4153
G01 X38.2315 Y-11.4153
G01 X38.2644 Y-11.3790
G01 X38.2936 Y-11.3397
G01 X38.3188 Y-11.2977
G01 X38.3397 Y-11.2534
G01 X38.3562 Y-11.2073
G01 X38.3681 Y-11.1598
G01 X38.3753 Y-11.1113
G01 X38.3777 Y-11.0624
G01 X38.3777 Y-6.9633
G00 X38.3777 Y-6.9633
G01 F80.00
G01 Z-2.3000
G01 F40.00
G01 X38.3777 Y-11.0624
G01 X38.3753 Y-11.1113
G01 X38.3681 Y-11.1598
G01 X38.3562 Y-11.2073
G01 X38.3397 Y-11.2534
G01 X38.3188 Y-11.2977
G01 X38.2936 Y-11.3397
G01 X38.2644 Y-11.3790
G01 X38.2315 Y-11.4153
G01 X37.2315 Y-12.4153
G01 X37.1952 Y-12.4482
G01 X37.1559 Y-12.4774
G01 X37.1139 Y-12.5026
G01 X37.0696 Y-12.5235
G01 X37.0235 Y-12.5400
G01 X36.9760 Y-12.5519
G01 X36.9275 Y-12.5591
G01 X36.8786 Y-12.5615
G01 X1.8786 Y-12.5615
G00 Z1.9990
G00 X1.8786 Y-12.5615
G01 F80.00
G01 Z-0.1000
G01 F40.00
G01 X1.8297 Y-12.5591
G01 X1.7812 Y-12.5519
G01 X1.7337 Y-12.5400
G01 X1.6876 Y-12.5235
G01 X1.6433 Y-12.5026
G01 X1.6013 Y-12.4774
G01 X1.5620 Y-12.4482
G01 X1.5257 Y-12.4153
G01 X0.5257 Y-11.4153
G01 X0.4928 Y-11.3790
G01 X0.4636 Y-11.3397
G01 X0.4384 Y-11.2977
G01 X0.4175 Y-11.2534
G01 X0.4010 Y-11.2073
G01 X0.3891 Y-11.1598
G01 X0.3819 Y-11.1113
G01 X0.3795 Y-11.0624
G01 X0.3795 Y-6.9633
G00 X0.3795 Y-6.9633
G01 F80.00
G01 Z-0.2000
G01 F40.00
G01 X0.3795 Y-11.0624
G01 X0.3819 Y-11.1113
G01 X0.3891 Y-11.1598
G01 X0.4010 Y-11.2073
G01 X0.4175 Y-11.2534
G01 X0.4384 Y-11.2977
G01 X0.4636 Y-11.3397
G01 X0.4928 Y-11.3790
G01 X0.5257 Y-11.4153
G01 X1.5257 Y-12.4153
G01 X1.5620 Y-12.4482
G01 X1.6013 Y-12.4774
G01 X1.6433 Y-12.5026
G01 X1.6876 Y-12.5235
G01 X1.7337 Y-12.5400
G01 X1.7812 Y-12.5519
G01 X1.8297 Y-12.5591
G01 X1.8786 Y-12.5615
G00 X1.8786 Y-12.5615
G01 F80.00
G01 Z-0.3000
G01 F40.00
G01 X1.8297 Y-12.5591
G01 X1.7812 Y-12.5519
G01 X1.7337 Y-12.5400
G01 X1.6876 Y-12.5235
G01 X1.6433 Y-12.5026
G01 X1.6013 Y-12.4774
G01 X1.5620 Y-12.4482
G01 X1.5257 Y-12.4153
G01 X0.5257 Y-11.4153
G01 X0.4928 Y-11.3790
G01 X0.4636 Y-11.3397
G01 X0.4384 Y-11.2977
G01 X0.4175 Y-11.2534
G01 X0.4010 Y-11.2073
G01 X0.3891 Y-11.1598
G01 X0.3819 Y-11.1113
G01 X0.3795 Y-11.0624
G01 X0.3795 Y-6.9633
G00 X0.3795 Y-6.9633
G01 F80.00
G01 Z-0.4000
G01 F40.00
G01 X0.3795 Y-11.0624
G01 X0.3819 Y-11.1113
G01 X0.3891 Y-11.1598
G01 X0.4010 Y-11.2073
G01 X0.4175 Y-11.2534
G01 X0.4384 Y-11.2977
G01 X0.4636 Y-11.3397
G01 X0.4928 Y-11.3790
G01 X0.5257 Y-11.4153
G01 X1.5257 Y-12.4153
G01 X1.5620 Y-12.4482
G01 X1.6013 Y-12.4774
G01 X1.6433 Y-12.5026
G01 X1.6876 Y-12.5235
G01 X1.7337 Y-12.5400
G01 X1.7812 Y-12.5519
G01 X1.8297 Y-12.5591
G01 X1.8786 Y-12.5615
G00 X1.8786 Y-12.5615
G01 F80.00
G01 Z-0.5000
G01 F40.00
G01 X1.8297 Y-12.5591
G01 X1.7812 Y-12.5519
G01 X1.7337 Y-12.5400
G01 X1.6876 Y-12.5235
G01 X1.6433 Y-12.5026
G01 X1.6013 Y-12.4774
G01 X1.5620 Y-12.4482
G01 X1.5257 Y-12.4153
G01 X0.5257 Y-11.4153
G01 X0.4928 Y-11.3790
G01 X0.4636 Y-11.3397
G01 X0.4384 Y-11.2977
G01 X0.4175 Y-11.2534
G01 X0.4010 Y-11.2073
G01 X0.3891 Y-11.1598
G01 X0.3819 Y-11.1113
G01 X0.3795 Y-11.0624
G01 X0.3795 Y-6.9633
G00 X0.3795 Y-6.9633
G01 F80.00
G01 Z-0.6000
G01 F40.00
G01 X0.3795 Y-11.0624
G01 X0.3819 Y-11.1113
G01 X0.3891 Y-11.1598
G01 X0.4010 Y-11.2073
G01 X0.4175 Y-11.2534
G01 X0.4384 Y-11.2977
G01 X0.4636 Y-11.3397
G01 X0.4928 Y-11.3790
G01 X0.5257 Y-11.4153
G01 X1.5257 Y-12.4153
G01 X1.5620 Y-12.4482
G01 X1.6013 Y-12.4774
G01 X1.6433 Y-12.5026
G01 X1.6876 Y-12.5235
G01 X1.7337 Y-12.5400
G01 X1.7812 Y-12.5519
G01 X1.8297 Y-12.5591
G01 X1.8786 Y-12.5615
G00 X1.8786 Y-12.5615
G01 F80.00
G01 Z-0.7000
G01 F40.00
G01 X1.8297 Y-12.5591
G01 X1.7812 Y-12.5519
G01 X1.7337 Y-12.5400
G01 X1.6876 Y-12.5235
G01 X1.6433 Y-12.5026
G01 X1.6013 Y-12.4774
G01 X1.5620 Y-12.4482
G01 X1.5257 Y-12.4153
G01 X0.5257 Y-11.4153
G01 X0.4928 Y-11.3790
G01 X0.4636 Y-11.3397
G01 X0.4384 Y-11.2977
G01 X0.4175 Y-11.2534
G01 X0.4010 Y-11.2073
G01 X0.3891 Y-11.1598
G01 X0.3819 Y-11.1113
G01 X0.3795 Y-11.0624
G01 X0.3795 Y-6.9633
G00 X0.3795 Y-6.9633
G01 F80.00
G01 Z-0.8000
G01 F40.00
G01 X0.3795 Y-11.0624
G01 X0.3819 Y-11.1113
G01 X0.3891 Y-11.1598
G01 X0.4010 Y-11.2073
G01 X0.4175 Y-11.2534
G01 X0.4384 Y-11.2977
G01 X0.4636 Y-11.3397
G01 X0.4928 Y-11.3790
G01 X0.5257 Y-11.4153
G01 X1.5257 Y-12.4153
G01 X1.5620 Y-12.4482
G01 X1.6013 Y-12.4774
G01 X1.6433 Y-12.5026
G01 X1.6876 Y-12.5235
G01 X1.7337 Y-12.5400
G01 X1.7812 Y-12.5519
G01 X1.8297 Y-12.5591
G01 X1.8786 Y-12.5615
G00 X1.8786 Y-12.5615
G01 F80.00
G01 Z-0.9000
G01 F40.00
G01 X1.8297 Y-12.5591
G01 X1.7812 Y-12.5519
G01 X1.7337 Y-12.5400
G01 X1.6876 Y-12.5235
G01 X1.6433 Y-12.5026
G01 X1.6013 Y-12.4774
G01 X1.5620 Y-12.4482
G01 X1.5257 Y-12.4153
G01 X0.5257 Y-11.4153
G01 X0.4928 Y-11.3790
G01 X0.4636 Y-11.3397
G01 X0.4384 Y-11.2977
G01 X0.4175 Y-11.2534
G01 X0.4010 Y-11.2073
G01 X0.3891 Y-11.1598
G01 X0.3819 Y-11.1113
G01 X0.3795 Y-11.0624
G01 X0.3795 Y-6.9633
G00 X0.3795 Y-6.9633
G01 F80.00
G01 Z-1.0000
G01 F40.00
G01 X0.3795 Y-11.0624
G01 X0.3819 Y-11.1113
G01 X0.3891 Y-11.1598
G01 X0.4010 Y-11.2073
G01 X0.4175 Y-11.2534
G01 X0.4384 Y-11.2977
G01 X0.4636 Y-11.3397
G01 X0.4928 Y-11.3790
G01 X0.5257 Y-11.4153
G01 X1.5257 Y-12.4153
G01 X1.5620 Y-12.4482
G01 X1.6013 Y-12.4774
G01 X1.6433 Y-12.5026
G01 X1.6876 Y-12.5235
G01 X1.7337 Y-12.5400
G01 X1.7812 Y-12.5519
G01 X1.8297 Y-12.5591
G01 X1.8786 Y-12.5615
G00 X1.8786 Y-12.5615
G01 F80.00
G01 Z-1.1000
G01 F40.00
G01 X1.8297 Y-12.5591
G01 X1.7812 Y-12.5519
G01 X1.7337 Y-12.5400
G01 X1.6876 Y-12.5235
G01 X1.6433 Y-12.5026
G01 X1.6013 Y-12.4774
G01 X1.5620 Y-12.4482
G01 X1.5257 Y-12.4153
G01 X0.5257 Y-11.4153
G01 X0.4928 Y-11.3790
G01 X0.4636 Y-11.3397
G01 X0.4384 Y-11.2977
G01 X0.4175 Y-11.2534
G01 X0.4010 Y-11.2073
G01 X0.3891 Y-11.1598
G01 X0.3819 Y-11.1113
G01 X0.3795 Y-11.0624
G01 X0.3795 Y-6.9633
G00 X0.3795 Y-6.9633
G01 F80.00
G01 Z-1.2000
G01 F40.00
G01 X0.3795 Y-11.0624
G01 X0.3819 Y-11.1113
G01 X0.3891 Y-11.1598
G01 X0.4010 Y-11.2073
G01 X0.4175 Y-11.2534
G01 X0.4384 Y-11.2977
G01 X0.4636 Y-11.3397
G01 X0.4928 Y-11.3790
G01 X0.5257 Y-11.4153
G01 X1.5257 Y-12.4153
G01 X1.5620 Y-12.4482
G01 X1.6013 Y-12.4774
G01 X1.6433 Y-12.5026
G01 X1.6876 Y-12.5235
G01 X1.7337 Y-12.5400
G01 X1.7812 Y-12.5519
G01 X1.8297 Y-12.5591
G01 X1.8786 Y-12.5615
G00 X1.8786 Y-12.5615
G01 F80.00
G01 Z-1.3000
G01 F40.00
G01 X1.8297 Y-12.5591
G01 X1.7812 Y-12.5519
G01 X1.7337 Y-12.5400
G01 X1.6876 Y-12.5235
G01 X1.6433 Y-12.5026
G01 X1.6013 Y-12.4774
G01 X1.5620 Y-12.4482
G01 X1.5257 Y-12.4153
G01 X0.5257 Y-11.4153
G01 X0.4928 Y-11.3790
G01 X0.4636 Y-11.3397
G01 X0.4384 Y-11.2977
G01 X0.4175 Y-11.2534
G01 X0.4010 Y-11.2073
G01 X0.3891 Y-11.1598
G01 X0.3819 Y-11.1113
G01 X0.3795 Y-11.0624
G01 X0.3795 Y-6.9633
G00 X0.3795 Y-6.9633
G01 F80.00
G01 Z-1.4000
G01 F40.00
G01 X0.3795 Y-11.0624
G01 X0.3819 Y-11.1113
G01 X0.3891 Y-11.1598
G01 X0.4010 Y-11.2073
G01 X0.4175 Y-11.2534
G01 X0.4384 Y-11.2977
G01 X0.4636 Y-11.3397
G01 X0.4928 Y-11.3790
G01 X0.5257 Y-11.4153
G01 X1.5257 Y-12.4153
G01 X1.5620 Y-12.4482
G01 X1.6013 Y-12.4774
G01 X1.6433 Y-12.5026
G01 X1.6876 Y-12.5235
G01 X1.7337 Y-12.5400
G01 X1.7812 Y-12.5519
G01 X1.8297 Y-12.5591
G01 X1.8786 Y-12.5615
G00 X1.8786 Y-12.5615
G01 F80.00
G01 Z-1.5000
G01 F40.00
G01 X1.8297 Y-12.5591
G01 X1.7812 Y-12.5519
G01 X1.7337 Y-12.5400
G01 X1.6876 Y-12.5235
G01 X1.6433 Y-12.5026
G01 X1.6013 Y-12.4774
G01 X1.5620 Y-12.4482
G01 X1.5257 Y-12.4153
G01 X0.5257 Y-11.4153
G01 X0.4928 Y-11.3790
G01 X0.4636 Y-11.3397
G01 X0.4384 Y-11.2977
G01 X0.4175 Y-11.2534
G01 X0.4010 Y-11.2073
G01 X0.3891 Y-11.1598
G01 X0.3819 Y-11.1113
G01 X0.3795 Y-11.0624
G01 X0.3795 Y-6.9633
G00 X0.3795 Y-6.9633
G01 F80.00
G01 Z-1.6000
G01 F40.00
G01 X0.3795 Y-11.0624
G01 X0.3819 Y-11.1113
G01 X0.3891 Y-11.1598
G01 X0.4010 Y-11.2073
G01 X0.4175 Y-11.2534
G01 X0.4384 Y-11.2977
G01 X0.4636 Y-11.3397
G01 X0.4928 Y-11.3790
G01 X0.5257 Y-11.4153
G01 X1.5257 Y-12.4153
G01 X1.5620 Y-12.4482
G01 X1.6013 Y-12.4774
G01 X1.6433 Y-12.5026
G01 X1.6876 Y-12.5235
G01 X1.7337 Y-12.5400
G01 X1.7812 Y-12.5519
G01 X1.8297 Y-12.5591
G01 X1.8786 Y-12.5615
G00 X1.8786 Y-12.5615
G01 F80.00
G01 Z-1.7000
G01 F40.00
G01 X1.8297 Y-12.5591
G01 X1.7812 Y-12.5519
G01 X1.7337 Y-12.5400
G01 X1.6876 Y-12.5235
G01 X1.6433 Y-12.5026
G01 X1.6013 Y-12.4774
G01 X1.5620 Y-12.4482
G01 X1.5257 Y-12.4153
G01 X0.5257 Y-11.4153
G01 X0.4928 Y-11.3790
G01 X0.4636 Y-11.3397
G01 X0.4384 Y-11.2977
G01 X0.4175 Y-11.2534
G01 X0.4010 Y-11.2073
G01 X0.3891 Y-11.1598
G01 X0.3819 Y-11.1113
G01 X0.3795 Y-11.0624
G01 X0.3795 Y-6.9633
G00 X0.3795 Y-6.9633
G01 F80.00
G01 Z-1.8000
G01 F40.00
G01 X0.3795 Y-11.0624
G01 X0.3819 Y-11.1113
G01 X0.3891 Y-11.1598
G01 X0.4010 Y-11.2073
G01 X0.4175 Y-11.2534
G01 X0.4384 Y-11.2977
G01 X0.4636 Y-11.3397
G01 X0.4928 Y-11.3790
G01 X0.5257 Y-11.4153
G01 X1.5257 Y-12.4153
G01 X1.5620 Y-12.4482
G01 X1.6013 Y-12.4774
G01 X1.6433 Y-12.5026
G01 X1.6876 Y-12.5235
G01 X1.7337 Y-12.5400
G01 X1.7812 Y-12.5519
G01 X1.8297 Y-12.5591
G01 X1.8786 Y-12.5615
G00 X1.8786 Y-12.5615
G01 F80.00
G01 Z-1.9000
G01 F40.00
G01 X1.8297 Y-12.5591
G01 X1.7812 Y-12.5519
G01 X1.7337 Y-12.5400
G01 X1.6876 Y-12.5235
G01 X1.6433 Y-12.5026
G01 X1.6013 Y-12.4774
G01 X1.5620 Y-12.4482
G01 X1.5257 Y-12.4153
G01 X0.5257 Y-11.4153
G01 X0.4928 Y-11.3790
G01 X0.4636 Y-11.3397
G01 X0.4384 Y-11.2977
G01 X0.4175 Y-11.2534
G01 X0.4010 Y-11.2073
G01 X0.3891 Y-11.1598
G01 X0.3819 Y-11.1113
G01 X0.3795 Y-11.0624
G01 X0.3795 Y-6.9633
G00 X0.3795 Y-6.9633
G01 F80.00
G01 Z-2.0000
G01 F40.00
G01 X0.3795 Y-11.0624
G01 X0.3819 Y-11.1113
G01 X0.3891 Y-11.1598
G01 X0.4010 Y-11.2073
G01 X0.4175 Y-11.2534
G01 X0.4384 Y-11.2977
G01 X0.4636 Y-11.3397
G01 X0.4928 Y-11.3790
G01 X0.5257 Y-11.4153
G01 X1.5257 Y-12.4153
G01 X1.5620 Y-12.4482
G01 X1.6013 Y-12.4774
G01 X1.6433 Y-12.5026
G01 X1.6876 Y-12.5235
G01 X1.7337 Y-12.5400
G01 X1.7812 Y-12.5519
G01 X1.8297 Y-12.5591
G01 X1.8786 Y-12.5615
G00 X1.8786 Y-12.5615
G01 F80.00
G01 Z-2.1000
G01 F40.00
G01 X1.8297 Y-12.5591
G01 X1.7812 Y-12.5519
G01 X1.7337 Y-12.5400
G01 X1.6876 Y-12.5235
G01 X1.6433 Y-12.5026
G01 X1.6013 Y-12.4774
G01 X1.5620 Y-12.4482
G01 X1.5257 Y-12.4153
G01 X0.5257 Y-11.4153
G01 X0.4928 Y-11.3790
G01 X0.4636 Y-11.3397
G01 X0.4384 Y-11.2977
G01 X0.4175 Y-11.2534
G01 X0.4010 Y-11.2073
G01 X0.3891 Y-11.1598
G01 X0.3819 Y-11.1113
G01 X0.3795 Y-11.0624
G01 X0.3795 Y-6.9633
G00 X0.3795 Y-6.9633
G01 F80.00
G01 Z-2.2000
G01 F40.00
G01 X0.3795 Y-11.0624
G01 X0.3819 Y-11.1113
G01 X0.3891 Y-11.1598
G01 X0.4010 Y-11.2073
G01 X0.4175 Y-11.2534
G01 X0.4384 Y-11.2977
G01 X0.4636 Y-11.3397
G01 X0.4928 Y-11.3790
G01 X0.5257 Y-11.4153
G01 X1.5257 Y-12.4153
G01 X1.5620 Y-12.4482
G01 X1.6013 Y-12.4774
G01 X1.6433 Y-12.5026
G01 X1.6876 Y-12.5235
G01 X1.7337 Y-12.5400
G01 X1.7812 Y-12.5519
G01 X1.8297 Y-12.5591
G01 X1.8786 Y-12.5615
G00 X1.8786 Y-12.5615
G01 F80.00
G01 Z-2.3000
G01 F40.00
G01 X1.8297 Y-12.5591
G01 X1.7812 Y-12.5519
G01 X1.7337 Y-12.5400
G01 X1.6876 Y-12.5235
G01 X1.6433 Y-12.5026
G01 X1.6013 Y-12.4774
G01 X1.5620 Y-12.4482
G01 X1.5257 Y-12.4153
G01 X0.5257 Y-11.4153
G01 X0.4928 Y-11.3790
G01 X0.4636 Y-11.3397
G01 X0.4384 Y-11.2977
G01 X0.4175 Y-11.2534
G01 X0.4010 Y-11.2073
G01 X0.3891 Y-11.1598
G01 X0.3819 Y-11.1113
G01 X0.3795 Y-11.0624
G01 X0.3795 Y-6.9633
G00 Z1.9990
M05
G00 Z1.9990
G00 Z12.70
G00 X0.0 Y0.0

M02