(G-CODE GENERATED BY FLATCAM v8.95 - www.flatcam.org - Version Date: 2019/08/17)

(Name: Karat2_screen v3.dxf_cutout_cnc)
(Type: G-code from Geometry)
(Units: MM)

(Created on Saturday, 27 June 2020 at 19:43)

(TOOL DIAMETER: 0.8 mm)
(Feedrate: 40.0 mm/min)
(Feedrate_Z: 79.9998 mm/min)
(Feedrate rapids 79.9998 mm/min)

(Z_Cut: -2.3 mm)
(DepthPerCut: 0.1 mm <=>23 passes)
(Z_Move: 5.0 mm)
(Z Toolchange: 12.7 mm)
(X,Y Toolchange: 0.0000, 0.0000 mm)
(Z Start: None mm)
(Z End: 12.7 mm)
(Steps per circle: 128)
(Postprocessor Geometry: default)

(X range:    0.9786 ...   38.2786  mm)
(Y range:  -12.4624 ...   -1.1624  mm)

(Spindle Speed: None RPM)

G21
G90
G94

G01 F40.00
G00 Z5.0000

M03
G00 X0.9786 Y-6.3124
G01 F80.00
G01 Z-0.1000
G01 F40.00
G01 X0.9786 Y-2.5624
G01 X0.9805 Y-2.5232
G01 X0.9863 Y-2.4844
G01 X0.9958 Y-2.4463
G01 X1.0090 Y-2.4093
G01 X1.0258 Y-2.3738
G01 X1.0460 Y-2.3402
G01 X1.0694 Y-2.3086
G01 X1.0957 Y-2.2795
G01 X2.0957 Y-1.2795
G01 X2.1248 Y-1.2532
G01 X2.1564 Y-1.2298
G01 X2.1900 Y-1.2096
G01 X2.2255 Y-1.1928
G01 X2.2625 Y-1.1796
G01 X2.3006 Y-1.1701
G01 X2.3394 Y-1.1643
G01 X2.3786 Y-1.1624
G01 X36.8786 Y-1.1624
G01 X36.9178 Y-1.1643
G01 X36.9566 Y-1.1701
G01 X36.9947 Y-1.1796
G01 X37.0317 Y-1.1928
G01 X37.0672 Y-1.2096
G01 X37.1008 Y-1.2298
G01 X37.1323 Y-1.2532
G01 X37.1614 Y-1.2795
G01 X38.1614 Y-2.2795
G01 X38.1878 Y-2.3086
G01 X38.2112 Y-2.3402
G01 X38.2314 Y-2.3738
G01 X38.2481 Y-2.4093
G01 X38.2614 Y-2.4463
G01 X38.2709 Y-2.4844
G01 X38.2767 Y-2.5232
G01 X38.2786 Y-2.5624
G01 X38.2786 Y-6.3124
G00 X38.2786 Y-6.3124
G01 F80.00
G01 Z-0.2000
G01 F40.00
G01 X38.2786 Y-2.5624
G01 X38.2767 Y-2.5232
G01 X38.2709 Y-2.4844
G01 X38.2614 Y-2.4463
G01 X38.2481 Y-2.4093
G01 X38.2314 Y-2.3738
G01 X38.2112 Y-2.3402
G01 X38.1878 Y-2.3086
G01 X38.1614 Y-2.2795
G01 X37.1614 Y-1.2795
G01 X37.1323 Y-1.2532
G01 X37.1008 Y-1.2298
G01 X37.0672 Y-1.2096
G01 X37.0317 Y-1.1928
G01 X36.9947 Y-1.1796
G01 X36.9566 Y-1.1701
G01 X36.9178 Y-1.1643
G01 X36.8786 Y-1.1624
G01 X2.3786 Y-1.1624
G01 X2.3394 Y-1.1643
G01 X2.3006 Y-1.1701
G01 X2.2625 Y-1.1796
G01 X2.2255 Y-1.1928
G01 X2.1900 Y-1.2096
G01 X2.1564 Y-1.2298
G01 X2.1248 Y-1.2532
G01 X2.0957 Y-1.2795
G01 X1.0957 Y-2.2795
G01 X1.0694 Y-2.3086
G01 X1.0460 Y-2.3402
G01 X1.0258 Y-2.3738
G01 X1.0090 Y-2.4093
G01 X0.9958 Y-2.4463
G01 X0.9863 Y-2.4844
G01 X0.9805 Y-2.5232
G01 X0.9786 Y-2.5624
G01 X0.9786 Y-6.3124
G00 X0.9786 Y-6.3124
G01 F80.00
G01 Z-0.3000
G01 F40.00
G01 X0.9786 Y-2.5624
G01 X0.9805 Y-2.5232
G01 X0.9863 Y-2.4844
G01 X0.9958 Y-2.4463
G01 X1.0090 Y-2.4093
G01 X1.0258 Y-2.3738
G01 X1.0460 Y-2.3402
G01 X1.0694 Y-2.3086
G01 X1.0957 Y-2.2795
G01 X2.0957 Y-1.2795
G01 X2.1248 Y-1.2532
G01 X2.1564 Y-1.2298
G01 X2.1900 Y-1.2096
G01 X2.2255 Y-1.1928
G01 X2.2625 Y-1.1796
G01 X2.3006 Y-1.1701
G01 X2.3394 Y-1.1643
G01 X2.3786 Y-1.1624
G01 X36.8786 Y-1.1624
G01 X36.9178 Y-1.1643
G01 X36.9566 Y-1.1701
G01 X36.9947 Y-1.1796
G01 X37.0317 Y-1.1928
G01 X37.0672 Y-1.2096
G01 X37.1008 Y-1.2298
G01 X37.1323 Y-1.2532
G01 X37.1614 Y-1.2795
G01 X38.1614 Y-2.2795
G01 X38.1878 Y-2.3086
G01 X38.2112 Y-2.3402
G01 X38.2314 Y-2.3738
G01 X38.2481 Y-2.4093
G01 X38.2614 Y-2.4463
G01 X38.2709 Y-2.4844
G01 X38.2767 Y-2.5232
G01 X38.2786 Y-2.5624
G01 X38.2786 Y-6.3124
G00 X38.2786 Y-6.3124
G01 F80.00
G01 Z-0.4000
G01 F40.00
G01 X38.2786 Y-2.5624
G01 X38.2767 Y-2.5232
G01 X38.2709 Y-2.4844
G01 X38.2614 Y-2.4463
G01 X38.2481 Y-2.4093
G01 X38.2314 Y-2.3738
G01 X38.2112 Y-2.3402
G01 X38.1878 Y-2.3086
G01 X38.1614 Y-2.2795
G01 X37.1614 Y-1.2795
G01 X37.1323 Y-1.2532
G01 X37.1008 Y-1.2298
G01 X37.0672 Y-1.2096
G01 X37.0317 Y-1.1928
G01 X36.9947 Y-1.1796
G01 X36.9566 Y-1.1701
G01 X36.9178 Y-1.1643
G01 X36.8786 Y-1.1624
G01 X2.3786 Y-1.1624
G01 X2.3394 Y-1.1643
G01 X2.3006 Y-1.1701
G01 X2.2625 Y-1.1796
G01 X2.2255 Y-1.1928
G01 X2.1900 Y-1.2096
G01 X2.1564 Y-1.2298
G01 X2.1248 Y-1.2532
G01 X2.0957 Y-1.2795
G01 X1.0957 Y-2.2795
G01 X1.0694 Y-2.3086
G01 X1.0460 Y-2.3402
G01 X1.0258 Y-2.3738
G01 X1.0090 Y-2.4093
G01 X0.9958 Y-2.4463
G01 X0.9863 Y-2.4844
G01 X0.9805 Y-2.5232
G01 X0.9786 Y-2.5624
G01 X0.9786 Y-6.3124
G00 X0.9786 Y-6.3124
G01 F80.00
G01 Z-0.5000
G01 F40.00
G01 X0.9786 Y-2.5624
G01 X0.9805 Y-2.5232
G01 X0.9863 Y-2.4844
G01 X0.9958 Y-2.4463
G01 X1.0090 Y-2.4093
G01 X1.0258 Y-2.3738
G01 X1.0460 Y-2.3402
G01 X1.0694 Y-2.3086
G01 X1.0957 Y-2.2795
G01 X2.0957 Y-1.2795
G01 X2.1248 Y-1.2532
G01 X2.1564 Y-1.2298
G01 X2.1900 Y-1.2096
G01 X2.2255 Y-1.1928
G01 X2.2625 Y-1.1796
G01 X2.3006 Y-1.1701
G01 X2.3394 Y-1.1643
G01 X2.3786 Y-1.1624
G01 X36.8786 Y-1.1624
G01 X36.9178 Y-1.1643
G01 X36.9566 Y-1.1701
G01 X36.9947 Y-1.1796
G01 X37.0317 Y-1.1928
G01 X37.0672 Y-1.2096
G01 X37.1008 Y-1.2298
G01 X37.1323 Y-1.2532
G01 X37.1614 Y-1.2795
G01 X38.1614 Y-2.2795
G01 X38.1878 Y-2.3086
G01 X38.2112 Y-2.3402
G01 X38.2314 Y-2.3738
G01 X38.2481 Y-2.4093
G01 X38.2614 Y-2.4463
G01 X38.2709 Y-2.4844
G01 X38.2767 Y-2.5232
G01 X38.2786 Y-2.5624
G01 X38.2786 Y-6.3124
G00 X38.2786 Y-6.3124
G01 F80.00
G01 Z-0.6000
G01 F40.00
G01 X38.2786 Y-2.5624
G01 X38.2767 Y-2.5232
G01 X38.2709 Y-2.4844
G01 X38.2614 Y-2.4463
G01 X38.2481 Y-2.4093
G01 X38.2314 Y-2.3738
G01 X38.2112 Y-2.3402
G01 X38.1878 Y-2.3086
G01 X38.1614 Y-2.2795
G01 X37.1614 Y-1.2795
G01 X37.1323 Y-1.2532
G01 X37.1008 Y-1.2298
G01 X37.0672 Y-1.2096
G01 X37.0317 Y-1.1928
G01 X36.9947 Y-1.1796
G01 X36.9566 Y-1.1701
G01 X36.9178 Y-1.1643
G01 X36.8786 Y-1.1624
G01 X2.3786 Y-1.1624
G01 X2.3394 Y-1.1643
G01 X2.3006 Y-1.1701
G01 X2.2625 Y-1.1796
G01 X2.2255 Y-1.1928
G01 X2.1900 Y-1.2096
G01 X2.1564 Y-1.2298
G01 X2.1248 Y-1.2532
G01 X2.0957 Y-1.2795
G01 X1.0957 Y-2.2795
G01 X1.0694 Y-2.3086
G01 X1.0460 Y-2.3402
G01 X1.0258 Y-2.3738
G01 X1.0090 Y-2.4093
G01 X0.9958 Y-2.4463
G01 X0.9863 Y-2.4844
G01 X0.9805 Y-2.5232
G01 X0.9786 Y-2.5624
G01 X0.9786 Y-6.3124
G00 X0.9786 Y-6.3124
G01 F80.00
G01 Z-0.7000
G01 F40.00
G01 X0.9786 Y-2.5624
G01 X0.9805 Y-2.5232
G01 X0.9863 Y-2.4844
G01 X0.9958 Y-2.4463
G01 X1.0090 Y-2.4093
G01 X1.0258 Y-2.3738
G01 X1.0460 Y-2.3402
G01 X1.0694 Y-2.3086
G01 X1.0957 Y-2.2795
G01 X2.0957 Y-1.2795
G01 X2.1248 Y-1.2532
G01 X2.1564 Y-1.2298
G01 X2.1900 Y-1.2096
G01 X2.2255 Y-1.1928
G01 X2.2625 Y-1.1796
G01 X2.3006 Y-1.1701
G01 X2.3394 Y-1.1643
G01 X2.3786 Y-1.1624
G01 X36.8786 Y-1.1624
G01 X36.9178 Y-1.1643
G01 X36.9566 Y-1.1701
G01 X36.9947 Y-1.1796
G01 X37.0317 Y-1.1928
G01 X37.0672 Y-1.2096
G01 X37.1008 Y-1.2298
G01 X37.1323 Y-1.2532
G01 X37.1614 Y-1.2795
G01 X38.1614 Y-2.2795
G01 X38.1878 Y-2.3086
G01 X38.2112 Y-2.3402
G01 X38.2314 Y-2.3738
G01 X38.2481 Y-2.4093
G01 X38.2614 Y-2.4463
G01 X38.2709 Y-2.4844
G01 X38.2767 Y-2.5232
G01 X38.2786 Y-2.5624
G01 X38.2786 Y-6.3124
G00 X38.2786 Y-6.3124
G01 F80.00
G01 Z-0.8000
G01 F40.00
G01 X38.2786 Y-2.5624
G01 X38.2767 Y-2.5232
G01 X38.2709 Y-2.4844
G01 X38.2614 Y-2.4463
G01 X38.2481 Y-2.4093
G01 X38.2314 Y-2.3738
G01 X38.2112 Y-2.3402
G01 X38.1878 Y-2.3086
G01 X38.1614 Y-2.2795
G01 X37.1614 Y-1.2795
G01 X37.1323 Y-1.2532
G01 X37.1008 Y-1.2298
G01 X37.0672 Y-1.2096
G01 X37.0317 Y-1.1928
G01 X36.9947 Y-1.1796
G01 X36.9566 Y-1.1701
G01 X36.9178 Y-1.1643
G01 X36.8786 Y-1.1624
G01 X2.3786 Y-1.1624
G01 X2.3394 Y-1.1643
G01 X2.3006 Y-1.1701
G01 X2.2625 Y-1.1796
G01 X2.2255 Y-1.1928
G01 X2.1900 Y-1.2096
G01 X2.1564 Y-1.2298
G01 X2.1248 Y-1.2532
G01 X2.0957 Y-1.2795
G01 X1.0957 Y-2.2795
G01 X1.0694 Y-2.3086
G01 X1.0460 Y-2.3402
G01 X1.0258 Y-2.3738
G01 X1.0090 Y-2.4093
G01 X0.9958 Y-2.4463
G01 X0.9863 Y-2.4844
G01 X0.9805 Y-2.5232
G01 X0.9786 Y-2.5624
G01 X0.9786 Y-6.3124
G00 X0.9786 Y-6.3124
G01 F80.00
G01 Z-0.9000
G01 F40.00
G01 X0.9786 Y-2.5624
G01 X0.9805 Y-2.5232
G01 X0.9863 Y-2.4844
G01 X0.9958 Y-2.4463
G01 X1.0090 Y-2.4093
G01 X1.0258 Y-2.3738
G01 X1.0460 Y-2.3402
G01 X1.0694 Y-2.3086
G01 X1.0957 Y-2.2795
G01 X2.0957 Y-1.2795
G01 X2.1248 Y-1.2532
G01 X2.1564 Y-1.2298
G01 X2.1900 Y-1.2096
G01 X2.2255 Y-1.1928
G01 X2.2625 Y-1.1796
G01 X2.3006 Y-1.1701
G01 X2.3394 Y-1.1643
G01 X2.3786 Y-1.1624
G01 X36.8786 Y-1.1624
G01 X36.9178 Y-1.1643
G01 X36.9566 Y-1.1701
G01 X36.9947 Y-1.1796
G01 X37.0317 Y-1.1928
G01 X37.0672 Y-1.2096
G01 X37.1008 Y-1.2298
G01 X37.1323 Y-1.2532
G01 X37.1614 Y-1.2795
G01 X38.1614 Y-2.2795
G01 X38.1878 Y-2.3086
G01 X38.2112 Y-2.3402
G01 X38.2314 Y-2.3738
G01 X38.2481 Y-2.4093
G01 X38.2614 Y-2.4463
G01 X38.2709 Y-2.4844
G01 X38.2767 Y-2.5232
G01 X38.2786 Y-2.5624
G01 X38.2786 Y-6.3124
G00 X38.2786 Y-6.3124
G01 F80.00
G01 Z-1.0000
G01 F40.00
G01 X38.2786 Y-2.5624
G01 X38.2767 Y-2.5232
G01 X38.2709 Y-2.4844
G01 X38.2614 Y-2.4463
G01 X38.2481 Y-2.4093
G01 X38.2314 Y-2.3738
G01 X38.2112 Y-2.3402
G01 X38.1878 Y-2.3086
G01 X38.1614 Y-2.2795
G01 X37.1614 Y-1.2795
G01 X37.1323 Y-1.2532
G01 X37.1008 Y-1.2298
G01 X37.0672 Y-1.2096
G01 X37.0317 Y-1.1928
G01 X36.9947 Y-1.1796
G01 X36.9566 Y-1.1701
G01 X36.9178 Y-1.1643
G01 X36.8786 Y-1.1624
G01 X2.3786 Y-1.1624
G01 X2.3394 Y-1.1643
G01 X2.3006 Y-1.1701
G01 X2.2625 Y-1.1796
G01 X2.2255 Y-1.1928
G01 X2.1900 Y-1.2096
G01 X2.1564 Y-1.2298
G01 X2.1248 Y-1.2532
G01 X2.0957 Y-1.2795
G01 X1.0957 Y-2.2795
G01 X1.0694 Y-2.3086
G01 X1.0460 Y-2.3402
G01 X1.0258 Y-2.3738
G01 X1.0090 Y-2.4093
G01 X0.9958 Y-2.4463
G01 X0.9863 Y-2.4844
G01 X0.9805 Y-2.5232
G01 X0.9786 Y-2.5624
G01 X0.9786 Y-6.3124
G00 X0.9786 Y-6.3124
G01 F80.00
G01 Z-1.1000
G01 F40.00
G01 X0.9786 Y-2.5624
G01 X0.9805 Y-2.5232
G01 X0.9863 Y-2.4844
G01 X0.9958 Y-2.4463
G01 X1.0090 Y-2.4093
G01 X1.0258 Y-2.3738
G01 X1.0460 Y-2.3402
G01 X1.0694 Y-2.3086
G01 X1.0957 Y-2.2795
G01 X2.0957 Y-1.2795
G01 X2.1248 Y-1.2532
G01 X2.1564 Y-1.2298
G01 X2.1900 Y-1.2096
G01 X2.2255 Y-1.1928
G01 X2.2625 Y-1.1796
G01 X2.3006 Y-1.1701
G01 X2.3394 Y-1.1643
G01 X2.3786 Y-1.1624
G01 X36.8786 Y-1.1624
G01 X36.9178 Y-1.1643
G01 X36.9566 Y-1.1701
G01 X36.9947 Y-1.1796
G01 X37.0317 Y-1.1928
G01 X37.0672 Y-1.2096
G01 X37.1008 Y-1.2298
G01 X37.1323 Y-1.2532
G01 X37.1614 Y-1.2795
G01 X38.1614 Y-2.2795
G01 X38.1878 Y-2.3086
G01 X38.2112 Y-2.3402
G01 X38.2314 Y-2.3738
G01 X38.2481 Y-2.4093
G01 X38.2614 Y-2.4463
G01 X38.2709 Y-2.4844
G01 X38.2767 Y-2.5232
G01 X38.2786 Y-2.5624
G01 X38.2786 Y-6.3124
G00 X38.2786 Y-6.3124
G01 F80.00
G01 Z-1.2000
G01 F40.00
G01 X38.2786 Y-2.5624
G01 X38.2767 Y-2.5232
G01 X38.2709 Y-2.4844
G01 X38.2614 Y-2.4463
G01 X38.2481 Y-2.4093
G01 X38.2314 Y-2.3738
G01 X38.2112 Y-2.3402
G01 X38.1878 Y-2.3086
G01 X38.1614 Y-2.2795
G01 X37.1614 Y-1.2795
G01 X37.1323 Y-1.2532
G01 X37.1008 Y-1.2298
G01 X37.0672 Y-1.2096
G01 X37.0317 Y-1.1928
G01 X36.9947 Y-1.1796
G01 X36.9566 Y-1.1701
G01 X36.9178 Y-1.1643
G01 X36.8786 Y-1.1624
G01 X2.3786 Y-1.1624
G01 X2.3394 Y-1.1643
G01 X2.3006 Y-1.1701
G01 X2.2625 Y-1.1796
G01 X2.2255 Y-1.1928
G01 X2.1900 Y-1.2096
G01 X2.1564 Y-1.2298
G01 X2.1248 Y-1.2532
G01 X2.0957 Y-1.2795
G01 X1.0957 Y-2.2795
G01 X1.0694 Y-2.3086
G01 X1.0460 Y-2.3402
G01 X1.0258 Y-2.3738
G01 X1.0090 Y-2.4093
G01 X0.9958 Y-2.4463
G01 X0.9863 Y-2.4844
G01 X0.9805 Y-2.5232
G01 X0.9786 Y-2.5624
G01 X0.9786 Y-6.3124
G00 X0.9786 Y-6.3124
G01 F80.00
G01 Z-1.3000
G01 F40.00
G01 X0.9786 Y-2.5624
G01 X0.9805 Y-2.5232
G01 X0.9863 Y-2.4844
G01 X0.9958 Y-2.4463
G01 X1.0090 Y-2.4093
G01 X1.0258 Y-2.3738
G01 X1.0460 Y-2.3402
G01 X1.0694 Y-2.3086
G01 X1.0957 Y-2.2795
G01 X2.0957 Y-1.2795
G01 X2.1248 Y-1.2532
G01 X2.1564 Y-1.2298
G01 X2.1900 Y-1.2096
G01 X2.2255 Y-1.1928
G01 X2.2625 Y-1.1796
G01 X2.3006 Y-1.1701
G01 X2.3394 Y-1.1643
G01 X2.3786 Y-1.1624
G01 X36.8786 Y-1.1624
G01 X36.9178 Y-1.1643
G01 X36.9566 Y-1.1701
G01 X36.9947 Y-1.1796
G01 X37.0317 Y-1.1928
G01 X37.0672 Y-1.2096
G01 X37.1008 Y-1.2298
G01 X37.1323 Y-1.2532
G01 X37.1614 Y-1.2795
G01 X38.1614 Y-2.2795
G01 X38.1878 Y-2.3086
G01 X38.2112 Y-2.3402
G01 X38.2314 Y-2.3738
G01 X38.2481 Y-2.4093
G01 X38.2614 Y-2.4463
G01 X38.2709 Y-2.4844
G01 X38.2767 Y-2.5232
G01 X38.2786 Y-2.5624
G01 X38.2786 Y-6.3124
G00 X38.2786 Y-6.3124
G01 F80.00
G01 Z-1.4000
G01 F40.00
G01 X38.2786 Y-2.5624
G01 X38.2767 Y-2.5232
G01 X38.2709 Y-2.4844
G01 X38.2614 Y-2.4463
G01 X38.2481 Y-2.4093
G01 X38.2314 Y-2.3738
G01 X38.2112 Y-2.3402
G01 X38.1878 Y-2.3086
G01 X38.1614 Y-2.2795
G01 X37.1614 Y-1.2795
G01 X37.1323 Y-1.2532
G01 X37.1008 Y-1.2298
G01 X37.0672 Y-1.2096
G01 X37.0317 Y-1.1928
G01 X36.9947 Y-1.1796
G01 X36.9566 Y-1.1701
G01 X36.9178 Y-1.1643
G01 X36.8786 Y-1.1624
G01 X2.3786 Y-1.1624
G01 X2.3394 Y-1.1643
G01 X2.3006 Y-1.1701
G01 X2.2625 Y-1.1796
G01 X2.2255 Y-1.1928
G01 X2.1900 Y-1.2096
G01 X2.1564 Y-1.2298
G01 X2.1248 Y-1.2532
G01 X2.0957 Y-1.2795
G01 X1.0957 Y-2.2795
G01 X1.0694 Y-2.3086
G01 X1.0460 Y-2.3402
G01 X1.0258 Y-2.3738
G01 X1.0090 Y-2.4093
G01 X0.9958 Y-2.4463
G01 X0.9863 Y-2.4844
G01 X0.9805 Y-2.5232
G01 X0.9786 Y-2.5624
G01 X0.9786 Y-6.3124
G00 X0.9786 Y-6.3124
G01 F80.00
G01 Z-1.5000
G01 F40.00
G01 X0.9786 Y-2.5624
G01 X0.9805 Y-2.5232
G01 X0.9863 Y-2.4844
G01 X0.9958 Y-2.4463
G01 X1.0090 Y-2.4093
G01 X1.0258 Y-2.3738
G01 X1.0460 Y-2.3402
G01 X1.0694 Y-2.3086
G01 X1.0957 Y-2.2795
G01 X2.0957 Y-1.2795
G01 X2.1248 Y-1.2532
G01 X2.1564 Y-1.2298
G01 X2.1900 Y-1.2096
G01 X2.2255 Y-1.1928
G01 X2.2625 Y-1.1796
G01 X2.3006 Y-1.1701
G01 X2.3394 Y-1.1643
G01 X2.3786 Y-1.1624
G01 X36.8786 Y-1.1624
G01 X36.9178 Y-1.1643
G01 X36.9566 Y-1.1701
G01 X36.9947 Y-1.1796
G01 X37.0317 Y-1.1928
G01 X37.0672 Y-1.2096
G01 X37.1008 Y-1.2298
G01 X37.1323 Y-1.2532
G01 X37.1614 Y-1.2795
G01 X38.1614 Y-2.2795
G01 X38.1878 Y-2.3086
G01 X38.2112 Y-2.3402
G01 X38.2314 Y-2.3738
G01 X38.2481 Y-2.4093
G01 X38.2614 Y-2.4463
G01 X38.2709 Y-2.4844
G01 X38.2767 Y-2.5232
G01 X38.2786 Y-2.5624
G01 X38.2786 Y-6.3124
G00 X38.2786 Y-6.3124
G01 F80.00
G01 Z-1.6000
G01 F40.00
G01 X38.2786 Y-2.5624
G01 X38.2767 Y-2.5232
G01 X38.2709 Y-2.4844
G01 X38.2614 Y-2.4463
G01 X38.2481 Y-2.4093
G01 X38.2314 Y-2.3738
G01 X38.2112 Y-2.3402
G01 X38.1878 Y-2.3086
G01 X38.1614 Y-2.2795
G01 X37.1614 Y-1.2795
G01 X37.1323 Y-1.2532
G01 X37.1008 Y-1.2298
G01 X37.0672 Y-1.2096
G01 X37.0317 Y-1.1928
G01 X36.9947 Y-1.1796
G01 X36.9566 Y-1.1701
G01 X36.9178 Y-1.1643
G01 X36.8786 Y-1.1624
G01 X2.3786 Y-1.1624
G01 X2.3394 Y-1.1643
G01 X2.3006 Y-1.1701
G01 X2.2625 Y-1.1796
G01 X2.2255 Y-1.1928
G01 X2.1900 Y-1.2096
G01 X2.1564 Y-1.2298
G01 X2.1248 Y-1.2532
G01 X2.0957 Y-1.2795
G01 X1.0957 Y-2.2795
G01 X1.0694 Y-2.3086
G01 X1.0460 Y-2.3402
G01 X1.0258 Y-2.3738
G01 X1.0090 Y-2.4093
G01 X0.9958 Y-2.4463
G01 X0.9863 Y-2.4844
G01 X0.9805 Y-2.5232
G01 X0.9786 Y-2.5624
G01 X0.9786 Y-6.3124
G00 X0.9786 Y-6.3124
G01 F80.00
G01 Z-1.7000
G01 F40.00
G01 X0.9786 Y-2.5624
G01 X0.9805 Y-2.5232
G01 X0.9863 Y-2.4844
G01 X0.9958 Y-2.4463
G01 X1.0090 Y-2.4093
G01 X1.0258 Y-2.3738
G01 X1.0460 Y-2.3402
G01 X1.0694 Y-2.3086
G01 X1.0957 Y-2.2795
G01 X2.0957 Y-1.2795
G01 X2.1248 Y-1.2532
G01 X2.1564 Y-1.2298
G01 X2.1900 Y-1.2096
G01 X2.2255 Y-1.1928
G01 X2.2625 Y-1.1796
G01 X2.3006 Y-1.1701
G01 X2.3394 Y-1.1643
G01 X2.3786 Y-1.1624
G01 X36.8786 Y-1.1624
G01 X36.9178 Y-1.1643
G01 X36.9566 Y-1.1701
G01 X36.9947 Y-1.1796
G01 X37.0317 Y-1.1928
G01 X37.0672 Y-1.2096
G01 X37.1008 Y-1.2298
G01 X37.1323 Y-1.2532
G01 X37.1614 Y-1.2795
G01 X38.1614 Y-2.2795
G01 X38.1878 Y-2.3086
G01 X38.2112 Y-2.3402
G01 X38.2314 Y-2.3738
G01 X38.2481 Y-2.4093
G01 X38.2614 Y-2.4463
G01 X38.2709 Y-2.4844
G01 X38.2767 Y-2.5232
G01 X38.2786 Y-2.5624
G01 X38.2786 Y-6.3124
G00 X38.2786 Y-6.3124
G01 F80.00
G01 Z-1.8000
G01 F40.00
G01 X38.2786 Y-2.5624
G01 X38.2767 Y-2.5232
G01 X38.2709 Y-2.4844
G01 X38.2614 Y-2.4463
G01 X38.2481 Y-2.4093
G01 X38.2314 Y-2.3738
G01 X38.2112 Y-2.3402
G01 X38.1878 Y-2.3086
G01 X38.1614 Y-2.2795
G01 X37.1614 Y-1.2795
G01 X37.1323 Y-1.2532
G01 X37.1008 Y-1.2298
G01 X37.0672 Y-1.2096
G01 X37.0317 Y-1.1928
G01 X36.9947 Y-1.1796
G01 X36.9566 Y-1.1701
G01 X36.9178 Y-1.1643
G01 X36.8786 Y-1.1624
G01 X2.3786 Y-1.1624
G01 X2.3394 Y-1.1643
G01 X2.3006 Y-1.1701
G01 X2.2625 Y-1.1796
G01 X2.2255 Y-1.1928
G01 X2.1900 Y-1.2096
G01 X2.1564 Y-1.2298
G01 X2.1248 Y-1.2532
G01 X2.0957 Y-1.2795
G01 X1.0957 Y-2.2795
G01 X1.0694 Y-2.3086
G01 X1.0460 Y-2.3402
G01 X1.0258 Y-2.3738
G01 X1.0090 Y-2.4093
G01 X0.9958 Y-2.4463
G01 X0.9863 Y-2.4844
G01 X0.9805 Y-2.5232
G01 X0.9786 Y-2.5624
G01 X0.9786 Y-6.3124
G00 X0.9786 Y-6.3124
G01 F80.00
G01 Z-1.9000
G01 F40.00
G01 X0.9786 Y-2.5624
G01 X0.9805 Y-2.5232
G01 X0.9863 Y-2.4844
G01 X0.9958 Y-2.4463
G01 X1.0090 Y-2.4093
G01 X1.0258 Y-2.3738
G01 X1.0460 Y-2.3402
G01 X1.0694 Y-2.3086
G01 X1.0957 Y-2.2795
G01 X2.0957 Y-1.2795
G01 X2.1248 Y-1.2532
G01 X2.1564 Y-1.2298
G01 X2.1900 Y-1.2096
G01 X2.2255 Y-1.1928
G01 X2.2625 Y-1.1796
G01 X2.3006 Y-1.1701
G01 X2.3394 Y-1.1643
G01 X2.3786 Y-1.1624
G01 X36.8786 Y-1.1624
G01 X36.9178 Y-1.1643
G01 X36.9566 Y-1.1701
G01 X36.9947 Y-1.1796
G01 X37.0317 Y-1.1928
G01 X37.0672 Y-1.2096
G01 X37.1008 Y-1.2298
G01 X37.1323 Y-1.2532
G01 X37.1614 Y-1.2795
G01 X38.1614 Y-2.2795
G01 X38.1878 Y-2.3086
G01 X38.2112 Y-2.3402
G01 X38.2314 Y-2.3738
G01 X38.2481 Y-2.4093
G01 X38.2614 Y-2.4463
G01 X38.2709 Y-2.4844
G01 X38.2767 Y-2.5232
G01 X38.2786 Y-2.5624
G01 X38.2786 Y-6.3124
G00 X38.2786 Y-6.3124
G01 F80.00
G01 Z-2.0000
G01 F40.00
G01 X38.2786 Y-2.5624
G01 X38.2767 Y-2.5232
G01 X38.2709 Y-2.4844
G01 X38.2614 Y-2.4463
G01 X38.2481 Y-2.4093
G01 X38.2314 Y-2.3738
G01 X38.2112 Y-2.3402
G01 X38.1878 Y-2.3086
G01 X38.1614 Y-2.2795
G01 X37.1614 Y-1.2795
G01 X37.1323 Y-1.2532
G01 X37.1008 Y-1.2298
G01 X37.0672 Y-1.2096
G01 X37.0317 Y-1.1928
G01 X36.9947 Y-1.1796
G01 X36.9566 Y-1.1701
G01 X36.9178 Y-1.1643
G01 X36.8786 Y-1.1624
G01 X2.3786 Y-1.1624
G01 X2.3394 Y-1.1643
G01 X2.3006 Y-1.1701
G01 X2.2625 Y-1.1796
G01 X2.2255 Y-1.1928
G01 X2.1900 Y-1.2096
G01 X2.1564 Y-1.2298
G01 X2.1248 Y-1.2532
G01 X2.0957 Y-1.2795
G01 X1.0957 Y-2.2795
G01 X1.0694 Y-2.3086
G01 X1.0460 Y-2.3402
G01 X1.0258 Y-2.3738
G01 X1.0090 Y-2.4093
G01 X0.9958 Y-2.4463
G01 X0.9863 Y-2.4844
G01 X0.9805 Y-2.5232
G01 X0.9786 Y-2.5624
G01 X0.9786 Y-6.3124
G00 X0.9786 Y-6.3124
G01 F80.00
G01 Z-2.1000
G01 F40.00
G01 X0.9786 Y-2.5624
G01 X0.9805 Y-2.5232
G01 X0.9863 Y-2.4844
G01 X0.9958 Y-2.4463
G01 X1.0090 Y-2.4093
G01 X1.0258 Y-2.3738
G01 X1.0460 Y-2.3402
G01 X1.0694 Y-2.3086
G01 X1.0957 Y-2.2795
G01 X2.0957 Y-1.2795
G01 X2.1248 Y-1.2532
G01 X2.1564 Y-1.2298
G01 X2.1900 Y-1.2096
G01 X2.2255 Y-1.1928
G01 X2.2625 Y-1.1796
G01 X2.3006 Y-1.1701
G01 X2.3394 Y-1.1643
G01 X2.3786 Y-1.1624
G01 X36.8786 Y-1.1624
G01 X36.9178 Y-1.1643
G01 X36.9566 Y-1.1701
G01 X36.9947 Y-1.1796
G01 X37.0317 Y-1.1928
G01 X37.0672 Y-1.2096
G01 X37.1008 Y-1.2298
G01 X37.1323 Y-1.2532
G01 X37.1614 Y-1.2795
G01 X38.1614 Y-2.2795
G01 X38.1878 Y-2.3086
G01 X38.2112 Y-2.3402
G01 X38.2314 Y-2.3738
G01 X38.2481 Y-2.4093
G01 X38.2614 Y-2.4463
G01 X38.2709 Y-2.4844
G01 X38.2767 Y-2.5232
G01 X38.2786 Y-2.5624
G01 X38.2786 Y-6.3124
G00 X38.2786 Y-6.3124
G01 F80.00
G01 Z-2.2000
G01 F40.00
G01 X38.2786 Y-2.5624
G01 X38.2767 Y-2.5232
G01 X38.2709 Y-2.4844
G01 X38.2614 Y-2.4463
G01 X38.2481 Y-2.4093
G01 X38.2314 Y-2.3738
G01 X38.2112 Y-2.3402
G01 X38.1878 Y-2.3086
G01 X38.1614 Y-2.2795
G01 X37.1614 Y-1.2795
G01 X37.1323 Y-1.2532
G01 X37.1008 Y-1.2298
G01 X37.0672 Y-1.2096
G01 X37.0317 Y-1.1928
G01 X36.9947 Y-1.1796
G01 X36.9566 Y-1.1701
G01 X36.9178 Y-1.1643
G01 X36.8786 Y-1.1624
G01 X2.3786 Y-1.1624
G01 X2.3394 Y-1.1643
G01 X2.3006 Y-1.1701
G01 X2.2625 Y-1.1796
G01 X2.2255 Y-1.1928
G01 X2.1900 Y-1.2096
G01 X2.1564 Y-1.2298
G01 X2.1248 Y-1.2532
G01 X2.0957 Y-1.2795
G01 X1.0957 Y-2.2795
G01 X1.0694 Y-2.3086
G01 X1.0460 Y-2.3402
G01 X1.0258 Y-2.3738
G01 X1.0090 Y-2.4093
G01 X0.9958 Y-2.4463
G01 X0.9863 Y-2.4844
G01 X0.9805 Y-2.5232
G01 X0.9786 Y-2.5624
G01 X0.9786 Y-6.3124
G00 X0.9786 Y-6.3124
G01 F80.00
G01 Z-2.3000
G01 F40.00
G01 X0.9786 Y-2.5624
G01 X0.9805 Y-2.5232
G01 X0.9863 Y-2.4844
G01 X0.9958 Y-2.4463
G01 X1.0090 Y-2.4093
G01 X1.0258 Y-2.3738
G01 X1.0460 Y-2.3402
G01 X1.0694 Y-2.3086
G01 X1.0957 Y-2.2795
G01 X2.0957 Y-1.2795
G01 X2.1248 Y-1.2532
G01 X2.1564 Y-1.2298
G01 X2.1900 Y-1.2096
G01 X2.2255 Y-1.1928
G01 X2.2625 Y-1.1796
G01 X2.3006 Y-1.1701
G01 X2.3394 Y-1.1643
G01 X2.3786 Y-1.1624
G01 X36.8786 Y-1.1624
G01 X36.9178 Y-1.1643
G01 X36.9566 Y-1.1701
G01 X36.9947 Y-1.1796
G01 X37.0317 Y-1.1928
G01 X37.0672 Y-1.2096
G01 X37.1008 Y-1.2298
G01 X37.1323 Y-1.2532
G01 X37.1614 Y-1.2795
G01 X38.1614 Y-2.2795
G01 X38.1878 Y-2.3086
G01 X38.2112 Y-2.3402
G01 X38.2314 Y-2.3738
G01 X38.2481 Y-2.4093
G01 X38.2614 Y-2.4463
G01 X38.2709 Y-2.4844
G01 X38.2767 Y-2.5232
G01 X38.2786 Y-2.5624
G01 X38.2786 Y-6.3124
G00 Z5.0000
G00 X38.2786 Y-7.3124
G01 F80.00
G01 Z-0.1000
G01 F40.00
G01 X38.2786 Y-11.0624
G01 X38.2767 Y-11.1016
G01 X38.2709 Y-11.1404
G01 X38.2614 Y-11.1785
G01 X38.2481 Y-11.2155
G01 X38.2314 Y-11.2509
G01 X38.2112 Y-11.2846
G01 X38.1878 Y-11.3161
G01 X38.1614 Y-11.3452
G01 X37.1614 Y-12.3452
G01 X37.1323 Y-12.3716
G01 X37.1008 Y-12.3950
G01 X37.0672 Y-12.4152
G01 X37.0317 Y-12.4319
G01 X36.9947 Y-12.4452
G01 X36.9566 Y-12.4547
G01 X36.9178 Y-12.4605
G01 X36.8786 Y-12.4624
G01 X2.3786 Y-12.4624
G00 X2.3786 Y-12.4624
G01 F80.00
G01 Z-0.2000
G01 F40.00
G01 X36.8786 Y-12.4624
G01 X36.9178 Y-12.4605
G01 X36.9566 Y-12.4547
G01 X36.9947 Y-12.4452
G01 X37.0317 Y-12.4319
G01 X37.0672 Y-12.4152
G01 X37.1008 Y-12.3950
G01 X37.1323 Y-12.3716
G01 X37.1614 Y-12.3452
G01 X38.1614 Y-11.3452
G01 X38.1878 Y-11.3161
G01 X38.2112 Y-11.2846
G01 X38.2314 Y-11.2509
G01 X38.2481 Y-11.2155
G01 X38.2614 Y-11.1785
G01 X38.2709 Y-11.1404
G01 X38.2767 Y-11.1016
G01 X38.2786 Y-11.0624
G01 X38.2786 Y-7.3124
G00 X38.2786 Y-7.3124
G01 F80.00
G01 Z-0.3000
G01 F40.00
G01 X38.2786 Y-11.0624
G01 X38.2767 Y-11.1016
G01 X38.2709 Y-11.1404
G01 X38.2614 Y-11.1785
G01 X38.2481 Y-11.2155
G01 X38.2314 Y-11.2509
G01 X38.2112 Y-11.2846
G01 X38.1878 Y-11.3161
G01 X38.1614 Y-11.3452
G01 X37.1614 Y-12.3452
G01 X37.1323 Y-12.3716
G01 X37.1008 Y-12.3950
G01 X37.0672 Y-12.4152
G01 X37.0317 Y-12.4319
G01 X36.9947 Y-12.4452
G01 X36.9566 Y-12.4547
G01 X36.9178 Y-12.4605
G01 X36.8786 Y-12.4624
G01 X2.3786 Y-12.4624
G00 X2.3786 Y-12.4624
G01 F80.00
G01 Z-0.4000
G01 F40.00
G01 X36.8786 Y-12.4624
G01 X36.9178 Y-12.4605
G01 X36.9566 Y-12.4547
G01 X36.9947 Y-12.4452
G01 X37.0317 Y-12.4319
G01 X37.0672 Y-12.4152
G01 X37.1008 Y-12.3950
G01 X37.1323 Y-12.3716
G01 X37.1614 Y-12.3452
G01 X38.1614 Y-11.3452
G01 X38.1878 Y-11.3161
G01 X38.2112 Y-11.2846
G01 X38.2314 Y-11.2509
G01 X38.2481 Y-11.2155
G01 X38.2614 Y-11.1785
G01 X38.2709 Y-11.1404
G01 X38.2767 Y-11.1016
G01 X38.2786 Y-11.0624
G01 X38.2786 Y-7.3124
G00 X38.2786 Y-7.3124
G01 F80.00
G01 Z-0.5000
G01 F40.00
G01 X38.2786 Y-11.0624
G01 X38.2767 Y-11.1016
G01 X38.2709 Y-11.1404
G01 X38.2614 Y-11.1785
G01 X38.2481 Y-11.2155
G01 X38.2314 Y-11.2509
G01 X38.2112 Y-11.2846
G01 X38.1878 Y-11.3161
G01 X38.1614 Y-11.3452
G01 X37.1614 Y-12.3452
G01 X37.1323 Y-12.3716
G01 X37.1008 Y-12.3950
G01 X37.0672 Y-12.4152
G01 X37.0317 Y-12.4319
G01 X36.9947 Y-12.4452
G01 X36.9566 Y-12.4547
G01 X36.9178 Y-12.4605
G01 X36.8786 Y-12.4624
G01 X2.3786 Y-12.4624
G00 X2.3786 Y-12.4624
G01 F80.00
G01 Z-0.6000
G01 F40.00
G01 X36.8786 Y-12.4624
G01 X36.9178 Y-12.4605
G01 X36.9566 Y-12.4547
G01 X36.9947 Y-12.4452
G01 X37.0317 Y-12.4319
G01 X37.0672 Y-12.4152
G01 X37.1008 Y-12.3950
G01 X37.1323 Y-12.3716
G01 X37.1614 Y-12.3452
G01 X38.1614 Y-11.3452
G01 X38.1878 Y-11.3161
G01 X38.2112 Y-11.2846
G01 X38.2314 Y-11.2509
G01 X38.2481 Y-11.2155
G01 X38.2614 Y-11.1785
G01 X38.2709 Y-11.1404
G01 X38.2767 Y-11.1016
G01 X38.2786 Y-11.0624
G01 X38.2786 Y-7.3124
G00 X38.2786 Y-7.3124
G01 F80.00
G01 Z-0.7000
G01 F40.00
G01 X38.2786 Y-11.0624
G01 X38.2767 Y-11.1016
G01 X38.2709 Y-11.1404
G01 X38.2614 Y-11.1785
G01 X38.2481 Y-11.2155
G01 X38.2314 Y-11.2509
G01 X38.2112 Y-11.2846
G01 X38.1878 Y-11.3161
G01 X38.1614 Y-11.3452
G01 X37.1614 Y-12.3452
G01 X37.1323 Y-12.3716
G01 X37.1008 Y-12.3950
G01 X37.0672 Y-12.4152
G01 X37.0317 Y-12.4319
G01 X36.9947 Y-12.4452
G01 X36.9566 Y-12.4547
G01 X36.9178 Y-12.4605
G01 X36.8786 Y-12.4624
G01 X2.3786 Y-12.4624
G00 X2.3786 Y-12.4624
G01 F80.00
G01 Z-0.8000
G01 F40.00
G01 X36.8786 Y-12.4624
G01 X36.9178 Y-12.4605
G01 X36.9566 Y-12.4547
G01 X36.9947 Y-12.4452
G01 X37.0317 Y-12.4319
G01 X37.0672 Y-12.4152
G01 X37.1008 Y-12.3950
G01 X37.1323 Y-12.3716
G01 X37.1614 Y-12.3452
G01 X38.1614 Y-11.3452
G01 X38.1878 Y-11.3161
G01 X38.2112 Y-11.2846
G01 X38.2314 Y-11.2509
G01 X38.2481 Y-11.2155
G01 X38.2614 Y-11.1785
G01 X38.2709 Y-11.1404
G01 X38.2767 Y-11.1016
G01 X38.2786 Y-11.0624
G01 X38.2786 Y-7.3124
G00 X38.2786 Y-7.3124
G01 F80.00
G01 Z-0.9000
G01 F40.00
G01 X38.2786 Y-11.0624
G01 X38.2767 Y-11.1016
G01 X38.2709 Y-11.1404
G01 X38.2614 Y-11.1785
G01 X38.2481 Y-11.2155
G01 X38.2314 Y-11.2509
G01 X38.2112 Y-11.2846
G01 X38.1878 Y-11.3161
G01 X38.1614 Y-11.3452
G01 X37.1614 Y-12.3452
G01 X37.1323 Y-12.3716
G01 X37.1008 Y-12.3950
G01 X37.0672 Y-12.4152
G01 X37.0317 Y-12.4319
G01 X36.9947 Y-12.4452
G01 X36.9566 Y-12.4547
G01 X36.9178 Y-12.4605
G01 X36.8786 Y-12.4624
G01 X2.3786 Y-12.4624
G00 X2.3786 Y-12.4624
G01 F80.00
G01 Z-1.0000
G01 F40.00
G01 X36.8786 Y-12.4624
G01 X36.9178 Y-12.4605
G01 X36.9566 Y-12.4547
G01 X36.9947 Y-12.4452
G01 X37.0317 Y-12.4319
G01 X37.0672 Y-12.4152
G01 X37.1008 Y-12.3950
G01 X37.1323 Y-12.3716
G01 X37.1614 Y-12.3452
G01 X38.1614 Y-11.3452
G01 X38.1878 Y-11.3161
G01 X38.2112 Y-11.2846
G01 X38.2314 Y-11.2509
G01 X38.2481 Y-11.2155
G01 X38.2614 Y-11.1785
G01 X38.2709 Y-11.1404
G01 X38.2767 Y-11.1016
G01 X38.2786 Y-11.0624
G01 X38.2786 Y-7.3124
G00 X38.2786 Y-7.3124
G01 F80.00
G01 Z-1.1000
G01 F40.00
G01 X38.2786 Y-11.0624
G01 X38.2767 Y-11.1016
G01 X38.2709 Y-11.1404
G01 X38.2614 Y-11.1785
G01 X38.2481 Y-11.2155
G01 X38.2314 Y-11.2509
G01 X38.2112 Y-11.2846
G01 X38.1878 Y-11.3161
G01 X38.1614 Y-11.3452
G01 X37.1614 Y-12.3452
G01 X37.1323 Y-12.3716
G01 X37.1008 Y-12.3950
G01 X37.0672 Y-12.4152
G01 X37.0317 Y-12.4319
G01 X36.9947 Y-12.4452
G01 X36.9566 Y-12.4547
G01 X36.9178 Y-12.4605
G01 X36.8786 Y-12.4624
G01 X2.3786 Y-12.4624
G00 X2.3786 Y-12.4624
G01 F80.00
G01 Z-1.2000
G01 F40.00
G01 X36.8786 Y-12.4624
G01 X36.9178 Y-12.4605
G01 X36.9566 Y-12.4547
G01 X36.9947 Y-12.4452
G01 X37.0317 Y-12.4319
G01 X37.0672 Y-12.4152
G01 X37.1008 Y-12.3950
G01 X37.1323 Y-12.3716
G01 X37.1614 Y-12.3452
G01 X38.1614 Y-11.3452
G01 X38.1878 Y-11.3161
G01 X38.2112 Y-11.2846
G01 X38.2314 Y-11.2509
G01 X38.2481 Y-11.2155
G01 X38.2614 Y-11.1785
G01 X38.2709 Y-11.1404
G01 X38.2767 Y-11.1016
G01 X38.2786 Y-11.0624
G01 X38.2786 Y-7.3124
G00 X38.2786 Y-7.3124
G01 F80.00
G01 Z-1.3000
G01 F40.00
G01 X38.2786 Y-11.0624
G01 X38.2767 Y-11.1016
G01 X38.2709 Y-11.1404
G01 X38.2614 Y-11.1785
G01 X38.2481 Y-11.2155
G01 X38.2314 Y-11.2509
G01 X38.2112 Y-11.2846
G01 X38.1878 Y-11.3161
G01 X38.1614 Y-11.3452
G01 X37.1614 Y-12.3452
G01 X37.1323 Y-12.3716
G01 X37.1008 Y-12.3950
G01 X37.0672 Y-12.4152
G01 X37.0317 Y-12.4319
G01 X36.9947 Y-12.4452
G01 X36.9566 Y-12.4547
G01 X36.9178 Y-12.4605
G01 X36.8786 Y-12.4624
G01 X2.3786 Y-12.4624
G00 X2.3786 Y-12.4624
G01 F80.00
G01 Z-1.4000
G01 F40.00
G01 X36.8786 Y-12.4624
G01 X36.9178 Y-12.4605
G01 X36.9566 Y-12.4547
G01 X36.9947 Y-12.4452
G01 X37.0317 Y-12.4319
G01 X37.0672 Y-12.4152
G01 X37.1008 Y-12.3950
G01 X37.1323 Y-12.3716
G01 X37.1614 Y-12.3452
G01 X38.1614 Y-11.3452
G01 X38.1878 Y-11.3161
G01 X38.2112 Y-11.2846
G01 X38.2314 Y-11.2509
G01 X38.2481 Y-11.2155
G01 X38.2614 Y-11.1785
G01 X38.2709 Y-11.1404
G01 X38.2767 Y-11.1016
G01 X38.2786 Y-11.0624
G01 X38.2786 Y-7.3124
G00 X38.2786 Y-7.3124
G01 F80.00
G01 Z-1.5000
G01 F40.00
G01 X38.2786 Y-11.0624
G01 X38.2767 Y-11.1016
G01 X38.2709 Y-11.1404
G01 X38.2614 Y-11.1785
G01 X38.2481 Y-11.2155
G01 X38.2314 Y-11.2509
G01 X38.2112 Y-11.2846
G01 X38.1878 Y-11.3161
G01 X38.1614 Y-11.3452
G01 X37.1614 Y-12.3452
G01 X37.1323 Y-12.3716
G01 X37.1008 Y-12.3950
G01 X37.0672 Y-12.4152
G01 X37.0317 Y-12.4319
G01 X36.9947 Y-12.4452
G01 X36.9566 Y-12.4547
G01 X36.9178 Y-12.4605
G01 X36.8786 Y-12.4624
G01 X2.3786 Y-12.4624
G00 X2.3786 Y-12.4624
G01 F80.00
G01 Z-1.6000
G01 F40.00
G01 X36.8786 Y-12.4624
G01 X36.9178 Y-12.4605
G01 X36.9566 Y-12.4547
G01 X36.9947 Y-12.4452
G01 X37.0317 Y-12.4319
G01 X37.0672 Y-12.4152
G01 X37.1008 Y-12.3950
G01 X37.1323 Y-12.3716
G01 X37.1614 Y-12.3452
G01 X38.1614 Y-11.3452
G01 X38.1878 Y-11.3161
G01 X38.2112 Y-11.2846
G01 X38.2314 Y-11.2509
G01 X38.2481 Y-11.2155
G01 X38.2614 Y-11.1785
G01 X38.2709 Y-11.1404
G01 X38.2767 Y-11.1016
G01 X38.2786 Y-11.0624
G01 X38.2786 Y-7.3124
G00 X38.2786 Y-7.3124
G01 F80.00
G01 Z-1.7000
G01 F40.00
G01 X38.2786 Y-11.0624
G01 X38.2767 Y-11.1016
G01 X38.2709 Y-11.1404
G01 X38.2614 Y-11.1785
G01 X38.2481 Y-11.2155
G01 X38.2314 Y-11.2509
G01 X38.2112 Y-11.2846
G01 X38.1878 Y-11.3161
G01 X38.1614 Y-11.3452
G01 X37.1614 Y-12.3452
G01 X37.1323 Y-12.3716
G01 X37.1008 Y-12.3950
G01 X37.0672 Y-12.4152
G01 X37.0317 Y-12.4319
G01 X36.9947 Y-12.4452
G01 X36.9566 Y-12.4547
G01 X36.9178 Y-12.4605
G01 X36.8786 Y-12.4624
G01 X2.3786 Y-12.4624
G00 X2.3786 Y-12.4624
G01 F80.00
G01 Z-1.8000
G01 F40.00
G01 X36.8786 Y-12.4624
G01 X36.9178 Y-12.4605
G01 X36.9566 Y-12.4547
G01 X36.9947 Y-12.4452
G01 X37.0317 Y-12.4319
G01 X37.0672 Y-12.4152
G01 X37.1008 Y-12.3950
G01 X37.1323 Y-12.3716
G01 X37.1614 Y-12.3452
G01 X38.1614 Y-11.3452
G01 X38.1878 Y-11.3161
G01 X38.2112 Y-11.2846
G01 X38.2314 Y-11.2509
G01 X38.2481 Y-11.2155
G01 X38.2614 Y-11.1785
G01 X38.2709 Y-11.1404
G01 X38.2767 Y-11.1016
G01 X38.2786 Y-11.0624
G01 X38.2786 Y-7.3124
G00 X38.2786 Y-7.3124
G01 F80.00
G01 Z-1.9000
G01 F40.00
G01 X38.2786 Y-11.0624
G01 X38.2767 Y-11.1016
G01 X38.2709 Y-11.1404
G01 X38.2614 Y-11.1785
G01 X38.2481 Y-11.2155
G01 X38.2314 Y-11.2509
G01 X38.2112 Y-11.2846
G01 X38.1878 Y-11.3161
G01 X38.1614 Y-11.3452
G01 X37.1614 Y-12.3452
G01 X37.1323 Y-12.3716
G01 X37.1008 Y-12.3950
G01 X37.0672 Y-12.4152
G01 X37.0317 Y-12.4319
G01 X36.9947 Y-12.4452
G01 X36.9566 Y-12.4547
G01 X36.9178 Y-12.4605
G01 X36.8786 Y-12.4624
G01 X2.3786 Y-12.4624
G00 X2.3786 Y-12.4624
G01 F80.00
G01 Z-2.0000
G01 F40.00
G01 X36.8786 Y-12.4624
G01 X36.9178 Y-12.4605
G01 X36.9566 Y-12.4547
G01 X36.9947 Y-12.4452
G01 X37.0317 Y-12.4319
G01 X37.0672 Y-12.4152
G01 X37.1008 Y-12.3950
G01 X37.1323 Y-12.3716
G01 X37.1614 Y-12.3452
G01 X38.1614 Y-11.3452
G01 X38.1878 Y-11.3161
G01 X38.2112 Y-11.2846
G01 X38.2314 Y-11.2509
G01 X38.2481 Y-11.2155
G01 X38.2614 Y-11.1785
G01 X38.2709 Y-11.1404
G01 X38.2767 Y-11.1016
G01 X38.2786 Y-11.0624
G01 X38.2786 Y-7.3124
G00 X38.2786 Y-7.3124
G01 F80.00
G01 Z-2.1000
G01 F40.00
G01 X38.2786 Y-11.0624
G01 X38.2767 Y-11.1016
G01 X38.2709 Y-11.1404
G01 X38.2614 Y-11.1785
G01 X38.2481 Y-11.2155
G01 X38.2314 Y-11.2509
G01 X38.2112 Y-11.2846
G01 X38.1878 Y-11.3161
G01 X38.1614 Y-11.3452
G01 X37.1614 Y-12.3452
G01 X37.1323 Y-12.3716
G01 X37.1008 Y-12.3950
G01 X37.0672 Y-12.4152
G01 X37.0317 Y-12.4319
G01 X36.9947 Y-12.4452
G01 X36.9566 Y-12.4547
G01 X36.9178 Y-12.4605
G01 X36.8786 Y-12.4624
G01 X2.3786 Y-12.4624
G00 X2.3786 Y-12.4624
G01 F80.00
G01 Z-2.2000
G01 F40.00
G01 X36.8786 Y-12.4624
G01 X36.9178 Y-12.4605
G01 X36.9566 Y-12.4547
G01 X36.9947 Y-12.4452
G01 X37.0317 Y-12.4319
G01 X37.0672 Y-12.4152
G01 X37.1008 Y-12.3950
G01 X37.1323 Y-12.3716
G01 X37.1614 Y-12.3452
G01 X38.1614 Y-11.3452
G01 X38.1878 Y-11.3161
G01 X38.2112 Y-11.2846
G01 X38.2314 Y-11.2509
G01 X38.2481 Y-11.2155
G01 X38.2614 Y-11.1785
G01 X38.2709 Y-11.1404
G01 X38.2767 Y-11.1016
G01 X38.2786 Y-11.0624
G01 X38.2786 Y-7.3124
G00 X38.2786 Y-7.3124
G01 F80.00
G01 Z-2.3000
G01 F40.00
G01 X38.2786 Y-11.0624
G01 X38.2767 Y-11.1016
G01 X38.2709 Y-11.1404
G01 X38.2614 Y-11.1785
G01 X38.2481 Y-11.2155
G01 X38.2314 Y-11.2509
G01 X38.2112 Y-11.2846
G01 X38.1878 Y-11.3161
G01 X38.1614 Y-11.3452
G01 X37.1614 Y-12.3452
G01 X37.1323 Y-12.3716
G01 X37.1008 Y-12.3950
G01 X37.0672 Y-12.4152
G01 X37.0317 Y-12.4319
G01 X36.9947 Y-12.4452
G01 X36.9566 Y-12.4547
G01 X36.9178 Y-12.4605
G01 X36.8786 Y-12.4624
G01 X2.3786 Y-12.4624
G00 Z5.0000
G00 X2.3786 Y-12.4624
G01 F80.00
G01 Z-0.1000
G01 F40.00
G01 X2.3394 Y-12.4605
G01 X2.3006 Y-12.4547
G01 X2.2625 Y-12.4452
G01 X2.2255 Y-12.4319
G01 X2.1900 Y-12.4152
G01 X2.1564 Y-12.3950
G01 X2.1248 Y-12.3716
G01 X2.0957 Y-12.3452
G01 X1.0957 Y-11.3452
G01 X1.0694 Y-11.3161
G01 X1.0460 Y-11.2846
G01 X1.0258 Y-11.2509
G01 X1.0090 Y-11.2155
G01 X0.9958 Y-11.1785
G01 X0.9863 Y-11.1404
G01 X0.9805 Y-11.1016
G01 X0.9786 Y-11.0624
G01 X0.9786 Y-7.3124
G00 X0.9786 Y-7.3124
G01 F80.00
G01 Z-0.2000
G01 F40.00
G01 X0.9786 Y-11.0624
G01 X0.9805 Y-11.1016
G01 X0.9863 Y-11.1404
G01 X0.9958 Y-11.1785
G01 X1.0090 Y-11.2155
G01 X1.0258 Y-11.2509
G01 X1.0460 Y-11.2846
G01 X1.0694 Y-11.3161
G01 X1.0957 Y-11.3452
G01 X2.0957 Y-12.3452
G01 X2.1248 Y-12.3716
G01 X2.1564 Y-12.3950
G01 X2.1900 Y-12.4152
G01 X2.2255 Y-12.4319
G01 X2.2625 Y-12.4452
G01 X2.3006 Y-12.4547
G01 X2.3394 Y-12.4605
G01 X2.3786 Y-12.4624
G00 X2.3786 Y-12.4624
G01 F80.00
G01 Z-0.3000
G01 F40.00
G01 X2.3394 Y-12.4605
G01 X2.3006 Y-12.4547
G01 X2.2625 Y-12.4452
G01 X2.2255 Y-12.4319
G01 X2.1900 Y-12.4152
G01 X2.1564 Y-12.3950
G01 X2.1248 Y-12.3716
G01 X2.0957 Y-12.3452
G01 X1.0957 Y-11.3452
G01 X1.0694 Y-11.3161
G01 X1.0460 Y-11.2846
G01 X1.0258 Y-11.2509
G01 X1.0090 Y-11.2155
G01 X0.9958 Y-11.1785
G01 X0.9863 Y-11.1404
G01 X0.9805 Y-11.1016
G01 X0.9786 Y-11.0624
G01 X0.9786 Y-7.3124
G00 X0.9786 Y-7.3124
G01 F80.00
G01 Z-0.4000
G01 F40.00
G01 X0.9786 Y-11.0624
G01 X0.9805 Y-11.1016
G01 X0.9863 Y-11.1404
G01 X0.9958 Y-11.1785
G01 X1.0090 Y-11.2155
G01 X1.0258 Y-11.2509
G01 X1.0460 Y-11.2846
G01 X1.0694 Y-11.3161
G01 X1.0957 Y-11.3452
G01 X2.0957 Y-12.3452
G01 X2.1248 Y-12.3716
G01 X2.1564 Y-12.3950
G01 X2.1900 Y-12.4152
G01 X2.2255 Y-12.4319
G01 X2.2625 Y-12.4452
G01 X2.3006 Y-12.4547
G01 X2.3394 Y-12.4605
G01 X2.3786 Y-12.4624
G00 X2.3786 Y-12.4624
G01 F80.00
G01 Z-0.5000
G01 F40.00
G01 X2.3394 Y-12.4605
G01 X2.3006 Y-12.4547
G01 X2.2625 Y-12.4452
G01 X2.2255 Y-12.4319
G01 X2.1900 Y-12.4152
G01 X2.1564 Y-12.3950
G01 X2.1248 Y-12.3716
G01 X2.0957 Y-12.3452
G01 X1.0957 Y-11.3452
G01 X1.0694 Y-11.3161
G01 X1.0460 Y-11.2846
G01 X1.0258 Y-11.2509
G01 X1.0090 Y-11.2155
G01 X0.9958 Y-11.1785
G01 X0.9863 Y-11.1404
G01 X0.9805 Y-11.1016
G01 X0.9786 Y-11.0624
G01 X0.9786 Y-7.3124
G00 X0.9786 Y-7.3124
G01 F80.00
G01 Z-0.6000
G01 F40.00
G01 X0.9786 Y-11.0624
G01 X0.9805 Y-11.1016
G01 X0.9863 Y-11.1404
G01 X0.9958 Y-11.1785
G01 X1.0090 Y-11.2155
G01 X1.0258 Y-11.2509
G01 X1.0460 Y-11.2846
G01 X1.0694 Y-11.3161
G01 X1.0957 Y-11.3452
G01 X2.0957 Y-12.3452
G01 X2.1248 Y-12.3716
G01 X2.1564 Y-12.3950
G01 X2.1900 Y-12.4152
G01 X2.2255 Y-12.4319
G01 X2.2625 Y-12.4452
G01 X2.3006 Y-12.4547
G01 X2.3394 Y-12.4605
G01 X2.3786 Y-12.4624
G00 X2.3786 Y-12.4624
G01 F80.00
G01 Z-0.7000
G01 F40.00
G01 X2.3394 Y-12.4605
G01 X2.3006 Y-12.4547
G01 X2.2625 Y-12.4452
G01 X2.2255 Y-12.4319
G01 X2.1900 Y-12.4152
G01 X2.1564 Y-12.3950
G01 X2.1248 Y-12.3716
G01 X2.0957 Y-12.3452
G01 X1.0957 Y-11.3452
G01 X1.0694 Y-11.3161
G01 X1.0460 Y-11.2846
G01 X1.0258 Y-11.2509
G01 X1.0090 Y-11.2155
G01 X0.9958 Y-11.1785
G01 X0.9863 Y-11.1404
G01 X0.9805 Y-11.1016
G01 X0.9786 Y-11.0624
G01 X0.9786 Y-7.3124
G00 X0.9786 Y-7.3124
G01 F80.00
G01 Z-0.8000
G01 F40.00
G01 X0.9786 Y-11.0624
G01 X0.9805 Y-11.1016
G01 X0.9863 Y-11.1404
G01 X0.9958 Y-11.1785
G01 X1.0090 Y-11.2155
G01 X1.0258 Y-11.2509
G01 X1.0460 Y-11.2846
G01 X1.0694 Y-11.3161
G01 X1.0957 Y-11.3452
G01 X2.0957 Y-12.3452
G01 X2.1248 Y-12.3716
G01 X2.1564 Y-12.3950
G01 X2.1900 Y-12.4152
G01 X2.2255 Y-12.4319
G01 X2.2625 Y-12.4452
G01 X2.3006 Y-12.4547
G01 X2.3394 Y-12.4605
G01 X2.3786 Y-12.4624
G00 X2.3786 Y-12.4624
G01 F80.00
G01 Z-0.9000
G01 F40.00
G01 X2.3394 Y-12.4605
G01 X2.3006 Y-12.4547
G01 X2.2625 Y-12.4452
G01 X2.2255 Y-12.4319
G01 X2.1900 Y-12.4152
G01 X2.1564 Y-12.3950
G01 X2.1248 Y-12.3716
G01 X2.0957 Y-12.3452
G01 X1.0957 Y-11.3452
G01 X1.0694 Y-11.3161
G01 X1.0460 Y-11.2846
G01 X1.0258 Y-11.2509
G01 X1.0090 Y-11.2155
G01 X0.9958 Y-11.1785
G01 X0.9863 Y-11.1404
G01 X0.9805 Y-11.1016
G01 X0.9786 Y-11.0624
G01 X0.9786 Y-7.3124
G00 X0.9786 Y-7.3124
G01 F80.00
G01 Z-1.0000
G01 F40.00
G01 X0.9786 Y-11.0624
G01 X0.9805 Y-11.1016
G01 X0.9863 Y-11.1404
G01 X0.9958 Y-11.1785
G01 X1.0090 Y-11.2155
G01 X1.0258 Y-11.2509
G01 X1.0460 Y-11.2846
G01 X1.0694 Y-11.3161
G01 X1.0957 Y-11.3452
G01 X2.0957 Y-12.3452
G01 X2.1248 Y-12.3716
G01 X2.1564 Y-12.3950
G01 X2.1900 Y-12.4152
G01 X2.2255 Y-12.4319
G01 X2.2625 Y-12.4452
G01 X2.3006 Y-12.4547
G01 X2.3394 Y-12.4605
G01 X2.3786 Y-12.4624
G00 X2.3786 Y-12.4624
G01 F80.00
G01 Z-1.1000
G01 F40.00
G01 X2.3394 Y-12.4605
G01 X2.3006 Y-12.4547
G01 X2.2625 Y-12.4452
G01 X2.2255 Y-12.4319
G01 X2.1900 Y-12.4152
G01 X2.1564 Y-12.3950
G01 X2.1248 Y-12.3716
G01 X2.0957 Y-12.3452
G01 X1.0957 Y-11.3452
G01 X1.0694 Y-11.3161
G01 X1.0460 Y-11.2846
G01 X1.0258 Y-11.2509
G01 X1.0090 Y-11.2155
G01 X0.9958 Y-11.1785
G01 X0.9863 Y-11.1404
G01 X0.9805 Y-11.1016
G01 X0.9786 Y-11.0624
G01 X0.9786 Y-7.3124
G00 X0.9786 Y-7.3124
G01 F80.00
G01 Z-1.2000
G01 F40.00
G01 X0.9786 Y-11.0624
G01 X0.9805 Y-11.1016
G01 X0.9863 Y-11.1404
G01 X0.9958 Y-11.1785
G01 X1.0090 Y-11.2155
G01 X1.0258 Y-11.2509
G01 X1.0460 Y-11.2846
G01 X1.0694 Y-11.3161
G01 X1.0957 Y-11.3452
G01 X2.0957 Y-12.3452
G01 X2.1248 Y-12.3716
G01 X2.1564 Y-12.3950
G01 X2.1900 Y-12.4152
G01 X2.2255 Y-12.4319
G01 X2.2625 Y-12.4452
G01 X2.3006 Y-12.4547
G01 X2.3394 Y-12.4605
G01 X2.3786 Y-12.4624
G00 X2.3786 Y-12.4624
G01 F80.00
G01 Z-1.3000
G01 F40.00
G01 X2.3394 Y-12.4605
G01 X2.3006 Y-12.4547
G01 X2.2625 Y-12.4452
G01 X2.2255 Y-12.4319
G01 X2.1900 Y-12.4152
G01 X2.1564 Y-12.3950
G01 X2.1248 Y-12.3716
G01 X2.0957 Y-12.3452
G01 X1.0957 Y-11.3452
G01 X1.0694 Y-11.3161
G01 X1.0460 Y-11.2846
G01 X1.0258 Y-11.2509
G01 X1.0090 Y-11.2155
G01 X0.9958 Y-11.1785
G01 X0.9863 Y-11.1404
G01 X0.9805 Y-11.1016
G01 X0.9786 Y-11.0624
G01 X0.9786 Y-7.3124
G00 X0.9786 Y-7.3124
G01 F80.00
G01 Z-1.4000
G01 F40.00
G01 X0.9786 Y-11.0624
G01 X0.9805 Y-11.1016
G01 X0.9863 Y-11.1404
G01 X0.9958 Y-11.1785
G01 X1.0090 Y-11.2155
G01 X1.0258 Y-11.2509
G01 X1.0460 Y-11.2846
G01 X1.0694 Y-11.3161
G01 X1.0957 Y-11.3452
G01 X2.0957 Y-12.3452
G01 X2.1248 Y-12.3716
G01 X2.1564 Y-12.3950
G01 X2.1900 Y-12.4152
G01 X2.2255 Y-12.4319
G01 X2.2625 Y-12.4452
G01 X2.3006 Y-12.4547
G01 X2.3394 Y-12.4605
G01 X2.3786 Y-12.4624
G00 X2.3786 Y-12.4624
G01 F80.00
G01 Z-1.5000
G01 F40.00
G01 X2.3394 Y-12.4605
G01 X2.3006 Y-12.4547
G01 X2.2625 Y-12.4452
G01 X2.2255 Y-12.4319
G01 X2.1900 Y-12.4152
G01 X2.1564 Y-12.3950
G01 X2.1248 Y-12.3716
G01 X2.0957 Y-12.3452
G01 X1.0957 Y-11.3452
G01 X1.0694 Y-11.3161
G01 X1.0460 Y-11.2846
G01 X1.0258 Y-11.2509
G01 X1.0090 Y-11.2155
G01 X0.9958 Y-11.1785
G01 X0.9863 Y-11.1404
G01 X0.9805 Y-11.1016
G01 X0.9786 Y-11.0624
G01 X0.9786 Y-7.3124
G00 X0.9786 Y-7.3124
G01 F80.00
G01 Z-1.6000
G01 F40.00
G01 X0.9786 Y-11.0624
G01 X0.9805 Y-11.1016
G01 X0.9863 Y-11.1404
G01 X0.9958 Y-11.1785
G01 X1.0090 Y-11.2155
G01 X1.0258 Y-11.2509
G01 X1.0460 Y-11.2846
G01 X1.0694 Y-11.3161
G01 X1.0957 Y-11.3452
G01 X2.0957 Y-12.3452
G01 X2.1248 Y-12.3716
G01 X2.1564 Y-12.3950
G01 X2.1900 Y-12.4152
G01 X2.2255 Y-12.4319
G01 X2.2625 Y-12.4452
G01 X2.3006 Y-12.4547
G01 X2.3394 Y-12.4605
G01 X2.3786 Y-12.4624
G00 X2.3786 Y-12.4624
G01 F80.00
G01 Z-1.7000
G01 F40.00
G01 X2.3394 Y-12.4605
G01 X2.3006 Y-12.4547
G01 X2.2625 Y-12.4452
G01 X2.2255 Y-12.4319
G01 X2.1900 Y-12.4152
G01 X2.1564 Y-12.3950
G01 X2.1248 Y-12.3716
G01 X2.0957 Y-12.3452
G01 X1.0957 Y-11.3452
G01 X1.0694 Y-11.3161
G01 X1.0460 Y-11.2846
G01 X1.0258 Y-11.2509
G01 X1.0090 Y-11.2155
G01 X0.9958 Y-11.1785
G01 X0.9863 Y-11.1404
G01 X0.9805 Y-11.1016
G01 X0.9786 Y-11.0624
G01 X0.9786 Y-7.3124
G00 X0.9786 Y-7.3124
G01 F80.00
G01 Z-1.8000
G01 F40.00
G01 X0.9786 Y-11.0624
G01 X0.9805 Y-11.1016
G01 X0.9863 Y-11.1404
G01 X0.9958 Y-11.1785
G01 X1.0090 Y-11.2155
G01 X1.0258 Y-11.2509
G01 X1.0460 Y-11.2846
G01 X1.0694 Y-11.3161
G01 X1.0957 Y-11.3452
G01 X2.0957 Y-12.3452
G01 X2.1248 Y-12.3716
G01 X2.1564 Y-12.3950
G01 X2.1900 Y-12.4152
G01 X2.2255 Y-12.4319
G01 X2.2625 Y-12.4452
G01 X2.3006 Y-12.4547
G01 X2.3394 Y-12.4605
G01 X2.3786 Y-12.4624
G00 X2.3786 Y-12.4624
G01 F80.00
G01 Z-1.9000
G01 F40.00
G01 X2.3394 Y-12.4605
G01 X2.3006 Y-12.4547
G01 X2.2625 Y-12.4452
G01 X2.2255 Y-12.4319
G01 X2.1900 Y-12.4152
G01 X2.1564 Y-12.3950
G01 X2.1248 Y-12.3716
G01 X2.0957 Y-12.3452
G01 X1.0957 Y-11.3452
G01 X1.0694 Y-11.3161
G01 X1.0460 Y-11.2846
G01 X1.0258 Y-11.2509
G01 X1.0090 Y-11.2155
G01 X0.9958 Y-11.1785
G01 X0.9863 Y-11.1404
G01 X0.9805 Y-11.1016
G01 X0.9786 Y-11.0624
G01 X0.9786 Y-7.3124
G00 X0.9786 Y-7.3124
G01 F80.00
G01 Z-2.0000
G01 F40.00
G01 X0.9786 Y-11.0624
G01 X0.9805 Y-11.1016
G01 X0.9863 Y-11.1404
G01 X0.9958 Y-11.1785
G01 X1.0090 Y-11.2155
G01 X1.0258 Y-11.2509
G01 X1.0460 Y-11.2846
G01 X1.0694 Y-11.3161
G01 X1.0957 Y-11.3452
G01 X2.0957 Y-12.3452
G01 X2.1248 Y-12.3716
G01 X2.1564 Y-12.3950
G01 X2.1900 Y-12.4152
G01 X2.2255 Y-12.4319
G01 X2.2625 Y-12.4452
G01 X2.3006 Y-12.4547
G01 X2.3394 Y-12.4605
G01 X2.3786 Y-12.4624
G00 X2.3786 Y-12.4624
G01 F80.00
G01 Z-2.1000
G01 F40.00
G01 X2.3394 Y-12.4605
G01 X2.3006 Y-12.4547
G01 X2.2625 Y-12.4452
G01 X2.2255 Y-12.4319
G01 X2.1900 Y-12.4152
G01 X2.1564 Y-12.3950
G01 X2.1248 Y-12.3716
G01 X2.0957 Y-12.3452
G01 X1.0957 Y-11.3452
G01 X1.0694 Y-11.3161
G01 X1.0460 Y-11.2846
G01 X1.0258 Y-11.2509
G01 X1.0090 Y-11.2155
G01 X0.9958 Y-11.1785
G01 X0.9863 Y-11.1404
G01 X0.9805 Y-11.1016
G01 X0.9786 Y-11.0624
G01 X0.9786 Y-7.3124
G00 X0.9786 Y-7.3124
G01 F80.00
G01 Z-2.2000
G01 F40.00
G01 X0.9786 Y-11.0624
G01 X0.9805 Y-11.1016
G01 X0.9863 Y-11.1404
G01 X0.9958 Y-11.1785
G01 X1.0090 Y-11.2155
G01 X1.0258 Y-11.2509
G01 X1.0460 Y-11.2846
G01 X1.0694 Y-11.3161
G01 X1.0957 Y-11.3452
G01 X2.0957 Y-12.3452
G01 X2.1248 Y-12.3716
G01 X2.1564 Y-12.3950
G01 X2.1900 Y-12.4152
G01 X2.2255 Y-12.4319
G01 X2.2625 Y-12.4452
G01 X2.3006 Y-12.4547
G01 X2.3394 Y-12.4605
G01 X2.3786 Y-12.4624
G00 X2.3786 Y-12.4624
G01 F80.00
G01 Z-2.3000
G01 F40.00
G01 X2.3394 Y-12.4605
G01 X2.3006 Y-12.4547
G01 X2.2625 Y-12.4452
G01 X2.2255 Y-12.4319
G01 X2.1900 Y-12.4152
G01 X2.1564 Y-12.3950
G01 X2.1248 Y-12.3716
G01 X2.0957 Y-12.3452
G01 X1.0957 Y-11.3452
G01 X1.0694 Y-11.3161
G01 X1.0460 Y-11.2846
G01 X1.0258 Y-11.2509
G01 X1.0090 Y-11.2155
G01 X0.9958 Y-11.1785
G01 X0.9863 Y-11.1404
G01 X0.9805 Y-11.1016
G01 X0.9786 Y-11.0624
G01 X0.9786 Y-7.3124
G00 Z5.0000
M05
G00 Z5.0000
G00 Z12.70
G00 X0.0 Y0.0

M02