(G-CODE GENERATED BY FLATCAM v8.95 - www.flatcam.org - Version Date: 2019/08/17)

(Name: Sintez1_Ф1_верх.gbr_cutout_cnc)
(Type: G-code from Geometry)
(Units: MM)

(Created on Monday, 06 July 2020 at 10:32)

(TOOL DIAMETER: 0.5 mm)
(Feedrate: 40.0 mm/min)
(Feedrate_Z: 79.9998 mm/min)
(Feedrate rapids 79.9998 mm/min)

(Z_Cut: -1.5 mm)
(DepthPerCut: 0.05 mm <=>30 passes)
(Z_Move: 5.0 mm)
(Z Toolchange: 12.7 mm)
(X,Y Toolchange: 0.0000, 0.0000 mm)
(Z Start: None mm)
(Z End: 12.7 mm)
(Steps per circle: 128)
(Postprocessor Geometry: default)

(X range:   -0.3501 ...   40.3501  mm)
(Y range:  -60.3501 ...    0.3501  mm)

(Spindle Speed: None RPM)

G21
G90
G94

G01 F40.00
G00 Z5.0000

M03
G00 X19.7491 Y0.3501
G01 F80.00
G01 Z-0.0500
G01 F40.00
G01 X-0.0010 Y0.3501
G01 X-0.0352 Y0.3484
G01 X-0.0691 Y0.3434
G01 X-0.1023 Y0.3351
G01 X-0.1346 Y0.3235
G01 X-0.1656 Y0.3089
G01 X-0.1950 Y0.2913
G01 X-0.2225 Y0.2709
G01 X-0.2479 Y0.2479
G01 X-0.2709 Y0.2225
G01 X-0.2913 Y0.1950
G01 X-0.3089 Y0.1656
G01 X-0.3235 Y0.1346
G01 X-0.3351 Y0.1023
G01 X-0.3434 Y0.0691
G01 X-0.3484 Y0.0352
G01 X-0.3501 Y0.0010
G01 X-0.3501 Y-60.0010
G01 X-0.3484 Y-60.0352
G01 X-0.3434 Y-60.0691
G01 X-0.3351 Y-60.1023
G01 X-0.3235 Y-60.1346
G01 X-0.3089 Y-60.1656
G01 X-0.2913 Y-60.1950
G01 X-0.2709 Y-60.2225
G01 X-0.2479 Y-60.2479
G01 X-0.2225 Y-60.2709
G01 X-0.1950 Y-60.2913
G01 X-0.1656 Y-60.3089
G01 X-0.1346 Y-60.3235
G01 X-0.1023 Y-60.3351
G01 X-0.0691 Y-60.3434
G01 X-0.0352 Y-60.3484
G01 X-0.0010 Y-60.3501
G01 X19.7491 Y-60.3501
G00 X19.7491 Y-60.3501
G01 F80.00
G01 Z-0.1000
G01 F40.00
G01 X-0.0010 Y-60.3501
G01 X-0.0352 Y-60.3484
G01 X-0.0691 Y-60.3434
G01 X-0.1023 Y-60.3351
G01 X-0.1346 Y-60.3235
G01 X-0.1656 Y-60.3089
G01 X-0.1950 Y-60.2913
G01 X-0.2225 Y-60.2709
G01 X-0.2479 Y-60.2479
G01 X-0.2709 Y-60.2225
G01 X-0.2913 Y-60.1950
G01 X-0.3089 Y-60.1656
G01 X-0.3235 Y-60.1346
G01 X-0.3351 Y-60.1023
G01 X-0.3434 Y-60.0691
G01 X-0.3484 Y-60.0352
G01 X-0.3501 Y-60.0010
G01 X-0.3501 Y0.0010
G01 X-0.3484 Y0.0352
G01 X-0.3434 Y0.0691
G01 X-0.3351 Y0.1023
G01 X-0.3235 Y0.1346
G01 X-0.3089 Y0.1656
G01 X-0.2913 Y0.1950
G01 X-0.2709 Y0.2225
G01 X-0.2479 Y0.2479
G01 X-0.2225 Y0.2709
G01 X-0.1950 Y0.2913
G01 X-0.1656 Y0.3089
G01 X-0.1346 Y0.3235
G01 X-0.1023 Y0.3351
G01 X-0.0691 Y0.3434
G01 X-0.0352 Y0.3484
G01 X-0.0010 Y0.3501
G01 X19.7491 Y0.3501
G00 X19.7491 Y0.3501
G01 F80.00
G01 Z-0.1500
G01 F40.00
G01 X-0.0010 Y0.3501
G01 X-0.0352 Y0.3484
G01 X-0.0691 Y0.3434
G01 X-0.1023 Y0.3351
G01 X-0.1346 Y0.3235
G01 X-0.1656 Y0.3089
G01 X-0.1950 Y0.2913
G01 X-0.2225 Y0.2709
G01 X-0.2479 Y0.2479
G01 X-0.2709 Y0.2225
G01 X-0.2913 Y0.1950
G01 X-0.3089 Y0.1656
G01 X-0.3235 Y0.1346
G01 X-0.3351 Y0.1023
G01 X-0.3434 Y0.0691
G01 X-0.3484 Y0.0352
G01 X-0.3501 Y0.0010
G01 X-0.3501 Y-60.0010
G01 X-0.3484 Y-60.0352
G01 X-0.3434 Y-60.0691
G01 X-0.3351 Y-60.1023
G01 X-0.3235 Y-60.1346
G01 X-0.3089 Y-60.1656
G01 X-0.2913 Y-60.1950
G01 X-0.2709 Y-60.2225
G01 X-0.2479 Y-60.2479
G01 X-0.2225 Y-60.2709
G01 X-0.1950 Y-60.2913
G01 X-0.1656 Y-60.3089
G01 X-0.1346 Y-60.3235
G01 X-0.1023 Y-60.3351
G01 X-0.0691 Y-60.3434
G01 X-0.0352 Y-60.3484
G01 X-0.0010 Y-60.3501
G01 X19.7491 Y-60.3501
G00 X19.7491 Y-60.3501
G01 F80.00
G01 Z-0.2000
G01 F40.00
G01 X-0.0010 Y-60.3501
G01 X-0.0352 Y-60.3484
G01 X-0.0691 Y-60.3434
G01 X-0.1023 Y-60.3351
G01 X-0.1346 Y-60.3235
G01 X-0.1656 Y-60.3089
G01 X-0.1950 Y-60.2913
G01 X-0.2225 Y-60.2709
G01 X-0.2479 Y-60.2479
G01 X-0.2709 Y-60.2225
G01 X-0.2913 Y-60.1950
G01 X-0.3089 Y-60.1656
G01 X-0.3235 Y-60.1346
G01 X-0.3351 Y-60.1023
G01 X-0.3434 Y-60.0691
G01 X-0.3484 Y-60.0352
G01 X-0.3501 Y-60.0010
G01 X-0.3501 Y0.0010
G01 X-0.3484 Y0.0352
G01 X-0.3434 Y0.0691
G01 X-0.3351 Y0.1023
G01 X-0.3235 Y0.1346
G01 X-0.3089 Y0.1656
G01 X-0.2913 Y0.1950
G01 X-0.2709 Y0.2225
G01 X-0.2479 Y0.2479
G01 X-0.2225 Y0.2709
G01 X-0.1950 Y0.2913
G01 X-0.1656 Y0.3089
G01 X-0.1346 Y0.3235
G01 X-0.1023 Y0.3351
G01 X-0.0691 Y0.3434
G01 X-0.0352 Y0.3484
G01 X-0.0010 Y0.3501
G01 X19.7491 Y0.3501
G00 X19.7491 Y0.3501
G01 F80.00
G01 Z-0.2500
G01 F40.00
G01 X-0.0010 Y0.3501
G01 X-0.0352 Y0.3484
G01 X-0.0691 Y0.3434
G01 X-0.1023 Y0.3351
G01 X-0.1346 Y0.3235
G01 X-0.1656 Y0.3089
G01 X-0.1950 Y0.2913
G01 X-0.2225 Y0.2709
G01 X-0.2479 Y0.2479
G01 X-0.2709 Y0.2225
G01 X-0.2913 Y0.1950
G01 X-0.3089 Y0.1656
G01 X-0.3235 Y0.1346
G01 X-0.3351 Y0.1023
G01 X-0.3434 Y0.0691
G01 X-0.3484 Y0.0352
G01 X-0.3501 Y0.0010
G01 X-0.3501 Y-60.0010
G01 X-0.3484 Y-60.0352
G01 X-0.3434 Y-60.0691
G01 X-0.3351 Y-60.1023
G01 X-0.3235 Y-60.1346
G01 X-0.3089 Y-60.1656
G01 X-0.2913 Y-60.1950
G01 X-0.2709 Y-60.2225
G01 X-0.2479 Y-60.2479
G01 X-0.2225 Y-60.2709
G01 X-0.1950 Y-60.2913
G01 X-0.1656 Y-60.3089
G01 X-0.1346 Y-60.3235
G01 X-0.1023 Y-60.3351
G01 X-0.0691 Y-60.3434
G01 X-0.0352 Y-60.3484
G01 X-0.0010 Y-60.3501
G01 X19.7491 Y-60.3501
G00 X19.7491 Y-60.3501
G01 F80.00
G01 Z-0.3000
G01 F40.00
G01 X-0.0010 Y-60.3501
G01 X-0.0352 Y-60.3484
G01 X-0.0691 Y-60.3434
G01 X-0.1023 Y-60.3351
G01 X-0.1346 Y-60.3235
G01 X-0.1656 Y-60.3089
G01 X-0.1950 Y-60.2913
G01 X-0.2225 Y-60.2709
G01 X-0.2479 Y-60.2479
G01 X-0.2709 Y-60.2225
G01 X-0.2913 Y-60.1950
G01 X-0.3089 Y-60.1656
G01 X-0.3235 Y-60.1346
G01 X-0.3351 Y-60.1023
G01 X-0.3434 Y-60.0691
G01 X-0.3484 Y-60.0352
G01 X-0.3501 Y-60.0010
G01 X-0.3501 Y0.0010
G01 X-0.3484 Y0.0352
G01 X-0.3434 Y0.0691
G01 X-0.3351 Y0.1023
G01 X-0.3235 Y0.1346
G01 X-0.3089 Y0.1656
G01 X-0.2913 Y0.1950
G01 X-0.2709 Y0.2225
G01 X-0.2479 Y0.2479
G01 X-0.2225 Y0.2709
G01 X-0.1950 Y0.2913
G01 X-0.1656 Y0.3089
G01 X-0.1346 Y0.3235
G01 X-0.1023 Y0.3351
G01 X-0.0691 Y0.3434
G01 X-0.0352 Y0.3484
G01 X-0.0010 Y0.3501
G01 X19.7491 Y0.3501
G00 X19.7491 Y0.3501
G01 F80.00
G01 Z-0.3500
G01 F40.00
G01 X-0.0010 Y0.3501
G01 X-0.0352 Y0.3484
G01 X-0.0691 Y0.3434
G01 X-0.1023 Y0.3351
G01 X-0.1346 Y0.3235
G01 X-0.1656 Y0.3089
G01 X-0.1950 Y0.2913
G01 X-0.2225 Y0.2709
G01 X-0.2479 Y0.2479
G01 X-0.2709 Y0.2225
G01 X-0.2913 Y0.1950
G01 X-0.3089 Y0.1656
G01 X-0.3235 Y0.1346
G01 X-0.3351 Y0.1023
G01 X-0.3434 Y0.0691
G01 X-0.3484 Y0.0352
G01 X-0.3501 Y0.0010
G01 X-0.3501 Y-60.0010
G01 X-0.3484 Y-60.0352
G01 X-0.3434 Y-60.0691
G01 X-0.3351 Y-60.1023
G01 X-0.3235 Y-60.1346
G01 X-0.3089 Y-60.1656
G01 X-0.2913 Y-60.1950
G01 X-0.2709 Y-60.2225
G01 X-0.2479 Y-60.2479
G01 X-0.2225 Y-60.2709
G01 X-0.1950 Y-60.2913
G01 X-0.1656 Y-60.3089
G01 X-0.1346 Y-60.3235
G01 X-0.1023 Y-60.3351
G01 X-0.0691 Y-60.3434
G01 X-0.0352 Y-60.3484
G01 X-0.0010 Y-60.3501
G01 X19.7491 Y-60.3501
G00 X19.7491 Y-60.3501
G01 F80.00
G01 Z-0.4000
G01 F40.00
G01 X-0.0010 Y-60.3501
G01 X-0.0352 Y-60.3484
G01 X-0.0691 Y-60.3434
G01 X-0.1023 Y-60.3351
G01 X-0.1346 Y-60.3235
G01 X-0.1656 Y-60.3089
G01 X-0.1950 Y-60.2913
G01 X-0.2225 Y-60.2709
G01 X-0.2479 Y-60.2479
G01 X-0.2709 Y-60.2225
G01 X-0.2913 Y-60.1950
G01 X-0.3089 Y-60.1656
G01 X-0.3235 Y-60.1346
G01 X-0.3351 Y-60.1023
G01 X-0.3434 Y-60.0691
G01 X-0.3484 Y-60.0352
G01 X-0.3501 Y-60.0010
G01 X-0.3501 Y0.0010
G01 X-0.3484 Y0.0352
G01 X-0.3434 Y0.0691
G01 X-0.3351 Y0.1023
G01 X-0.3235 Y0.1346
G01 X-0.3089 Y0.1656
G01 X-0.2913 Y0.1950
G01 X-0.2709 Y0.2225
G01 X-0.2479 Y0.2479
G01 X-0.2225 Y0.2709
G01 X-0.1950 Y0.2913
G01 X-0.1656 Y0.3089
G01 X-0.1346 Y0.3235
G01 X-0.1023 Y0.3351
G01 X-0.0691 Y0.3434
G01 X-0.0352 Y0.3484
G01 X-0.0010 Y0.3501
G01 X19.7491 Y0.3501
G00 X19.7491 Y0.3501
G01 F80.00
G01 Z-0.4500
G01 F40.00
G01 X-0.0010 Y0.3501
G01 X-0.0352 Y0.3484
G01 X-0.0691 Y0.3434
G01 X-0.1023 Y0.3351
G01 X-0.1346 Y0.3235
G01 X-0.1656 Y0.3089
G01 X-0.1950 Y0.2913
G01 X-0.2225 Y0.2709
G01 X-0.2479 Y0.2479
G01 X-0.2709 Y0.2225
G01 X-0.2913 Y0.1950
G01 X-0.3089 Y0.1656
G01 X-0.3235 Y0.1346
G01 X-0.3351 Y0.1023
G01 X-0.3434 Y0.0691
G01 X-0.3484 Y0.0352
G01 X-0.3501 Y0.0010
G01 X-0.3501 Y-60.0010
G01 X-0.3484 Y-60.0352
G01 X-0.3434 Y-60.0691
G01 X-0.3351 Y-60.1023
G01 X-0.3235 Y-60.1346
G01 X-0.3089 Y-60.1656
G01 X-0.2913 Y-60.1950
G01 X-0.2709 Y-60.2225
G01 X-0.2479 Y-60.2479
G01 X-0.2225 Y-60.2709
G01 X-0.1950 Y-60.2913
G01 X-0.1656 Y-60.3089
G01 X-0.1346 Y-60.3235
G01 X-0.1023 Y-60.3351
G01 X-0.0691 Y-60.3434
G01 X-0.0352 Y-60.3484
G01 X-0.0010 Y-60.3501
G01 X19.7491 Y-60.3501
G00 X19.7491 Y-60.3501
G01 F80.00
G01 Z-0.5000
G01 F40.00
G01 X-0.0010 Y-60.3501
G01 X-0.0352 Y-60.3484
G01 X-0.0691 Y-60.3434
G01 X-0.1023 Y-60.3351
G01 X-0.1346 Y-60.3235
G01 X-0.1656 Y-60.3089
G01 X-0.1950 Y-60.2913
G01 X-0.2225 Y-60.2709
G01 X-0.2479 Y-60.2479
G01 X-0.2709 Y-60.2225
G01 X-0.2913 Y-60.1950
G01 X-0.3089 Y-60.1656
G01 X-0.3235 Y-60.1346
G01 X-0.3351 Y-60.1023
G01 X-0.3434 Y-60.0691
G01 X-0.3484 Y-60.0352
G01 X-0.3501 Y-60.0010
G01 X-0.3501 Y0.0010
G01 X-0.3484 Y0.0352
G01 X-0.3434 Y0.0691
G01 X-0.3351 Y0.1023
G01 X-0.3235 Y0.1346
G01 X-0.3089 Y0.1656
G01 X-0.2913 Y0.1950
G01 X-0.2709 Y0.2225
G01 X-0.2479 Y0.2479
G01 X-0.2225 Y0.2709
G01 X-0.1950 Y0.2913
G01 X-0.1656 Y0.3089
G01 X-0.1346 Y0.3235
G01 X-0.1023 Y0.3351
G01 X-0.0691 Y0.3434
G01 X-0.0352 Y0.3484
G01 X-0.0010 Y0.3501
G01 X19.7491 Y0.3501
G00 X19.7491 Y0.3501
G01 F80.00
G01 Z-0.5500
G01 F40.00
G01 X-0.0010 Y0.3501
G01 X-0.0352 Y0.3484
G01 X-0.0691 Y0.3434
G01 X-0.1023 Y0.3351
G01 X-0.1346 Y0.3235
G01 X-0.1656 Y0.3089
G01 X-0.1950 Y0.2913
G01 X-0.2225 Y0.2709
G01 X-0.2479 Y0.2479
G01 X-0.2709 Y0.2225
G01 X-0.2913 Y0.1950
G01 X-0.3089 Y0.1656
G01 X-0.3235 Y0.1346
G01 X-0.3351 Y0.1023
G01 X-0.3434 Y0.0691
G01 X-0.3484 Y0.0352
G01 X-0.3501 Y0.0010
G01 X-0.3501 Y-60.0010
G01 X-0.3484 Y-60.0352
G01 X-0.3434 Y-60.0691
G01 X-0.3351 Y-60.1023
G01 X-0.3235 Y-60.1346
G01 X-0.3089 Y-60.1656
G01 X-0.2913 Y-60.1950
G01 X-0.2709 Y-60.2225
G01 X-0.2479 Y-60.2479
G01 X-0.2225 Y-60.2709
G01 X-0.1950 Y-60.2913
G01 X-0.1656 Y-60.3089
G01 X-0.1346 Y-60.3235
G01 X-0.1023 Y-60.3351
G01 X-0.0691 Y-60.3434
G01 X-0.0352 Y-60.3484
G01 X-0.0010 Y-60.3501
G01 X19.7491 Y-60.3501
G00 X19.7491 Y-60.3501
G01 F80.00
G01 Z-0.6000
G01 F40.00
G01 X-0.0010 Y-60.3501
G01 X-0.0352 Y-60.3484
G01 X-0.0691 Y-60.3434
G01 X-0.1023 Y-60.3351
G01 X-0.1346 Y-60.3235
G01 X-0.1656 Y-60.3089
G01 X-0.1950 Y-60.2913
G01 X-0.2225 Y-60.2709
G01 X-0.2479 Y-60.2479
G01 X-0.2709 Y-60.2225
G01 X-0.2913 Y-60.1950
G01 X-0.3089 Y-60.1656
G01 X-0.3235 Y-60.1346
G01 X-0.3351 Y-60.1023
G01 X-0.3434 Y-60.0691
G01 X-0.3484 Y-60.0352
G01 X-0.3501 Y-60.0010
G01 X-0.3501 Y0.0010
G01 X-0.3484 Y0.0352
G01 X-0.3434 Y0.0691
G01 X-0.3351 Y0.1023
G01 X-0.3235 Y0.1346
G01 X-0.3089 Y0.1656
G01 X-0.2913 Y0.1950
G01 X-0.2709 Y0.2225
G01 X-0.2479 Y0.2479
G01 X-0.2225 Y0.2709
G01 X-0.1950 Y0.2913
G01 X-0.1656 Y0.3089
G01 X-0.1346 Y0.3235
G01 X-0.1023 Y0.3351
G01 X-0.0691 Y0.3434
G01 X-0.0352 Y0.3484
G01 X-0.0010 Y0.3501
G01 X19.7491 Y0.3501
G00 X19.7491 Y0.3501
G01 F80.00
G01 Z-0.6500
G01 F40.00
G01 X-0.0010 Y0.3501
G01 X-0.0352 Y0.3484
G01 X-0.0691 Y0.3434
G01 X-0.1023 Y0.3351
G01 X-0.1346 Y0.3235
G01 X-0.1656 Y0.3089
G01 X-0.1950 Y0.2913
G01 X-0.2225 Y0.2709
G01 X-0.2479 Y0.2479
G01 X-0.2709 Y0.2225
G01 X-0.2913 Y0.1950
G01 X-0.3089 Y0.1656
G01 X-0.3235 Y0.1346
G01 X-0.3351 Y0.1023
G01 X-0.3434 Y0.0691
G01 X-0.3484 Y0.0352
G01 X-0.3501 Y0.0010
G01 X-0.3501 Y-60.0010
G01 X-0.3484 Y-60.0352
G01 X-0.3434 Y-60.0691
G01 X-0.3351 Y-60.1023
G01 X-0.3235 Y-60.1346
G01 X-0.3089 Y-60.1656
G01 X-0.2913 Y-60.1950
G01 X-0.2709 Y-60.2225
G01 X-0.2479 Y-60.2479
G01 X-0.2225 Y-60.2709
G01 X-0.1950 Y-60.2913
G01 X-0.1656 Y-60.3089
G01 X-0.1346 Y-60.3235
G01 X-0.1023 Y-60.3351
G01 X-0.0691 Y-60.3434
G01 X-0.0352 Y-60.3484
G01 X-0.0010 Y-60.3501
G01 X19.7491 Y-60.3501
G00 X19.7491 Y-60.3501
G01 F80.00
G01 Z-0.7000
G01 F40.00
G01 X-0.0010 Y-60.3501
G01 X-0.0352 Y-60.3484
G01 X-0.0691 Y-60.3434
G01 X-0.1023 Y-60.3351
G01 X-0.1346 Y-60.3235
G01 X-0.1656 Y-60.3089
G01 X-0.1950 Y-60.2913
G01 X-0.2225 Y-60.2709
G01 X-0.2479 Y-60.2479
G01 X-0.2709 Y-60.2225
G01 X-0.2913 Y-60.1950
G01 X-0.3089 Y-60.1656
G01 X-0.3235 Y-60.1346
G01 X-0.3351 Y-60.1023
G01 X-0.3434 Y-60.0691
G01 X-0.3484 Y-60.0352
G01 X-0.3501 Y-60.0010
G01 X-0.3501 Y0.0010
G01 X-0.3484 Y0.0352
G01 X-0.3434 Y0.0691
G01 X-0.3351 Y0.1023
G01 X-0.3235 Y0.1346
G01 X-0.3089 Y0.1656
G01 X-0.2913 Y0.1950
G01 X-0.2709 Y0.2225
G01 X-0.2479 Y0.2479
G01 X-0.2225 Y0.2709
G01 X-0.1950 Y0.2913
G01 X-0.1656 Y0.3089
G01 X-0.1346 Y0.3235
G01 X-0.1023 Y0.3351
G01 X-0.0691 Y0.3434
G01 X-0.0352 Y0.3484
G01 X-0.0010 Y0.3501
G01 X19.7491 Y0.3501
G00 X19.7491 Y0.3501
G01 F80.00
G01 Z-0.7500
G01 F40.00
G01 X-0.0010 Y0.3501
G01 X-0.0352 Y0.3484
G01 X-0.0691 Y0.3434
G01 X-0.1023 Y0.3351
G01 X-0.1346 Y0.3235
G01 X-0.1656 Y0.3089
G01 X-0.1950 Y0.2913
G01 X-0.2225 Y0.2709
G01 X-0.2479 Y0.2479
G01 X-0.2709 Y0.2225
G01 X-0.2913 Y0.1950
G01 X-0.3089 Y0.1656
G01 X-0.3235 Y0.1346
G01 X-0.3351 Y0.1023
G01 X-0.3434 Y0.0691
G01 X-0.3484 Y0.0352
G01 X-0.3501 Y0.0010
G01 X-0.3501 Y-60.0010
G01 X-0.3484 Y-60.0352
G01 X-0.3434 Y-60.0691
G01 X-0.3351 Y-60.1023
G01 X-0.3235 Y-60.1346
G01 X-0.3089 Y-60.1656
G01 X-0.2913 Y-60.1950
G01 X-0.2709 Y-60.2225
G01 X-0.2479 Y-60.2479
G01 X-0.2225 Y-60.2709
G01 X-0.1950 Y-60.2913
G01 X-0.1656 Y-60.3089
G01 X-0.1346 Y-60.3235
G01 X-0.1023 Y-60.3351
G01 X-0.0691 Y-60.3434
G01 X-0.0352 Y-60.3484
G01 X-0.0010 Y-60.3501
G01 X19.7491 Y-60.3501
G00 X19.7491 Y-60.3501
G01 F80.00
G01 Z-0.8000
G01 F40.00
G01 X-0.0010 Y-60.3501
G01 X-0.0352 Y-60.3484
G01 X-0.0691 Y-60.3434
G01 X-0.1023 Y-60.3351
G01 X-0.1346 Y-60.3235
G01 X-0.1656 Y-60.3089
G01 X-0.1950 Y-60.2913
G01 X-0.2225 Y-60.2709
G01 X-0.2479 Y-60.2479
G01 X-0.2709 Y-60.2225
G01 X-0.2913 Y-60.1950
G01 X-0.3089 Y-60.1656
G01 X-0.3235 Y-60.1346
G01 X-0.3351 Y-60.1023
G01 X-0.3434 Y-60.0691
G01 X-0.3484 Y-60.0352
G01 X-0.3501 Y-60.0010
G01 X-0.3501 Y0.0010
G01 X-0.3484 Y0.0352
G01 X-0.3434 Y0.0691
G01 X-0.3351 Y0.1023
G01 X-0.3235 Y0.1346
G01 X-0.3089 Y0.1656
G01 X-0.2913 Y0.1950
G01 X-0.2709 Y0.2225
G01 X-0.2479 Y0.2479
G01 X-0.2225 Y0.2709
G01 X-0.1950 Y0.2913
G01 X-0.1656 Y0.3089
G01 X-0.1346 Y0.3235
G01 X-0.1023 Y0.3351
G01 X-0.0691 Y0.3434
G01 X-0.0352 Y0.3484
G01 X-0.0010 Y0.3501
G01 X19.7491 Y0.3501
G00 X19.7491 Y0.3501
G01 F80.00
G01 Z-0.8500
G01 F40.00
G01 X-0.0010 Y0.3501
G01 X-0.0352 Y0.3484
G01 X-0.0691 Y0.3434
G01 X-0.1023 Y0.3351
G01 X-0.1346 Y0.3235
G01 X-0.1656 Y0.3089
G01 X-0.1950 Y0.2913
G01 X-0.2225 Y0.2709
G01 X-0.2479 Y0.2479
G01 X-0.2709 Y0.2225
G01 X-0.2913 Y0.1950
G01 X-0.3089 Y0.1656
G01 X-0.3235 Y0.1346
G01 X-0.3351 Y0.1023
G01 X-0.3434 Y0.0691
G01 X-0.3484 Y0.0352
G01 X-0.3501 Y0.0010
G01 X-0.3501 Y-60.0010
G01 X-0.3484 Y-60.0352
G01 X-0.3434 Y-60.0691
G01 X-0.3351 Y-60.1023
G01 X-0.3235 Y-60.1346
G01 X-0.3089 Y-60.1656
G01 X-0.2913 Y-60.1950
G01 X-0.2709 Y-60.2225
G01 X-0.2479 Y-60.2479
G01 X-0.2225 Y-60.2709
G01 X-0.1950 Y-60.2913
G01 X-0.1656 Y-60.3089
G01 X-0.1346 Y-60.3235
G01 X-0.1023 Y-60.3351
G01 X-0.0691 Y-60.3434
G01 X-0.0352 Y-60.3484
G01 X-0.0010 Y-60.3501
G01 X19.7491 Y-60.3501
G00 X19.7491 Y-60.3501
G01 F80.00
G01 Z-0.9000
G01 F40.00
G01 X-0.0010 Y-60.3501
G01 X-0.0352 Y-60.3484
G01 X-0.0691 Y-60.3434
G01 X-0.1023 Y-60.3351
G01 X-0.1346 Y-60.3235
G01 X-0.1656 Y-60.3089
G01 X-0.1950 Y-60.2913
G01 X-0.2225 Y-60.2709
G01 X-0.2479 Y-60.2479
G01 X-0.2709 Y-60.2225
G01 X-0.2913 Y-60.1950
G01 X-0.3089 Y-60.1656
G01 X-0.3235 Y-60.1346
G01 X-0.3351 Y-60.1023
G01 X-0.3434 Y-60.0691
G01 X-0.3484 Y-60.0352
G01 X-0.3501 Y-60.0010
G01 X-0.3501 Y0.0010
G01 X-0.3484 Y0.0352
G01 X-0.3434 Y0.0691
G01 X-0.3351 Y0.1023
G01 X-0.3235 Y0.1346
G01 X-0.3089 Y0.1656
G01 X-0.2913 Y0.1950
G01 X-0.2709 Y0.2225
G01 X-0.2479 Y0.2479
G01 X-0.2225 Y0.2709
G01 X-0.1950 Y0.2913
G01 X-0.1656 Y0.3089
G01 X-0.1346 Y0.3235
G01 X-0.1023 Y0.3351
G01 X-0.0691 Y0.3434
G01 X-0.0352 Y0.3484
G01 X-0.0010 Y0.3501
G01 X19.7491 Y0.3501
G00 X19.7491 Y0.3501
G01 F80.00
G01 Z-0.9500
G01 F40.00
G01 X-0.0010 Y0.3501
G01 X-0.0352 Y0.3484
G01 X-0.0691 Y0.3434
G01 X-0.1023 Y0.3351
G01 X-0.1346 Y0.3235
G01 X-0.1656 Y0.3089
G01 X-0.1950 Y0.2913
G01 X-0.2225 Y0.2709
G01 X-0.2479 Y0.2479
G01 X-0.2709 Y0.2225
G01 X-0.2913 Y0.1950
G01 X-0.3089 Y0.1656
G01 X-0.3235 Y0.1346
G01 X-0.3351 Y0.1023
G01 X-0.3434 Y0.0691
G01 X-0.3484 Y0.0352
G01 X-0.3501 Y0.0010
G01 X-0.3501 Y-60.0010
G01 X-0.3484 Y-60.0352
G01 X-0.3434 Y-60.0691
G01 X-0.3351 Y-60.1023
G01 X-0.3235 Y-60.1346
G01 X-0.3089 Y-60.1656
G01 X-0.2913 Y-60.1950
G01 X-0.2709 Y-60.2225
G01 X-0.2479 Y-60.2479
G01 X-0.2225 Y-60.2709
G01 X-0.1950 Y-60.2913
G01 X-0.1656 Y-60.3089
G01 X-0.1346 Y-60.3235
G01 X-0.1023 Y-60.3351
G01 X-0.0691 Y-60.3434
G01 X-0.0352 Y-60.3484
G01 X-0.0010 Y-60.3501
G01 X19.7491 Y-60.3501
G00 X19.7491 Y-60.3501
G01 F80.00
G01 Z-1.0000
G01 F40.00
G01 X-0.0010 Y-60.3501
G01 X-0.0352 Y-60.3484
G01 X-0.0691 Y-60.3434
G01 X-0.1023 Y-60.3351
G01 X-0.1346 Y-60.3235
G01 X-0.1656 Y-60.3089
G01 X-0.1950 Y-60.2913
G01 X-0.2225 Y-60.2709
G01 X-0.2479 Y-60.2479
G01 X-0.2709 Y-60.2225
G01 X-0.2913 Y-60.1950
G01 X-0.3089 Y-60.1656
G01 X-0.3235 Y-60.1346
G01 X-0.3351 Y-60.1023
G01 X-0.3434 Y-60.0691
G01 X-0.3484 Y-60.0352
G01 X-0.3501 Y-60.0010
G01 X-0.3501 Y0.0010
G01 X-0.3484 Y0.0352
G01 X-0.3434 Y0.0691
G01 X-0.3351 Y0.1023
G01 X-0.3235 Y0.1346
G01 X-0.3089 Y0.1656
G01 X-0.2913 Y0.1950
G01 X-0.2709 Y0.2225
G01 X-0.2479 Y0.2479
G01 X-0.2225 Y0.2709
G01 X-0.1950 Y0.2913
G01 X-0.1656 Y0.3089
G01 X-0.1346 Y0.3235
G01 X-0.1023 Y0.3351
G01 X-0.0691 Y0.3434
G01 X-0.0352 Y0.3484
G01 X-0.0010 Y0.3501
G01 X19.7491 Y0.3501
G00 X19.7491 Y0.3501
G01 F80.00
G01 Z-1.0500
G01 F40.00
G01 X-0.0010 Y0.3501
G01 X-0.0352 Y0.3484
G01 X-0.0691 Y0.3434
G01 X-0.1023 Y0.3351
G01 X-0.1346 Y0.3235
G01 X-0.1656 Y0.3089
G01 X-0.1950 Y0.2913
G01 X-0.2225 Y0.2709
G01 X-0.2479 Y0.2479
G01 X-0.2709 Y0.2225
G01 X-0.2913 Y0.1950
G01 X-0.3089 Y0.1656
G01 X-0.3235 Y0.1346
G01 X-0.3351 Y0.1023
G01 X-0.3434 Y0.0691
G01 X-0.3484 Y0.0352
G01 X-0.3501 Y0.0010
G01 X-0.3501 Y-60.0010
G01 X-0.3484 Y-60.0352
G01 X-0.3434 Y-60.0691
G01 X-0.3351 Y-60.1023
G01 X-0.3235 Y-60.1346
G01 X-0.3089 Y-60.1656
G01 X-0.2913 Y-60.1950
G01 X-0.2709 Y-60.2225
G01 X-0.2479 Y-60.2479
G01 X-0.2225 Y-60.2709
G01 X-0.1950 Y-60.2913
G01 X-0.1656 Y-60.3089
G01 X-0.1346 Y-60.3235
G01 X-0.1023 Y-60.3351
G01 X-0.0691 Y-60.3434
G01 X-0.0352 Y-60.3484
G01 X-0.0010 Y-60.3501
G01 X19.7491 Y-60.3501
G00 X19.7491 Y-60.3501
G01 F80.00
G01 Z-1.1000
G01 F40.00
G01 X-0.0010 Y-60.3501
G01 X-0.0352 Y-60.3484
G01 X-0.0691 Y-60.3434
G01 X-0.1023 Y-60.3351
G01 X-0.1346 Y-60.3235
G01 X-0.1656 Y-60.3089
G01 X-0.1950 Y-60.2913
G01 X-0.2225 Y-60.2709
G01 X-0.2479 Y-60.2479
G01 X-0.2709 Y-60.2225
G01 X-0.2913 Y-60.1950
G01 X-0.3089 Y-60.1656
G01 X-0.3235 Y-60.1346
G01 X-0.3351 Y-60.1023
G01 X-0.3434 Y-60.0691
G01 X-0.3484 Y-60.0352
G01 X-0.3501 Y-60.0010
G01 X-0.3501 Y0.0010
G01 X-0.3484 Y0.0352
G01 X-0.3434 Y0.0691
G01 X-0.3351 Y0.1023
G01 X-0.3235 Y0.1346
G01 X-0.3089 Y0.1656
G01 X-0.2913 Y0.1950
G01 X-0.2709 Y0.2225
G01 X-0.2479 Y0.2479
G01 X-0.2225 Y0.2709
G01 X-0.1950 Y0.2913
G01 X-0.1656 Y0.3089
G01 X-0.1346 Y0.3235
G01 X-0.1023 Y0.3351
G01 X-0.0691 Y0.3434
G01 X-0.0352 Y0.3484
G01 X-0.0010 Y0.3501
G01 X19.7491 Y0.3501
G00 X19.7491 Y0.3501
G01 F80.00
G01 Z-1.1500
G01 F40.00
G01 X-0.0010 Y0.3501
G01 X-0.0352 Y0.3484
G01 X-0.0691 Y0.3434
G01 X-0.1023 Y0.3351
G01 X-0.1346 Y0.3235
G01 X-0.1656 Y0.3089
G01 X-0.1950 Y0.2913
G01 X-0.2225 Y0.2709
G01 X-0.2479 Y0.2479
G01 X-0.2709 Y0.2225
G01 X-0.2913 Y0.1950
G01 X-0.3089 Y0.1656
G01 X-0.3235 Y0.1346
G01 X-0.3351 Y0.1023
G01 X-0.3434 Y0.0691
G01 X-0.3484 Y0.0352
G01 X-0.3501 Y0.0010
G01 X-0.3501 Y-60.0010
G01 X-0.3484 Y-60.0352
G01 X-0.3434 Y-60.0691
G01 X-0.3351 Y-60.1023
G01 X-0.3235 Y-60.1346
G01 X-0.3089 Y-60.1656
G01 X-0.2913 Y-60.1950
G01 X-0.2709 Y-60.2225
G01 X-0.2479 Y-60.2479
G01 X-0.2225 Y-60.2709
G01 X-0.1950 Y-60.2913
G01 X-0.1656 Y-60.3089
G01 X-0.1346 Y-60.3235
G01 X-0.1023 Y-60.3351
G01 X-0.0691 Y-60.3434
G01 X-0.0352 Y-60.3484
G01 X-0.0010 Y-60.3501
G01 X19.7491 Y-60.3501
G00 X19.7491 Y-60.3501
G01 F80.00
G01 Z-1.2000
G01 F40.00
G01 X-0.0010 Y-60.3501
G01 X-0.0352 Y-60.3484
G01 X-0.0691 Y-60.3434
G01 X-0.1023 Y-60.3351
G01 X-0.1346 Y-60.3235
G01 X-0.1656 Y-60.3089
G01 X-0.1950 Y-60.2913
G01 X-0.2225 Y-60.2709
G01 X-0.2479 Y-60.2479
G01 X-0.2709 Y-60.2225
G01 X-0.2913 Y-60.1950
G01 X-0.3089 Y-60.1656
G01 X-0.3235 Y-60.1346
G01 X-0.3351 Y-60.1023
G01 X-0.3434 Y-60.0691
G01 X-0.3484 Y-60.0352
G01 X-0.3501 Y-60.0010
G01 X-0.3501 Y0.0010
G01 X-0.3484 Y0.0352
G01 X-0.3434 Y0.0691
G01 X-0.3351 Y0.1023
G01 X-0.3235 Y0.1346
G01 X-0.3089 Y0.1656
G01 X-0.2913 Y0.1950
G01 X-0.2709 Y0.2225
G01 X-0.2479 Y0.2479
G01 X-0.2225 Y0.2709
G01 X-0.1950 Y0.2913
G01 X-0.1656 Y0.3089
G01 X-0.1346 Y0.3235
G01 X-0.1023 Y0.3351
G01 X-0.0691 Y0.3434
G01 X-0.0352 Y0.3484
G01 X-0.0010 Y0.3501
G01 X19.7491 Y0.3501
G00 X19.7491 Y0.3501
G01 F80.00
G01 Z-1.2500
G01 F40.00
G01 X-0.0010 Y0.3501
G01 X-0.0352 Y0.3484
G01 X-0.0691 Y0.3434
G01 X-0.1023 Y0.3351
G01 X-0.1346 Y0.3235
G01 X-0.1656 Y0.3089
G01 X-0.1950 Y0.2913
G01 X-0.2225 Y0.2709
G01 X-0.2479 Y0.2479
G01 X-0.2709 Y0.2225
G01 X-0.2913 Y0.1950
G01 X-0.3089 Y0.1656
G01 X-0.3235 Y0.1346
G01 X-0.3351 Y0.1023
G01 X-0.3434 Y0.0691
G01 X-0.3484 Y0.0352
G01 X-0.3501 Y0.0010
G01 X-0.3501 Y-60.0010
G01 X-0.3484 Y-60.0352
G01 X-0.3434 Y-60.0691
G01 X-0.3351 Y-60.1023
G01 X-0.3235 Y-60.1346
G01 X-0.3089 Y-60.1656
G01 X-0.2913 Y-60.1950
G01 X-0.2709 Y-60.2225
G01 X-0.2479 Y-60.2479
G01 X-0.2225 Y-60.2709
G01 X-0.1950 Y-60.2913
G01 X-0.1656 Y-60.3089
G01 X-0.1346 Y-60.3235
G01 X-0.1023 Y-60.3351
G01 X-0.0691 Y-60.3434
G01 X-0.0352 Y-60.3484
G01 X-0.0010 Y-60.3501
G01 X19.7491 Y-60.3501
G00 X19.7491 Y-60.3501
G01 F80.00
G01 Z-1.3000
G01 F40.00
G01 X-0.0010 Y-60.3501
G01 X-0.0352 Y-60.3484
G01 X-0.0691 Y-60.3434
G01 X-0.1023 Y-60.3351
G01 X-0.1346 Y-60.3235
G01 X-0.1656 Y-60.3089
G01 X-0.1950 Y-60.2913
G01 X-0.2225 Y-60.2709
G01 X-0.2479 Y-60.2479
G01 X-0.2709 Y-60.2225
G01 X-0.2913 Y-60.1950
G01 X-0.3089 Y-60.1656
G01 X-0.3235 Y-60.1346
G01 X-0.3351 Y-60.1023
G01 X-0.3434 Y-60.0691
G01 X-0.3484 Y-60.0352
G01 X-0.3501 Y-60.0010
G01 X-0.3501 Y0.0010
G01 X-0.3484 Y0.0352
G01 X-0.3434 Y0.0691
G01 X-0.3351 Y0.1023
G01 X-0.3235 Y0.1346
G01 X-0.3089 Y0.1656
G01 X-0.2913 Y0.1950
G01 X-0.2709 Y0.2225
G01 X-0.2479 Y0.2479
G01 X-0.2225 Y0.2709
G01 X-0.1950 Y0.2913
G01 X-0.1656 Y0.3089
G01 X-0.1346 Y0.3235
G01 X-0.1023 Y0.3351
G01 X-0.0691 Y0.3434
G01 X-0.0352 Y0.3484
G01 X-0.0010 Y0.3501
G01 X19.7491 Y0.3501
G00 X19.7491 Y0.3501
G01 F80.00
G01 Z-1.3500
G01 F40.00
G01 X-0.0010 Y0.3501
G01 X-0.0352 Y0.3484
G01 X-0.0691 Y0.3434
G01 X-0.1023 Y0.3351
G01 X-0.1346 Y0.3235
G01 X-0.1656 Y0.3089
G01 X-0.1950 Y0.2913
G01 X-0.2225 Y0.2709
G01 X-0.2479 Y0.2479
G01 X-0.2709 Y0.2225
G01 X-0.2913 Y0.1950
G01 X-0.3089 Y0.1656
G01 X-0.3235 Y0.1346
G01 X-0.3351 Y0.1023
G01 X-0.3434 Y0.0691
G01 X-0.3484 Y0.0352
G01 X-0.3501 Y0.0010
G01 X-0.3501 Y-60.0010
G01 X-0.3484 Y-60.0352
G01 X-0.3434 Y-60.0691
G01 X-0.3351 Y-60.1023
G01 X-0.3235 Y-60.1346
G01 X-0.3089 Y-60.1656
G01 X-0.2913 Y-60.1950
G01 X-0.2709 Y-60.2225
G01 X-0.2479 Y-60.2479
G01 X-0.2225 Y-60.2709
G01 X-0.1950 Y-60.2913
G01 X-0.1656 Y-60.3089
G01 X-0.1346 Y-60.3235
G01 X-0.1023 Y-60.3351
G01 X-0.0691 Y-60.3434
G01 X-0.0352 Y-60.3484
G01 X-0.0010 Y-60.3501
G01 X19.7491 Y-60.3501
G00 X19.7491 Y-60.3501
G01 F80.00
G01 Z-1.4000
G01 F40.00
G01 X-0.0010 Y-60.3501
G01 X-0.0352 Y-60.3484
G01 X-0.0691 Y-60.3434
G01 X-0.1023 Y-60.3351
G01 X-0.1346 Y-60.3235
G01 X-0.1656 Y-60.3089
G01 X-0.1950 Y-60.2913
G01 X-0.2225 Y-60.2709
G01 X-0.2479 Y-60.2479
G01 X-0.2709 Y-60.2225
G01 X-0.2913 Y-60.1950
G01 X-0.3089 Y-60.1656
G01 X-0.3235 Y-60.1346
G01 X-0.3351 Y-60.1023
G01 X-0.3434 Y-60.0691
G01 X-0.3484 Y-60.0352
G01 X-0.3501 Y-60.0010
G01 X-0.3501 Y0.0010
G01 X-0.3484 Y0.0352
G01 X-0.3434 Y0.0691
G01 X-0.3351 Y0.1023
G01 X-0.3235 Y0.1346
G01 X-0.3089 Y0.1656
G01 X-0.2913 Y0.1950
G01 X-0.2709 Y0.2225
G01 X-0.2479 Y0.2479
G01 X-0.2225 Y0.2709
G01 X-0.1950 Y0.2913
G01 X-0.1656 Y0.3089
G01 X-0.1346 Y0.3235
G01 X-0.1023 Y0.3351
G01 X-0.0691 Y0.3434
G01 X-0.0352 Y0.3484
G01 X-0.0010 Y0.3501
G01 X19.7491 Y0.3501
G00 X19.7491 Y0.3501
G01 F80.00
G01 Z-1.4500
G01 F40.00
G01 X-0.0010 Y0.3501
G01 X-0.0352 Y0.3484
G01 X-0.0691 Y0.3434
G01 X-0.1023 Y0.3351
G01 X-0.1346 Y0.3235
G01 X-0.1656 Y0.3089
G01 X-0.1950 Y0.2913
G01 X-0.2225 Y0.2709
G01 X-0.2479 Y0.2479
G01 X-0.2709 Y0.2225
G01 X-0.2913 Y0.1950
G01 X-0.3089 Y0.1656
G01 X-0.3235 Y0.1346
G01 X-0.3351 Y0.1023
G01 X-0.3434 Y0.0691
G01 X-0.3484 Y0.0352
G01 X-0.3501 Y0.0010
G01 X-0.3501 Y-60.0010
G01 X-0.3484 Y-60.0352
G01 X-0.3434 Y-60.0691
G01 X-0.3351 Y-60.1023
G01 X-0.3235 Y-60.1346
G01 X-0.3089 Y-60.1656
G01 X-0.2913 Y-60.1950
G01 X-0.2709 Y-60.2225
G01 X-0.2479 Y-60.2479
G01 X-0.2225 Y-60.2709
G01 X-0.1950 Y-60.2913
G01 X-0.1656 Y-60.3089
G01 X-0.1346 Y-60.3235
G01 X-0.1023 Y-60.3351
G01 X-0.0691 Y-60.3434
G01 X-0.0352 Y-60.3484
G01 X-0.0010 Y-60.3501
G01 X19.7491 Y-60.3501
G00 X19.7491 Y-60.3501
G01 F80.00
G01 Z-1.5000
G01 F40.00
G01 X-0.0010 Y-60.3501
G01 X-0.0352 Y-60.3484
G01 X-0.0691 Y-60.3434
G01 X-0.1023 Y-60.3351
G01 X-0.1346 Y-60.3235
G01 X-0.1656 Y-60.3089
G01 X-0.1950 Y-60.2913
G01 X-0.2225 Y-60.2709
G01 X-0.2479 Y-60.2479
G01 X-0.2709 Y-60.2225
G01 X-0.2913 Y-60.1950
G01 X-0.3089 Y-60.1656
G01 X-0.3235 Y-60.1346
G01 X-0.3351 Y-60.1023
G01 X-0.3434 Y-60.0691
G01 X-0.3484 Y-60.0352
G01 X-0.3501 Y-60.0010
G01 X-0.3501 Y0.0010
G01 X-0.3484 Y0.0352
G01 X-0.3434 Y0.0691
G01 X-0.3351 Y0.1023
G01 X-0.3235 Y0.1346
G01 X-0.3089 Y0.1656
G01 X-0.2913 Y0.1950
G01 X-0.2709 Y0.2225
G01 X-0.2479 Y0.2479
G01 X-0.2225 Y0.2709
G01 X-0.1950 Y0.2913
G01 X-0.1656 Y0.3089
G01 X-0.1346 Y0.3235
G01 X-0.1023 Y0.3351
G01 X-0.0691 Y0.3434
G01 X-0.0352 Y0.3484
G01 X-0.0010 Y0.3501
G01 X19.7491 Y0.3501
G00 Z5.0000
G00 X20.4491 Y0.3501
G01 F80.00
G01 Z-0.0500
G01 F40.00
G01 X40.0010 Y0.3501
G01 X40.0352 Y0.3484
G01 X40.0691 Y0.3434
G01 X40.1023 Y0.3351
G01 X40.1346 Y0.3235
G01 X40.1656 Y0.3089
G01 X40.1950 Y0.2913
G01 X40.2225 Y0.2709
G01 X40.2479 Y0.2479
G01 X40.2709 Y0.2225
G01 X40.2913 Y0.1950
G01 X40.3089 Y0.1656
G01 X40.3235 Y0.1346
G01 X40.3351 Y0.1023
G01 X40.3434 Y0.0691
G01 X40.3484 Y0.0352
G01 X40.3501 Y0.0010
G01 X40.3501 Y-60.0010
G01 X40.3484 Y-60.0352
G01 X40.3434 Y-60.0691
G01 X40.3351 Y-60.1023
G01 X40.3235 Y-60.1346
G01 X40.3089 Y-60.1656
G01 X40.2913 Y-60.1950
G01 X40.2709 Y-60.2225
G01 X40.2479 Y-60.2479
G01 X40.2225 Y-60.2709
G01 X40.1950 Y-60.2913
G01 X40.1656 Y-60.3089
G01 X40.1346 Y-60.3235
G01 X40.1023 Y-60.3351
G01 X40.0691 Y-60.3434
G01 X40.0352 Y-60.3484
G01 X40.0010 Y-60.3501
G00 X40.0010 Y-60.3501
G01 F80.00
G01 Z-0.1000
G01 F40.00
G01 X40.0352 Y-60.3484
G01 X40.0691 Y-60.3434
G01 X40.1023 Y-60.3351
G01 X40.1346 Y-60.3235
G01 X40.1656 Y-60.3089
G01 X40.1950 Y-60.2913
G01 X40.2225 Y-60.2709
G01 X40.2479 Y-60.2479
G01 X40.2709 Y-60.2225
G01 X40.2913 Y-60.1950
G01 X40.3089 Y-60.1656
G01 X40.3235 Y-60.1346
G01 X40.3351 Y-60.1023
G01 X40.3434 Y-60.0691
G01 X40.3484 Y-60.0352
G01 X40.3501 Y-60.0010
G01 X40.3501 Y0.0010
G01 X40.3484 Y0.0352
G01 X40.3434 Y0.0691
G01 X40.3351 Y0.1023
G01 X40.3235 Y0.1346
G01 X40.3089 Y0.1656
G01 X40.2913 Y0.1950
G01 X40.2709 Y0.2225
G01 X40.2479 Y0.2479
G01 X40.2225 Y0.2709
G01 X40.1950 Y0.2913
G01 X40.1656 Y0.3089
G01 X40.1346 Y0.3235
G01 X40.1023 Y0.3351
G01 X40.0691 Y0.3434
G01 X40.0352 Y0.3484
G01 X40.0010 Y0.3501
G01 X20.4491 Y0.3501
G00 X20.4491 Y0.3501
G01 F80.00
G01 Z-0.1500
G01 F40.00
G01 X40.0010 Y0.3501
G01 X40.0352 Y0.3484
G01 X40.0691 Y0.3434
G01 X40.1023 Y0.3351
G01 X40.1346 Y0.3235
G01 X40.1656 Y0.3089
G01 X40.1950 Y0.2913
G01 X40.2225 Y0.2709
G01 X40.2479 Y0.2479
G01 X40.2709 Y0.2225
G01 X40.2913 Y0.1950
G01 X40.3089 Y0.1656
G01 X40.3235 Y0.1346
G01 X40.3351 Y0.1023
G01 X40.3434 Y0.0691
G01 X40.3484 Y0.0352
G01 X40.3501 Y0.0010
G01 X40.3501 Y-60.0010
G01 X40.3484 Y-60.0352
G01 X40.3434 Y-60.0691
G01 X40.3351 Y-60.1023
G01 X40.3235 Y-60.1346
G01 X40.3089 Y-60.1656
G01 X40.2913 Y-60.1950
G01 X40.2709 Y-60.2225
G01 X40.2479 Y-60.2479
G01 X40.2225 Y-60.2709
G01 X40.1950 Y-60.2913
G01 X40.1656 Y-60.3089
G01 X40.1346 Y-60.3235
G01 X40.1023 Y-60.3351
G01 X40.0691 Y-60.3434
G01 X40.0352 Y-60.3484
G01 X40.0010 Y-60.3501
G00 X40.0010 Y-60.3501
G01 F80.00
G01 Z-0.2000
G01 F40.00
G01 X40.0352 Y-60.3484
G01 X40.0691 Y-60.3434
G01 X40.1023 Y-60.3351
G01 X40.1346 Y-60.3235
G01 X40.1656 Y-60.3089
G01 X40.1950 Y-60.2913
G01 X40.2225 Y-60.2709
G01 X40.2479 Y-60.2479
G01 X40.2709 Y-60.2225
G01 X40.2913 Y-60.1950
G01 X40.3089 Y-60.1656
G01 X40.3235 Y-60.1346
G01 X40.3351 Y-60.1023
G01 X40.3434 Y-60.0691
G01 X40.3484 Y-60.0352
G01 X40.3501 Y-60.0010
G01 X40.3501 Y0.0010
G01 X40.3484 Y0.0352
G01 X40.3434 Y0.0691
G01 X40.3351 Y0.1023
G01 X40.3235 Y0.1346
G01 X40.3089 Y0.1656
G01 X40.2913 Y0.1950
G01 X40.2709 Y0.2225
G01 X40.2479 Y0.2479
G01 X40.2225 Y0.2709
G01 X40.1950 Y0.2913
G01 X40.1656 Y0.3089
G01 X40.1346 Y0.3235
G01 X40.1023 Y0.3351
G01 X40.0691 Y0.3434
G01 X40.0352 Y0.3484
G01 X40.0010 Y0.3501
G01 X20.4491 Y0.3501
G00 X20.4491 Y0.3501
G01 F80.00
G01 Z-0.2500
G01 F40.00
G01 X40.0010 Y0.3501
G01 X40.0352 Y0.3484
G01 X40.0691 Y0.3434
G01 X40.1023 Y0.3351
G01 X40.1346 Y0.3235
G01 X40.1656 Y0.3089
G01 X40.1950 Y0.2913
G01 X40.2225 Y0.2709
G01 X40.2479 Y0.2479
G01 X40.2709 Y0.2225
G01 X40.2913 Y0.1950
G01 X40.3089 Y0.1656
G01 X40.3235 Y0.1346
G01 X40.3351 Y0.1023
G01 X40.3434 Y0.0691
G01 X40.3484 Y0.0352
G01 X40.3501 Y0.0010
G01 X40.3501 Y-60.0010
G01 X40.3484 Y-60.0352
G01 X40.3434 Y-60.0691
G01 X40.3351 Y-60.1023
G01 X40.3235 Y-60.1346
G01 X40.3089 Y-60.1656
G01 X40.2913 Y-60.1950
G01 X40.2709 Y-60.2225
G01 X40.2479 Y-60.2479
G01 X40.2225 Y-60.2709
G01 X40.1950 Y-60.2913
G01 X40.1656 Y-60.3089
G01 X40.1346 Y-60.3235
G01 X40.1023 Y-60.3351
G01 X40.0691 Y-60.3434
G01 X40.0352 Y-60.3484
G01 X40.0010 Y-60.3501
G00 X40.0010 Y-60.3501
G01 F80.00
G01 Z-0.3000
G01 F40.00
G01 X40.0352 Y-60.3484
G01 X40.0691 Y-60.3434
G01 X40.1023 Y-60.3351
G01 X40.1346 Y-60.3235
G01 X40.1656 Y-60.3089
G01 X40.1950 Y-60.2913
G01 X40.2225 Y-60.2709
G01 X40.2479 Y-60.2479
G01 X40.2709 Y-60.2225
G01 X40.2913 Y-60.1950
G01 X40.3089 Y-60.1656
G01 X40.3235 Y-60.1346
G01 X40.3351 Y-60.1023
G01 X40.3434 Y-60.0691
G01 X40.3484 Y-60.0352
G01 X40.3501 Y-60.0010
G01 X40.3501 Y0.0010
G01 X40.3484 Y0.0352
G01 X40.3434 Y0.0691
G01 X40.3351 Y0.1023
G01 X40.3235 Y0.1346
G01 X40.3089 Y0.1656
G01 X40.2913 Y0.1950
G01 X40.2709 Y0.2225
G01 X40.2479 Y0.2479
G01 X40.2225 Y0.2709
G01 X40.1950 Y0.2913
G01 X40.1656 Y0.3089
G01 X40.1346 Y0.3235
G01 X40.1023 Y0.3351
G01 X40.0691 Y0.3434
G01 X40.0352 Y0.3484
G01 X40.0010 Y0.3501
G01 X20.4491 Y0.3501
G00 X20.4491 Y0.3501
G01 F80.00
G01 Z-0.3500
G01 F40.00
G01 X40.0010 Y0.3501
G01 X40.0352 Y0.3484
G01 X40.0691 Y0.3434
G01 X40.1023 Y0.3351
G01 X40.1346 Y0.3235
G01 X40.1656 Y0.3089
G01 X40.1950 Y0.2913
G01 X40.2225 Y0.2709
G01 X40.2479 Y0.2479
G01 X40.2709 Y0.2225
G01 X40.2913 Y0.1950
G01 X40.3089 Y0.1656
G01 X40.3235 Y0.1346
G01 X40.3351 Y0.1023
G01 X40.3434 Y0.0691
G01 X40.3484 Y0.0352
G01 X40.3501 Y0.0010
G01 X40.3501 Y-60.0010
G01 X40.3484 Y-60.0352
G01 X40.3434 Y-60.0691
G01 X40.3351 Y-60.1023
G01 X40.3235 Y-60.1346
G01 X40.3089 Y-60.1656
G01 X40.2913 Y-60.1950
G01 X40.2709 Y-60.2225
G01 X40.2479 Y-60.2479
G01 X40.2225 Y-60.2709
G01 X40.1950 Y-60.2913
G01 X40.1656 Y-60.3089
G01 X40.1346 Y-60.3235
G01 X40.1023 Y-60.3351
G01 X40.0691 Y-60.3434
G01 X40.0352 Y-60.3484
G01 X40.0010 Y-60.3501
G00 X40.0010 Y-60.3501
G01 F80.00
G01 Z-0.4000
G01 F40.00
G01 X40.0352 Y-60.3484
G01 X40.0691 Y-60.3434
G01 X40.1023 Y-60.3351
G01 X40.1346 Y-60.3235
G01 X40.1656 Y-60.3089
G01 X40.1950 Y-60.2913
G01 X40.2225 Y-60.2709
G01 X40.2479 Y-60.2479
G01 X40.2709 Y-60.2225
G01 X40.2913 Y-60.1950
G01 X40.3089 Y-60.1656
G01 X40.3235 Y-60.1346
G01 X40.3351 Y-60.1023
G01 X40.3434 Y-60.0691
G01 X40.3484 Y-60.0352
G01 X40.3501 Y-60.0010
G01 X40.3501 Y0.0010
G01 X40.3484 Y0.0352
G01 X40.3434 Y0.0691
G01 X40.3351 Y0.1023
G01 X40.3235 Y0.1346
G01 X40.3089 Y0.1656
G01 X40.2913 Y0.1950
G01 X40.2709 Y0.2225
G01 X40.2479 Y0.2479
G01 X40.2225 Y0.2709
G01 X40.1950 Y0.2913
G01 X40.1656 Y0.3089
G01 X40.1346 Y0.3235
G01 X40.1023 Y0.3351
G01 X40.0691 Y0.3434
G01 X40.0352 Y0.3484
G01 X40.0010 Y0.3501
G01 X20.4491 Y0.3501
G00 X20.4491 Y0.3501
G01 F80.00
G01 Z-0.4500
G01 F40.00
G01 X40.0010 Y0.3501
G01 X40.0352 Y0.3484
G01 X40.0691 Y0.3434
G01 X40.1023 Y0.3351
G01 X40.1346 Y0.3235
G01 X40.1656 Y0.3089
G01 X40.1950 Y0.2913
G01 X40.2225 Y0.2709
G01 X40.2479 Y0.2479
G01 X40.2709 Y0.2225
G01 X40.2913 Y0.1950
G01 X40.3089 Y0.1656
G01 X40.3235 Y0.1346
G01 X40.3351 Y0.1023
G01 X40.3434 Y0.0691
G01 X40.3484 Y0.0352
G01 X40.3501 Y0.0010
G01 X40.3501 Y-60.0010
G01 X40.3484 Y-60.0352
G01 X40.3434 Y-60.0691
G01 X40.3351 Y-60.1023
G01 X40.3235 Y-60.1346
G01 X40.3089 Y-60.1656
G01 X40.2913 Y-60.1950
G01 X40.2709 Y-60.2225
G01 X40.2479 Y-60.2479
G01 X40.2225 Y-60.2709
G01 X40.1950 Y-60.2913
G01 X40.1656 Y-60.3089
G01 X40.1346 Y-60.3235
G01 X40.1023 Y-60.3351
G01 X40.0691 Y-60.3434
G01 X40.0352 Y-60.3484
G01 X40.0010 Y-60.3501
G00 X40.0010 Y-60.3501
G01 F80.00
G01 Z-0.5000
G01 F40.00
G01 X40.0352 Y-60.3484
G01 X40.0691 Y-60.3434
G01 X40.1023 Y-60.3351
G01 X40.1346 Y-60.3235
G01 X40.1656 Y-60.3089
G01 X40.1950 Y-60.2913
G01 X40.2225 Y-60.2709
G01 X40.2479 Y-60.2479
G01 X40.2709 Y-60.2225
G01 X40.2913 Y-60.1950
G01 X40.3089 Y-60.1656
G01 X40.3235 Y-60.1346
G01 X40.3351 Y-60.1023
G01 X40.3434 Y-60.0691
G01 X40.3484 Y-60.0352
G01 X40.3501 Y-60.0010
G01 X40.3501 Y0.0010
G01 X40.3484 Y0.0352
G01 X40.3434 Y0.0691
G01 X40.3351 Y0.1023
G01 X40.3235 Y0.1346
G01 X40.3089 Y0.1656
G01 X40.2913 Y0.1950
G01 X40.2709 Y0.2225
G01 X40.2479 Y0.2479
G01 X40.2225 Y0.2709
G01 X40.1950 Y0.2913
G01 X40.1656 Y0.3089
G01 X40.1346 Y0.3235
G01 X40.1023 Y0.3351
G01 X40.0691 Y0.3434
G01 X40.0352 Y0.3484
G01 X40.0010 Y0.3501
G01 X20.4491 Y0.3501
G00 X20.4491 Y0.3501
G01 F80.00
G01 Z-0.5500
G01 F40.00
G01 X40.0010 Y0.3501
G01 X40.0352 Y0.3484
G01 X40.0691 Y0.3434
G01 X40.1023 Y0.3351
G01 X40.1346 Y0.3235
G01 X40.1656 Y0.3089
G01 X40.1950 Y0.2913
G01 X40.2225 Y0.2709
G01 X40.2479 Y0.2479
G01 X40.2709 Y0.2225
G01 X40.2913 Y0.1950
G01 X40.3089 Y0.1656
G01 X40.3235 Y0.1346
G01 X40.3351 Y0.1023
G01 X40.3434 Y0.0691
G01 X40.3484 Y0.0352
G01 X40.3501 Y0.0010
G01 X40.3501 Y-60.0010
G01 X40.3484 Y-60.0352
G01 X40.3434 Y-60.0691
G01 X40.3351 Y-60.1023
G01 X40.3235 Y-60.1346
G01 X40.3089 Y-60.1656
G01 X40.2913 Y-60.1950
G01 X40.2709 Y-60.2225
G01 X40.2479 Y-60.2479
G01 X40.2225 Y-60.2709
G01 X40.1950 Y-60.2913
G01 X40.1656 Y-60.3089
G01 X40.1346 Y-60.3235
G01 X40.1023 Y-60.3351
G01 X40.0691 Y-60.3434
G01 X40.0352 Y-60.3484
G01 X40.0010 Y-60.3501
G00 X40.0010 Y-60.3501
G01 F80.00
G01 Z-0.6000
G01 F40.00
G01 X40.0352 Y-60.3484
G01 X40.0691 Y-60.3434
G01 X40.1023 Y-60.3351
G01 X40.1346 Y-60.3235
G01 X40.1656 Y-60.3089
G01 X40.1950 Y-60.2913
G01 X40.2225 Y-60.2709
G01 X40.2479 Y-60.2479
G01 X40.2709 Y-60.2225
G01 X40.2913 Y-60.1950
G01 X40.3089 Y-60.1656
G01 X40.3235 Y-60.1346
G01 X40.3351 Y-60.1023
G01 X40.3434 Y-60.0691
G01 X40.3484 Y-60.0352
G01 X40.3501 Y-60.0010
G01 X40.3501 Y0.0010
G01 X40.3484 Y0.0352
G01 X40.3434 Y0.0691
G01 X40.3351 Y0.1023
G01 X40.3235 Y0.1346
G01 X40.3089 Y0.1656
G01 X40.2913 Y0.1950
G01 X40.2709 Y0.2225
G01 X40.2479 Y0.2479
G01 X40.2225 Y0.2709
G01 X40.1950 Y0.2913
G01 X40.1656 Y0.3089
G01 X40.1346 Y0.3235
G01 X40.1023 Y0.3351
G01 X40.0691 Y0.3434
G01 X40.0352 Y0.3484
G01 X40.0010 Y0.3501
G01 X20.4491 Y0.3501
G00 X20.4491 Y0.3501
G01 F80.00
G01 Z-0.6500
G01 F40.00
G01 X40.0010 Y0.3501
G01 X40.0352 Y0.3484
G01 X40.0691 Y0.3434
G01 X40.1023 Y0.3351
G01 X40.1346 Y0.3235
G01 X40.1656 Y0.3089
G01 X40.1950 Y0.2913
G01 X40.2225 Y0.2709
G01 X40.2479 Y0.2479
G01 X40.2709 Y0.2225
G01 X40.2913 Y0.1950
G01 X40.3089 Y0.1656
G01 X40.3235 Y0.1346
G01 X40.3351 Y0.1023
G01 X40.3434 Y0.0691
G01 X40.3484 Y0.0352
G01 X40.3501 Y0.0010
G01 X40.3501 Y-60.0010
G01 X40.3484 Y-60.0352
G01 X40.3434 Y-60.0691
G01 X40.3351 Y-60.1023
G01 X40.3235 Y-60.1346
G01 X40.3089 Y-60.1656
G01 X40.2913 Y-60.1950
G01 X40.2709 Y-60.2225
G01 X40.2479 Y-60.2479
G01 X40.2225 Y-60.2709
G01 X40.1950 Y-60.2913
G01 X40.1656 Y-60.3089
G01 X40.1346 Y-60.3235
G01 X40.1023 Y-60.3351
G01 X40.0691 Y-60.3434
G01 X40.0352 Y-60.3484
G01 X40.0010 Y-60.3501
G00 X40.0010 Y-60.3501
G01 F80.00
G01 Z-0.7000
G01 F40.00
G01 X40.0352 Y-60.3484
G01 X40.0691 Y-60.3434
G01 X40.1023 Y-60.3351
G01 X40.1346 Y-60.3235
G01 X40.1656 Y-60.3089
G01 X40.1950 Y-60.2913
G01 X40.2225 Y-60.2709
G01 X40.2479 Y-60.2479
G01 X40.2709 Y-60.2225
G01 X40.2913 Y-60.1950
G01 X40.3089 Y-60.1656
G01 X40.3235 Y-60.1346
G01 X40.3351 Y-60.1023
G01 X40.3434 Y-60.0691
G01 X40.3484 Y-60.0352
G01 X40.3501 Y-60.0010
G01 X40.3501 Y0.0010
G01 X40.3484 Y0.0352
G01 X40.3434 Y0.0691
G01 X40.3351 Y0.1023
G01 X40.3235 Y0.1346
G01 X40.3089 Y0.1656
G01 X40.2913 Y0.1950
G01 X40.2709 Y0.2225
G01 X40.2479 Y0.2479
G01 X40.2225 Y0.2709
G01 X40.1950 Y0.2913
G01 X40.1656 Y0.3089
G01 X40.1346 Y0.3235
G01 X40.1023 Y0.3351
G01 X40.0691 Y0.3434
G01 X40.0352 Y0.3484
G01 X40.0010 Y0.3501
G01 X20.4491 Y0.3501
G00 X20.4491 Y0.3501
G01 F80.00
G01 Z-0.7500
G01 F40.00
G01 X40.0010 Y0.3501
G01 X40.0352 Y0.3484
G01 X40.0691 Y0.3434
G01 X40.1023 Y0.3351
G01 X40.1346 Y0.3235
G01 X40.1656 Y0.3089
G01 X40.1950 Y0.2913
G01 X40.2225 Y0.2709
G01 X40.2479 Y0.2479
G01 X40.2709 Y0.2225
G01 X40.2913 Y0.1950
G01 X40.3089 Y0.1656
G01 X40.3235 Y0.1346
G01 X40.3351 Y0.1023
G01 X40.3434 Y0.0691
G01 X40.3484 Y0.0352
G01 X40.3501 Y0.0010
G01 X40.3501 Y-60.0010
G01 X40.3484 Y-60.0352
G01 X40.3434 Y-60.0691
G01 X40.3351 Y-60.1023
G01 X40.3235 Y-60.1346
G01 X40.3089 Y-60.1656
G01 X40.2913 Y-60.1950
G01 X40.2709 Y-60.2225
G01 X40.2479 Y-60.2479
G01 X40.2225 Y-60.2709
G01 X40.1950 Y-60.2913
G01 X40.1656 Y-60.3089
G01 X40.1346 Y-60.3235
G01 X40.1023 Y-60.3351
G01 X40.0691 Y-60.3434
G01 X40.0352 Y-60.3484
G01 X40.0010 Y-60.3501
G00 X40.0010 Y-60.3501
G01 F80.00
G01 Z-0.8000
G01 F40.00
G01 X40.0352 Y-60.3484
G01 X40.0691 Y-60.3434
G01 X40.1023 Y-60.3351
G01 X40.1346 Y-60.3235
G01 X40.1656 Y-60.3089
G01 X40.1950 Y-60.2913
G01 X40.2225 Y-60.2709
G01 X40.2479 Y-60.2479
G01 X40.2709 Y-60.2225
G01 X40.2913 Y-60.1950
G01 X40.3089 Y-60.1656
G01 X40.3235 Y-60.1346
G01 X40.3351 Y-60.1023
G01 X40.3434 Y-60.0691
G01 X40.3484 Y-60.0352
G01 X40.3501 Y-60.0010
G01 X40.3501 Y0.0010
G01 X40.3484 Y0.0352
G01 X40.3434 Y0.0691
G01 X40.3351 Y0.1023
G01 X40.3235 Y0.1346
G01 X40.3089 Y0.1656
G01 X40.2913 Y0.1950
G01 X40.2709 Y0.2225
G01 X40.2479 Y0.2479
G01 X40.2225 Y0.2709
G01 X40.1950 Y0.2913
G01 X40.1656 Y0.3089
G01 X40.1346 Y0.3235
G01 X40.1023 Y0.3351
G01 X40.0691 Y0.3434
G01 X40.0352 Y0.3484
G01 X40.0010 Y0.3501
G01 X20.4491 Y0.3501
G00 X20.4491 Y0.3501
G01 F80.00
G01 Z-0.8500
G01 F40.00
G01 X40.0010 Y0.3501
G01 X40.0352 Y0.3484
G01 X40.0691 Y0.3434
G01 X40.1023 Y0.3351
G01 X40.1346 Y0.3235
G01 X40.1656 Y0.3089
G01 X40.1950 Y0.2913
G01 X40.2225 Y0.2709
G01 X40.2479 Y0.2479
G01 X40.2709 Y0.2225
G01 X40.2913 Y0.1950
G01 X40.3089 Y0.1656
G01 X40.3235 Y0.1346
G01 X40.3351 Y0.1023
G01 X40.3434 Y0.0691
G01 X40.3484 Y0.0352
G01 X40.3501 Y0.0010
G01 X40.3501 Y-60.0010
G01 X40.3484 Y-60.0352
G01 X40.3434 Y-60.0691
G01 X40.3351 Y-60.1023
G01 X40.3235 Y-60.1346
G01 X40.3089 Y-60.1656
G01 X40.2913 Y-60.1950
G01 X40.2709 Y-60.2225
G01 X40.2479 Y-60.2479
G01 X40.2225 Y-60.2709
G01 X40.1950 Y-60.2913
G01 X40.1656 Y-60.3089
G01 X40.1346 Y-60.3235
G01 X40.1023 Y-60.3351
G01 X40.0691 Y-60.3434
G01 X40.0352 Y-60.3484
G01 X40.0010 Y-60.3501
G00 X40.0010 Y-60.3501
G01 F80.00
G01 Z-0.9000
G01 F40.00
G01 X40.0352 Y-60.3484
G01 X40.0691 Y-60.3434
G01 X40.1023 Y-60.3351
G01 X40.1346 Y-60.3235
G01 X40.1656 Y-60.3089
G01 X40.1950 Y-60.2913
G01 X40.2225 Y-60.2709
G01 X40.2479 Y-60.2479
G01 X40.2709 Y-60.2225
G01 X40.2913 Y-60.1950
G01 X40.3089 Y-60.1656
G01 X40.3235 Y-60.1346
G01 X40.3351 Y-60.1023
G01 X40.3434 Y-60.0691
G01 X40.3484 Y-60.0352
G01 X40.3501 Y-60.0010
G01 X40.3501 Y0.0010
G01 X40.3484 Y0.0352
G01 X40.3434 Y0.0691
G01 X40.3351 Y0.1023
G01 X40.3235 Y0.1346
G01 X40.3089 Y0.1656
G01 X40.2913 Y0.1950
G01 X40.2709 Y0.2225
G01 X40.2479 Y0.2479
G01 X40.2225 Y0.2709
G01 X40.1950 Y0.2913
G01 X40.1656 Y0.3089
G01 X40.1346 Y0.3235
G01 X40.1023 Y0.3351
G01 X40.0691 Y0.3434
G01 X40.0352 Y0.3484
G01 X40.0010 Y0.3501
G01 X20.4491 Y0.3501
G00 X20.4491 Y0.3501
G01 F80.00
G01 Z-0.9500
G01 F40.00
G01 X40.0010 Y0.3501
G01 X40.0352 Y0.3484
G01 X40.0691 Y0.3434
G01 X40.1023 Y0.3351
G01 X40.1346 Y0.3235
G01 X40.1656 Y0.3089
G01 X40.1950 Y0.2913
G01 X40.2225 Y0.2709
G01 X40.2479 Y0.2479
G01 X40.2709 Y0.2225
G01 X40.2913 Y0.1950
G01 X40.3089 Y0.1656
G01 X40.3235 Y0.1346
G01 X40.3351 Y0.1023
G01 X40.3434 Y0.0691
G01 X40.3484 Y0.0352
G01 X40.3501 Y0.0010
G01 X40.3501 Y-60.0010
G01 X40.3484 Y-60.0352
G01 X40.3434 Y-60.0691
G01 X40.3351 Y-60.1023
G01 X40.3235 Y-60.1346
G01 X40.3089 Y-60.1656
G01 X40.2913 Y-60.1950
G01 X40.2709 Y-60.2225
G01 X40.2479 Y-60.2479
G01 X40.2225 Y-60.2709
G01 X40.1950 Y-60.2913
G01 X40.1656 Y-60.3089
G01 X40.1346 Y-60.3235
G01 X40.1023 Y-60.3351
G01 X40.0691 Y-60.3434
G01 X40.0352 Y-60.3484
G01 X40.0010 Y-60.3501
G00 X40.0010 Y-60.3501
G01 F80.00
G01 Z-1.0000
G01 F40.00
G01 X40.0352 Y-60.3484
G01 X40.0691 Y-60.3434
G01 X40.1023 Y-60.3351
G01 X40.1346 Y-60.3235
G01 X40.1656 Y-60.3089
G01 X40.1950 Y-60.2913
G01 X40.2225 Y-60.2709
G01 X40.2479 Y-60.2479
G01 X40.2709 Y-60.2225
G01 X40.2913 Y-60.1950
G01 X40.3089 Y-60.1656
G01 X40.3235 Y-60.1346
G01 X40.3351 Y-60.1023
G01 X40.3434 Y-60.0691
G01 X40.3484 Y-60.0352
G01 X40.3501 Y-60.0010
G01 X40.3501 Y0.0010
G01 X40.3484 Y0.0352
G01 X40.3434 Y0.0691
G01 X40.3351 Y0.1023
G01 X40.3235 Y0.1346
G01 X40.3089 Y0.1656
G01 X40.2913 Y0.1950
G01 X40.2709 Y0.2225
G01 X40.2479 Y0.2479
G01 X40.2225 Y0.2709
G01 X40.1950 Y0.2913
G01 X40.1656 Y0.3089
G01 X40.1346 Y0.3235
G01 X40.1023 Y0.3351
G01 X40.0691 Y0.3434
G01 X40.0352 Y0.3484
G01 X40.0010 Y0.3501
G01 X20.4491 Y0.3501
G00 X20.4491 Y0.3501
G01 F80.00
G01 Z-1.0500
G01 F40.00
G01 X40.0010 Y0.3501
G01 X40.0352 Y0.3484
G01 X40.0691 Y0.3434
G01 X40.1023 Y0.3351
G01 X40.1346 Y0.3235
G01 X40.1656 Y0.3089
G01 X40.1950 Y0.2913
G01 X40.2225 Y0.2709
G01 X40.2479 Y0.2479
G01 X40.2709 Y0.2225
G01 X40.2913 Y0.1950
G01 X40.3089 Y0.1656
G01 X40.3235 Y0.1346
G01 X40.3351 Y0.1023
G01 X40.3434 Y0.0691
G01 X40.3484 Y0.0352
G01 X40.3501 Y0.0010
G01 X40.3501 Y-60.0010
G01 X40.3484 Y-60.0352
G01 X40.3434 Y-60.0691
G01 X40.3351 Y-60.1023
G01 X40.3235 Y-60.1346
G01 X40.3089 Y-60.1656
G01 X40.2913 Y-60.1950
G01 X40.2709 Y-60.2225
G01 X40.2479 Y-60.2479
G01 X40.2225 Y-60.2709
G01 X40.1950 Y-60.2913
G01 X40.1656 Y-60.3089
G01 X40.1346 Y-60.3235
G01 X40.1023 Y-60.3351
G01 X40.0691 Y-60.3434
G01 X40.0352 Y-60.3484
G01 X40.0010 Y-60.3501
G00 X40.0010 Y-60.3501
G01 F80.00
G01 Z-1.1000
G01 F40.00
G01 X40.0352 Y-60.3484
G01 X40.0691 Y-60.3434
G01 X40.1023 Y-60.3351
G01 X40.1346 Y-60.3235
G01 X40.1656 Y-60.3089
G01 X40.1950 Y-60.2913
G01 X40.2225 Y-60.2709
G01 X40.2479 Y-60.2479
G01 X40.2709 Y-60.2225
G01 X40.2913 Y-60.1950
G01 X40.3089 Y-60.1656
G01 X40.3235 Y-60.1346
G01 X40.3351 Y-60.1023
G01 X40.3434 Y-60.0691
G01 X40.3484 Y-60.0352
G01 X40.3501 Y-60.0010
G01 X40.3501 Y0.0010
G01 X40.3484 Y0.0352
G01 X40.3434 Y0.0691
G01 X40.3351 Y0.1023
G01 X40.3235 Y0.1346
G01 X40.3089 Y0.1656
G01 X40.2913 Y0.1950
G01 X40.2709 Y0.2225
G01 X40.2479 Y0.2479
G01 X40.2225 Y0.2709
G01 X40.1950 Y0.2913
G01 X40.1656 Y0.3089
G01 X40.1346 Y0.3235
G01 X40.1023 Y0.3351
G01 X40.0691 Y0.3434
G01 X40.0352 Y0.3484
G01 X40.0010 Y0.3501
G01 X20.4491 Y0.3501
G00 X20.4491 Y0.3501
G01 F80.00
G01 Z-1.1500
G01 F40.00
G01 X40.0010 Y0.3501
G01 X40.0352 Y0.3484
G01 X40.0691 Y0.3434
G01 X40.1023 Y0.3351
G01 X40.1346 Y0.3235
G01 X40.1656 Y0.3089
G01 X40.1950 Y0.2913
G01 X40.2225 Y0.2709
G01 X40.2479 Y0.2479
G01 X40.2709 Y0.2225
G01 X40.2913 Y0.1950
G01 X40.3089 Y0.1656
G01 X40.3235 Y0.1346
G01 X40.3351 Y0.1023
G01 X40.3434 Y0.0691
G01 X40.3484 Y0.0352
G01 X40.3501 Y0.0010
G01 X40.3501 Y-60.0010
G01 X40.3484 Y-60.0352
G01 X40.3434 Y-60.0691
G01 X40.3351 Y-60.1023
G01 X40.3235 Y-60.1346
G01 X40.3089 Y-60.1656
G01 X40.2913 Y-60.1950
G01 X40.2709 Y-60.2225
G01 X40.2479 Y-60.2479
G01 X40.2225 Y-60.2709
G01 X40.1950 Y-60.2913
G01 X40.1656 Y-60.3089
G01 X40.1346 Y-60.3235
G01 X40.1023 Y-60.3351
G01 X40.0691 Y-60.3434
G01 X40.0352 Y-60.3484
G01 X40.0010 Y-60.3501
G00 X40.0010 Y-60.3501
G01 F80.00
G01 Z-1.2000
G01 F40.00
G01 X40.0352 Y-60.3484
G01 X40.0691 Y-60.3434
G01 X40.1023 Y-60.3351
G01 X40.1346 Y-60.3235
G01 X40.1656 Y-60.3089
G01 X40.1950 Y-60.2913
G01 X40.2225 Y-60.2709
G01 X40.2479 Y-60.2479
G01 X40.2709 Y-60.2225
G01 X40.2913 Y-60.1950
G01 X40.3089 Y-60.1656
G01 X40.3235 Y-60.1346
G01 X40.3351 Y-60.1023
G01 X40.3434 Y-60.0691
G01 X40.3484 Y-60.0352
G01 X40.3501 Y-60.0010
G01 X40.3501 Y0.0010
G01 X40.3484 Y0.0352
G01 X40.3434 Y0.0691
G01 X40.3351 Y0.1023
G01 X40.3235 Y0.1346
G01 X40.3089 Y0.1656
G01 X40.2913 Y0.1950
G01 X40.2709 Y0.2225
G01 X40.2479 Y0.2479
G01 X40.2225 Y0.2709
G01 X40.1950 Y0.2913
G01 X40.1656 Y0.3089
G01 X40.1346 Y0.3235
G01 X40.1023 Y0.3351
G01 X40.0691 Y0.3434
G01 X40.0352 Y0.3484
G01 X40.0010 Y0.3501
G01 X20.4491 Y0.3501
G00 X20.4491 Y0.3501
G01 F80.00
G01 Z-1.2500
G01 F40.00
G01 X40.0010 Y0.3501
G01 X40.0352 Y0.3484
G01 X40.0691 Y0.3434
G01 X40.1023 Y0.3351
G01 X40.1346 Y0.3235
G01 X40.1656 Y0.3089
G01 X40.1950 Y0.2913
G01 X40.2225 Y0.2709
G01 X40.2479 Y0.2479
G01 X40.2709 Y0.2225
G01 X40.2913 Y0.1950
G01 X40.3089 Y0.1656
G01 X40.3235 Y0.1346
G01 X40.3351 Y0.1023
G01 X40.3434 Y0.0691
G01 X40.3484 Y0.0352
G01 X40.3501 Y0.0010
G01 X40.3501 Y-60.0010
G01 X40.3484 Y-60.0352
G01 X40.3434 Y-60.0691
G01 X40.3351 Y-60.1023
G01 X40.3235 Y-60.1346
G01 X40.3089 Y-60.1656
G01 X40.2913 Y-60.1950
G01 X40.2709 Y-60.2225
G01 X40.2479 Y-60.2479
G01 X40.2225 Y-60.2709
G01 X40.1950 Y-60.2913
G01 X40.1656 Y-60.3089
G01 X40.1346 Y-60.3235
G01 X40.1023 Y-60.3351
G01 X40.0691 Y-60.3434
G01 X40.0352 Y-60.3484
G01 X40.0010 Y-60.3501
G00 X40.0010 Y-60.3501
G01 F80.00
G01 Z-1.3000
G01 F40.00
G01 X40.0352 Y-60.3484
G01 X40.0691 Y-60.3434
G01 X40.1023 Y-60.3351
G01 X40.1346 Y-60.3235
G01 X40.1656 Y-60.3089
G01 X40.1950 Y-60.2913
G01 X40.2225 Y-60.2709
G01 X40.2479 Y-60.2479
G01 X40.2709 Y-60.2225
G01 X40.2913 Y-60.1950
G01 X40.3089 Y-60.1656
G01 X40.3235 Y-60.1346
G01 X40.3351 Y-60.1023
G01 X40.3434 Y-60.0691
G01 X40.3484 Y-60.0352
G01 X40.3501 Y-60.0010
G01 X40.3501 Y0.0010
G01 X40.3484 Y0.0352
G01 X40.3434 Y0.0691
G01 X40.3351 Y0.1023
G01 X40.3235 Y0.1346
G01 X40.3089 Y0.1656
G01 X40.2913 Y0.1950
G01 X40.2709 Y0.2225
G01 X40.2479 Y0.2479
G01 X40.2225 Y0.2709
G01 X40.1950 Y0.2913
G01 X40.1656 Y0.3089
G01 X40.1346 Y0.3235
G01 X40.1023 Y0.3351
G01 X40.0691 Y0.3434
G01 X40.0352 Y0.3484
G01 X40.0010 Y0.3501
G01 X20.4491 Y0.3501
G00 X20.4491 Y0.3501
G01 F80.00
G01 Z-1.3500
G01 F40.00
G01 X40.0010 Y0.3501
G01 X40.0352 Y0.3484
G01 X40.0691 Y0.3434
G01 X40.1023 Y0.3351
G01 X40.1346 Y0.3235
G01 X40.1656 Y0.3089
G01 X40.1950 Y0.2913
G01 X40.2225 Y0.2709
G01 X40.2479 Y0.2479
G01 X40.2709 Y0.2225
G01 X40.2913 Y0.1950
G01 X40.3089 Y0.1656
G01 X40.3235 Y0.1346
G01 X40.3351 Y0.1023
G01 X40.3434 Y0.0691
G01 X40.3484 Y0.0352
G01 X40.3501 Y0.0010
G01 X40.3501 Y-60.0010
G01 X40.3484 Y-60.0352
G01 X40.3434 Y-60.0691
G01 X40.3351 Y-60.1023
G01 X40.3235 Y-60.1346
G01 X40.3089 Y-60.1656
G01 X40.2913 Y-60.1950
G01 X40.2709 Y-60.2225
G01 X40.2479 Y-60.2479
G01 X40.2225 Y-60.2709
G01 X40.1950 Y-60.2913
G01 X40.1656 Y-60.3089
G01 X40.1346 Y-60.3235
G01 X40.1023 Y-60.3351
G01 X40.0691 Y-60.3434
G01 X40.0352 Y-60.3484
G01 X40.0010 Y-60.3501
G00 X40.0010 Y-60.3501
G01 F80.00
G01 Z-1.4000
G01 F40.00
G01 X40.0352 Y-60.3484
G01 X40.0691 Y-60.3434
G01 X40.1023 Y-60.3351
G01 X40.1346 Y-60.3235
G01 X40.1656 Y-60.3089
G01 X40.1950 Y-60.2913
G01 X40.2225 Y-60.2709
G01 X40.2479 Y-60.2479
G01 X40.2709 Y-60.2225
G01 X40.2913 Y-60.1950
G01 X40.3089 Y-60.1656
G01 X40.3235 Y-60.1346
G01 X40.3351 Y-60.1023
G01 X40.3434 Y-60.0691
G01 X40.3484 Y-60.0352
G01 X40.3501 Y-60.0010
G01 X40.3501 Y0.0010
G01 X40.3484 Y0.0352
G01 X40.3434 Y0.0691
G01 X40.3351 Y0.1023
G01 X40.3235 Y0.1346
G01 X40.3089 Y0.1656
G01 X40.2913 Y0.1950
G01 X40.2709 Y0.2225
G01 X40.2479 Y0.2479
G01 X40.2225 Y0.2709
G01 X40.1950 Y0.2913
G01 X40.1656 Y0.3089
G01 X40.1346 Y0.3235
G01 X40.1023 Y0.3351
G01 X40.0691 Y0.3434
G01 X40.0352 Y0.3484
G01 X40.0010 Y0.3501
G01 X20.4491 Y0.3501
G00 X20.4491 Y0.3501
G01 F80.00
G01 Z-1.4500
G01 F40.00
G01 X40.0010 Y0.3501
G01 X40.0352 Y0.3484
G01 X40.0691 Y0.3434
G01 X40.1023 Y0.3351
G01 X40.1346 Y0.3235
G01 X40.1656 Y0.3089
G01 X40.1950 Y0.2913
G01 X40.2225 Y0.2709
G01 X40.2479 Y0.2479
G01 X40.2709 Y0.2225
G01 X40.2913 Y0.1950
G01 X40.3089 Y0.1656
G01 X40.3235 Y0.1346
G01 X40.3351 Y0.1023
G01 X40.3434 Y0.0691
G01 X40.3484 Y0.0352
G01 X40.3501 Y0.0010
G01 X40.3501 Y-60.0010
G01 X40.3484 Y-60.0352
G01 X40.3434 Y-60.0691
G01 X40.3351 Y-60.1023
G01 X40.3235 Y-60.1346
G01 X40.3089 Y-60.1656
G01 X40.2913 Y-60.1950
G01 X40.2709 Y-60.2225
G01 X40.2479 Y-60.2479
G01 X40.2225 Y-60.2709
G01 X40.1950 Y-60.2913
G01 X40.1656 Y-60.3089
G01 X40.1346 Y-60.3235
G01 X40.1023 Y-60.3351
G01 X40.0691 Y-60.3434
G01 X40.0352 Y-60.3484
G01 X40.0010 Y-60.3501
G00 X40.0010 Y-60.3501
G01 F80.00
G01 Z-1.5000
G01 F40.00
G01 X40.0352 Y-60.3484
G01 X40.0691 Y-60.3434
G01 X40.1023 Y-60.3351
G01 X40.1346 Y-60.3235
G01 X40.1656 Y-60.3089
G01 X40.1950 Y-60.2913
G01 X40.2225 Y-60.2709
G01 X40.2479 Y-60.2479
G01 X40.2709 Y-60.2225
G01 X40.2913 Y-60.1950
G01 X40.3089 Y-60.1656
G01 X40.3235 Y-60.1346
G01 X40.3351 Y-60.1023
G01 X40.3434 Y-60.0691
G01 X40.3484 Y-60.0352
G01 X40.3501 Y-60.0010
G01 X40.3501 Y0.0010
G01 X40.3484 Y0.0352
G01 X40.3434 Y0.0691
G01 X40.3351 Y0.1023
G01 X40.3235 Y0.1346
G01 X40.3089 Y0.1656
G01 X40.2913 Y0.1950
G01 X40.2709 Y0.2225
G01 X40.2479 Y0.2479
G01 X40.2225 Y0.2709
G01 X40.1950 Y0.2913
G01 X40.1656 Y0.3089
G01 X40.1346 Y0.3235
G01 X40.1023 Y0.3351
G01 X40.0691 Y0.3434
G01 X40.0352 Y0.3484
G01 X40.0010 Y0.3501
G01 X20.4491 Y0.3501
G00 Z5.0000
G00 X20.4491 Y-60.3501
G01 F80.00
G01 Z-0.0500
G01 F40.00
G01 X40.0010 Y-60.3501
G00 X40.0010 Y-60.3501
G01 F80.00
G01 Z-0.1000
G01 F40.00
G01 X20.4491 Y-60.3501
G00 X20.4491 Y-60.3501
G01 F80.00
G01 Z-0.1500
G01 F40.00
G01 X40.0010 Y-60.3501
G00 X40.0010 Y-60.3501
G01 F80.00
G01 Z-0.2000
G01 F40.00
G01 X20.4491 Y-60.3501
G00 X20.4491 Y-60.3501
G01 F80.00
G01 Z-0.2500
G01 F40.00
G01 X40.0010 Y-60.3501
G00 X40.0010 Y-60.3501
G01 F80.00
G01 Z-0.3000
G01 F40.00
G01 X20.4491 Y-60.3501
G00 X20.4491 Y-60.3501
G01 F80.00
G01 Z-0.3500
G01 F40.00
G01 X40.0010 Y-60.3501
G00 X40.0010 Y-60.3501
G01 F80.00
G01 Z-0.4000
G01 F40.00
G01 X20.4491 Y-60.3501
G00 X20.4491 Y-60.3501
G01 F80.00
G01 Z-0.4500
G01 F40.00
G01 X40.0010 Y-60.3501
G00 X40.0010 Y-60.3501
G01 F80.00
G01 Z-0.5000
G01 F40.00
G01 X20.4491 Y-60.3501
G00 X20.4491 Y-60.3501
G01 F80.00
G01 Z-0.5500
G01 F40.00
G01 X40.0010 Y-60.3501
G00 X40.0010 Y-60.3501
G01 F80.00
G01 Z-0.6000
G01 F40.00
G01 X20.4491 Y-60.3501
G00 X20.4491 Y-60.3501
G01 F80.00
G01 Z-0.6500
G01 F40.00
G01 X40.0010 Y-60.3501
G00 X40.0010 Y-60.3501
G01 F80.00
G01 Z-0.7000
G01 F40.00
G01 X20.4491 Y-60.3501
G00 X20.4491 Y-60.3501
G01 F80.00
G01 Z-0.7500
G01 F40.00
G01 X40.0010 Y-60.3501
G00 X40.0010 Y-60.3501
G01 F80.00
G01 Z-0.8000
G01 F40.00
G01 X20.4491 Y-60.3501
G00 X20.4491 Y-60.3501
G01 F80.00
G01 Z-0.8500
G01 F40.00
G01 X40.0010 Y-60.3501
G00 X40.0010 Y-60.3501
G01 F80.00
G01 Z-0.9000
G01 F40.00
G01 X20.4491 Y-60.3501
G00 X20.4491 Y-60.3501
G01 F80.00
G01 Z-0.9500
G01 F40.00
G01 X40.0010 Y-60.3501
G00 X40.0010 Y-60.3501
G01 F80.00
G01 Z-1.0000
G01 F40.00
G01 X20.4491 Y-60.3501
G00 X20.4491 Y-60.3501
G01 F80.00
G01 Z-1.0500
G01 F40.00
G01 X40.0010 Y-60.3501
G00 X40.0010 Y-60.3501
G01 F80.00
G01 Z-1.1000
G01 F40.00
G01 X20.4491 Y-60.3501
G00 X20.4491 Y-60.3501
G01 F80.00
G01 Z-1.1500
G01 F40.00
G01 X40.0010 Y-60.3501
G00 X40.0010 Y-60.3501
G01 F80.00
G01 Z-1.2000
G01 F40.00
G01 X20.4491 Y-60.3501
G00 X20.4491 Y-60.3501
G01 F80.00
G01 Z-1.2500
G01 F40.00
G01 X40.0010 Y-60.3501
G00 X40.0010 Y-60.3501
G01 F80.00
G01 Z-1.3000
G01 F40.00
G01 X20.4491 Y-60.3501
G00 X20.4491 Y-60.3501
G01 F80.00
G01 Z-1.3500
G01 F40.00
G01 X40.0010 Y-60.3501
G00 X40.0010 Y-60.3501
G01 F80.00
G01 Z-1.4000
G01 F40.00
G01 X20.4491 Y-60.3501
G00 X20.4491 Y-60.3501
G01 F80.00
G01 Z-1.4500
G01 F40.00
G01 X40.0010 Y-60.3501
G00 X40.0010 Y-60.3501
G01 F80.00
G01 Z-1.5000
G01 F40.00
G01 X20.4491 Y-60.3501
G00 Z5.0000
M05
G00 Z5.0000
G00 Z12.70
G00 X0.0 Y0.0

M02