(G-CODE GENERATED BY FLATCAM v8.95 - www.flatcam.org - Version Date: 2019/08/17)

(Name: Sintez1_Ф1_верх.gbr_iso_cnc)
(Type: G-code from Geometry)
(Units: MM)

(Created on Monday, 06 July 2020 at 07:04)

(TOOL DIAMETER: 0.5 mm)
(Feedrate: 40.0 mm/min)
(Feedrate_Z: 79.9998 mm/min)
(Feedrate rapids 79.9998 mm/min)

(Z_Cut: -0.05 mm)
(Z_Move: 5.0 mm)
(Z Toolchange: 12.7 mm)
(X,Y Toolchange: 0.0000, 0.0000 mm)
(Z Start: None mm)
(Z End: 12.7 mm)
(Steps per circle: 128)
(Postprocessor Geometry: default)

(X range:   -0.2510 ...   40.2510  mm)
(Y range:  -60.2510 ...    0.2510  mm)

(Spindle Speed: None RPM)

G21
G90
G94

G01 F40.00
G00 Z5.0000

M03
G00 X-0.2510 Y0.0000
G01 F80.00
G01 Z-0.0500
G01 F40.00
G01 X-0.2510 Y-60.0000
G01 X-0.2503 Y-60.0185
G01 X-0.2473 Y-60.0429
G01 X-0.2449 Y-60.0550
G01 X-0.2383 Y-60.0787
G01 X-0.2342 Y-60.0904
G01 X-0.2242 Y-60.1128
G01 X-0.2184 Y-60.1237
G01 X-0.2052 Y-60.1445
G01 X-0.1900 Y-60.1640
G01 X-0.1731 Y-60.1818
G01 X-0.1640 Y-60.1900
G01 X-0.1445 Y-60.2052
G01 X-0.1343 Y-60.2121
G01 X-0.1129 Y-60.2242
G01 X-0.0903 Y-60.2342
G01 X-0.0670 Y-60.2419
G01 X-0.0550 Y-60.2449
G01 X-0.0307 Y-60.2491
G01 X0.0000 Y-60.2510
G01 X40.0000 Y-60.2510
G01 X40.0185 Y-60.2503
G01 X40.0429 Y-60.2473
G01 X40.0550 Y-60.2449
G01 X40.0787 Y-60.2383
G01 X40.0904 Y-60.2342
G01 X40.1128 Y-60.2242
G01 X40.1237 Y-60.2184
G01 X40.1445 Y-60.2052
G01 X40.1640 Y-60.1900
G01 X40.1731 Y-60.1818
G01 X40.1900 Y-60.1640
G01 X40.2052 Y-60.1445
G01 X40.2121 Y-60.1343
G01 X40.2242 Y-60.1129
G01 X40.2342 Y-60.0903
G01 X40.2419 Y-60.0670
G01 X40.2449 Y-60.0550
G01 X40.2491 Y-60.0307
G01 X40.2510 Y-60.0000
G01 X40.2510 Y0.0000
G01 X40.2503 Y0.0185
G01 X40.2473 Y0.0429
G01 X40.2449 Y0.0550
G01 X40.2383 Y0.0787
G01 X40.2342 Y0.0904
G01 X40.2242 Y0.1128
G01 X40.2184 Y0.1237
G01 X40.2052 Y0.1445
G01 X40.1900 Y0.1640
G01 X40.1818 Y0.1731
G01 X40.1640 Y0.1900
G01 X40.1445 Y0.2052
G01 X40.1343 Y0.2121
G01 X40.1129 Y0.2242
G01 X40.0903 Y0.2342
G01 X40.0787 Y0.2383
G01 X40.0550 Y0.2449
G01 X40.0307 Y0.2491
G01 X40.0000 Y0.2510
G01 X-0.0000 Y0.2510
G01 X-0.0305 Y0.2491
G01 X-0.0509 Y0.2458
G01 X-0.0717 Y0.2406
G01 X-0.0976 Y0.2312
G01 X-0.1212 Y0.2198
G01 X-0.1445 Y0.2052
G01 X-0.1629 Y0.1910
G01 X-0.1803 Y0.1747
G01 X-0.1979 Y0.1544
G01 X-0.2120 Y0.1343
G01 X-0.2242 Y0.1129
G01 X-0.2342 Y0.0904
G01 X-0.2416 Y0.0681
G01 X-0.2468 Y0.0459
G01 X-0.2503 Y0.0185
G01 X-0.2510 Y0.0000
G00 Z5.0000
G00 X1.1180 Y-10.0689
G01 F80.00
G01 Z-0.0500
G01 F40.00
G01 X1.2388 Y-10.0689
G01 X1.2618 Y-10.0364
G01 X1.3146 Y-9.9687
G01 X1.3707 Y-9.9037
G01 X1.4300 Y-9.8415
G01 X1.4922 Y-9.7822
G01 X1.5572 Y-9.7261
G01 X1.6249 Y-9.6733
G01 X1.6574 Y-9.6503
G01 X1.6574 Y-9.5295
G01 X1.6396 Y-9.5407
G01 X1.5654 Y-9.5930
G01 X1.4938 Y-9.6489
G01 X1.4251 Y-9.7082
G01 X1.3593 Y-9.7708
G01 X1.2967 Y-9.8366
G01 X1.2374 Y-9.9053
G01 X1.1815 Y-9.9769
G01 X1.1292 Y-10.0511
G01 X1.1180 Y-10.0689
G00 Z5.0000
G00 X1.1180 Y-12.0889
G01 F80.00
G01 Z-0.0500
G01 F40.00
G01 X1.1292 Y-12.1067
G01 X1.1815 Y-12.1809
G01 X1.2374 Y-12.2525
G01 X1.2967 Y-12.3212
G01 X1.3593 Y-12.3870
G01 X1.4251 Y-12.4496
G01 X1.4938 Y-12.5089
G01 X1.5654 Y-12.5648
G01 X1.6396 Y-12.6171
G01 X1.6574 Y-12.6283
G01 X1.6574 Y-12.5075
G01 X1.6249 Y-12.4845
G01 X1.5572 Y-12.4317
G01 X1.4922 Y-12.3756
G01 X1.4300 Y-12.3163
G01 X1.3707 Y-12.2541
G01 X1.3146 Y-12.1891
G01 X1.2618 Y-12.1214
G01 X1.2388 Y-12.0889
G01 X1.1180 Y-12.0889
G00 Z5.0000
G00 X3.6774 Y-12.6283
G01 F80.00
G01 Z-0.0500
G01 F40.00
G01 X3.6952 Y-12.6171
G01 X3.7694 Y-12.5648
G01 X3.8410 Y-12.5089
G01 X3.9097 Y-12.4496
G01 X3.9755 Y-12.3870
G01 X4.0381 Y-12.3212
G01 X4.0974 Y-12.2525
G01 X4.1533 Y-12.1809
G01 X4.2056 Y-12.1067
G01 X4.2168 Y-12.0889
G01 X4.0960 Y-12.0889
G01 X4.0730 Y-12.1214
G01 X4.0202 Y-12.1891
G01 X3.9641 Y-12.2541
G01 X3.9048 Y-12.3163
G01 X3.8426 Y-12.3756
G01 X3.7776 Y-12.4317
G01 X3.7099 Y-12.4845
G01 X3.6774 Y-12.5075
G01 X3.6774 Y-12.6283
G00 Z5.0000
G00 X3.6774 Y-9.6503
G01 F80.00
G01 Z-0.0500
G01 F40.00
G01 X3.7099 Y-9.6733
G01 X3.7776 Y-9.7261
G01 X3.8426 Y-9.7822
G01 X3.9048 Y-9.8415
G01 X3.9641 Y-9.9037
G01 X4.0202 Y-9.9687
G01 X4.0730 Y-10.0364
G01 X4.0960 Y-10.0689
G01 X4.2168 Y-10.0689
G01 X4.2056 Y-10.0511
G01 X4.1533 Y-9.9769
G01 X4.0974 Y-9.9053
G01 X4.0381 Y-9.8366
G01 X3.9755 Y-9.7708
G01 X3.9097 Y-9.7082
G01 X3.8410 Y-9.6489
G01 X3.7694 Y-9.5930
G01 X3.6952 Y-9.5407
G01 X3.6774 Y-9.5295
G01 X3.6774 Y-9.6503
G00 Z5.0000
G00 X7.9432 Y-18.6086
G01 F80.00
G01 Z-0.0500
G01 F40.00
G01 X7.9432 Y-18.4852
G01 X7.8953 Y-18.5190
G01 X7.8430 Y-18.5598
G01 X7.7928 Y-18.6031
G01 X7.7448 Y-18.6488
G01 X7.6991 Y-18.6968
G01 X7.6558 Y-18.7470
G01 X7.6150 Y-18.7993
G01 X7.5768 Y-18.8535
G01 X7.5413 Y-18.9095
G01 X7.5087 Y-18.9672
G01 X7.4789 Y-19.0264
G01 X7.4520 Y-19.0870
G01 X7.4281 Y-19.1489
G01 X7.4073 Y-19.2118
G01 X7.3897 Y-19.2757
G01 X7.3751 Y-19.3404
G01 X7.3638 Y-19.4057
G01 X7.3557 Y-19.4715
G01 X7.3508 Y-19.5376
G01 X7.3491 Y-19.6070
G01 X7.3491 Y-21.6008
G01 X7.3508 Y-21.6702
G01 X7.3557 Y-21.7363
G01 X7.3638 Y-21.8021
G01 X7.3751 Y-21.8674
G01 X7.3897 Y-21.9321
G01 X7.4073 Y-21.9960
G01 X7.4281 Y-22.0589
G01 X7.4520 Y-22.1208
G01 X7.4789 Y-22.1814
G01 X7.5087 Y-22.2406
G01 X7.5413 Y-22.2983
G01 X7.5768 Y-22.3543
G01 X7.6150 Y-22.4085
G01 X7.6558 Y-22.4608
G01 X7.6991 Y-22.5110
G01 X7.7448 Y-22.5590
G01 X7.7928 Y-22.6047
G01 X7.8430 Y-22.6480
G01 X7.8953 Y-22.6888
G01 X7.9432 Y-22.7226
G01 X7.9432 Y-22.5992
G01 X7.9066 Y-22.5706
G01 X7.8647 Y-22.5345
G01 X7.8157 Y-22.4881
G01 X7.7693 Y-22.4391
G01 X7.7333 Y-22.3972
G01 X7.6992 Y-22.3537
G01 X7.6601 Y-22.2986
G01 X7.6242 Y-22.2415
G01 X7.5942 Y-22.1879
G01 X7.5695 Y-22.1386
G01 X7.5470 Y-22.0881
G01 X7.5225 Y-22.0252
G01 X7.5032 Y-21.9669
G01 X7.4869 Y-21.9077
G01 X7.4734 Y-21.8479
G01 X7.4629 Y-21.7874
G01 X7.4554 Y-21.7265
G01 X7.4509 Y-21.6653
G01 X7.4494 Y-21.6039
G01 X7.4494 Y-19.6008
G01 X7.4509 Y-19.5425
G01 X7.4549 Y-19.4874
G01 X7.4639 Y-19.4144
G01 X7.4734 Y-19.3599
G01 X7.4869 Y-19.3001
G01 X7.5032 Y-19.2409
G01 X7.5225 Y-19.1826
G01 X7.5446 Y-19.1254
G01 X7.5695 Y-19.0692
G01 X7.5971 Y-19.0144
G01 X7.6273 Y-18.9610
G01 X7.6601 Y-18.9092
G01 X7.6955 Y-18.8590
G01 X7.7333 Y-18.8106
G01 X7.7733 Y-18.7641
G01 X7.8157 Y-18.7197
G01 X7.8601 Y-18.6773
G01 X7.9066 Y-18.6372
G01 X7.9432 Y-18.6086
G00 Z5.0000
G00 X9.4565 Y-18.6085
G01 F80.00
G01 Z-0.0500
G01 F40.00
G01 X9.4932 Y-18.6372
G01 X9.5351 Y-18.6733
G01 X9.5797 Y-18.7154
G01 X9.6265 Y-18.7641
G01 X9.6665 Y-18.8106
G01 X9.7043 Y-18.8590
G01 X9.7430 Y-18.9143
G01 X9.7756 Y-18.9663
G01 X9.8027 Y-19.0144
G01 X9.8276 Y-19.0637
G01 X9.8552 Y-19.1254
G01 X9.8773 Y-19.1826
G01 X9.8966 Y-19.2409
G01 X9.9143 Y-19.3060
G01 X9.9275 Y-19.3660
G01 X9.9369 Y-19.4204
G01 X9.9437 Y-19.4752
G01 X9.9489 Y-19.5425
G01 X9.9504 Y-19.6039
G01 X9.9504 Y-21.6070
G01 X9.9489 Y-21.6653
G01 X9.9449 Y-21.7204
G01 X9.9369 Y-21.7874
G01 X9.9264 Y-21.8479
G01 X9.9143 Y-21.9018
G01 X9.8947 Y-21.9728
G01 X9.8773 Y-22.0252
G01 X9.8552 Y-22.0824
G01 X9.8303 Y-22.1386
G01 X9.8056 Y-22.1879
G01 X9.7725 Y-22.2468
G01 X9.7397 Y-22.2986
G01 X9.7043 Y-22.3488
G01 X9.6626 Y-22.4019
G01 X9.6265 Y-22.4437
G01 X9.5797 Y-22.4924
G01 X9.5351 Y-22.5345
G01 X9.4932 Y-22.5706
G01 X9.4565 Y-22.5993
G01 X9.4565 Y-22.7226
G01 X9.5045 Y-22.6888
G01 X9.5568 Y-22.6480
G01 X9.6070 Y-22.6047
G01 X9.6550 Y-22.5590
G01 X9.7007 Y-22.5110
G01 X9.7440 Y-22.4608
G01 X9.7848 Y-22.4085
G01 X9.8230 Y-22.3543
G01 X9.8585 Y-22.2983
G01 X9.8911 Y-22.2406
G01 X9.9209 Y-22.1814
G01 X9.9478 Y-22.1208
G01 X9.9717 Y-22.0589
G01 X9.9925 Y-21.9960
G01 X10.0101 Y-21.9321
G01 X10.0247 Y-21.8674
G01 X10.0360 Y-21.8021
G01 X10.0441 Y-21.7363
G01 X10.0490 Y-21.6702
G01 X10.0507 Y-21.6008
G01 X10.0507 Y-19.6070
G01 X10.0490 Y-19.5376
G01 X10.0441 Y-19.4715
G01 X10.0360 Y-19.4057
G01 X10.0247 Y-19.3404
G01 X10.0101 Y-19.2757
G01 X9.9925 Y-19.2118
G01 X9.9717 Y-19.1489
G01 X9.9478 Y-19.0870
G01 X9.9209 Y-19.0264
G01 X9.8911 Y-18.9672
G01 X9.8585 Y-18.9095
G01 X9.8230 Y-18.8535
G01 X9.7848 Y-18.7993
G01 X9.7440 Y-18.7470
G01 X9.7007 Y-18.6968
G01 X9.6550 Y-18.6488
G01 X9.6070 Y-18.6031
G01 X9.5568 Y-18.5598
G01 X9.5045 Y-18.5190
G01 X9.4565 Y-18.4852
G01 X9.4565 Y-18.6085
G00 Z5.0000
G00 X15.5299 Y-14.2508
G01 F80.00
G01 Z-0.0500
G01 F40.00
G01 X15.5278 Y-14.1680
G01 X15.5215 Y-14.0824
G01 X15.5110 Y-13.9971
G01 X15.4963 Y-13.9125
G01 X15.4775 Y-13.8287
G01 X15.4545 Y-13.7459
G01 X15.4276 Y-13.6643
G01 X15.3967 Y-13.5842
G01 X15.3619 Y-13.5057
G01 X15.3233 Y-13.4290
G01 X15.2809 Y-13.3542
G01 X15.2350 Y-13.2817
G01 X15.1855 Y-13.2114
G01 X15.1327 Y-13.1437
G01 X15.0766 Y-13.0787
G01 X15.0173 Y-13.0165
G01 X14.9551 Y-12.9572
G01 X14.8901 Y-12.9011
G01 X14.8224 Y-12.8483
G01 X14.7521 Y-12.7988
G01 X14.6796 Y-12.7529
G01 X14.6048 Y-12.7105
G01 X14.5281 Y-12.6719
G01 X14.4496 Y-12.6371
G01 X14.3695 Y-12.6062
G01 X14.2879 Y-12.5793
G01 X14.2051 Y-12.5563
G01 X14.1213 Y-12.5375
G01 X14.0367 Y-12.5228
G01 X13.9514 Y-12.5123
G01 X13.8658 Y-12.5060
G01 X13.7799 Y-12.5039
G01 X13.6940 Y-12.5060
G01 X13.6084 Y-12.5123
G01 X13.5231 Y-12.5228
G01 X13.4385 Y-12.5375
G01 X13.3547 Y-12.5563
G01 X13.2719 Y-12.5793
G01 X13.1903 Y-12.6062
G01 X13.1102 Y-12.6371
G01 X13.0317 Y-12.6719
G01 X12.9550 Y-12.7105
G01 X12.8802 Y-12.7529
G01 X12.8077 Y-12.7988
G01 X12.7374 Y-12.8483
G01 X12.6697 Y-12.9011
G01 X12.6047 Y-12.9572
G01 X12.5425 Y-13.0165
G01 X12.4832 Y-13.0787
G01 X12.4271 Y-13.1437
G01 X12.3743 Y-13.2114
G01 X12.3248 Y-13.2817
G01 X12.2789 Y-13.3542
G01 X12.2365 Y-13.4290
G01 X12.1979 Y-13.5057
G01 X12.1631 Y-13.5842
G01 X12.1322 Y-13.6643
G01 X12.1053 Y-13.7459
G01 X12.0823 Y-13.8287
G01 X12.0635 Y-13.9125
G01 X12.0488 Y-13.9971
G01 X12.0383 Y-14.0824
G01 X12.0320 Y-14.1680
G01 X12.0299 Y-14.2539
G01 X12.0320 Y-14.3398
G01 X12.0383 Y-14.4254
G01 X12.0488 Y-14.5107
G01 X12.0635 Y-14.5953
G01 X12.0823 Y-14.6791
G01 X12.1053 Y-14.7619
G01 X12.1322 Y-14.8435
G01 X12.1631 Y-14.9236
G01 X12.1979 Y-15.0021
G01 X12.2365 Y-15.0788
G01 X12.2789 Y-15.1536
G01 X12.3248 Y-15.2261
G01 X12.3743 Y-15.2964
G01 X12.4271 Y-15.3641
G01 X12.4832 Y-15.4291
G01 X12.5425 Y-15.4913
G01 X12.6047 Y-15.5506
G01 X12.6697 Y-15.6067
G01 X12.7374 Y-15.6595
G01 X12.8077 Y-15.7090
G01 X12.8802 Y-15.7549
G01 X12.9550 Y-15.7973
G01 X13.0317 Y-15.8359
G01 X13.1102 Y-15.8707
G01 X13.1903 Y-15.9016
G01 X13.2719 Y-15.9285
G01 X13.3547 Y-15.9515
G01 X13.4385 Y-15.9703
G01 X13.5231 Y-15.9850
G01 X13.6084 Y-15.9955
G01 X13.6940 Y-16.0018
G01 X13.7799 Y-16.0039
G01 X13.8658 Y-16.0018
G01 X13.9514 Y-15.9955
G01 X14.0367 Y-15.9850
G01 X14.1213 Y-15.9703
G01 X14.2051 Y-15.9515
G01 X14.2879 Y-15.9285
G01 X14.3695 Y-15.9016
G01 X14.4496 Y-15.8707
G01 X14.5281 Y-15.8359
G01 X14.6048 Y-15.7973
G01 X14.6796 Y-15.7549
G01 X14.7521 Y-15.7090
G01 X14.8224 Y-15.6595
G01 X14.8901 Y-15.6067
G01 X14.9551 Y-15.5506
G01 X15.0173 Y-15.4913
G01 X15.0766 Y-15.4291
G01 X15.1327 Y-15.3641
G01 X15.1855 Y-15.2964
G01 X15.2350 Y-15.2261
G01 X15.2809 Y-15.1536
G01 X15.3233 Y-15.0788
G01 X15.3619 Y-15.0021
G01 X15.3967 Y-14.9236
G01 X15.4276 Y-14.8435
G01 X15.4545 Y-14.7619
G01 X15.4775 Y-14.6791
G01 X15.4963 Y-14.5953
G01 X15.5110 Y-14.5107
G01 X15.5215 Y-14.4254
G01 X15.5278 Y-14.3398
G01 X15.5299 Y-14.2508
G00 Z5.0000
G00 X15.6298 Y-14.2539
G01 F80.00
G01 Z-0.0500
G01 F40.00
G01 X15.6276 Y-14.1631
G01 X15.6209 Y-14.0726
G01 X15.6098 Y-13.9825
G01 X15.5943 Y-13.8930
G01 X15.5744 Y-13.8044
G01 X15.5502 Y-13.7169
G01 X15.5217 Y-13.6307
G01 X15.4890 Y-13.5460
G01 X15.4522 Y-13.4630
G01 X15.4114 Y-13.3819
G01 X15.3666 Y-13.3028
G01 X15.3181 Y-13.2261
G01 X15.2658 Y-13.1519
G01 X15.2099 Y-13.0803
G01 X15.1506 Y-13.0116
G01 X15.0880 Y-12.9458
G01 X15.0222 Y-12.8832
G01 X14.9535 Y-12.8239
G01 X14.8819 Y-12.7680
G01 X14.8077 Y-12.7157
G01 X14.7310 Y-12.6672
G01 X14.6519 Y-12.6224
G01 X14.5708 Y-12.5816
G01 X14.4878 Y-12.5448
G01 X14.4031 Y-12.5121
G01 X14.3169 Y-12.4836
G01 X14.2294 Y-12.4594
G01 X14.1408 Y-12.4395
G01 X14.0513 Y-12.4240
G01 X13.9612 Y-12.4129
G01 X13.8707 Y-12.4062
G01 X13.7799 Y-12.4040
G01 X13.6891 Y-12.4062
G01 X13.5986 Y-12.4129
G01 X13.5085 Y-12.4240
G01 X13.4190 Y-12.4395
G01 X13.3304 Y-12.4594
G01 X13.2429 Y-12.4836
G01 X13.1567 Y-12.5121
G01 X13.0720 Y-12.5448
G01 X12.9890 Y-12.5816
G01 X12.9079 Y-12.6224
G01 X12.8288 Y-12.6672
G01 X12.7521 Y-12.7157
G01 X12.6779 Y-12.7680
G01 X12.6063 Y-12.8239
G01 X12.5376 Y-12.8832
G01 X12.4718 Y-12.9458
G01 X12.4092 Y-13.0116
G01 X12.3499 Y-13.0803
G01 X12.2940 Y-13.1519
G01 X12.2417 Y-13.2261
G01 X12.1932 Y-13.3028
G01 X12.1484 Y-13.3819
G01 X12.1076 Y-13.4630
G01 X12.0708 Y-13.5460
G01 X12.0381 Y-13.6307
G01 X12.0096 Y-13.7169
G01 X11.9854 Y-13.8044
G01 X11.9655 Y-13.8930
G01 X11.9500 Y-13.9825
G01 X11.9389 Y-14.0726
G01 X11.9322 Y-14.1631
G01 X11.9300 Y-14.2539
G01 X11.9322 Y-14.3447
G01 X11.9389 Y-14.4352
G01 X11.9500 Y-14.5253
G01 X11.9655 Y-14.6148
G01 X11.9854 Y-14.7034
G01 X12.0096 Y-14.7909
G01 X12.0381 Y-14.8771
G01 X12.0708 Y-14.9618
G01 X12.1076 Y-15.0448
G01 X12.1484 Y-15.1259
G01 X12.1932 Y-15.2050
G01 X12.2417 Y-15.2817
G01 X12.2940 Y-15.3559
G01 X12.3499 Y-15.4275
G01 X12.4092 Y-15.4962
G01 X12.4718 Y-15.5620
G01 X12.5376 Y-15.6246
G01 X12.6063 Y-15.6839
G01 X12.6779 Y-15.7398
G01 X12.7521 Y-15.7921
G01 X12.8288 Y-15.8406
G01 X12.9079 Y-15.8854
G01 X12.9890 Y-15.9262
G01 X13.0720 Y-15.9630
G01 X13.1567 Y-15.9957
G01 X13.2429 Y-16.0242
G01 X13.3304 Y-16.0484
G01 X13.4190 Y-16.0683
G01 X13.5085 Y-16.0838
G01 X13.5986 Y-16.0949
G01 X13.6891 Y-16.1016
G01 X13.7799 Y-16.1038
G01 X13.8707 Y-16.1016
G01 X13.9612 Y-16.0949
G01 X14.0513 Y-16.0838
G01 X14.1408 Y-16.0683
G01 X14.2294 Y-16.0484
G01 X14.3169 Y-16.0242
G01 X14.4031 Y-15.9957
G01 X14.4878 Y-15.9630
G01 X14.5708 Y-15.9262
G01 X14.6519 Y-15.8854
G01 X14.7310 Y-15.8406
G01 X14.8077 Y-15.7921
G01 X14.8819 Y-15.7398
G01 X14.9535 Y-15.6839
G01 X15.0222 Y-15.6246
G01 X15.0880 Y-15.5620
G01 X15.1506 Y-15.4962
G01 X15.2099 Y-15.4275
G01 X15.2658 Y-15.3559
G01 X15.3181 Y-15.2817
G01 X15.3666 Y-15.2050
G01 X15.4114 Y-15.1259
G01 X15.4522 Y-15.0448
G01 X15.4890 Y-14.9618
G01 X15.5217 Y-14.8771
G01 X15.5502 Y-14.7909
G01 X15.5744 Y-14.7034
G01 X15.5943 Y-14.6148
G01 X15.6098 Y-14.5253
G01 X15.6209 Y-14.4352
G01 X15.6276 Y-14.3447
G01 X15.6298 Y-14.2539
G00 Z5.0000
G00 X20.6099 Y-14.2508
G01 F80.00
G01 Z-0.0500
G01 F40.00
G01 X20.6078 Y-14.1680
G01 X20.6015 Y-14.0824
G01 X20.5910 Y-13.9971
G01 X20.5763 Y-13.9125
G01 X20.5575 Y-13.8287
G01 X20.5345 Y-13.7459
G01 X20.5076 Y-13.6643
G01 X20.4767 Y-13.5842
G01 X20.4419 Y-13.5057
G01 X20.4033 Y-13.4290
G01 X20.3609 Y-13.3542
G01 X20.3150 Y-13.2817
G01 X20.2655 Y-13.2114
G01 X20.2127 Y-13.1437
G01 X20.1566 Y-13.0787
G01 X20.0973 Y-13.0165
G01 X20.0351 Y-12.9572
G01 X19.9701 Y-12.9011
G01 X19.9024 Y-12.8483
G01 X19.8321 Y-12.7988
G01 X19.7596 Y-12.7529
G01 X19.6848 Y-12.7105
G01 X19.6081 Y-12.6719
G01 X19.5296 Y-12.6371
G01 X19.4495 Y-12.6062
G01 X19.3679 Y-12.5793
G01 X19.2851 Y-12.5563
G01 X19.2013 Y-12.5375
G01 X19.1167 Y-12.5228
G01 X19.0314 Y-12.5123
G01 X18.9458 Y-12.5060
G01 X18.8599 Y-12.5039
G01 X18.7740 Y-12.5060
G01 X18.6884 Y-12.5123
G01 X18.6031 Y-12.5228
G01 X18.5185 Y-12.5375
G01 X18.4347 Y-12.5563
G01 X18.3519 Y-12.5793
G01 X18.2703 Y-12.6062
G01 X18.1902 Y-12.6371
G01 X18.1117 Y-12.6719
G01 X18.0350 Y-12.7105
G01 X17.9602 Y-12.7529
G01 X17.8877 Y-12.7988
G01 X17.8174 Y-12.8483
G01 X17.7497 Y-12.9011
G01 X17.6847 Y-12.9572
G01 X17.6225 Y-13.0165
G01 X17.5632 Y-13.0787
G01 X17.5071 Y-13.1437
G01 X17.4543 Y-13.2114
G01 X17.4048 Y-13.2817
G01 X17.3589 Y-13.3542
G01 X17.3165 Y-13.4290
G01 X17.2779 Y-13.5057
G01 X17.2431 Y-13.5842
G01 X17.2122 Y-13.6643
G01 X17.1853 Y-13.7459
G01 X17.1623 Y-13.8287
G01 X17.1435 Y-13.9125
G01 X17.1288 Y-13.9971
G01 X17.1183 Y-14.0824
G01 X17.1120 Y-14.1680
G01 X17.1099 Y-14.2539
G01 X17.1120 Y-14.3398
G01 X17.1183 Y-14.4254
G01 X17.1288 Y-14.5107
G01 X17.1435 Y-14.5953
G01 X17.1623 Y-14.6791
G01 X17.1853 Y-14.7619
G01 X17.2122 Y-14.8435
G01 X17.2431 Y-14.9236
G01 X17.2779 Y-15.0021
G01 X17.3165 Y-15.0788
G01 X17.3589 Y-15.1536
G01 X17.4048 Y-15.2261
G01 X17.4543 Y-15.2964
G01 X17.5071 Y-15.3641
G01 X17.5632 Y-15.4291
G01 X17.6225 Y-15.4913
G01 X17.6847 Y-15.5506
G01 X17.7497 Y-15.6067
G01 X17.8174 Y-15.6595
G01 X17.8877 Y-15.7090
G01 X17.9602 Y-15.7549
G01 X18.0350 Y-15.7973
G01 X18.1117 Y-15.8359
G01 X18.1902 Y-15.8707
G01 X18.2703 Y-15.9016
G01 X18.3519 Y-15.9285
G01 X18.4347 Y-15.9515
G01 X18.5185 Y-15.9703
G01 X18.6031 Y-15.9850
G01 X18.6884 Y-15.9955
G01 X18.7740 Y-16.0018
G01 X18.8599 Y-16.0039
G01 X18.9458 Y-16.0018
G01 X19.0314 Y-15.9955
G01 X19.1167 Y-15.9850
G01 X19.2013 Y-15.9703
G01 X19.2851 Y-15.9515
G01 X19.3679 Y-15.9285
G01 X19.4495 Y-15.9016
G01 X19.5296 Y-15.8707
G01 X19.6081 Y-15.8359
G01 X19.6848 Y-15.7973
G01 X19.7596 Y-15.7549
G01 X19.8321 Y-15.7090
G01 X19.9024 Y-15.6595
G01 X19.9701 Y-15.6067
G01 X20.0351 Y-15.5506
G01 X20.0973 Y-15.4913
G01 X20.1566 Y-15.4291
G01 X20.2127 Y-15.3641
G01 X20.2655 Y-15.2964
G01 X20.3150 Y-15.2261
G01 X20.3609 Y-15.1536
G01 X20.4033 Y-15.0788
G01 X20.4419 Y-15.0021
G01 X20.4767 Y-14.9236
G01 X20.5076 Y-14.8435
G01 X20.5345 Y-14.7619
G01 X20.5575 Y-14.6791
G01 X20.5763 Y-14.5953
G01 X20.5910 Y-14.5107
G01 X20.6015 Y-14.4254
G01 X20.6078 Y-14.3398
G01 X20.6099 Y-14.2508
G00 Z5.0000
G00 X20.7098 Y-14.2539
G01 F80.00
G01 Z-0.0500
G01 F40.00
G01 X20.7076 Y-14.1631
G01 X20.7009 Y-14.0726
G01 X20.6898 Y-13.9825
G01 X20.6743 Y-13.8930
G01 X20.6544 Y-13.8044
G01 X20.6302 Y-13.7169
G01 X20.6017 Y-13.6307
G01 X20.5690 Y-13.5460
G01 X20.5322 Y-13.4630
G01 X20.4914 Y-13.3819
G01 X20.4466 Y-13.3028
G01 X20.3981 Y-13.2261
G01 X20.3458 Y-13.1519
G01 X20.2899 Y-13.0803
G01 X20.2306 Y-13.0116
G01 X20.1680 Y-12.9458
G01 X20.1022 Y-12.8832
G01 X20.0335 Y-12.8239
G01 X19.9619 Y-12.7680
G01 X19.8877 Y-12.7157
G01 X19.8110 Y-12.6672
G01 X19.7319 Y-12.6224
G01 X19.6508 Y-12.5816
G01 X19.5678 Y-12.5448
G01 X19.4831 Y-12.5121
G01 X19.3969 Y-12.4836
G01 X19.3094 Y-12.4594
G01 X19.2208 Y-12.4395
G01 X19.1313 Y-12.4240
G01 X19.0412 Y-12.4129
G01 X18.9507 Y-12.4062
G01 X18.8599 Y-12.4040
G01 X18.7691 Y-12.4062
G01 X18.6786 Y-12.4129
G01 X18.5885 Y-12.4240
G01 X18.4990 Y-12.4395
G01 X18.4104 Y-12.4594
G01 X18.3229 Y-12.4836
G01 X18.2367 Y-12.5121
G01 X18.1520 Y-12.5448
G01 X18.0690 Y-12.5816
G01 X17.9879 Y-12.6224
G01 X17.9088 Y-12.6672
G01 X17.8321 Y-12.7157
G01 X17.7579 Y-12.7680
G01 X17.6863 Y-12.8239
G01 X17.6176 Y-12.8832
G01 X17.5518 Y-12.9458
G01 X17.4892 Y-13.0116
G01 X17.4299 Y-13.0803
G01 X17.3740 Y-13.1519
G01 X17.3217 Y-13.2261
G01 X17.2732 Y-13.3028
G01 X17.2284 Y-13.3819
G01 X17.1876 Y-13.4630
G01 X17.1508 Y-13.5460
G01 X17.1181 Y-13.6307
G01 X17.0896 Y-13.7169
G01 X17.0654 Y-13.8044
G01 X17.0455 Y-13.8930
G01 X17.0300 Y-13.9825
G01 X17.0189 Y-14.0726
G01 X17.0122 Y-14.1631
G01 X17.0100 Y-14.2539
G01 X17.0122 Y-14.3447
G01 X17.0189 Y-14.4352
G01 X17.0300 Y-14.5253
G01 X17.0455 Y-14.6148
G01 X17.0654 Y-14.7034
G01 X17.0896 Y-14.7909
G01 X17.1181 Y-14.8771
G01 X17.1508 Y-14.9618
G01 X17.1876 Y-15.0448
G01 X17.2284 Y-15.1259
G01 X17.2732 Y-15.2050
G01 X17.3217 Y-15.2817
G01 X17.3740 Y-15.3559
G01 X17.4299 Y-15.4275
G01 X17.4892 Y-15.4962
G01 X17.5518 Y-15.5620
G01 X17.6176 Y-15.6246
G01 X17.6863 Y-15.6839
G01 X17.7579 Y-15.7398
G01 X17.8321 Y-15.7921
G01 X17.9088 Y-15.8406
G01 X17.9879 Y-15.8854
G01 X18.0690 Y-15.9262
G01 X18.1520 Y-15.9630
G01 X18.2367 Y-15.9957
G01 X18.3229 Y-16.0242
G01 X18.4104 Y-16.0484
G01 X18.4990 Y-16.0683
G01 X18.5885 Y-16.0838
G01 X18.6786 Y-16.0949
G01 X18.7691 Y-16.1016
G01 X18.8599 Y-16.1038
G01 X18.9507 Y-16.1016
G01 X19.0412 Y-16.0949
G01 X19.1313 Y-16.0838
G01 X19.2208 Y-16.0683
G01 X19.3094 Y-16.0484
G01 X19.3969 Y-16.0242
G01 X19.4831 Y-15.9957
G01 X19.5678 Y-15.9630
G01 X19.6508 Y-15.9262
G01 X19.7319 Y-15.8854
G01 X19.8110 Y-15.8406
G01 X19.8877 Y-15.7921
G01 X19.9619 Y-15.7398
G01 X20.0335 Y-15.6839
G01 X20.1022 Y-15.6246
G01 X20.1680 Y-15.5620
G01 X20.2306 Y-15.4962
G01 X20.2899 Y-15.4275
G01 X20.3458 Y-15.3559
G01 X20.3981 Y-15.2817
G01 X20.4466 Y-15.2050
G01 X20.4914 Y-15.1259
G01 X20.5322 Y-15.0448
G01 X20.5690 Y-14.9618
G01 X20.6017 Y-14.8771
G01 X20.6302 Y-14.7909
G01 X20.6544 Y-14.7034
G01 X20.6743 Y-14.6148
G01 X20.6898 Y-14.5253
G01 X20.7009 Y-14.4352
G01 X20.7076 Y-14.3447
G01 X20.7098 Y-14.2539
G00 Z5.0000
G00 X25.6899 Y-14.2508
G01 F80.00
G01 Z-0.0500
G01 F40.00
G01 X25.6878 Y-14.1680
G01 X25.6815 Y-14.0824
G01 X25.6710 Y-13.9971
G01 X25.6563 Y-13.9125
G01 X25.6375 Y-13.8287
G01 X25.6145 Y-13.7459
G01 X25.5876 Y-13.6643
G01 X25.5567 Y-13.5842
G01 X25.5219 Y-13.5057
G01 X25.4833 Y-13.4290
G01 X25.4409 Y-13.3542
G01 X25.3950 Y-13.2817
G01 X25.3455 Y-13.2114
G01 X25.2927 Y-13.1437
G01 X25.2366 Y-13.0787
G01 X25.1773 Y-13.0165
G01 X25.1151 Y-12.9572
G01 X25.0501 Y-12.9011
G01 X24.9824 Y-12.8483
G01 X24.9121 Y-12.7988
G01 X24.8396 Y-12.7529
G01 X24.7648 Y-12.7105
G01 X24.6881 Y-12.6719
G01 X24.6096 Y-12.6371
G01 X24.5295 Y-12.6062
G01 X24.4479 Y-12.5793
G01 X24.3651 Y-12.5563
G01 X24.2813 Y-12.5375
G01 X24.1967 Y-12.5228
G01 X24.1114 Y-12.5123
G01 X24.0258 Y-12.5060
G01 X23.9399 Y-12.5039
G01 X23.8540 Y-12.5060
G01 X23.7684 Y-12.5123
G01 X23.6831 Y-12.5228
G01 X23.5985 Y-12.5375
G01 X23.5147 Y-12.5563
G01 X23.4319 Y-12.5793
G01 X23.3503 Y-12.6062
G01 X23.2702 Y-12.6371
G01 X23.1917 Y-12.6719
G01 X23.1150 Y-12.7105
G01 X23.0402 Y-12.7529
G01 X22.9677 Y-12.7988
G01 X22.8974 Y-12.8483
G01 X22.8297 Y-12.9011
G01 X22.7647 Y-12.9572
G01 X22.7025 Y-13.0165
G01 X22.6432 Y-13.0787
G01 X22.5871 Y-13.1437
G01 X22.5343 Y-13.2114
G01 X22.4848 Y-13.2817
G01 X22.4389 Y-13.3542
G01 X22.3965 Y-13.4290
G01 X22.3579 Y-13.5057
G01 X22.3231 Y-13.5842
G01 X22.2922 Y-13.6643
G01 X22.2653 Y-13.7459
G01 X22.2423 Y-13.8287
G01 X22.2235 Y-13.9125
G01 X22.2088 Y-13.9971
G01 X22.1983 Y-14.0824
G01 X22.1920 Y-14.1680
G01 X22.1899 Y-14.2539
G01 X22.1920 Y-14.3398
G01 X22.1983 Y-14.4254
G01 X22.2088 Y-14.5107
G01 X22.2235 Y-14.5953
G01 X22.2423 Y-14.6791
G01 X22.2653 Y-14.7619
G01 X22.2922 Y-14.8435
G01 X22.3231 Y-14.9236
G01 X22.3579 Y-15.0021
G01 X22.3965 Y-15.0788
G01 X22.4389 Y-15.1536
G01 X22.4848 Y-15.2261
G01 X22.5343 Y-15.2964
G01 X22.5871 Y-15.3641
G01 X22.6432 Y-15.4291
G01 X22.7025 Y-15.4913
G01 X22.7647 Y-15.5506
G01 X22.8297 Y-15.6067
G01 X22.8974 Y-15.6595
G01 X22.9677 Y-15.7090
G01 X23.0402 Y-15.7549
G01 X23.1150 Y-15.7973
G01 X23.1917 Y-15.8359
G01 X23.2702 Y-15.8707
G01 X23.3503 Y-15.9016
G01 X23.4319 Y-15.9285
G01 X23.5147 Y-15.9515
G01 X23.5985 Y-15.9703
G01 X23.6831 Y-15.9850
G01 X23.7684 Y-15.9955
G01 X23.8540 Y-16.0018
G01 X23.9399 Y-16.0039
G01 X24.0258 Y-16.0018
G01 X24.1114 Y-15.9955
G01 X24.1967 Y-15.9850
G01 X24.2813 Y-15.9703
G01 X24.3651 Y-15.9515
G01 X24.4479 Y-15.9285
G01 X24.5295 Y-15.9016
G01 X24.6096 Y-15.8707
G01 X24.6881 Y-15.8359
G01 X24.7648 Y-15.7973
G01 X24.8396 Y-15.7549
G01 X24.9121 Y-15.7090
G01 X24.9824 Y-15.6595
G01 X25.0501 Y-15.6067
G01 X25.1151 Y-15.5506
G01 X25.1773 Y-15.4913
G01 X25.2366 Y-15.4291
G01 X25.2927 Y-15.3641
G01 X25.3455 Y-15.2964
G01 X25.3950 Y-15.2261
G01 X25.4409 Y-15.1536
G01 X25.4833 Y-15.0788
G01 X25.5219 Y-15.0021
G01 X25.5567 Y-14.9236
G01 X25.5876 Y-14.8435
G01 X25.6145 Y-14.7619
G01 X25.6375 Y-14.6791
G01 X25.6563 Y-14.5953
G01 X25.6710 Y-14.5107
G01 X25.6815 Y-14.4254
G01 X25.6878 Y-14.3398
G01 X25.6899 Y-14.2508
G00 Z5.0000
G00 X25.7898 Y-14.2539
G01 F80.00
G01 Z-0.0500
G01 F40.00
G01 X25.7876 Y-14.1631
G01 X25.7809 Y-14.0726
G01 X25.7698 Y-13.9825
G01 X25.7543 Y-13.8930
G01 X25.7344 Y-13.8044
G01 X25.7102 Y-13.7169
G01 X25.6817 Y-13.6307
G01 X25.6490 Y-13.5460
G01 X25.6122 Y-13.4630
G01 X25.5714 Y-13.3819
G01 X25.5266 Y-13.3028
G01 X25.4781 Y-13.2261
G01 X25.4258 Y-13.1519
G01 X25.3699 Y-13.0803
G01 X25.3106 Y-13.0116
G01 X25.2480 Y-12.9458
G01 X25.1822 Y-12.8832
G01 X25.1135 Y-12.8239
G01 X25.0419 Y-12.7680
G01 X24.9677 Y-12.7157
G01 X24.8910 Y-12.6672
G01 X24.8119 Y-12.6224
G01 X24.7308 Y-12.5816
G01 X24.6478 Y-12.5448
G01 X24.5631 Y-12.5121
G01 X24.4769 Y-12.4836
G01 X24.3894 Y-12.4594
G01 X24.3008 Y-12.4395
G01 X24.2113 Y-12.4240
G01 X24.1212 Y-12.4129
G01 X24.0307 Y-12.4062
G01 X23.9399 Y-12.4040
G01 X23.8491 Y-12.4062
G01 X23.7586 Y-12.4129
G01 X23.6685 Y-12.4240
G01 X23.5790 Y-12.4395
G01 X23.4904 Y-12.4594
G01 X23.4029 Y-12.4836
G01 X23.3167 Y-12.5121
G01 X23.2320 Y-12.5448
G01 X23.1490 Y-12.5816
G01 X23.0679 Y-12.6224
G01 X22.9888 Y-12.6672
G01 X22.9121 Y-12.7157
G01 X22.8379 Y-12.7680
G01 X22.7663 Y-12.8239
G01 X22.6976 Y-12.8832
G01 X22.6318 Y-12.9458
G01 X22.5692 Y-13.0116
G01 X22.5099 Y-13.0803
G01 X22.4540 Y-13.1519
G01 X22.4017 Y-13.2261
G01 X22.3532 Y-13.3028
G01 X22.3084 Y-13.3819
G01 X22.2676 Y-13.4630
G01 X22.2308 Y-13.5460
G01 X22.1981 Y-13.6307
G01 X22.1696 Y-13.7169
G01 X22.1454 Y-13.8044
G01 X22.1255 Y-13.8930
G01 X22.1100 Y-13.9825
G01 X22.0989 Y-14.0726
G01 X22.0922 Y-14.1631
G01 X22.0900 Y-14.2539
G01 X22.0922 Y-14.3447
G01 X22.0989 Y-14.4352
G01 X22.1100 Y-14.5253
G01 X22.1255 Y-14.6148
G01 X22.1454 Y-14.7034
G01 X22.1696 Y-14.7909
G01 X22.1981 Y-14.8771
G01 X22.2308 Y-14.9618
G01 X22.2676 Y-15.0448
G01 X22.3084 Y-15.1259
G01 X22.3532 Y-15.2050
G01 X22.4017 Y-15.2817
G01 X22.4540 Y-15.3559
G01 X22.5099 Y-15.4275
G01 X22.5692 Y-15.4962
G01 X22.6318 Y-15.5620
G01 X22.6976 Y-15.6246
G01 X22.7663 Y-15.6839
G01 X22.8379 Y-15.7398
G01 X22.9121 Y-15.7921
G01 X22.9888 Y-15.8406
G01 X23.0679 Y-15.8854
G01 X23.1490 Y-15.9262
G01 X23.2320 Y-15.9630
G01 X23.3167 Y-15.9957
G01 X23.4029 Y-16.0242
G01 X23.4904 Y-16.0484
G01 X23.5790 Y-16.0683
G01 X23.6685 Y-16.0838
G01 X23.7586 Y-16.0949
G01 X23.8491 Y-16.1016
G01 X23.9399 Y-16.1038
G01 X24.0307 Y-16.1016
G01 X24.1212 Y-16.0949
G01 X24.2113 Y-16.0838
G01 X24.3008 Y-16.0683
G01 X24.3894 Y-16.0484
G01 X24.4769 Y-16.0242
G01 X24.5631 Y-15.9957
G01 X24.6478 Y-15.9630
G01 X24.7308 Y-15.9262
G01 X24.8119 Y-15.8854
G01 X24.8910 Y-15.8406
G01 X24.9677 Y-15.7921
G01 X25.0419 Y-15.7398
G01 X25.1135 Y-15.6839
G01 X25.1822 Y-15.6246
G01 X25.2480 Y-15.5620
G01 X25.3106 Y-15.4962
G01 X25.3699 Y-15.4275
G01 X25.4258 Y-15.3559
G01 X25.4781 Y-15.2817
G01 X25.5266 Y-15.2050
G01 X25.5714 Y-15.1259
G01 X25.6122 Y-15.0448
G01 X25.6490 Y-14.9618
G01 X25.6817 Y-14.8771
G01 X25.7102 Y-14.7909
G01 X25.7344 Y-14.7034
G01 X25.7543 Y-14.6148
G01 X25.7698 Y-14.5253
G01 X25.7809 Y-14.4352
G01 X25.7876 Y-14.3447
G01 X25.7898 Y-14.2539
G00 Z5.0000
G00 X30.7699 Y-14.2508
G01 F80.00
G01 Z-0.0500
G01 F40.00
G01 X30.7678 Y-14.1680
G01 X30.7615 Y-14.0824
G01 X30.7510 Y-13.9971
G01 X30.7363 Y-13.9125
G01 X30.7175 Y-13.8287
G01 X30.6945 Y-13.7459
G01 X30.6676 Y-13.6643
G01 X30.6367 Y-13.5842
G01 X30.6019 Y-13.5057
G01 X30.5633 Y-13.4290
G01 X30.5209 Y-13.3542
G01 X30.4750 Y-13.2817
G01 X30.4255 Y-13.2114
G01 X30.3727 Y-13.1437
G01 X30.3166 Y-13.0787
G01 X30.2573 Y-13.0165
G01 X30.1951 Y-12.9572
G01 X30.1301 Y-12.9011
G01 X30.0624 Y-12.8483
G01 X29.9921 Y-12.7988
G01 X29.9196 Y-12.7529
G01 X29.8448 Y-12.7105
G01 X29.7681 Y-12.6719
G01 X29.6896 Y-12.6371
G01 X29.6095 Y-12.6062
G01 X29.5279 Y-12.5793
G01 X29.4451 Y-12.5563
G01 X29.3613 Y-12.5375
G01 X29.2767 Y-12.5228
G01 X29.1914 Y-12.5123
G01 X29.1058 Y-12.5060
G01 X29.0199 Y-12.5039
G01 X28.9340 Y-12.5060
G01 X28.8484 Y-12.5123
G01 X28.7631 Y-12.5228
G01 X28.6785 Y-12.5375
G01 X28.5947 Y-12.5563
G01 X28.5119 Y-12.5793
G01 X28.4303 Y-12.6062
G01 X28.3502 Y-12.6371
G01 X28.2717 Y-12.6719
G01 X28.1950 Y-12.7105
G01 X28.1202 Y-12.7529
G01 X28.0477 Y-12.7988
G01 X27.9774 Y-12.8483
G01 X27.9097 Y-12.9011
G01 X27.8447 Y-12.9572
G01 X27.7825 Y-13.0165
G01 X27.7232 Y-13.0787
G01 X27.6671 Y-13.1437
G01 X27.6143 Y-13.2114
G01 X27.5648 Y-13.2817
G01 X27.5189 Y-13.3542
G01 X27.4765 Y-13.4290
G01 X27.4379 Y-13.5057
G01 X27.4031 Y-13.5842
G01 X27.3722 Y-13.6643
G01 X27.3453 Y-13.7459
G01 X27.3223 Y-13.8287
G01 X27.3035 Y-13.9125
G01 X27.2888 Y-13.9971
G01 X27.2783 Y-14.0824
G01 X27.2720 Y-14.1680
G01 X27.2699 Y-14.2539
G01 X27.2720 Y-14.3398
G01 X27.2783 Y-14.4254
G01 X27.2888 Y-14.5107
G01 X27.3035 Y-14.5953
G01 X27.3223 Y-14.6791
G01 X27.3453 Y-14.7619
G01 X27.3722 Y-14.8435
G01 X27.4031 Y-14.9236
G01 X27.4379 Y-15.0021
G01 X27.4765 Y-15.0788
G01 X27.5189 Y-15.1536
G01 X27.5648 Y-15.2261
G01 X27.6143 Y-15.2964
G01 X27.6671 Y-15.3641
G01 X27.7232 Y-15.4291
G01 X27.7825 Y-15.4913
G01 X27.8447 Y-15.5506
G01 X27.9097 Y-15.6067
G01 X27.9774 Y-15.6595
G01 X28.0477 Y-15.7090
G01 X28.1202 Y-15.7549
G01 X28.1950 Y-15.7973
G01 X28.2717 Y-15.8359
G01 X28.3502 Y-15.8707
G01 X28.4303 Y-15.9016
G01 X28.5119 Y-15.9285
G01 X28.5947 Y-15.9515
G01 X28.6785 Y-15.9703
G01 X28.7631 Y-15.9850
G01 X28.8484 Y-15.9955
G01 X28.9340 Y-16.0018
G01 X29.0199 Y-16.0039
G01 X29.1058 Y-16.0018
G01 X29.1914 Y-15.9955
G01 X29.2767 Y-15.9850
G01 X29.3613 Y-15.9703
G01 X29.4451 Y-15.9515
G01 X29.5279 Y-15.9285
G01 X29.6095 Y-15.9016
G01 X29.6896 Y-15.8707
G01 X29.7681 Y-15.8359
G01 X29.8448 Y-15.7973
G01 X29.9196 Y-15.7549
G01 X29.9921 Y-15.7090
G01 X30.0624 Y-15.6595
G01 X30.1301 Y-15.6067
G01 X30.1951 Y-15.5506
G01 X30.2573 Y-15.4913
G01 X30.3166 Y-15.4291
G01 X30.3727 Y-15.3641
G01 X30.4255 Y-15.2964
G01 X30.4750 Y-15.2261
G01 X30.5209 Y-15.1536
G01 X30.5633 Y-15.0788
G01 X30.6019 Y-15.0021
G01 X30.6367 Y-14.9236
G01 X30.6676 Y-14.8435
G01 X30.6945 Y-14.7619
G01 X30.7175 Y-14.6791
G01 X30.7363 Y-14.5953
G01 X30.7510 Y-14.5107
G01 X30.7615 Y-14.4254
G01 X30.7678 Y-14.3398
G01 X30.7699 Y-14.2508
G00 Z5.0000
G00 X30.8698 Y-14.2539
G01 F80.00
G01 Z-0.0500
G01 F40.00
G01 X30.8676 Y-14.1631
G01 X30.8609 Y-14.0726
G01 X30.8498 Y-13.9825
G01 X30.8343 Y-13.8930
G01 X30.8144 Y-13.8044
G01 X30.7902 Y-13.7169
G01 X30.7617 Y-13.6307
G01 X30.7290 Y-13.5460
G01 X30.6922 Y-13.4630
G01 X30.6514 Y-13.3819
G01 X30.6066 Y-13.3028
G01 X30.5581 Y-13.2261
G01 X30.5058 Y-13.1519
G01 X30.4499 Y-13.0803
G01 X30.3906 Y-13.0116
G01 X30.3280 Y-12.9458
G01 X30.2622 Y-12.8832
G01 X30.1935 Y-12.8239
G01 X30.1219 Y-12.7680
G01 X30.0477 Y-12.7157
G01 X29.9710 Y-12.6672
G01 X29.8919 Y-12.6224
G01 X29.8108 Y-12.5816
G01 X29.7278 Y-12.5448
G01 X29.6431 Y-12.5121
G01 X29.5569 Y-12.4836
G01 X29.4694 Y-12.4594
G01 X29.3808 Y-12.4395
G01 X29.2913 Y-12.4240
G01 X29.2012 Y-12.4129
G01 X29.1107 Y-12.4062
G01 X29.0199 Y-12.4040
G01 X28.9291 Y-12.4062
G01 X28.8386 Y-12.4129
G01 X28.7485 Y-12.4240
G01 X28.6590 Y-12.4395
G01 X28.5704 Y-12.4594
G01 X28.4829 Y-12.4836
G01 X28.3967 Y-12.5121
G01 X28.3120 Y-12.5448
G01 X28.2290 Y-12.5816
G01 X28.1479 Y-12.6224
G01 X28.0688 Y-12.6672
G01 X27.9921 Y-12.7157
G01 X27.9179 Y-12.7680
G01 X27.8463 Y-12.8239
G01 X27.7776 Y-12.8832
G01 X27.7118 Y-12.9458
G01 X27.6492 Y-13.0116
G01 X27.5899 Y-13.0803
G01 X27.5340 Y-13.1519
G01 X27.4817 Y-13.2261
G01 X27.4332 Y-13.3028
G01 X27.3884 Y-13.3819
G01 X27.3476 Y-13.4630
G01 X27.3108 Y-13.5460
G01 X27.2781 Y-13.6307
G01 X27.2496 Y-13.7169
G01 X27.2254 Y-13.8044
G01 X27.2055 Y-13.8930
G01 X27.1900 Y-13.9825
G01 X27.1789 Y-14.0726
G01 X27.1722 Y-14.1631
G01 X27.1700 Y-14.2539
G01 X27.1722 Y-14.3447
G01 X27.1789 Y-14.4352
G01 X27.1900 Y-14.5253
G01 X27.2055 Y-14.6148
G01 X27.2254 Y-14.7034
G01 X27.2496 Y-14.7909
G01 X27.2781 Y-14.8771
G01 X27.3108 Y-14.9618
G01 X27.3476 Y-15.0448
G01 X27.3884 Y-15.1259
G01 X27.4332 Y-15.2050
G01 X27.4817 Y-15.2817
G01 X27.5340 Y-15.3559
G01 X27.5899 Y-15.4275
G01 X27.6492 Y-15.4962
G01 X27.7118 Y-15.5620
G01 X27.7776 Y-15.6246
G01 X27.8463 Y-15.6839
G01 X27.9179 Y-15.7398
G01 X27.9921 Y-15.7921
G01 X28.0688 Y-15.8406
G01 X28.1479 Y-15.8854
G01 X28.2290 Y-15.9262
G01 X28.3120 Y-15.9630
G01 X28.3967 Y-15.9957
G01 X28.4829 Y-16.0242
G01 X28.5704 Y-16.0484
G01 X28.6590 Y-16.0683
G01 X28.7485 Y-16.0838
G01 X28.8386 Y-16.0949
G01 X28.9291 Y-16.1016
G01 X29.0199 Y-16.1038
G01 X29.1107 Y-16.1016
G01 X29.2012 Y-16.0949
G01 X29.2913 Y-16.0838
G01 X29.3808 Y-16.0683
G01 X29.4694 Y-16.0484
G01 X29.5569 Y-16.0242
G01 X29.6431 Y-15.9957
G01 X29.7278 Y-15.9630
G01 X29.8108 Y-15.9262
G01 X29.8919 Y-15.8854
G01 X29.9710 Y-15.8406
G01 X30.0477 Y-15.7921
G01 X30.1219 Y-15.7398
G01 X30.1935 Y-15.6839
G01 X30.2622 Y-15.6246
G01 X30.3280 Y-15.5620
G01 X30.3906 Y-15.4962
G01 X30.4499 Y-15.4275
G01 X30.5058 Y-15.3559
G01 X30.5581 Y-15.2817
G01 X30.6066 Y-15.2050
G01 X30.6514 Y-15.1259
G01 X30.6922 Y-15.0448
G01 X30.7290 Y-14.9618
G01 X30.7617 Y-14.8771
G01 X30.7902 Y-14.7909
G01 X30.8144 Y-14.7034
G01 X30.8343 Y-14.6148
G01 X30.8498 Y-14.5253
G01 X30.8609 Y-14.4352
G01 X30.8676 Y-14.3447
G01 X30.8698 Y-14.2539
G00 Z5.0000
G00 X35.8499 Y-14.2508
G01 F80.00
G01 Z-0.0500
G01 F40.00
G01 X35.8478 Y-14.1680
G01 X35.8415 Y-14.0824
G01 X35.8310 Y-13.9971
G01 X35.8163 Y-13.9125
G01 X35.7975 Y-13.8287
G01 X35.7745 Y-13.7459
G01 X35.7476 Y-13.6643
G01 X35.7167 Y-13.5842
G01 X35.6819 Y-13.5057
G01 X35.6433 Y-13.4290
G01 X35.6009 Y-13.3542
G01 X35.5550 Y-13.2817
G01 X35.5055 Y-13.2114
G01 X35.4527 Y-13.1437
G01 X35.3966 Y-13.0787
G01 X35.3373 Y-13.0165
G01 X35.2751 Y-12.9572
G01 X35.2101 Y-12.9011
G01 X35.1424 Y-12.8483
G01 X35.0721 Y-12.7988
G01 X34.9996 Y-12.7529
G01 X34.9248 Y-12.7105
G01 X34.8481 Y-12.6719
G01 X34.7696 Y-12.6371
G01 X34.6895 Y-12.6062
G01 X34.6079 Y-12.5793
G01 X34.5251 Y-12.5563
G01 X34.4413 Y-12.5375
G01 X34.3567 Y-12.5228
G01 X34.2714 Y-12.5123
G01 X34.1858 Y-12.5060
G01 X34.0999 Y-12.5039
G01 X34.0140 Y-12.5060
G01 X33.9284 Y-12.5123
G01 X33.8431 Y-12.5228
G01 X33.7585 Y-12.5375
G01 X33.6747 Y-12.5563
G01 X33.5919 Y-12.5793
G01 X33.5103 Y-12.6062
G01 X33.4302 Y-12.6371
G01 X33.3517 Y-12.6719
G01 X33.2750 Y-12.7105
G01 X33.2002 Y-12.7529
G01 X33.1277 Y-12.7988
G01 X33.0574 Y-12.8483
G01 X32.9897 Y-12.9011
G01 X32.9247 Y-12.9572
G01 X32.8625 Y-13.0165
G01 X32.8032 Y-13.0787
G01 X32.7471 Y-13.1437
G01 X32.6943 Y-13.2114
G01 X32.6448 Y-13.2817
G01 X32.5989 Y-13.3542
G01 X32.5565 Y-13.4290
G01 X32.5179 Y-13.5057
G01 X32.4831 Y-13.5842
G01 X32.4522 Y-13.6643
G01 X32.4253 Y-13.7459
G01 X32.4023 Y-13.8287
G01 X32.3835 Y-13.9125
G01 X32.3688 Y-13.9971
G01 X32.3583 Y-14.0824
G01 X32.3520 Y-14.1680
G01 X32.3499 Y-14.2539
G01 X32.3520 Y-14.3398
G01 X32.3583 Y-14.4254
G01 X32.3688 Y-14.5107
G01 X32.3835 Y-14.5953
G01 X32.4023 Y-14.6791
G01 X32.4253 Y-14.7619
G01 X32.4522 Y-14.8435
G01 X32.4831 Y-14.9236
G01 X32.5179 Y-15.0021
G01 X32.5565 Y-15.0788
G01 X32.5989 Y-15.1536
G01 X32.6448 Y-15.2261
G01 X32.6943 Y-15.2964
G01 X32.7471 Y-15.3641
G01 X32.8032 Y-15.4291
G01 X32.8625 Y-15.4913
G01 X32.9247 Y-15.5506
G01 X32.9897 Y-15.6067
G01 X33.0574 Y-15.6595
G01 X33.1277 Y-15.7090
G01 X33.2002 Y-15.7549
G01 X33.2750 Y-15.7973
G01 X33.3517 Y-15.8359
G01 X33.4302 Y-15.8707
G01 X33.5103 Y-15.9016
G01 X33.5919 Y-15.9285
G01 X33.6747 Y-15.9515
G01 X33.7585 Y-15.9703
G01 X33.8431 Y-15.9850
G01 X33.9284 Y-15.9955
G01 X34.0140 Y-16.0018
G01 X34.0999 Y-16.0039
G01 X34.1858 Y-16.0018
G01 X34.2714 Y-15.9955
G01 X34.3567 Y-15.9850
G01 X34.4413 Y-15.9703
G01 X34.5251 Y-15.9515
G01 X34.6079 Y-15.9285
G01 X34.6895 Y-15.9016
G01 X34.7696 Y-15.8707
G01 X34.8481 Y-15.8359
G01 X34.9248 Y-15.7973
G01 X34.9996 Y-15.7549
G01 X35.0721 Y-15.7090
G01 X35.1424 Y-15.6595
G01 X35.2101 Y-15.6067
G01 X35.2751 Y-15.5506
G01 X35.3373 Y-15.4913
G01 X35.3966 Y-15.4291
G01 X35.4527 Y-15.3641
G01 X35.5055 Y-15.2964
G01 X35.5550 Y-15.2261
G01 X35.6009 Y-15.1536
G01 X35.6433 Y-15.0788
G01 X35.6819 Y-15.0021
G01 X35.7167 Y-14.9236
G01 X35.7476 Y-14.8435
G01 X35.7745 Y-14.7619
G01 X35.7975 Y-14.6791
G01 X35.8163 Y-14.5953
G01 X35.8310 Y-14.5107
G01 X35.8415 Y-14.4254
G01 X35.8478 Y-14.3398
G01 X35.8499 Y-14.2508
G00 Z5.0000
G00 X35.9498 Y-14.2539
G01 F80.00
G01 Z-0.0500
G01 F40.00
G01 X35.9476 Y-14.1631
G01 X35.9409 Y-14.0726
G01 X35.9298 Y-13.9825
G01 X35.9143 Y-13.8930
G01 X35.8944 Y-13.8044
G01 X35.8702 Y-13.7169
G01 X35.8417 Y-13.6307
G01 X35.8090 Y-13.5460
G01 X35.7722 Y-13.4630
G01 X35.7314 Y-13.3819
G01 X35.6866 Y-13.3028
G01 X35.6381 Y-13.2261
G01 X35.5858 Y-13.1519
G01 X35.5299 Y-13.0803
G01 X35.4706 Y-13.0116
G01 X35.4080 Y-12.9458
G01 X35.3422 Y-12.8832
G01 X35.2735 Y-12.8239
G01 X35.2019 Y-12.7680
G01 X35.1277 Y-12.7157
G01 X35.0510 Y-12.6672
G01 X34.9719 Y-12.6224
G01 X34.8908 Y-12.5816
G01 X34.8078 Y-12.5448
G01 X34.7231 Y-12.5121
G01 X34.6369 Y-12.4836
G01 X34.5494 Y-12.4594
G01 X34.4608 Y-12.4395
G01 X34.3713 Y-12.4240
G01 X34.2812 Y-12.4129
G01 X34.1907 Y-12.4062
G01 X34.0999 Y-12.4040
G01 X34.0091 Y-12.4062
G01 X33.9186 Y-12.4129
G01 X33.8285 Y-12.4240
G01 X33.7390 Y-12.4395
G01 X33.6504 Y-12.4594
G01 X33.5629 Y-12.4836
G01 X33.4767 Y-12.5121
G01 X33.3920 Y-12.5448
G01 X33.3090 Y-12.5816
G01 X33.2279 Y-12.6224
G01 X33.1488 Y-12.6672
G01 X33.0721 Y-12.7157
G01 X32.9979 Y-12.7680
G01 X32.9263 Y-12.8239
G01 X32.8576 Y-12.8832
G01 X32.7918 Y-12.9458
G01 X32.7292 Y-13.0116
G01 X32.6699 Y-13.0803
G01 X32.6140 Y-13.1519
G01 X32.5617 Y-13.2261
G01 X32.5132 Y-13.3028
G01 X32.4684 Y-13.3819
G01 X32.4276 Y-13.4630
G01 X32.3908 Y-13.5460
G01 X32.3581 Y-13.6307
G01 X32.3296 Y-13.7169
G01 X32.3054 Y-13.8044
G01 X32.2855 Y-13.8930
G01 X32.2700 Y-13.9825
G01 X32.2589 Y-14.0726
G01 X32.2522 Y-14.1631
G01 X32.2500 Y-14.2539
G01 X32.2522 Y-14.3447
G01 X32.2589 Y-14.4352
G01 X32.2700 Y-14.5253
G01 X32.2855 Y-14.6148
G01 X32.3054 Y-14.7034
G01 X32.3296 Y-14.7909
G01 X32.3581 Y-14.8771
G01 X32.3908 Y-14.9618
G01 X32.4276 Y-15.0448
G01 X32.4684 Y-15.1259
G01 X32.5132 Y-15.2050
G01 X32.5617 Y-15.2817
G01 X32.6140 Y-15.3559
G01 X32.6699 Y-15.4275
G01 X32.7292 Y-15.4962
G01 X32.7918 Y-15.5620
G01 X32.8576 Y-15.6246
G01 X32.9263 Y-15.6839
G01 X32.9979 Y-15.7398
G01 X33.0721 Y-15.7921
G01 X33.1488 Y-15.8406
G01 X33.2279 Y-15.8854
G01 X33.3090 Y-15.9262
G01 X33.3920 Y-15.9630
G01 X33.4767 Y-15.9957
G01 X33.5629 Y-16.0242
G01 X33.6504 Y-16.0484
G01 X33.7390 Y-16.0683
G01 X33.8285 Y-16.0838
G01 X33.9186 Y-16.0949
G01 X34.0091 Y-16.1016
G01 X34.0999 Y-16.1038
G01 X34.1907 Y-16.1016
G01 X34.2812 Y-16.0949
G01 X34.3713 Y-16.0838
G01 X34.4608 Y-16.0683
G01 X34.5494 Y-16.0484
G01 X34.6369 Y-16.0242
G01 X34.7231 Y-15.9957
G01 X34.8078 Y-15.9630
G01 X34.8908 Y-15.9262
G01 X34.9719 Y-15.8854
G01 X35.0510 Y-15.8406
G01 X35.1277 Y-15.7921
G01 X35.2019 Y-15.7398
G01 X35.2735 Y-15.6839
G01 X35.3422 Y-15.6246
G01 X35.4080 Y-15.5620
G01 X35.4706 Y-15.4962
G01 X35.5299 Y-15.4275
G01 X35.5858 Y-15.3559
G01 X35.6381 Y-15.2817
G01 X35.6866 Y-15.2050
G01 X35.7314 Y-15.1259
G01 X35.7722 Y-15.0448
G01 X35.8090 Y-14.9618
G01 X35.8417 Y-14.8771
G01 X35.8702 Y-14.7909
G01 X35.8944 Y-14.7034
G01 X35.9143 Y-14.6148
G01 X35.9298 Y-14.5253
G01 X35.9409 Y-14.4352
G01 X35.9476 Y-14.3447
G01 X35.9498 Y-14.2539
G00 Z5.0000
G00 X35.9498 Y-9.1739
G01 F80.00
G01 Z-0.0500
G01 F40.00
G01 X35.9476 Y-9.0831
G01 X35.9409 Y-8.9926
G01 X35.9298 Y-8.9025
G01 X35.9143 Y-8.8130
G01 X35.8944 Y-8.7244
G01 X35.8702 Y-8.6369
G01 X35.8417 Y-8.5507
G01 X35.8090 Y-8.4660
G01 X35.7722 Y-8.3830
G01 X35.7314 Y-8.3019
G01 X35.6866 Y-8.2228
G01 X35.6381 Y-8.1461
G01 X35.5858 Y-8.0719
G01 X35.5299 Y-8.0003
G01 X35.4706 Y-7.9316
G01 X35.4080 Y-7.8658
G01 X35.3422 Y-7.8032
G01 X35.2735 Y-7.7439
G01 X35.2019 Y-7.6880
G01 X35.1277 Y-7.6357
G01 X35.0510 Y-7.5872
G01 X34.9719 Y-7.5424
G01 X34.8908 Y-7.5016
G01 X34.8078 Y-7.4648
G01 X34.7231 Y-7.4321
G01 X34.6369 Y-7.4036
G01 X34.5494 Y-7.3794
G01 X34.4608 Y-7.3595
G01 X34.3713 Y-7.3440
G01 X34.2812 Y-7.3329
G01 X34.1907 Y-7.3262
G01 X34.0999 Y-7.3240
G01 X34.0091 Y-7.3262
G01 X33.9186 Y-7.3329
G01 X33.8285 Y-7.3440
G01 X33.7390 Y-7.3595
G01 X33.6504 Y-7.3794
G01 X33.5629 Y-7.4036
G01 X33.4767 Y-7.4321
G01 X33.3920 Y-7.4648
G01 X33.3090 Y-7.5016
G01 X33.2279 Y-7.5424
G01 X33.1488 Y-7.5872
G01 X33.0721 Y-7.6357
G01 X32.9979 Y-7.6880
G01 X32.9263 Y-7.7439
G01 X32.8576 Y-7.8032
G01 X32.7918 Y-7.8658
G01 X32.7292 Y-7.9316
G01 X32.6699 Y-8.0003
G01 X32.6140 Y-8.0719
G01 X32.5617 Y-8.1461
G01 X32.5132 Y-8.2228
G01 X32.4684 Y-8.3019
G01 X32.4276 Y-8.3830
G01 X32.3908 Y-8.4660
G01 X32.3581 Y-8.5507
G01 X32.3296 Y-8.6369
G01 X32.3054 Y-8.7244
G01 X32.2855 Y-8.8130
G01 X32.2700 Y-8.9025
G01 X32.2589 Y-8.9926
G01 X32.2522 Y-9.0831
G01 X32.2500 Y-9.1739
G01 X32.2522 Y-9.2647
G01 X32.2589 Y-9.3552
G01 X32.2700 Y-9.4453
G01 X32.2855 Y-9.5348
G01 X32.3054 Y-9.6234
G01 X32.3296 Y-9.7109
G01 X32.3581 Y-9.7971
G01 X32.3908 Y-9.8818
G01 X32.4276 Y-9.9648
G01 X32.4684 Y-10.0459
G01 X32.5132 Y-10.1250
G01 X32.5617 Y-10.2017
G01 X32.6140 Y-10.2759
G01 X32.6699 Y-10.3475
G01 X32.7292 Y-10.4162
G01 X32.7918 Y-10.4820
G01 X32.8576 Y-10.5446
G01 X32.9263 Y-10.6039
G01 X32.9979 Y-10.6598
G01 X33.0721 Y-10.7121
G01 X33.1488 Y-10.7606
G01 X33.2279 Y-10.8054
G01 X33.3090 Y-10.8462
G01 X33.3920 Y-10.8830
G01 X33.4767 Y-10.9157
G01 X33.5629 Y-10.9442
G01 X33.6504 Y-10.9684
G01 X33.7390 Y-10.9883
G01 X33.8285 Y-11.0038
G01 X33.9186 Y-11.0149
G01 X34.0091 Y-11.0216
G01 X34.0999 Y-11.0238
G01 X34.1907 Y-11.0216
G01 X34.2812 Y-11.0149
G01 X34.3713 Y-11.0038
G01 X34.4608 Y-10.9883
G01 X34.5494 Y-10.9684
G01 X34.6369 Y-10.9442
G01 X34.7231 Y-10.9157
G01 X34.8078 Y-10.8830
G01 X34.8908 Y-10.8462
G01 X34.9719 Y-10.8054
G01 X35.0510 Y-10.7606
G01 X35.1277 Y-10.7121
G01 X35.2019 Y-10.6598
G01 X35.2735 Y-10.6039
G01 X35.3422 Y-10.5446
G01 X35.4080 Y-10.4820
G01 X35.4706 Y-10.4162
G01 X35.5299 Y-10.3475
G01 X35.5858 Y-10.2759
G01 X35.6381 Y-10.2017
G01 X35.6866 Y-10.1250
G01 X35.7314 Y-10.0459
G01 X35.7722 Y-9.9648
G01 X35.8090 Y-9.8818
G01 X35.8417 Y-9.7971
G01 X35.8702 Y-9.7109
G01 X35.8944 Y-9.6234
G01 X35.9143 Y-9.5348
G01 X35.9298 Y-9.4453
G01 X35.9409 Y-9.3552
G01 X35.9476 Y-9.2647
G01 X35.9498 Y-9.1739
G00 Z5.0000
G00 X35.8499 Y-9.1708
G01 F80.00
G01 Z-0.0500
G01 F40.00
G01 X35.8478 Y-9.0880
G01 X35.8415 Y-9.0024
G01 X35.8310 Y-8.9171
G01 X35.8163 Y-8.8325
G01 X35.7975 Y-8.7487
G01 X35.7745 Y-8.6659
G01 X35.7476 Y-8.5843
G01 X35.7167 Y-8.5042
G01 X35.6819 Y-8.4257
G01 X35.6433 Y-8.3490
G01 X35.6009 Y-8.2742
G01 X35.5550 Y-8.2017
G01 X35.5055 Y-8.1314
G01 X35.4527 Y-8.0637
G01 X35.3966 Y-7.9987
G01 X35.3373 Y-7.9365
G01 X35.2751 Y-7.8772
G01 X35.2101 Y-7.8211
G01 X35.1424 Y-7.7683
G01 X35.0722 Y-7.7188
G01 X34.9996 Y-7.6729
G01 X34.9248 Y-7.6305
G01 X34.8481 Y-7.5919
G01 X34.7696 Y-7.5571
G01 X34.6895 Y-7.5262
G01 X34.6079 Y-7.4993
G01 X34.5251 Y-7.4763
G01 X34.4413 Y-7.4575
G01 X34.3567 Y-7.4428
G01 X34.2714 Y-7.4323
G01 X34.1858 Y-7.4260
G01 X34.0999 Y-7.4239
G01 X34.0140 Y-7.4260
G01 X33.9284 Y-7.4323
G01 X33.8431 Y-7.4428
G01 X33.7585 Y-7.4575
G01 X33.6747 Y-7.4763
G01 X33.5919 Y-7.4993
G01 X33.5103 Y-7.5262
G01 X33.4302 Y-7.5571
G01 X33.3517 Y-7.5919
G01 X33.2750 Y-7.6305
G01 X33.2002 Y-7.6729
G01 X33.1276 Y-7.7188
G01 X33.0574 Y-7.7683
G01 X32.9897 Y-7.8211
G01 X32.9247 Y-7.8772
G01 X32.8625 Y-7.9365
G01 X32.8032 Y-7.9987
G01 X32.7471 Y-8.0637
G01 X32.6943 Y-8.1314
G01 X32.6448 Y-8.2017
G01 X32.5989 Y-8.2742
G01 X32.5565 Y-8.3490
G01 X32.5179 Y-8.4257
G01 X32.4831 Y-8.5042
G01 X32.4522 Y-8.5843
G01 X32.4253 Y-8.6659
G01 X32.4023 Y-8.7487
G01 X32.3835 Y-8.8325
G01 X32.3688 Y-8.9171
G01 X32.3583 Y-9.0024
G01 X32.3520 Y-9.0880
G01 X32.3499 Y-9.1739
G01 X32.3520 Y-9.2598
G01 X32.3583 Y-9.3454
G01 X32.3688 Y-9.4307
G01 X32.3835 Y-9.5153
G01 X32.4023 Y-9.5991
G01 X32.4253 Y-9.6819
G01 X32.4522 Y-9.7635
G01 X32.4831 Y-9.8436
G01 X32.5179 Y-9.9221
G01 X32.5565 Y-9.9988
G01 X32.5989 Y-10.0736
G01 X32.6448 Y-10.1461
G01 X32.6943 Y-10.2164
G01 X32.7471 Y-10.2841
G01 X32.8032 Y-10.3491
G01 X32.8625 Y-10.4113
G01 X32.9247 Y-10.4706
G01 X32.9897 Y-10.5267
G01 X33.0574 Y-10.5795
G01 X33.1277 Y-10.6290
G01 X33.2002 Y-10.6749
G01 X33.2750 Y-10.7173
G01 X33.3517 Y-10.7559
G01 X33.4302 Y-10.7907
G01 X33.5103 Y-10.8216
G01 X33.5919 Y-10.8485
G01 X33.6747 Y-10.8715
G01 X33.7585 Y-10.8903
G01 X33.8431 Y-10.9050
G01 X33.9284 Y-10.9155
G01 X34.0140 Y-10.9218
G01 X34.0999 Y-10.9239
G01 X34.1858 Y-10.9218
G01 X34.2714 Y-10.9155
G01 X34.3567 Y-10.9050
G01 X34.4413 Y-10.8903
G01 X34.5251 Y-10.8715
G01 X34.6079 Y-10.8485
G01 X34.6895 Y-10.8216
G01 X34.7696 Y-10.7907
G01 X34.8481 Y-10.7559
G01 X34.9248 Y-10.7173
G01 X34.9996 Y-10.6749
G01 X35.0721 Y-10.6290
G01 X35.1424 Y-10.5795
G01 X35.2101 Y-10.5267
G01 X35.2751 Y-10.4706
G01 X35.3373 Y-10.4113
G01 X35.3966 Y-10.3491
G01 X35.4527 Y-10.2841
G01 X35.5055 Y-10.2164
G01 X35.5550 Y-10.1461
G01 X35.6009 Y-10.0736
G01 X35.6433 Y-9.9988
G01 X35.6819 Y-9.9221
G01 X35.7167 Y-9.8436
G01 X35.7476 Y-9.7635
G01 X35.7745 Y-9.6819
G01 X35.7975 Y-9.5991
G01 X35.8163 Y-9.5153
G01 X35.8310 Y-9.4307
G01 X35.8415 Y-9.3454
G01 X35.8478 Y-9.2598
G01 X35.8499 Y-9.1708
G00 Z5.0000
G00 X30.8698 Y-9.1739
G01 F80.00
G01 Z-0.0500
G01 F40.00
G01 X30.8676 Y-9.0831
G01 X30.8609 Y-8.9926
G01 X30.8498 Y-8.9025
G01 X30.8343 Y-8.8130
G01 X30.8144 Y-8.7244
G01 X30.7902 Y-8.6369
G01 X30.7617 Y-8.5507
G01 X30.7290 Y-8.4660
G01 X30.6922 Y-8.3830
G01 X30.6514 Y-8.3019
G01 X30.6066 Y-8.2228
G01 X30.5581 Y-8.1461
G01 X30.5058 Y-8.0719
G01 X30.4499 Y-8.0003
G01 X30.3906 Y-7.9316
G01 X30.3280 Y-7.8658
G01 X30.2622 Y-7.8032
G01 X30.1935 Y-7.7439
G01 X30.1219 Y-7.6880
G01 X30.0477 Y-7.6357
G01 X29.9710 Y-7.5872
G01 X29.8919 Y-7.5424
G01 X29.8108 Y-7.5016
G01 X29.7278 Y-7.4648
G01 X29.6431 Y-7.4321
G01 X29.5569 Y-7.4036
G01 X29.4694 Y-7.3794
G01 X29.3808 Y-7.3595
G01 X29.2913 Y-7.3440
G01 X29.2012 Y-7.3329
G01 X29.1107 Y-7.3262
G01 X29.0199 Y-7.3240
G01 X28.9291 Y-7.3262
G01 X28.8386 Y-7.3329
G01 X28.7485 Y-7.3440
G01 X28.6590 Y-7.3595
G01 X28.5704 Y-7.3794
G01 X28.4829 Y-7.4036
G01 X28.3967 Y-7.4321
G01 X28.3120 Y-7.4648
G01 X28.2290 Y-7.5016
G01 X28.1479 Y-7.5424
G01 X28.0688 Y-7.5872
G01 X27.9921 Y-7.6357
G01 X27.9179 Y-7.6880
G01 X27.8463 Y-7.7439
G01 X27.7776 Y-7.8032
G01 X27.7118 Y-7.8658
G01 X27.6492 Y-7.9316
G01 X27.5899 Y-8.0003
G01 X27.5340 Y-8.0719
G01 X27.4817 Y-8.1461
G01 X27.4332 Y-8.2228
G01 X27.3884 Y-8.3019
G01 X27.3476 Y-8.3830
G01 X27.3108 Y-8.4660
G01 X27.2781 Y-8.5507
G01 X27.2496 Y-8.6369
G01 X27.2254 Y-8.7244
G01 X27.2055 Y-8.8130
G01 X27.1900 Y-8.9025
G01 X27.1789 Y-8.9926
G01 X27.1722 Y-9.0831
G01 X27.1700 Y-9.1739
G01 X27.1722 Y-9.2647
G01 X27.1789 Y-9.3552
G01 X27.1900 Y-9.4453
G01 X27.2055 Y-9.5348
G01 X27.2254 Y-9.6234
G01 X27.2496 Y-9.7109
G01 X27.2781 Y-9.7971
G01 X27.3108 Y-9.8818
G01 X27.3476 Y-9.9648
G01 X27.3884 Y-10.0459
G01 X27.4332 Y-10.1250
G01 X27.4817 Y-10.2017
G01 X27.5340 Y-10.2759
G01 X27.5899 Y-10.3475
G01 X27.6492 Y-10.4162
G01 X27.7118 Y-10.4820
G01 X27.7776 Y-10.5446
G01 X27.8463 Y-10.6039
G01 X27.9179 Y-10.6598
G01 X27.9921 Y-10.7121
G01 X28.0688 Y-10.7606
G01 X28.1479 Y-10.8054
G01 X28.2290 Y-10.8462
G01 X28.3120 Y-10.8830
G01 X28.3967 Y-10.9157
G01 X28.4829 Y-10.9442
G01 X28.5704 Y-10.9684
G01 X28.6590 Y-10.9883
G01 X28.7485 Y-11.0038
G01 X28.8386 Y-11.0149
G01 X28.9291 Y-11.0216
G01 X29.0199 Y-11.0238
G01 X29.1107 Y-11.0216
G01 X29.2012 Y-11.0149
G01 X29.2913 Y-11.0038
G01 X29.3808 Y-10.9883
G01 X29.4694 Y-10.9684
G01 X29.5569 Y-10.9442
G01 X29.6431 Y-10.9157
G01 X29.7278 Y-10.8830
G01 X29.8108 Y-10.8462
G01 X29.8919 Y-10.8054
G01 X29.9710 Y-10.7606
G01 X30.0477 Y-10.7121
G01 X30.1219 Y-10.6598
G01 X30.1935 Y-10.6039
G01 X30.2622 Y-10.5446
G01 X30.3280 Y-10.4820
G01 X30.3906 Y-10.4162
G01 X30.4499 Y-10.3475
G01 X30.5058 Y-10.2759
G01 X30.5581 Y-10.2017
G01 X30.6066 Y-10.1250
G01 X30.6514 Y-10.0459
G01 X30.6922 Y-9.9648
G01 X30.7290 Y-9.8818
G01 X30.7617 Y-9.7971
G01 X30.7902 Y-9.7109
G01 X30.8144 Y-9.6234
G01 X30.8343 Y-9.5348
G01 X30.8498 Y-9.4453
G01 X30.8609 Y-9.3552
G01 X30.8676 Y-9.2647
G01 X30.8698 Y-9.1739
G00 Z5.0000
G00 X30.7699 Y-9.1708
G01 F80.00
G01 Z-0.0500
G01 F40.00
G01 X30.7678 Y-9.0880
G01 X30.7615 Y-9.0024
G01 X30.7510 Y-8.9171
G01 X30.7363 Y-8.8325
G01 X30.7175 Y-8.7487
G01 X30.6945 Y-8.6659
G01 X30.6676 Y-8.5843
G01 X30.6367 Y-8.5042
G01 X30.6019 Y-8.4257
G01 X30.5633 Y-8.3490
G01 X30.5209 Y-8.2742
G01 X30.4750 Y-8.2017
G01 X30.4255 Y-8.1314
G01 X30.3727 Y-8.0637
G01 X30.3166 Y-7.9987
G01 X30.2573 Y-7.9365
G01 X30.1951 Y-7.8772
G01 X30.1301 Y-7.8211
G01 X30.0624 Y-7.7683
G01 X29.9921 Y-7.7188
G01 X29.9196 Y-7.6729
G01 X29.8448 Y-7.6305
G01 X29.7681 Y-7.5919
G01 X29.6896 Y-7.5571
G01 X29.6095 Y-7.5262
G01 X29.5279 Y-7.4993
G01 X29.4451 Y-7.4763
G01 X29.3613 Y-7.4575
G01 X29.2767 Y-7.4428
G01 X29.1914 Y-7.4323
G01 X29.1058 Y-7.4260
G01 X29.0199 Y-7.4239
G01 X28.9340 Y-7.4260
G01 X28.8484 Y-7.4323
G01 X28.7631 Y-7.4428
G01 X28.6785 Y-7.4575
G01 X28.5947 Y-7.4763
G01 X28.5119 Y-7.4993
G01 X28.4303 Y-7.5262
G01 X28.3502 Y-7.5571
G01 X28.2717 Y-7.5919
G01 X28.1950 Y-7.6305
G01 X28.1202 Y-7.6729
G01 X28.0477 Y-7.7188
G01 X27.9774 Y-7.7683
G01 X27.9097 Y-7.8211
G01 X27.8447 Y-7.8772
G01 X27.7825 Y-7.9365
G01 X27.7232 Y-7.9987
G01 X27.6671 Y-8.0637
G01 X27.6143 Y-8.1314
G01 X27.5648 Y-8.2017
G01 X27.5189 Y-8.2742
G01 X27.4765 Y-8.3490
G01 X27.4379 Y-8.4257
G01 X27.4031 Y-8.5042
G01 X27.3722 Y-8.5843
G01 X27.3453 Y-8.6659
G01 X27.3223 Y-8.7487
G01 X27.3035 Y-8.8325
G01 X27.2888 Y-8.9171
G01 X27.2783 Y-9.0024
G01 X27.2720 Y-9.0880
G01 X27.2699 Y-9.1739
G01 X27.2720 Y-9.2598
G01 X27.2783 Y-9.3454
G01 X27.2888 Y-9.4307
G01 X27.3035 Y-9.5153
G01 X27.3223 Y-9.5991
G01 X27.3453 Y-9.6819
G01 X27.3722 Y-9.7635
G01 X27.4031 Y-9.8436
G01 X27.4379 Y-9.9221
G01 X27.4765 Y-9.9988
G01 X27.5189 Y-10.0736
G01 X27.5648 Y-10.1461
G01 X27.6143 Y-10.2164
G01 X27.6671 Y-10.2841
G01 X27.7232 Y-10.3491
G01 X27.7825 Y-10.4113
G01 X27.8447 Y-10.4706
G01 X27.9097 Y-10.5267
G01 X27.9774 Y-10.5795
G01 X28.0477 Y-10.6290
G01 X28.1202 Y-10.6749
G01 X28.1950 Y-10.7173
G01 X28.2717 Y-10.7559
G01 X28.3502 Y-10.7907
G01 X28.4303 Y-10.8216
G01 X28.5119 Y-10.8485
G01 X28.5947 Y-10.8715
G01 X28.6785 Y-10.8903
G01 X28.7631 Y-10.9050
G01 X28.8484 Y-10.9155
G01 X28.9340 Y-10.9218
G01 X29.0199 Y-10.9239
G01 X29.1058 Y-10.9218
G01 X29.1914 Y-10.9155
G01 X29.2767 Y-10.9050
G01 X29.3613 Y-10.8903
G01 X29.4451 Y-10.8715
G01 X29.5279 Y-10.8485
G01 X29.6095 Y-10.8216
G01 X29.6896 Y-10.7907
G01 X29.7681 Y-10.7559
G01 X29.8448 Y-10.7173
G01 X29.9196 Y-10.6749
G01 X29.9921 Y-10.6290
G01 X30.0624 Y-10.5795
G01 X30.1301 Y-10.5267
G01 X30.1951 Y-10.4706
G01 X30.2573 Y-10.4113
G01 X30.3166 Y-10.3491
G01 X30.3727 Y-10.2841
G01 X30.4255 Y-10.2164
G01 X30.4750 Y-10.1461
G01 X30.5209 Y-10.0736
G01 X30.5633 Y-9.9988
G01 X30.6019 Y-9.9221
G01 X30.6367 Y-9.8436
G01 X30.6676 Y-9.7635
G01 X30.6945 Y-9.6819
G01 X30.7175 Y-9.5991
G01 X30.7363 Y-9.5153
G01 X30.7510 Y-9.4307
G01 X30.7615 Y-9.3454
G01 X30.7678 Y-9.2598
G01 X30.7699 Y-9.1708
G00 Z5.0000
G00 X25.7898 Y-9.1739
G01 F80.00
G01 Z-0.0500
G01 F40.00
G01 X25.7876 Y-9.0831
G01 X25.7809 Y-8.9926
G01 X25.7698 Y-8.9025
G01 X25.7543 Y-8.8130
G01 X25.7344 Y-8.7244
G01 X25.7102 Y-8.6369
G01 X25.6817 Y-8.5507
G01 X25.6490 Y-8.4660
G01 X25.6122 Y-8.3830
G01 X25.5714 Y-8.3019
G01 X25.5266 Y-8.2228
G01 X25.4781 Y-8.1461
G01 X25.4258 Y-8.0719
G01 X25.3699 Y-8.0003
G01 X25.3106 Y-7.9316
G01 X25.2480 Y-7.8658
G01 X25.1822 Y-7.8032
G01 X25.1135 Y-7.7439
G01 X25.0419 Y-7.6880
G01 X24.9677 Y-7.6357
G01 X24.8910 Y-7.5872
G01 X24.8119 Y-7.5424
G01 X24.7308 Y-7.5016
G01 X24.6478 Y-7.4648
G01 X24.5631 Y-7.4321
G01 X24.4769 Y-7.4036
G01 X24.3894 Y-7.3794
G01 X24.3008 Y-7.3595
G01 X24.2113 Y-7.3440
G01 X24.1212 Y-7.3329
G01 X24.0307 Y-7.3262
G01 X23.9399 Y-7.3240
G01 X23.8491 Y-7.3262
G01 X23.7586 Y-7.3329
G01 X23.6685 Y-7.3440
G01 X23.5790 Y-7.3595
G01 X23.4904 Y-7.3794
G01 X23.4029 Y-7.4036
G01 X23.3167 Y-7.4321
G01 X23.2320 Y-7.4648
G01 X23.1490 Y-7.5016
G01 X23.0679 Y-7.5424
G01 X22.9888 Y-7.5872
G01 X22.9121 Y-7.6357
G01 X22.8379 Y-7.6880
G01 X22.7663 Y-7.7439
G01 X22.6976 Y-7.8032
G01 X22.6318 Y-7.8658
G01 X22.5692 Y-7.9316
G01 X22.5099 Y-8.0003
G01 X22.4540 Y-8.0719
G01 X22.4017 Y-8.1461
G01 X22.3532 Y-8.2228
G01 X22.3084 Y-8.3019
G01 X22.2676 Y-8.3830
G01 X22.2308 Y-8.4660
G01 X22.1981 Y-8.5507
G01 X22.1696 Y-8.6369
G01 X22.1454 Y-8.7244
G01 X22.1255 Y-8.8130
G01 X22.1100 Y-8.9025
G01 X22.0989 Y-8.9926
G01 X22.0922 Y-9.0831
G01 X22.0900 Y-9.1739
G01 X22.0922 Y-9.2647
G01 X22.0989 Y-9.3552
G01 X22.1100 Y-9.4453
G01 X22.1255 Y-9.5348
G01 X22.1454 Y-9.6234
G01 X22.1696 Y-9.7109
G01 X22.1981 Y-9.7971
G01 X22.2308 Y-9.8818
G01 X22.2676 Y-9.9648
G01 X22.3084 Y-10.0459
G01 X22.3532 Y-10.1250
G01 X22.4017 Y-10.2017
G01 X22.4540 Y-10.2759
G01 X22.5099 Y-10.3475
G01 X22.5692 Y-10.4162
G01 X22.6318 Y-10.4820
G01 X22.6976 Y-10.5446
G01 X22.7663 Y-10.6039
G01 X22.8379 Y-10.6598
G01 X22.9121 Y-10.7121
G01 X22.9888 Y-10.7606
G01 X23.0679 Y-10.8054
G01 X23.1490 Y-10.8462
G01 X23.2320 Y-10.8830
G01 X23.3167 Y-10.9157
G01 X23.4029 Y-10.9442
G01 X23.4904 Y-10.9684
G01 X23.5790 Y-10.9883
G01 X23.6685 Y-11.0038
G01 X23.7586 Y-11.0149
G01 X23.8491 Y-11.0216
G01 X23.9399 Y-11.0238
G01 X24.0307 Y-11.0216
G01 X24.1212 Y-11.0149
G01 X24.2113 Y-11.0038
G01 X24.3008 Y-10.9883
G01 X24.3894 Y-10.9684
G01 X24.4769 Y-10.9442
G01 X24.5631 Y-10.9157
G01 X24.6478 Y-10.8830
G01 X24.7308 Y-10.8462
G01 X24.8119 Y-10.8054
G01 X24.8910 Y-10.7606
G01 X24.9677 Y-10.7121
G01 X25.0419 Y-10.6598
G01 X25.1135 Y-10.6039
G01 X25.1822 Y-10.5446
G01 X25.2480 Y-10.4820
G01 X25.3106 Y-10.4162
G01 X25.3699 Y-10.3475
G01 X25.4258 Y-10.2759
G01 X25.4781 Y-10.2017
G01 X25.5266 Y-10.1250
G01 X25.5714 Y-10.0459
G01 X25.6122 Y-9.9648
G01 X25.6490 Y-9.8818
G01 X25.6817 Y-9.7971
G01 X25.7102 Y-9.7109
G01 X25.7344 Y-9.6234
G01 X25.7543 Y-9.5348
G01 X25.7698 Y-9.4453
G01 X25.7809 Y-9.3552
G01 X25.7876 Y-9.2647
G01 X25.7898 Y-9.1739
G00 Z5.0000
G00 X25.6899 Y-9.1708
G01 F80.00
G01 Z-0.0500
G01 F40.00
G01 X25.6878 Y-9.0880
G01 X25.6815 Y-9.0024
G01 X25.6710 Y-8.9171
G01 X25.6563 Y-8.8325
G01 X25.6375 Y-8.7487
G01 X25.6145 Y-8.6659
G01 X25.5876 Y-8.5843
G01 X25.5567 Y-8.5042
G01 X25.5219 Y-8.4257
G01 X25.4833 Y-8.3490
G01 X25.4409 Y-8.2742
G01 X25.3950 Y-8.2017
G01 X25.3455 Y-8.1314
G01 X25.2927 Y-8.0637
G01 X25.2366 Y-7.9987
G01 X25.1773 Y-7.9365
G01 X25.1151 Y-7.8772
G01 X25.0501 Y-7.8211
G01 X24.9824 Y-7.7683
G01 X24.9121 Y-7.7188
G01 X24.8396 Y-7.6729
G01 X24.7648 Y-7.6305
G01 X24.6881 Y-7.5919
G01 X24.6096 Y-7.5571
G01 X24.5295 Y-7.5262
G01 X24.4479 Y-7.4993
G01 X24.3651 Y-7.4763
G01 X24.2813 Y-7.4575
G01 X24.1967 Y-7.4428
G01 X24.1114 Y-7.4323
G01 X24.0258 Y-7.4260
G01 X23.9399 Y-7.4239
G01 X23.8540 Y-7.4260
G01 X23.7684 Y-7.4323
G01 X23.6831 Y-7.4428
G01 X23.5985 Y-7.4575
G01 X23.5147 Y-7.4763
G01 X23.4319 Y-7.4993
G01 X23.3503 Y-7.5262
G01 X23.2702 Y-7.5571
G01 X23.1917 Y-7.5919
G01 X23.1150 Y-7.6305
G01 X23.0402 Y-7.6729
G01 X22.9677 Y-7.7188
G01 X22.8974 Y-7.7683
G01 X22.8297 Y-7.8211
G01 X22.7647 Y-7.8772
G01 X22.7025 Y-7.9365
G01 X22.6432 Y-7.9987
G01 X22.5871 Y-8.0637
G01 X22.5343 Y-8.1314
G01 X22.4848 Y-8.2017
G01 X22.4389 Y-8.2742
G01 X22.3965 Y-8.3490
G01 X22.3579 Y-8.4257
G01 X22.3231 Y-8.5042
G01 X22.2922 Y-8.5843
G01 X22.2653 Y-8.6659
G01 X22.2423 Y-8.7487
G01 X22.2235 Y-8.8325
G01 X22.2088 Y-8.9171
G01 X22.1983 Y-9.0024
G01 X22.1920 Y-9.0880
G01 X22.1899 Y-9.1739
G01 X22.1920 Y-9.2598
G01 X22.1983 Y-9.3454
G01 X22.2088 Y-9.4307
G01 X22.2235 Y-9.5153
G01 X22.2423 Y-9.5991
G01 X22.2653 Y-9.6819
G01 X22.2922 Y-9.7635
G01 X22.3231 Y-9.8436
G01 X22.3579 Y-9.9221
G01 X22.3965 Y-9.9988
G01 X22.4389 Y-10.0736
G01 X22.4848 Y-10.1461
G01 X22.5343 Y-10.2164
G01 X22.5871 Y-10.2841
G01 X22.6432 Y-10.3491
G01 X22.7025 Y-10.4113
G01 X22.7647 Y-10.4706
G01 X22.8297 Y-10.5267
G01 X22.8974 Y-10.5795
G01 X22.9677 Y-10.6290
G01 X23.0402 Y-10.6749
G01 X23.1150 Y-10.7173
G01 X23.1917 Y-10.7559
G01 X23.2702 Y-10.7907
G01 X23.3503 Y-10.8216
G01 X23.4319 Y-10.8485
G01 X23.5147 Y-10.8715
G01 X23.5985 Y-10.8903
G01 X23.6831 Y-10.9050
G01 X23.7684 Y-10.9155
G01 X23.8540 Y-10.9218
G01 X23.9399 Y-10.9239
G01 X24.0258 Y-10.9218
G01 X24.1114 Y-10.9155
G01 X24.1967 Y-10.9050
G01 X24.2813 Y-10.8903
G01 X24.3651 Y-10.8715
G01 X24.4479 Y-10.8485
G01 X24.5295 Y-10.8216
G01 X24.6096 Y-10.7907
G01 X24.6881 Y-10.7559
G01 X24.7648 Y-10.7173
G01 X24.8396 Y-10.6749
G01 X24.9121 Y-10.6290
G01 X24.9824 Y-10.5795
G01 X25.0501 Y-10.5267
G01 X25.1151 Y-10.4706
G01 X25.1773 Y-10.4113
G01 X25.2366 Y-10.3491
G01 X25.2927 Y-10.2841
G01 X25.3455 Y-10.2164
G01 X25.3950 Y-10.1461
G01 X25.4409 Y-10.0736
G01 X25.4833 Y-9.9988
G01 X25.5219 Y-9.9221
G01 X25.5567 Y-9.8436
G01 X25.5876 Y-9.7635
G01 X25.6145 Y-9.6819
G01 X25.6375 Y-9.5991
G01 X25.6563 Y-9.5153
G01 X25.6710 Y-9.4307
G01 X25.6815 Y-9.3454
G01 X25.6878 Y-9.2598
G01 X25.6899 Y-9.1708
G00 Z5.0000
G00 X20.7098 Y-9.1739
G01 F80.00
G01 Z-0.0500
G01 F40.00
G01 X20.7076 Y-9.0831
G01 X20.7009 Y-8.9926
G01 X20.6898 Y-8.9025
G01 X20.6743 Y-8.8130
G01 X20.6544 Y-8.7244
G01 X20.6302 Y-8.6369
G01 X20.6017 Y-8.5507
G01 X20.5690 Y-8.4660
G01 X20.5322 Y-8.3830
G01 X20.4914 Y-8.3019
G01 X20.4466 Y-8.2228
G01 X20.3981 Y-8.1461
G01 X20.3458 Y-8.0719
G01 X20.2899 Y-8.0003
G01 X20.2306 Y-7.9316
G01 X20.1680 Y-7.8658
G01 X20.1022 Y-7.8032
G01 X20.0335 Y-7.7439
G01 X19.9619 Y-7.6880
G01 X19.8877 Y-7.6357
G01 X19.8110 Y-7.5872
G01 X19.7319 Y-7.5424
G01 X19.6508 Y-7.5016
G01 X19.5678 Y-7.4648
G01 X19.4831 Y-7.4321
G01 X19.3969 Y-7.4036
G01 X19.3094 Y-7.3794
G01 X19.2208 Y-7.3595
G01 X19.1313 Y-7.3440
G01 X19.0412 Y-7.3329
G01 X18.9507 Y-7.3262
G01 X18.8599 Y-7.3240
G01 X18.7691 Y-7.3262
G01 X18.6786 Y-7.3329
G01 X18.5885 Y-7.3440
G01 X18.4990 Y-7.3595
G01 X18.4104 Y-7.3794
G01 X18.3229 Y-7.4036
G01 X18.2367 Y-7.4321
G01 X18.1520 Y-7.4648
G01 X18.0690 Y-7.5016
G01 X17.9879 Y-7.5424
G01 X17.9088 Y-7.5872
G01 X17.8321 Y-7.6357
G01 X17.7579 Y-7.6880
G01 X17.6863 Y-7.7439
G01 X17.6176 Y-7.8032
G01 X17.5518 Y-7.8658
G01 X17.4892 Y-7.9316
G01 X17.4299 Y-8.0003
G01 X17.3740 Y-8.0719
G01 X17.3217 Y-8.1461
G01 X17.2732 Y-8.2228
G01 X17.2284 Y-8.3019
G01 X17.1876 Y-8.3830
G01 X17.1508 Y-8.4660
G01 X17.1181 Y-8.5507
G01 X17.0896 Y-8.6369
G01 X17.0654 Y-8.7244
G01 X17.0455 Y-8.8130
G01 X17.0300 Y-8.9025
G01 X17.0189 Y-8.9926
G01 X17.0122 Y-9.0831
G01 X17.0100 Y-9.1739
G01 X17.0122 Y-9.2647
G01 X17.0189 Y-9.3552
G01 X17.0300 Y-9.4453
G01 X17.0455 Y-9.5348
G01 X17.0654 Y-9.6234
G01 X17.0896 Y-9.7109
G01 X17.1181 Y-9.7971
G01 X17.1508 Y-9.8818
G01 X17.1876 Y-9.9648
G01 X17.2284 Y-10.0459
G01 X17.2732 Y-10.1250
G01 X17.3217 Y-10.2017
G01 X17.3740 Y-10.2759
G01 X17.4299 Y-10.3475
G01 X17.4892 Y-10.4162
G01 X17.5518 Y-10.4820
G01 X17.6176 Y-10.5446
G01 X17.6863 Y-10.6039
G01 X17.7579 Y-10.6598
G01 X17.8321 Y-10.7121
G01 X17.9088 Y-10.7606
G01 X17.9879 Y-10.8054
G01 X18.0690 Y-10.8462
G01 X18.1520 Y-10.8830
G01 X18.2367 Y-10.9157
G01 X18.3229 Y-10.9442
G01 X18.4104 Y-10.9684
G01 X18.4990 Y-10.9883
G01 X18.5885 Y-11.0038
G01 X18.6786 Y-11.0149
G01 X18.7691 Y-11.0216
G01 X18.8599 Y-11.0238
G01 X18.9507 Y-11.0216
G01 X19.0412 Y-11.0149
G01 X19.1313 Y-11.0038
G01 X19.2208 Y-10.9883
G01 X19.3094 Y-10.9684
G01 X19.3969 Y-10.9442
G01 X19.4831 Y-10.9157
G01 X19.5678 Y-10.8830
G01 X19.6508 Y-10.8462
G01 X19.7319 Y-10.8054
G01 X19.8110 Y-10.7606
G01 X19.8877 Y-10.7121
G01 X19.9619 Y-10.6598
G01 X20.0335 Y-10.6039
G01 X20.1022 Y-10.5446
G01 X20.1680 Y-10.4820
G01 X20.2306 Y-10.4162
G01 X20.2899 Y-10.3475
G01 X20.3458 Y-10.2759
G01 X20.3981 Y-10.2017
G01 X20.4466 Y-10.1250
G01 X20.4914 Y-10.0459
G01 X20.5322 Y-9.9648
G01 X20.5690 Y-9.8818
G01 X20.6017 Y-9.7971
G01 X20.6302 Y-9.7109
G01 X20.6544 Y-9.6234
G01 X20.6743 Y-9.5348
G01 X20.6898 Y-9.4453
G01 X20.7009 Y-9.3552
G01 X20.7076 Y-9.2647
G01 X20.7098 Y-9.1739
G00 Z5.0000
G00 X20.6099 Y-9.1708
G01 F80.00
G01 Z-0.0500
G01 F40.00
G01 X20.6078 Y-9.0880
G01 X20.6015 Y-9.0024
G01 X20.5910 Y-8.9171
G01 X20.5763 Y-8.8325
G01 X20.5575 Y-8.7487
G01 X20.5345 Y-8.6659
G01 X20.5076 Y-8.5843
G01 X20.4767 Y-8.5042
G01 X20.4419 Y-8.4257
G01 X20.4033 Y-8.3490
G01 X20.3609 Y-8.2742
G01 X20.3150 Y-8.2017
G01 X20.2655 Y-8.1314
G01 X20.2127 Y-8.0637
G01 X20.1566 Y-7.9987
G01 X20.0973 Y-7.9365
G01 X20.0351 Y-7.8772
G01 X19.9701 Y-7.8211
G01 X19.9024 Y-7.7683
G01 X19.8321 Y-7.7188
G01 X19.7596 Y-7.6729
G01 X19.6848 Y-7.6305
G01 X19.6081 Y-7.5919
G01 X19.5296 Y-7.5571
G01 X19.4495 Y-7.5262
G01 X19.3679 Y-7.4993
G01 X19.2851 Y-7.4763
G01 X19.2013 Y-7.4575
G01 X19.1167 Y-7.4428
G01 X19.0314 Y-7.4323
G01 X18.9458 Y-7.4260
G01 X18.8599 Y-7.4239
G01 X18.7740 Y-7.4260
G01 X18.6884 Y-7.4323
G01 X18.6031 Y-7.4428
G01 X18.5185 Y-7.4575
G01 X18.4347 Y-7.4763
G01 X18.3519 Y-7.4993
G01 X18.2703 Y-7.5262
G01 X18.1902 Y-7.5571
G01 X18.1117 Y-7.5919
G01 X18.0350 Y-7.6305
G01 X17.9602 Y-7.6729
G01 X17.8877 Y-7.7188
G01 X17.8174 Y-7.7683
G01 X17.7497 Y-7.8211
G01 X17.6847 Y-7.8772
G01 X17.6225 Y-7.9365
G01 X17.5632 Y-7.9987
G01 X17.5071 Y-8.0637
G01 X17.4543 Y-8.1314
G01 X17.4048 Y-8.2017
G01 X17.3589 Y-8.2742
G01 X17.3165 Y-8.3490
G01 X17.2779 Y-8.4257
G01 X17.2431 Y-8.5042
G01 X17.2122 Y-8.5843
G01 X17.1853 Y-8.6659
G01 X17.1623 Y-8.7487
G01 X17.1435 Y-8.8325
G01 X17.1288 Y-8.9171
G01 X17.1183 Y-9.0024
G01 X17.1120 Y-9.0880
G01 X17.1099 Y-9.1739
G01 X17.1120 Y-9.2598
G01 X17.1183 Y-9.3454
G01 X17.1288 Y-9.4307
G01 X17.1435 Y-9.5153
G01 X17.1623 Y-9.5991
G01 X17.1853 Y-9.6819
G01 X17.2122 Y-9.7635
G01 X17.2431 Y-9.8436
G01 X17.2779 Y-9.9221
G01 X17.3165 Y-9.9988
G01 X17.3589 Y-10.0736
G01 X17.4048 Y-10.1461
G01 X17.4543 Y-10.2164
G01 X17.5071 Y-10.2841
G01 X17.5632 Y-10.3491
G01 X17.6225 Y-10.4113
G01 X17.6847 Y-10.4706
G01 X17.7497 Y-10.5267
G01 X17.8174 Y-10.5795
G01 X17.8877 Y-10.6290
G01 X17.9602 Y-10.6749
G01 X18.0350 Y-10.7173
G01 X18.1117 Y-10.7559
G01 X18.1902 Y-10.7907
G01 X18.2703 Y-10.8216
G01 X18.3519 Y-10.8485
G01 X18.4347 Y-10.8715
G01 X18.5185 Y-10.8903
G01 X18.6031 Y-10.9050
G01 X18.6884 Y-10.9155
G01 X18.7740 Y-10.9218
G01 X18.8599 Y-10.9239
G01 X18.9458 Y-10.9218
G01 X19.0314 Y-10.9155
G01 X19.1167 Y-10.9050
G01 X19.2013 Y-10.8903
G01 X19.2851 Y-10.8715
G01 X19.3679 Y-10.8485
G01 X19.4495 Y-10.8216
G01 X19.5296 Y-10.7907
G01 X19.6081 Y-10.7559
G01 X19.6848 Y-10.7173
G01 X19.7596 Y-10.6749
G01 X19.8321 Y-10.6290
G01 X19.9024 Y-10.5795
G01 X19.9701 Y-10.5267
G01 X20.0351 Y-10.4706
G01 X20.0973 Y-10.4113
G01 X20.1566 Y-10.3491
G01 X20.2127 Y-10.2841
G01 X20.2655 Y-10.2164
G01 X20.3150 Y-10.1461
G01 X20.3609 Y-10.0736
G01 X20.4033 Y-9.9988
G01 X20.4419 Y-9.9221
G01 X20.4767 Y-9.8436
G01 X20.5076 Y-9.7635
G01 X20.5345 Y-9.6819
G01 X20.5575 Y-9.5991
G01 X20.5763 Y-9.5153
G01 X20.5910 Y-9.4307
G01 X20.6015 Y-9.3454
G01 X20.6078 Y-9.2598
G01 X20.6099 Y-9.1708
G00 Z5.0000
G00 X15.6298 Y-9.1739
G01 F80.00
G01 Z-0.0500
G01 F40.00
G01 X15.6276 Y-9.0831
G01 X15.6209 Y-8.9926
G01 X15.6098 Y-8.9025
G01 X15.5943 Y-8.8130
G01 X15.5744 Y-8.7244
G01 X15.5502 Y-8.6369
G01 X15.5217 Y-8.5507
G01 X15.4890 Y-8.4660
G01 X15.4522 Y-8.3830
G01 X15.4114 Y-8.3019
G01 X15.3666 Y-8.2228
G01 X15.3181 Y-8.1461
G01 X15.2658 Y-8.0719
G01 X15.2099 Y-8.0003
G01 X15.1506 Y-7.9316
G01 X15.0880 Y-7.8658
G01 X15.0222 Y-7.8032
G01 X14.9535 Y-7.7439
G01 X14.8819 Y-7.6880
G01 X14.8077 Y-7.6357
G01 X14.7310 Y-7.5872
G01 X14.6519 Y-7.5424
G01 X14.5708 Y-7.5016
G01 X14.4878 Y-7.4648
G01 X14.4031 Y-7.4321
G01 X14.3169 Y-7.4036
G01 X14.2294 Y-7.3794
G01 X14.1408 Y-7.3595
G01 X14.0513 Y-7.3440
G01 X13.9612 Y-7.3329
G01 X13.8707 Y-7.3262
G01 X13.7799 Y-7.3240
G01 X13.6891 Y-7.3262
G01 X13.5986 Y-7.3329
G01 X13.5085 Y-7.3440
G01 X13.4190 Y-7.3595
G01 X13.3304 Y-7.3794
G01 X13.2429 Y-7.4036
G01 X13.1567 Y-7.4321
G01 X13.0720 Y-7.4648
G01 X12.9890 Y-7.5016
G01 X12.9079 Y-7.5424
G01 X12.8288 Y-7.5872
G01 X12.7521 Y-7.6357
G01 X12.6779 Y-7.6880
G01 X12.6063 Y-7.7439
G01 X12.5376 Y-7.8032
G01 X12.4718 Y-7.8658
G01 X12.4092 Y-7.9316
G01 X12.3499 Y-8.0003
G01 X12.2940 Y-8.0719
G01 X12.2417 Y-8.1461
G01 X12.1932 Y-8.2228
G01 X12.1484 Y-8.3019
G01 X12.1076 Y-8.3830
G01 X12.0708 Y-8.4660
G01 X12.0381 Y-8.5507
G01 X12.0096 Y-8.6369
G01 X11.9854 Y-8.7244
G01 X11.9655 Y-8.8130
G01 X11.9500 Y-8.9025
G01 X11.9389 Y-8.9926
G01 X11.9322 Y-9.0831
G01 X11.9300 Y-9.1739
G01 X11.9322 Y-9.2647
G01 X11.9389 Y-9.3552
G01 X11.9500 Y-9.4453
G01 X11.9655 Y-9.5348
G01 X11.9854 Y-9.6234
G01 X12.0096 Y-9.7109
G01 X12.0381 Y-9.7971
G01 X12.0708 Y-9.8818
G01 X12.1076 Y-9.9648
G01 X12.1484 Y-10.0459
G01 X12.1932 Y-10.1250
G01 X12.2417 Y-10.2017
G01 X12.2940 Y-10.2759
G01 X12.3499 Y-10.3475
G01 X12.4092 Y-10.4162
G01 X12.4718 Y-10.4820
G01 X12.5376 Y-10.5446
G01 X12.6063 Y-10.6039
G01 X12.6779 Y-10.6598
G01 X12.7521 Y-10.7121
G01 X12.8288 Y-10.7606
G01 X12.9079 Y-10.8054
G01 X12.9890 Y-10.8462
G01 X13.0720 Y-10.8830
G01 X13.1567 Y-10.9157
G01 X13.2429 Y-10.9442
G01 X13.3304 Y-10.9684
G01 X13.4190 Y-10.9883
G01 X13.5085 Y-11.0038
G01 X13.5986 Y-11.0149
G01 X13.6891 Y-11.0216
G01 X13.7799 Y-11.0238
G01 X13.8707 Y-11.0216
G01 X13.9612 Y-11.0149
G01 X14.0513 Y-11.0038
G01 X14.1408 Y-10.9883
G01 X14.2294 Y-10.9684
G01 X14.3169 Y-10.9442
G01 X14.4031 Y-10.9157
G01 X14.4878 Y-10.8830
G01 X14.5708 Y-10.8462
G01 X14.6519 Y-10.8054
G01 X14.7310 Y-10.7606
G01 X14.8077 Y-10.7121
G01 X14.8819 Y-10.6598
G01 X14.9535 Y-10.6039
G01 X15.0222 Y-10.5446
G01 X15.0880 Y-10.4820
G01 X15.1506 Y-10.4162
G01 X15.2099 Y-10.3475
G01 X15.2658 Y-10.2759
G01 X15.3181 Y-10.2017
G01 X15.3666 Y-10.1250
G01 X15.4114 Y-10.0459
G01 X15.4522 Y-9.9648
G01 X15.4890 Y-9.8818
G01 X15.5217 Y-9.7971
G01 X15.5502 Y-9.7109
G01 X15.5744 Y-9.6234
G01 X15.5943 Y-9.5348
G01 X15.6098 Y-9.4453
G01 X15.6209 Y-9.3552
G01 X15.6276 Y-9.2647
G01 X15.6298 Y-9.1739
G00 Z5.0000
G00 X15.5299 Y-9.1708
G01 F80.00
G01 Z-0.0500
G01 F40.00
G01 X15.5278 Y-9.0880
G01 X15.5215 Y-9.0024
G01 X15.5110 Y-8.9171
G01 X15.4963 Y-8.8325
G01 X15.4775 Y-8.7487
G01 X15.4545 Y-8.6659
G01 X15.4276 Y-8.5843
G01 X15.3967 Y-8.5042
G01 X15.3619 Y-8.4257
G01 X15.3233 Y-8.3490
G01 X15.2809 Y-8.2742
G01 X15.2350 Y-8.2017
G01 X15.1855 Y-8.1314
G01 X15.1327 Y-8.0637
G01 X15.0766 Y-7.9987
G01 X15.0173 Y-7.9365
G01 X14.9551 Y-7.8772
G01 X14.8901 Y-7.8211
G01 X14.8224 Y-7.7683
G01 X14.7521 Y-7.7188
G01 X14.6796 Y-7.6729
G01 X14.6048 Y-7.6305
G01 X14.5281 Y-7.5919
G01 X14.4496 Y-7.5571
G01 X14.3695 Y-7.5262
G01 X14.2879 Y-7.4993
G01 X14.2051 Y-7.4763
G01 X14.1213 Y-7.4575
G01 X14.0367 Y-7.4428
G01 X13.9514 Y-7.4323
G01 X13.8658 Y-7.4260
G01 X13.7799 Y-7.4239
G01 X13.6940 Y-7.4260
G01 X13.6084 Y-7.4323
G01 X13.5231 Y-7.4428
G01 X13.4385 Y-7.4575
G01 X13.3547 Y-7.4763
G01 X13.2719 Y-7.4993
G01 X13.1903 Y-7.5262
G01 X13.1102 Y-7.5571
G01 X13.0317 Y-7.5919
G01 X12.9550 Y-7.6305
G01 X12.8802 Y-7.6729
G01 X12.8077 Y-7.7188
G01 X12.7374 Y-7.7683
G01 X12.6697 Y-7.8211
G01 X12.6047 Y-7.8772
G01 X12.5425 Y-7.9365
G01 X12.4832 Y-7.9987
G01 X12.4271 Y-8.0637
G01 X12.3743 Y-8.1314
G01 X12.3248 Y-8.2017
G01 X12.2789 Y-8.2742
G01 X12.2365 Y-8.3490
G01 X12.1979 Y-8.4257
G01 X12.1631 Y-8.5042
G01 X12.1322 Y-8.5843
G01 X12.1053 Y-8.6659
G01 X12.0823 Y-8.7487
G01 X12.0635 Y-8.8325
G01 X12.0488 Y-8.9171
G01 X12.0383 Y-9.0024
G01 X12.0320 Y-9.0880
G01 X12.0299 Y-9.1739
G01 X12.0320 Y-9.2598
G01 X12.0383 Y-9.3454
G01 X12.0488 Y-9.4307
G01 X12.0635 Y-9.5153
G01 X12.0823 Y-9.5991
G01 X12.1053 Y-9.6819
G01 X12.1322 Y-9.7635
G01 X12.1631 Y-9.8436
G01 X12.1979 Y-9.9221
G01 X12.2365 Y-9.9988
G01 X12.2789 Y-10.0736
G01 X12.3248 Y-10.1461
G01 X12.3743 Y-10.2164
G01 X12.4271 Y-10.2841
G01 X12.4832 Y-10.3491
G01 X12.5425 Y-10.4113
G01 X12.6047 Y-10.4706
G01 X12.6697 Y-10.5267
G01 X12.7374 Y-10.5795
G01 X12.8077 Y-10.6290
G01 X12.8802 Y-10.6749
G01 X12.9550 Y-10.7173
G01 X13.0317 Y-10.7559
G01 X13.1102 Y-10.7907
G01 X13.1903 Y-10.8216
G01 X13.2719 Y-10.8485
G01 X13.3547 Y-10.8715
G01 X13.4385 Y-10.8903
G01 X13.5231 Y-10.9050
G01 X13.6084 Y-10.9155
G01 X13.6940 Y-10.9218
G01 X13.7799 Y-10.9239
G01 X13.8658 Y-10.9218
G01 X13.9514 Y-10.9155
G01 X14.0367 Y-10.9050
G01 X14.1213 Y-10.8903
G01 X14.2051 Y-10.8715
G01 X14.2879 Y-10.8485
G01 X14.3695 Y-10.8216
G01 X14.4496 Y-10.7907
G01 X14.5281 Y-10.7559
G01 X14.6048 Y-10.7173
G01 X14.6796 Y-10.6749
G01 X14.7521 Y-10.6290
G01 X14.8224 Y-10.5795
G01 X14.8901 Y-10.5267
G01 X14.9551 Y-10.4706
G01 X15.0173 Y-10.4113
G01 X15.0766 Y-10.3491
G01 X15.1327 Y-10.2841
G01 X15.1855 Y-10.2164
G01 X15.2350 Y-10.1461
G01 X15.2809 Y-10.0736
G01 X15.3233 Y-9.9988
G01 X15.3619 Y-9.9221
G01 X15.3967 Y-9.8436
G01 X15.4276 Y-9.7635
G01 X15.4545 Y-9.6819
G01 X15.4775 Y-9.5991
G01 X15.4963 Y-9.5153
G01 X15.5110 Y-9.4307
G01 X15.5215 Y-9.3454
G01 X15.5278 Y-9.2598
G01 X15.5299 Y-9.1708
G00 Z5.0000
G00 X15.6298 Y-4.0939
G01 F80.00
G01 Z-0.0500
G01 F40.00
G01 X15.6276 Y-4.0031
G01 X15.6209 Y-3.9126
G01 X15.6098 Y-3.8225
G01 X15.5943 Y-3.7330
G01 X15.5744 Y-3.6444
G01 X15.5502 Y-3.5569
G01 X15.5217 Y-3.4707
G01 X15.4890 Y-3.3860
G01 X15.4522 Y-3.3030
G01 X15.4114 Y-3.2219
G01 X15.3666 Y-3.1428
G01 X15.3181 Y-3.0661
G01 X15.2658 Y-2.9919
G01 X15.2099 Y-2.9203
G01 X15.1506 Y-2.8516
G01 X15.0880 Y-2.7858
G01 X15.0222 Y-2.7232
G01 X14.9535 Y-2.6639
G01 X14.8819 Y-2.6080
G01 X14.8077 Y-2.5557
G01 X14.7310 Y-2.5072
G01 X14.6519 Y-2.4624
G01 X14.5708 Y-2.4216
G01 X14.4878 Y-2.3848
G01 X14.4031 Y-2.3521
G01 X14.3169 Y-2.3236
G01 X14.2294 Y-2.2994
G01 X14.1408 Y-2.2795
G01 X14.0513 Y-2.2640
G01 X13.9612 Y-2.2529
G01 X13.8707 Y-2.2462
G01 X13.7799 Y-2.2440
G01 X13.6891 Y-2.2462
G01 X13.5986 Y-2.2529
G01 X13.5085 Y-2.2640
G01 X13.4190 Y-2.2795
G01 X13.3304 Y-2.2994
G01 X13.2429 Y-2.3236
G01 X13.1567 Y-2.3521
G01 X13.0720 Y-2.3848
G01 X12.9890 Y-2.4216
G01 X12.9079 Y-2.4624
G01 X12.8288 Y-2.5072
G01 X12.7521 Y-2.5557
G01 X12.6779 Y-2.6080
G01 X12.6063 Y-2.6639
G01 X12.5376 Y-2.7232
G01 X12.4718 Y-2.7858
G01 X12.4092 Y-2.8516
G01 X12.3499 Y-2.9203
G01 X12.2940 Y-2.9919
G01 X12.2417 Y-3.0661
G01 X12.1932 Y-3.1428
G01 X12.1484 Y-3.2219
G01 X12.1076 Y-3.3030
G01 X12.0708 Y-3.3860
G01 X12.0381 Y-3.4707
G01 X12.0096 Y-3.5569
G01 X11.9854 Y-3.6444
G01 X11.9655 Y-3.7330
G01 X11.9500 Y-3.8225
G01 X11.9389 Y-3.9126
G01 X11.9322 Y-4.0031
G01 X11.9300 Y-4.0939
G01 X11.9322 Y-4.1847
G01 X11.9389 Y-4.2752
G01 X11.9500 Y-4.3653
G01 X11.9655 Y-4.4548
G01 X11.9854 Y-4.5434
G01 X12.0096 Y-4.6309
G01 X12.0381 Y-4.7171
G01 X12.0708 Y-4.8018
G01 X12.1076 Y-4.8848
G01 X12.1484 Y-4.9659
G01 X12.1932 Y-5.0450
G01 X12.2417 Y-5.1217
G01 X12.2940 Y-5.1959
G01 X12.3499 Y-5.2675
G01 X12.4092 Y-5.3362
G01 X12.4718 Y-5.4020
G01 X12.5376 Y-5.4646
G01 X12.6063 Y-5.5239
G01 X12.6779 Y-5.5798
G01 X12.7521 Y-5.6321
G01 X12.8288 Y-5.6806
G01 X12.9079 Y-5.7254
G01 X12.9890 Y-5.7662
G01 X13.0720 Y-5.8030
G01 X13.1567 Y-5.8357
G01 X13.2429 Y-5.8642
G01 X13.3304 Y-5.8884
G01 X13.4190 Y-5.9083
G01 X13.5085 Y-5.9238
G01 X13.5986 Y-5.9349
G01 X13.6891 Y-5.9416
G01 X13.7799 Y-5.9438
G01 X13.8707 Y-5.9416
G01 X13.9612 Y-5.9349
G01 X14.0513 Y-5.9238
G01 X14.1408 Y-5.9083
G01 X14.2294 Y-5.8884
G01 X14.3169 Y-5.8642
G01 X14.4031 Y-5.8357
G01 X14.4878 Y-5.8030
G01 X14.5708 Y-5.7662
G01 X14.6519 Y-5.7254
G01 X14.7310 Y-5.6806
G01 X14.8077 Y-5.6321
G01 X14.8819 Y-5.5798
G01 X14.9535 Y-5.5239
G01 X15.0222 Y-5.4646
G01 X15.0880 Y-5.4020
G01 X15.1506 Y-5.3362
G01 X15.2099 Y-5.2675
G01 X15.2658 Y-5.1959
G01 X15.3181 Y-5.1217
G01 X15.3666 Y-5.0450
G01 X15.4114 Y-4.9659
G01 X15.4522 Y-4.8848
G01 X15.4890 Y-4.8018
G01 X15.5217 Y-4.7171
G01 X15.5502 Y-4.6309
G01 X15.5744 Y-4.5434
G01 X15.5943 Y-4.4548
G01 X15.6098 Y-4.3653
G01 X15.6209 Y-4.2752
G01 X15.6276 Y-4.1847
G01 X15.6298 Y-4.0939
G00 Z5.0000
G00 X15.5299 Y-4.0908
G01 F80.00
G01 Z-0.0500
G01 F40.00
G01 X15.5278 Y-4.0080
G01 X15.5215 Y-3.9224
G01 X15.5110 Y-3.8371
G01 X15.4963 Y-3.7525
G01 X15.4775 Y-3.6687
G01 X15.4545 Y-3.5859
G01 X15.4276 Y-3.5043
G01 X15.3967 Y-3.4242
G01 X15.3619 Y-3.3457
G01 X15.3233 Y-3.2690
G01 X15.2809 Y-3.1942
G01 X15.2350 Y-3.1217
G01 X15.1855 Y-3.0514
G01 X15.1327 Y-2.9837
G01 X15.0766 Y-2.9187
G01 X15.0173 Y-2.8565
G01 X14.9551 Y-2.7972
G01 X14.8901 Y-2.7411
G01 X14.8224 Y-2.6883
G01 X14.7521 Y-2.6388
G01 X14.6796 Y-2.5929
G01 X14.6048 Y-2.5505
G01 X14.5281 Y-2.5119
G01 X14.4496 Y-2.4771
G01 X14.3695 Y-2.4462
G01 X14.2879 Y-2.4193
G01 X14.2051 Y-2.3963
G01 X14.1213 Y-2.3775
G01 X14.0367 Y-2.3628
G01 X13.9514 Y-2.3523
G01 X13.8658 Y-2.3460
G01 X13.7799 Y-2.3439
G01 X13.6940 Y-2.3460
G01 X13.6084 Y-2.3523
G01 X13.5231 Y-2.3628
G01 X13.4385 Y-2.3775
G01 X13.3547 Y-2.3963
G01 X13.2719 Y-2.4193
G01 X13.1903 Y-2.4462
G01 X13.1102 Y-2.4771
G01 X13.0317 Y-2.5119
G01 X12.9550 Y-2.5505
G01 X12.8802 Y-2.5929
G01 X12.8077 Y-2.6388
G01 X12.7374 Y-2.6883
G01 X12.6697 Y-2.7411
G01 X12.6047 Y-2.7972
G01 X12.5425 Y-2.8565
G01 X12.4832 Y-2.9187
G01 X12.4271 Y-2.9837
G01 X12.3743 Y-3.0514
G01 X12.3248 Y-3.1217
G01 X12.2789 Y-3.1942
G01 X12.2365 Y-3.2690
G01 X12.1979 Y-3.3457
G01 X12.1631 Y-3.4242
G01 X12.1322 Y-3.5043
G01 X12.1053 Y-3.5859
G01 X12.0823 Y-3.6687
G01 X12.0635 Y-3.7525
G01 X12.0488 Y-3.8371
G01 X12.0383 Y-3.9224
G01 X12.0320 Y-4.0080
G01 X12.0299 Y-4.0939
G01 X12.0320 Y-4.1798
G01 X12.0383 Y-4.2654
G01 X12.0488 Y-4.3507
G01 X12.0635 Y-4.4353
G01 X12.0823 Y-4.5191
G01 X12.1053 Y-4.6019
G01 X12.1322 Y-4.6835
G01 X12.1631 Y-4.7636
G01 X12.1979 Y-4.8421
G01 X12.2365 Y-4.9188
G01 X12.2789 Y-4.9936
G01 X12.3248 Y-5.0661
G01 X12.3743 Y-5.1364
G01 X12.4271 Y-5.2041
G01 X12.4832 Y-5.2691
G01 X12.5425 Y-5.3313
G01 X12.6047 Y-5.3906
G01 X12.6697 Y-5.4467
G01 X12.7374 Y-5.4995
G01 X12.8077 Y-5.5490
G01 X12.8802 Y-5.5949
G01 X12.9550 Y-5.6373
G01 X13.0317 Y-5.6759
G01 X13.1102 Y-5.7107
G01 X13.1903 Y-5.7416
G01 X13.2719 Y-5.7685
G01 X13.3547 Y-5.7915
G01 X13.4385 Y-5.8103
G01 X13.5231 Y-5.8250
G01 X13.6084 Y-5.8355
G01 X13.6940 Y-5.8418
G01 X13.7799 Y-5.8439
G01 X13.8658 Y-5.8418
G01 X13.9514 Y-5.8355
G01 X14.0367 Y-5.8250
G01 X14.1213 Y-5.8103
G01 X14.2051 Y-5.7915
G01 X14.2879 Y-5.7685
G01 X14.3695 Y-5.7416
G01 X14.4496 Y-5.7107
G01 X14.5281 Y-5.6759
G01 X14.6048 Y-5.6373
G01 X14.6796 Y-5.5949
G01 X14.7521 Y-5.5490
G01 X14.8224 Y-5.4995
G01 X14.8901 Y-5.4467
G01 X14.9551 Y-5.3906
G01 X15.0173 Y-5.3313
G01 X15.0766 Y-5.2691
G01 X15.1327 Y-5.2041
G01 X15.1855 Y-5.1364
G01 X15.2350 Y-5.0661
G01 X15.2809 Y-4.9936
G01 X15.3233 Y-4.9188
G01 X15.3619 Y-4.8421
G01 X15.3967 Y-4.7636
G01 X15.4276 Y-4.6835
G01 X15.4545 Y-4.6019
G01 X15.4775 Y-4.5191
G01 X15.4963 Y-4.4353
G01 X15.5110 Y-4.3507
G01 X15.5215 Y-4.2654
G01 X15.5278 Y-4.1798
G01 X15.5299 Y-4.0908
G00 Z5.0000
G00 X20.6099 Y-4.0908
G01 F80.00
G01 Z-0.0500
G01 F40.00
G01 X20.6078 Y-4.0080
G01 X20.6015 Y-3.9224
G01 X20.5910 Y-3.8371
G01 X20.5763 Y-3.7525
G01 X20.5575 Y-3.6687
G01 X20.5345 Y-3.5859
G01 X20.5076 Y-3.5043
G01 X20.4767 Y-3.4242
G01 X20.4419 Y-3.3457
G01 X20.4033 Y-3.2690
G01 X20.3609 Y-3.1942
G01 X20.3150 Y-3.1217
G01 X20.2655 Y-3.0514
G01 X20.2127 Y-2.9837
G01 X20.1566 Y-2.9187
G01 X20.0973 Y-2.8565
G01 X20.0351 Y-2.7972
G01 X19.9701 Y-2.7411
G01 X19.9024 Y-2.6883
G01 X19.8321 Y-2.6388
G01 X19.7596 Y-2.5929
G01 X19.6848 Y-2.5505
G01 X19.6081 Y-2.5119
G01 X19.5296 Y-2.4771
G01 X19.4495 Y-2.4462
G01 X19.3679 Y-2.4193
G01 X19.2851 Y-2.3963
G01 X19.2013 Y-2.3775
G01 X19.1167 Y-2.3628
G01 X19.0314 Y-2.3523
G01 X18.9458 Y-2.3460
G01 X18.8599 Y-2.3439
G01 X18.7740 Y-2.3460
G01 X18.6884 Y-2.3523
G01 X18.6031 Y-2.3628
G01 X18.5185 Y-2.3775
G01 X18.4347 Y-2.3963
G01 X18.3519 Y-2.4193
G01 X18.2703 Y-2.4462
G01 X18.1902 Y-2.4771
G01 X18.1117 Y-2.5119
G01 X18.0350 Y-2.5505
G01 X17.9602 Y-2.5929
G01 X17.8877 Y-2.6388
G01 X17.8174 Y-2.6883
G01 X17.7497 Y-2.7411
G01 X17.6847 Y-2.7972
G01 X17.6225 Y-2.8565
G01 X17.5632 Y-2.9187
G01 X17.5071 Y-2.9837
G01 X17.4543 Y-3.0514
G01 X17.4048 Y-3.1217
G01 X17.3589 Y-3.1942
G01 X17.3165 Y-3.2690
G01 X17.2779 Y-3.3457
G01 X17.2431 Y-3.4242
G01 X17.2122 Y-3.5043
G01 X17.1853 Y-3.5859
G01 X17.1623 Y-3.6687
G01 X17.1435 Y-3.7525
G01 X17.1288 Y-3.8371
G01 X17.1183 Y-3.9224
G01 X17.1120 Y-4.0080
G01 X17.1099 Y-4.0939
G01 X17.1120 Y-4.1798
G01 X17.1183 Y-4.2654
G01 X17.1288 Y-4.3507
G01 X17.1435 Y-4.4353
G01 X17.1623 Y-4.5191
G01 X17.1853 Y-4.6019
G01 X17.2122 Y-4.6835
G01 X17.2431 Y-4.7636
G01 X17.2779 Y-4.8421
G01 X17.3165 Y-4.9188
G01 X17.3589 Y-4.9936
G01 X17.4048 Y-5.0661
G01 X17.4543 Y-5.1364
G01 X17.5071 Y-5.2041
G01 X17.5632 Y-5.2691
G01 X17.6225 Y-5.3313
G01 X17.6847 Y-5.3906
G01 X17.7497 Y-5.4467
G01 X17.8174 Y-5.4995
G01 X17.8877 Y-5.5490
G01 X17.9602 Y-5.5949
G01 X18.0350 Y-5.6373
G01 X18.1117 Y-5.6759
G01 X18.1902 Y-5.7107
G01 X18.2703 Y-5.7416
G01 X18.3519 Y-5.7685
G01 X18.4347 Y-5.7915
G01 X18.5185 Y-5.8103
G01 X18.6031 Y-5.8250
G01 X18.6884 Y-5.8355
G01 X18.7740 Y-5.8418
G01 X18.8599 Y-5.8439
G01 X18.9458 Y-5.8418
G01 X19.0314 Y-5.8355
G01 X19.1167 Y-5.8250
G01 X19.2013 Y-5.8103
G01 X19.2851 Y-5.7915
G01 X19.3679 Y-5.7685
G01 X19.4495 Y-5.7416
G01 X19.5296 Y-5.7107
G01 X19.6081 Y-5.6759
G01 X19.6848 Y-5.6373
G01 X19.7596 Y-5.5949
G01 X19.8321 Y-5.5490
G01 X19.9024 Y-5.4995
G01 X19.9701 Y-5.4467
G01 X20.0351 Y-5.3906
G01 X20.0973 Y-5.3313
G01 X20.1566 Y-5.2691
G01 X20.2127 Y-5.2041
G01 X20.2655 Y-5.1364
G01 X20.3150 Y-5.0661
G01 X20.3609 Y-4.9936
G01 X20.4033 Y-4.9188
G01 X20.4419 Y-4.8421
G01 X20.4767 Y-4.7636
G01 X20.5076 Y-4.6835
G01 X20.5345 Y-4.6019
G01 X20.5575 Y-4.5191
G01 X20.5763 Y-4.4353
G01 X20.5910 Y-4.3507
G01 X20.6015 Y-4.2654
G01 X20.6078 Y-4.1798
G01 X20.6099 Y-4.0908
G00 Z5.0000
G00 X20.7098 Y-4.0939
G01 F80.00
G01 Z-0.0500
G01 F40.00
G01 X20.7076 Y-4.0031
G01 X20.7009 Y-3.9126
G01 X20.6898 Y-3.8225
G01 X20.6743 Y-3.7330
G01 X20.6544 Y-3.6444
G01 X20.6302 Y-3.5569
G01 X20.6017 Y-3.4707
G01 X20.5690 Y-3.3860
G01 X20.5322 Y-3.3030
G01 X20.4914 Y-3.2219
G01 X20.4466 Y-3.1428
G01 X20.3981 Y-3.0661
G01 X20.3458 Y-2.9919
G01 X20.2899 Y-2.9203
G01 X20.2306 Y-2.8516
G01 X20.1680 Y-2.7858
G01 X20.1022 Y-2.7232
G01 X20.0335 Y-2.6639
G01 X19.9619 Y-2.6080
G01 X19.8877 Y-2.5557
G01 X19.8110 Y-2.5072
G01 X19.7319 Y-2.4624
G01 X19.6508 Y-2.4216
G01 X19.5678 Y-2.3848
G01 X19.4831 Y-2.3521
G01 X19.3969 Y-2.3236
G01 X19.3094 Y-2.2994
G01 X19.2208 Y-2.2795
G01 X19.1313 Y-2.2640
G01 X19.0412 Y-2.2529
G01 X18.9507 Y-2.2462
G01 X18.8599 Y-2.2440
G01 X18.7691 Y-2.2462
G01 X18.6786 Y-2.2529
G01 X18.5885 Y-2.2640
G01 X18.4990 Y-2.2795
G01 X18.4104 Y-2.2994
G01 X18.3229 Y-2.3236
G01 X18.2367 Y-2.3521
G01 X18.1520 Y-2.3848
G01 X18.0690 Y-2.4216
G01 X17.9879 Y-2.4624
G01 X17.9088 Y-2.5072
G01 X17.8321 Y-2.5557
G01 X17.7579 Y-2.6080
G01 X17.6863 Y-2.6639
G01 X17.6176 Y-2.7232
G01 X17.5518 Y-2.7858
G01 X17.4892 Y-2.8516
G01 X17.4299 Y-2.9203
G01 X17.3740 Y-2.9919
G01 X17.3217 Y-3.0661
G01 X17.2732 Y-3.1428
G01 X17.2284 Y-3.2219
G01 X17.1876 Y-3.3030
G01 X17.1508 Y-3.3860
G01 X17.1181 Y-3.4707
G01 X17.0896 Y-3.5569
G01 X17.0654 Y-3.6444
G01 X17.0455 Y-3.7330
G01 X17.0300 Y-3.8225
G01 X17.0189 Y-3.9126
G01 X17.0122 Y-4.0031
G01 X17.0100 Y-4.0939
G01 X17.0122 Y-4.1847
G01 X17.0189 Y-4.2752
G01 X17.0300 Y-4.3653
G01 X17.0455 Y-4.4548
G01 X17.0654 Y-4.5434
G01 X17.0896 Y-4.6309
G01 X17.1181 Y-4.7171
G01 X17.1508 Y-4.8018
G01 X17.1876 Y-4.8848
G01 X17.2284 Y-4.9659
G01 X17.2732 Y-5.0450
G01 X17.3217 Y-5.1217
G01 X17.3740 Y-5.1959
G01 X17.4299 Y-5.2675
G01 X17.4892 Y-5.3362
G01 X17.5518 Y-5.4020
G01 X17.6176 Y-5.4646
G01 X17.6863 Y-5.5239
G01 X17.7579 Y-5.5798
G01 X17.8321 Y-5.6321
G01 X17.9088 Y-5.6806
G01 X17.9879 Y-5.7254
G01 X18.0690 Y-5.7662
G01 X18.1520 Y-5.8030
G01 X18.2367 Y-5.8357
G01 X18.3229 Y-5.8642
G01 X18.4104 Y-5.8884
G01 X18.4990 Y-5.9083
G01 X18.5885 Y-5.9238
G01 X18.6786 Y-5.9349
G01 X18.7691 Y-5.9416
G01 X18.8599 Y-5.9438
G01 X18.9507 Y-5.9416
G01 X19.0412 Y-5.9349
G01 X19.1313 Y-5.9238
G01 X19.2208 Y-5.9083
G01 X19.3094 Y-5.8884
G01 X19.3969 Y-5.8642
G01 X19.4831 Y-5.8357
G01 X19.5678 Y-5.8030
G01 X19.6508 Y-5.7662
G01 X19.7319 Y-5.7254
G01 X19.8110 Y-5.6806
G01 X19.8877 Y-5.6321
G01 X19.9619 Y-5.5798
G01 X20.0335 Y-5.5239
G01 X20.1022 Y-5.4646
G01 X20.1680 Y-5.4020
G01 X20.2306 Y-5.3362
G01 X20.2899 Y-5.2675
G01 X20.3458 Y-5.1959
G01 X20.3981 Y-5.1217
G01 X20.4466 Y-5.0450
G01 X20.4914 Y-4.9659
G01 X20.5322 Y-4.8848
G01 X20.5690 Y-4.8018
G01 X20.6017 Y-4.7171
G01 X20.6302 Y-4.6309
G01 X20.6544 Y-4.5434
G01 X20.6743 Y-4.4548
G01 X20.6898 Y-4.3653
G01 X20.7009 Y-4.2752
G01 X20.7076 Y-4.1847
G01 X20.7098 Y-4.0939
G00 Z5.0000
G00 X25.6899 Y-4.0908
G01 F80.00
G01 Z-0.0500
G01 F40.00
G01 X25.6878 Y-4.0080
G01 X25.6815 Y-3.9224
G01 X25.6710 Y-3.8371
G01 X25.6563 Y-3.7525
G01 X25.6375 Y-3.6687
G01 X25.6145 Y-3.5859
G01 X25.5876 Y-3.5043
G01 X25.5567 Y-3.4242
G01 X25.5219 Y-3.3457
G01 X25.4833 Y-3.2690
G01 X25.4409 Y-3.1942
G01 X25.3950 Y-3.1217
G01 X25.3455 Y-3.0514
G01 X25.2927 Y-2.9837
G01 X25.2366 Y-2.9187
G01 X25.1773 Y-2.8565
G01 X25.1151 Y-2.7972
G01 X25.0501 Y-2.7411
G01 X24.9824 Y-2.6883
G01 X24.9121 Y-2.6388
G01 X24.8396 Y-2.5929
G01 X24.7648 Y-2.5505
G01 X24.6881 Y-2.5119
G01 X24.6096 Y-2.4771
G01 X24.5295 Y-2.4462
G01 X24.4479 Y-2.4193
G01 X24.3651 Y-2.3963
G01 X24.2813 Y-2.3775
G01 X24.1967 Y-2.3628
G01 X24.1114 Y-2.3523
G01 X24.0258 Y-2.3460
G01 X23.9399 Y-2.3439
G01 X23.8540 Y-2.3460
G01 X23.7684 Y-2.3523
G01 X23.6831 Y-2.3628
G01 X23.5985 Y-2.3775
G01 X23.5147 Y-2.3963
G01 X23.4319 Y-2.4193
G01 X23.3503 Y-2.4462
G01 X23.2702 Y-2.4771
G01 X23.1917 Y-2.5119
G01 X23.1150 Y-2.5505
G01 X23.0402 Y-2.5929
G01 X22.9677 Y-2.6388
G01 X22.8974 Y-2.6883
G01 X22.8297 Y-2.7411
G01 X22.7647 Y-2.7972
G01 X22.7025 Y-2.8565
G01 X22.6432 Y-2.9187
G01 X22.5871 Y-2.9837
G01 X22.5343 Y-3.0514
G01 X22.4848 Y-3.1217
G01 X22.4389 Y-3.1942
G01 X22.3965 Y-3.2690
G01 X22.3579 Y-3.3457
G01 X22.3231 Y-3.4242
G01 X22.2922 Y-3.5043
G01 X22.2653 Y-3.5859
G01 X22.2423 Y-3.6687
G01 X22.2235 Y-3.7525
G01 X22.2088 Y-3.8371
G01 X22.1983 Y-3.9224
G01 X22.1920 Y-4.0080
G01 X22.1899 Y-4.0939
G01 X22.1920 Y-4.1798
G01 X22.1983 Y-4.2654
G01 X22.2088 Y-4.3507
G01 X22.2235 Y-4.4353
G01 X22.2423 Y-4.5191
G01 X22.2653 Y-4.6019
G01 X22.2922 Y-4.6835
G01 X22.3231 Y-4.7636
G01 X22.3579 Y-4.8421
G01 X22.3965 Y-4.9188
G01 X22.4389 Y-4.9936
G01 X22.4848 Y-5.0661
G01 X22.5343 Y-5.1364
G01 X22.5871 Y-5.2041
G01 X22.6432 Y-5.2691
G01 X22.7025 Y-5.3313
G01 X22.7647 Y-5.3906
G01 X22.8297 Y-5.4467
G01 X22.8974 Y-5.4995
G01 X22.9677 Y-5.5490
G01 X23.0402 Y-5.5949
G01 X23.1150 Y-5.6373
G01 X23.1917 Y-5.6759
G01 X23.2702 Y-5.7107
G01 X23.3503 Y-5.7416
G01 X23.4319 Y-5.7685
G01 X23.5147 Y-5.7915
G01 X23.5985 Y-5.8103
G01 X23.6831 Y-5.8250
G01 X23.7684 Y-5.8355
G01 X23.8540 Y-5.8418
G01 X23.9399 Y-5.8439
G01 X24.0258 Y-5.8418
G01 X24.1114 Y-5.8355
G01 X24.1967 Y-5.8250
G01 X24.2813 Y-5.8103
G01 X24.3651 Y-5.7915
G01 X24.4479 Y-5.7685
G01 X24.5295 Y-5.7416
G01 X24.6096 Y-5.7107
G01 X24.6881 Y-5.6759
G01 X24.7648 Y-5.6373
G01 X24.8396 Y-5.5949
G01 X24.9121 Y-5.5490
G01 X24.9824 Y-5.4995
G01 X25.0501 Y-5.4467
G01 X25.1151 Y-5.3906
G01 X25.1773 Y-5.3313
G01 X25.2366 Y-5.2691
G01 X25.2927 Y-5.2041
G01 X25.3455 Y-5.1364
G01 X25.3950 Y-5.0661
G01 X25.4409 Y-4.9936
G01 X25.4833 Y-4.9188
G01 X25.5219 Y-4.8421
G01 X25.5567 Y-4.7636
G01 X25.5876 Y-4.6835
G01 X25.6145 Y-4.6019
G01 X25.6375 Y-4.5191
G01 X25.6563 Y-4.4353
G01 X25.6710 Y-4.3507
G01 X25.6815 Y-4.2654
G01 X25.6878 Y-4.1798
G01 X25.6899 Y-4.0908
G00 Z5.0000
G00 X25.7898 Y-4.0939
G01 F80.00
G01 Z-0.0500
G01 F40.00
G01 X25.7876 Y-4.0031
G01 X25.7809 Y-3.9126
G01 X25.7698 Y-3.8225
G01 X25.7543 Y-3.7330
G01 X25.7344 Y-3.6444
G01 X25.7102 Y-3.5569
G01 X25.6817 Y-3.4707
G01 X25.6490 Y-3.3860
G01 X25.6122 Y-3.3030
G01 X25.5714 Y-3.2219
G01 X25.5266 Y-3.1428
G01 X25.4781 Y-3.0661
G01 X25.4258 Y-2.9919
G01 X25.3699 Y-2.9203
G01 X25.3106 Y-2.8516
G01 X25.2480 Y-2.7858
G01 X25.1822 Y-2.7232
G01 X25.1135 Y-2.6639
G01 X25.0419 Y-2.6080
G01 X24.9677 Y-2.5557
G01 X24.8910 Y-2.5072
G01 X24.8119 Y-2.4624
G01 X24.7308 Y-2.4216
G01 X24.6478 Y-2.3848
G01 X24.5631 Y-2.3521
G01 X24.4769 Y-2.3236
G01 X24.3894 Y-2.2994
G01 X24.3008 Y-2.2795
G01 X24.2113 Y-2.2640
G01 X24.1212 Y-2.2529
G01 X24.0307 Y-2.2462
G01 X23.9399 Y-2.2440
G01 X23.8491 Y-2.2462
G01 X23.7586 Y-2.2529
G01 X23.6685 Y-2.2640
G01 X23.5790 Y-2.2795
G01 X23.4904 Y-2.2994
G01 X23.4029 Y-2.3236
G01 X23.3167 Y-2.3521
G01 X23.2320 Y-2.3848
G01 X23.1490 Y-2.4216
G01 X23.0679 Y-2.4624
G01 X22.9888 Y-2.5072
G01 X22.9121 Y-2.5557
G01 X22.8379 Y-2.6080
G01 X22.7663 Y-2.6639
G01 X22.6976 Y-2.7232
G01 X22.6318 Y-2.7858
G01 X22.5692 Y-2.8516
G01 X22.5099 Y-2.9203
G01 X22.4540 Y-2.9919
G01 X22.4017 Y-3.0661
G01 X22.3532 Y-3.1428
G01 X22.3084 Y-3.2219
G01 X22.2676 Y-3.3030
G01 X22.2308 Y-3.3860
G01 X22.1981 Y-3.4707
G01 X22.1696 Y-3.5569
G01 X22.1454 Y-3.6444
G01 X22.1255 Y-3.7330
G01 X22.1100 Y-3.8225
G01 X22.0989 Y-3.9126
G01 X22.0922 Y-4.0031
G01 X22.0900 Y-4.0939
G01 X22.0922 Y-4.1847
G01 X22.0989 Y-4.2752
G01 X22.1100 Y-4.3653
G01 X22.1255 Y-4.4548
G01 X22.1454 Y-4.5434
G01 X22.1696 Y-4.6309
G01 X22.1981 Y-4.7171
G01 X22.2308 Y-4.8018
G01 X22.2676 Y-4.8848
G01 X22.3084 Y-4.9659
G01 X22.3532 Y-5.0450
G01 X22.4017 Y-5.1217
G01 X22.4540 Y-5.1959
G01 X22.5099 Y-5.2675
G01 X22.5692 Y-5.3362
G01 X22.6318 Y-5.4020
G01 X22.6976 Y-5.4646
G01 X22.7663 Y-5.5239
G01 X22.8379 Y-5.5798
G01 X22.9121 Y-5.6321
G01 X22.9888 Y-5.6806
G01 X23.0679 Y-5.7254
G01 X23.1490 Y-5.7662
G01 X23.2320 Y-5.8030
G01 X23.3167 Y-5.8357
G01 X23.4029 Y-5.8642
G01 X23.4904 Y-5.8884
G01 X23.5790 Y-5.9083
G01 X23.6685 Y-5.9238
G01 X23.7586 Y-5.9349
G01 X23.8491 Y-5.9416
G01 X23.9399 Y-5.9438
G01 X24.0307 Y-5.9416
G01 X24.1212 Y-5.9349
G01 X24.2113 Y-5.9238
G01 X24.3008 Y-5.9083
G01 X24.3894 Y-5.8884
G01 X24.4769 Y-5.8642
G01 X24.5631 Y-5.8357
G01 X24.6478 Y-5.8030
G01 X24.7308 Y-5.7662
G01 X24.8119 Y-5.7254
G01 X24.8910 Y-5.6806
G01 X24.9677 Y-5.6321
G01 X25.0419 Y-5.5798
G01 X25.1135 Y-5.5239
G01 X25.1822 Y-5.4646
G01 X25.2480 Y-5.4020
G01 X25.3106 Y-5.3362
G01 X25.3699 Y-5.2675
G01 X25.4258 Y-5.1959
G01 X25.4781 Y-5.1217
G01 X25.5266 Y-5.0450
G01 X25.5714 Y-4.9659
G01 X25.6122 Y-4.8848
G01 X25.6490 Y-4.8018
G01 X25.6817 Y-4.7171
G01 X25.7102 Y-4.6309
G01 X25.7344 Y-4.5434
G01 X25.7543 Y-4.4548
G01 X25.7698 Y-4.3653
G01 X25.7809 Y-4.2752
G01 X25.7876 Y-4.1847
G01 X25.7898 Y-4.0939
G00 Z5.0000
G00 X30.7699 Y-4.0908
G01 F80.00
G01 Z-0.0500
G01 F40.00
G01 X30.7678 Y-4.0080
G01 X30.7615 Y-3.9224
G01 X30.7510 Y-3.8371
G01 X30.7363 Y-3.7525
G01 X30.7175 Y-3.6687
G01 X30.6945 Y-3.5859
G01 X30.6676 Y-3.5043
G01 X30.6367 Y-3.4242
G01 X30.6019 Y-3.3457
G01 X30.5633 Y-3.2690
G01 X30.5209 Y-3.1942
G01 X30.4750 Y-3.1217
G01 X30.4255 Y-3.0514
G01 X30.3727 Y-2.9837
G01 X30.3166 Y-2.9187
G01 X30.2573 Y-2.8565
G01 X30.1951 Y-2.7972
G01 X30.1301 Y-2.7411
G01 X30.0624 Y-2.6883
G01 X29.9921 Y-2.6388
G01 X29.9196 Y-2.5929
G01 X29.8448 Y-2.5505
G01 X29.7681 Y-2.5119
G01 X29.6896 Y-2.4771
G01 X29.6095 Y-2.4462
G01 X29.5279 Y-2.4193
G01 X29.4451 Y-2.3963
G01 X29.3613 Y-2.3775
G01 X29.2767 Y-2.3628
G01 X29.1914 Y-2.3523
G01 X29.1058 Y-2.3460
G01 X29.0199 Y-2.3439
G01 X28.9340 Y-2.3460
G01 X28.8484 Y-2.3523
G01 X28.7631 Y-2.3628
G01 X28.6785 Y-2.3775
G01 X28.5947 Y-2.3963
G01 X28.5119 Y-2.4193
G01 X28.4303 Y-2.4462
G01 X28.3502 Y-2.4771
G01 X28.2717 Y-2.5119
G01 X28.1950 Y-2.5505
G01 X28.1202 Y-2.5929
G01 X28.0477 Y-2.6388
G01 X27.9774 Y-2.6883
G01 X27.9097 Y-2.7411
G01 X27.8447 Y-2.7972
G01 X27.7825 Y-2.8565
G01 X27.7232 Y-2.9187
G01 X27.6671 Y-2.9837
G01 X27.6143 Y-3.0514
G01 X27.5648 Y-3.1217
G01 X27.5189 Y-3.1942
G01 X27.4765 Y-3.2690
G01 X27.4379 Y-3.3457
G01 X27.4031 Y-3.4242
G01 X27.3722 Y-3.5043
G01 X27.3453 Y-3.5859
G01 X27.3223 Y-3.6687
G01 X27.3035 Y-3.7525
G01 X27.2888 Y-3.8371
G01 X27.2783 Y-3.9224
G01 X27.2720 Y-4.0080
G01 X27.2699 Y-4.0939
G01 X27.2720 Y-4.1798
G01 X27.2783 Y-4.2654
G01 X27.2888 Y-4.3507
G01 X27.3035 Y-4.4353
G01 X27.3223 Y-4.5191
G01 X27.3453 Y-4.6019
G01 X27.3722 Y-4.6835
G01 X27.4031 Y-4.7636
G01 X27.4379 Y-4.8421
G01 X27.4765 Y-4.9188
G01 X27.5189 Y-4.9936
G01 X27.5648 Y-5.0661
G01 X27.6143 Y-5.1364
G01 X27.6671 Y-5.2041
G01 X27.7232 Y-5.2691
G01 X27.7825 Y-5.3313
G01 X27.8447 Y-5.3906
G01 X27.9097 Y-5.4467
G01 X27.9774 Y-5.4995
G01 X28.0477 Y-5.5490
G01 X28.1202 Y-5.5949
G01 X28.1950 Y-5.6373
G01 X28.2717 Y-5.6759
G01 X28.3502 Y-5.7107
G01 X28.4303 Y-5.7416
G01 X28.5119 Y-5.7685
G01 X28.5947 Y-5.7915
G01 X28.6785 Y-5.8103
G01 X28.7631 Y-5.8250
G01 X28.8484 Y-5.8355
G01 X28.9340 Y-5.8418
G01 X29.0199 Y-5.8439
G01 X29.1058 Y-5.8418
G01 X29.1914 Y-5.8355
G01 X29.2767 Y-5.8250
G01 X29.3613 Y-5.8103
G01 X29.4451 Y-5.7915
G01 X29.5279 Y-5.7685
G01 X29.6095 Y-5.7416
G01 X29.6896 Y-5.7107
G01 X29.7681 Y-5.6759
G01 X29.8448 Y-5.6373
G01 X29.9196 Y-5.5949
G01 X29.9921 Y-5.5490
G01 X30.0624 Y-5.4995
G01 X30.1301 Y-5.4467
G01 X30.1951 Y-5.3906
G01 X30.2573 Y-5.3313
G01 X30.3166 Y-5.2691
G01 X30.3727 Y-5.2041
G01 X30.4255 Y-5.1364
G01 X30.4750 Y-5.0661
G01 X30.5209 Y-4.9936
G01 X30.5633 Y-4.9188
G01 X30.6019 Y-4.8421
G01 X30.6367 Y-4.7636
G01 X30.6676 Y-4.6835
G01 X30.6945 Y-4.6019
G01 X30.7175 Y-4.5191
G01 X30.7363 Y-4.4353
G01 X30.7510 Y-4.3507
G01 X30.7615 Y-4.2654
G01 X30.7678 Y-4.1798
G01 X30.7699 Y-4.0908
G00 Z5.0000
G00 X30.8698 Y-4.0939
G01 F80.00
G01 Z-0.0500
G01 F40.00
G01 X30.8676 Y-4.0031
G01 X30.8609 Y-3.9126
G01 X30.8498 Y-3.8225
G01 X30.8343 Y-3.7330
G01 X30.8144 Y-3.6444
G01 X30.7902 Y-3.5569
G01 X30.7617 Y-3.4707
G01 X30.7290 Y-3.3860
G01 X30.6922 Y-3.3030
G01 X30.6514 Y-3.2219
G01 X30.6066 Y-3.1428
G01 X30.5581 Y-3.0661
G01 X30.5058 Y-2.9919
G01 X30.4499 Y-2.9203
G01 X30.3906 Y-2.8516
G01 X30.3280 Y-2.7858
G01 X30.2622 Y-2.7232
G01 X30.1935 Y-2.6639
G01 X30.1219 Y-2.6080
G01 X30.0477 Y-2.5557
G01 X29.9710 Y-2.5072
G01 X29.8919 Y-2.4624
G01 X29.8108 Y-2.4216
G01 X29.7278 Y-2.3848
G01 X29.6431 Y-2.3521
G01 X29.5569 Y-2.3236
G01 X29.4694 Y-2.2994
G01 X29.3808 Y-2.2795
G01 X29.2913 Y-2.2640
G01 X29.2012 Y-2.2529
G01 X29.1107 Y-2.2462
G01 X29.0199 Y-2.2440
G01 X28.9291 Y-2.2462
G01 X28.8386 Y-2.2529
G01 X28.7485 Y-2.2640
G01 X28.6590 Y-2.2795
G01 X28.5704 Y-2.2994
G01 X28.4829 Y-2.3236
G01 X28.3967 Y-2.3521
G01 X28.3120 Y-2.3848
G01 X28.2290 Y-2.4216
G01 X28.1479 Y-2.4624
G01 X28.0688 Y-2.5072
G01 X27.9921 Y-2.5557
G01 X27.9179 Y-2.6080
G01 X27.8463 Y-2.6639
G01 X27.7776 Y-2.7232
G01 X27.7118 Y-2.7858
G01 X27.6492 Y-2.8516
G01 X27.5899 Y-2.9203
G01 X27.5340 Y-2.9919
G01 X27.4817 Y-3.0661
G01 X27.4332 Y-3.1428
G01 X27.3884 Y-3.2219
G01 X27.3476 Y-3.3030
G01 X27.3108 Y-3.3860
G01 X27.2781 Y-3.4707
G01 X27.2496 Y-3.5569
G01 X27.2254 Y-3.6444
G01 X27.2055 Y-3.7330
G01 X27.1900 Y-3.8225
G01 X27.1789 Y-3.9126
G01 X27.1722 Y-4.0031
G01 X27.1700 Y-4.0939
G01 X27.1722 Y-4.1847
G01 X27.1789 Y-4.2752
G01 X27.1900 Y-4.3653
G01 X27.2055 Y-4.4548
G01 X27.2254 Y-4.5434
G01 X27.2496 Y-4.6309
G01 X27.2781 Y-4.7171
G01 X27.3108 Y-4.8018
G01 X27.3476 Y-4.8848
G01 X27.3884 Y-4.9659
G01 X27.4332 Y-5.0450
G01 X27.4817 Y-5.1217
G01 X27.5340 Y-5.1959
G01 X27.5899 Y-5.2675
G01 X27.6492 Y-5.3362
G01 X27.7118 Y-5.4020
G01 X27.7776 Y-5.4646
G01 X27.8463 Y-5.5239
G01 X27.9179 Y-5.5798
G01 X27.9921 Y-5.6321
G01 X28.0688 Y-5.6806
G01 X28.1479 Y-5.7254
G01 X28.2290 Y-5.7662
G01 X28.3120 Y-5.8030
G01 X28.3967 Y-5.8357
G01 X28.4829 Y-5.8642
G01 X28.5704 Y-5.8884
G01 X28.6590 Y-5.9083
G01 X28.7485 Y-5.9238
G01 X28.8386 Y-5.9349
G01 X28.9291 Y-5.9416
G01 X29.0199 Y-5.9438
G01 X29.1107 Y-5.9416
G01 X29.2012 Y-5.9349
G01 X29.2913 Y-5.9238
G01 X29.3808 Y-5.9083
G01 X29.4694 Y-5.8884
G01 X29.5569 Y-5.8642
G01 X29.6431 Y-5.8357
G01 X29.7278 Y-5.8030
G01 X29.8108 Y-5.7662
G01 X29.8919 Y-5.7254
G01 X29.9710 Y-5.6806
G01 X30.0477 Y-5.6321
G01 X30.1219 Y-5.5798
G01 X30.1935 Y-5.5239
G01 X30.2622 Y-5.4646
G01 X30.3280 Y-5.4020
G01 X30.3906 Y-5.3362
G01 X30.4499 Y-5.2675
G01 X30.5058 Y-5.1959
G01 X30.5581 Y-5.1217
G01 X30.6066 Y-5.0450
G01 X30.6514 Y-4.9659
G01 X30.6922 Y-4.8848
G01 X30.7290 Y-4.8018
G01 X30.7617 Y-4.7171
G01 X30.7902 Y-4.6309
G01 X30.8144 Y-4.5434
G01 X30.8343 Y-4.4548
G01 X30.8498 Y-4.3653
G01 X30.8609 Y-4.2752
G01 X30.8676 Y-4.1847
G01 X30.8698 Y-4.0939
G00 Z5.0000
G00 X35.8499 Y-4.0908
G01 F80.00
G01 Z-0.0500
G01 F40.00
G01 X35.8478 Y-4.0080
G01 X35.8415 Y-3.9224
G01 X35.8310 Y-3.8371
G01 X35.8163 Y-3.7525
G01 X35.7975 Y-3.6687
G01 X35.7745 Y-3.5859
G01 X35.7476 Y-3.5043
G01 X35.7167 Y-3.4242
G01 X35.6819 Y-3.3457
G01 X35.6433 Y-3.2690
G01 X35.6009 Y-3.1942
G01 X35.5550 Y-3.1216
G01 X35.5055 Y-3.0514
G01 X35.4527 Y-2.9837
G01 X35.3966 Y-2.9187
G01 X35.3373 Y-2.8565
G01 X35.2751 Y-2.7972
G01 X35.2101 Y-2.7411
G01 X35.1424 Y-2.6883
G01 X35.0722 Y-2.6388
G01 X34.9996 Y-2.5929
G01 X34.9248 Y-2.5505
G01 X34.8481 Y-2.5119
G01 X34.7696 Y-2.4771
G01 X34.6895 Y-2.4462
G01 X34.6079 Y-2.4193
G01 X34.5251 Y-2.3963
G01 X34.4413 Y-2.3775
G01 X34.3567 Y-2.3628
G01 X34.2714 Y-2.3523
G01 X34.1858 Y-2.3460
G01 X34.0999 Y-2.3439
G01 X34.0140 Y-2.3460
G01 X33.9284 Y-2.3523
G01 X33.8431 Y-2.3628
G01 X33.7585 Y-2.3775
G01 X33.6747 Y-2.3963
G01 X33.5919 Y-2.4193
G01 X33.5103 Y-2.4462
G01 X33.4302 Y-2.4771
G01 X33.3517 Y-2.5119
G01 X33.2750 Y-2.5505
G01 X33.2002 Y-2.5929
G01 X33.1276 Y-2.6388
G01 X33.0574 Y-2.6883
G01 X32.9897 Y-2.7411
G01 X32.9247 Y-2.7972
G01 X32.8625 Y-2.8565
G01 X32.8032 Y-2.9187
G01 X32.7471 Y-2.9837
G01 X32.6943 Y-3.0514
G01 X32.6448 Y-3.1216
G01 X32.5989 Y-3.1942
G01 X32.5565 Y-3.2690
G01 X32.5179 Y-3.3457
G01 X32.4831 Y-3.4242
G01 X32.4522 Y-3.5043
G01 X32.4253 Y-3.5859
G01 X32.4023 Y-3.6687
G01 X32.3835 Y-3.7525
G01 X32.3688 Y-3.8371
G01 X32.3583 Y-3.9224
G01 X32.3520 Y-4.0080
G01 X32.3499 Y-4.0939
G01 X32.3520 Y-4.1798
G01 X32.3583 Y-4.2654
G01 X32.3688 Y-4.3507
G01 X32.3835 Y-4.4353
G01 X32.4023 Y-4.5191
G01 X32.4253 Y-4.6019
G01 X32.4522 Y-4.6835
G01 X32.4831 Y-4.7636
G01 X32.5179 Y-4.8421
G01 X32.5565 Y-4.9188
G01 X32.5989 Y-4.9936
G01 X32.6448 Y-5.0662
G01 X32.6943 Y-5.1364
G01 X32.7471 Y-5.2041
G01 X32.8032 Y-5.2691
G01 X32.8625 Y-5.3313
G01 X32.9247 Y-5.3906
G01 X32.9897 Y-5.4467
G01 X33.0574 Y-5.4995
G01 X33.1276 Y-5.5490
G01 X33.2002 Y-5.5949
G01 X33.2750 Y-5.6373
G01 X33.3517 Y-5.6759
G01 X33.4302 Y-5.7107
G01 X33.5103 Y-5.7416
G01 X33.5919 Y-5.7685
G01 X33.6747 Y-5.7915
G01 X33.7585 Y-5.8103
G01 X33.8431 Y-5.8250
G01 X33.9284 Y-5.8355
G01 X34.0140 Y-5.8418
G01 X34.0999 Y-5.8439
G01 X34.1858 Y-5.8418
G01 X34.2714 Y-5.8355
G01 X34.3567 Y-5.8250
G01 X34.4413 Y-5.8103
G01 X34.5251 Y-5.7915
G01 X34.6079 Y-5.7685
G01 X34.6895 Y-5.7416
G01 X34.7696 Y-5.7107
G01 X34.8481 Y-5.6759
G01 X34.9248 Y-5.6373
G01 X34.9996 Y-5.5949
G01 X35.0722 Y-5.5490
G01 X35.1424 Y-5.4995
G01 X35.2101 Y-5.4467
G01 X35.2751 Y-5.3906
G01 X35.3373 Y-5.3313
G01 X35.3966 Y-5.2691
G01 X35.4527 Y-5.2041
G01 X35.5055 Y-5.1364
G01 X35.5550 Y-5.0662
G01 X35.6009 Y-4.9936
G01 X35.6433 Y-4.9188
G01 X35.6819 Y-4.8421
G01 X35.7167 Y-4.7636
G01 X35.7476 Y-4.6835
G01 X35.7745 Y-4.6019
G01 X35.7975 Y-4.5191
G01 X35.8163 Y-4.4353
G01 X35.8310 Y-4.3507
G01 X35.8415 Y-4.2654
G01 X35.8478 Y-4.1798
G01 X35.8499 Y-4.0908
G00 Z5.0000
G00 X35.9498 Y-4.0939
G01 F80.00
G01 Z-0.0500
G01 F40.00
G01 X35.9476 Y-4.0031
G01 X35.9409 Y-3.9126
G01 X35.9298 Y-3.8225
G01 X35.9143 Y-3.7330
G01 X35.8944 Y-3.6444
G01 X35.8702 Y-3.5569
G01 X35.8417 Y-3.4707
G01 X35.8090 Y-3.3860
G01 X35.7722 Y-3.3030
G01 X35.7314 Y-3.2219
G01 X35.6866 Y-3.1428
G01 X35.6381 Y-3.0661
G01 X35.5858 Y-2.9919
G01 X35.5299 Y-2.9203
G01 X35.4706 Y-2.8516
G01 X35.4080 Y-2.7858
G01 X35.3422 Y-2.7232
G01 X35.2735 Y-2.6639
G01 X35.2019 Y-2.6080
G01 X35.1277 Y-2.5557
G01 X35.0510 Y-2.5072
G01 X34.9719 Y-2.4624
G01 X34.8908 Y-2.4216
G01 X34.8078 Y-2.3848
G01 X34.7231 Y-2.3521
G01 X34.6369 Y-2.3236
G01 X34.5494 Y-2.2994
G01 X34.4608 Y-2.2795
G01 X34.3713 Y-2.2640
G01 X34.2812 Y-2.2529
G01 X34.1907 Y-2.2462
G01 X34.0999 Y-2.2440
G01 X34.0091 Y-2.2462
G01 X33.9186 Y-2.2529
G01 X33.8285 Y-2.2640
G01 X33.7390 Y-2.2795
G01 X33.6504 Y-2.2994
G01 X33.5629 Y-2.3236
G01 X33.4767 Y-2.3521
G01 X33.3920 Y-2.3848
G01 X33.3090 Y-2.4216
G01 X33.2279 Y-2.4624
G01 X33.1488 Y-2.5072
G01 X33.0721 Y-2.5557
G01 X32.9979 Y-2.6080
G01 X32.9263 Y-2.6639
G01 X32.8576 Y-2.7232
G01 X32.7918 Y-2.7858
G01 X32.7292 Y-2.8516
G01 X32.6699 Y-2.9203
G01 X32.6140 Y-2.9919
G01 X32.5617 Y-3.0661
G01 X32.5132 Y-3.1428
G01 X32.4684 Y-3.2219
G01 X32.4276 Y-3.3030
G01 X32.3908 Y-3.3860
G01 X32.3581 Y-3.4707
G01 X32.3296 Y-3.5569
G01 X32.3054 Y-3.6444
G01 X32.2855 Y-3.7330
G01 X32.2700 Y-3.8225
G01 X32.2589 Y-3.9126
G01 X32.2522 Y-4.0031
G01 X32.2500 Y-4.0939
G01 X32.2522 Y-4.1847
G01 X32.2589 Y-4.2752
G01 X32.2700 Y-4.3653
G01 X32.2855 Y-4.4548
G01 X32.3054 Y-4.5434
G01 X32.3296 Y-4.6309
G01 X32.3581 Y-4.7171
G01 X32.3908 Y-4.8018
G01 X32.4276 Y-4.8848
G01 X32.4684 Y-4.9659
G01 X32.5132 Y-5.0450
G01 X32.5617 Y-5.1217
G01 X32.6140 Y-5.1959
G01 X32.6699 Y-5.2675
G01 X32.7292 Y-5.3362
G01 X32.7918 Y-5.4020
G01 X32.8576 Y-5.4646
G01 X32.9263 Y-5.5239
G01 X32.9979 Y-5.5798
G01 X33.0721 Y-5.6321
G01 X33.1488 Y-5.6806
G01 X33.2279 Y-5.7254
G01 X33.3090 Y-5.7662
G01 X33.3920 Y-5.8030
G01 X33.4767 Y-5.8357
G01 X33.5629 Y-5.8642
G01 X33.6504 Y-5.8884
G01 X33.7390 Y-5.9083
G01 X33.8285 Y-5.9238
G01 X33.9186 Y-5.9349
G01 X34.0091 Y-5.9416
G01 X34.0999 Y-5.9438
G01 X34.1907 Y-5.9416
G01 X34.2812 Y-5.9349
G01 X34.3713 Y-5.9238
G01 X34.4608 Y-5.9083
G01 X34.5494 Y-5.8884
G01 X34.6369 Y-5.8642
G01 X34.7231 Y-5.8357
G01 X34.8078 Y-5.8030
G01 X34.8908 Y-5.7662
G01 X34.9719 Y-5.7254
G01 X35.0510 Y-5.6806
G01 X35.1277 Y-5.6321
G01 X35.2019 Y-5.5798
G01 X35.2735 Y-5.5239
G01 X35.3422 Y-5.4646
G01 X35.4080 Y-5.4020
G01 X35.4706 Y-5.3362
G01 X35.5299 Y-5.2675
G01 X35.5858 Y-5.1959
G01 X35.6381 Y-5.1217
G01 X35.6866 Y-5.0450
G01 X35.7314 Y-4.9659
G01 X35.7722 Y-4.8848
G01 X35.8090 Y-4.8018
G01 X35.8417 Y-4.7171
G01 X35.8702 Y-4.6309
G01 X35.8944 Y-4.5434
G01 X35.9143 Y-4.4548
G01 X35.9298 Y-4.3653
G01 X35.9409 Y-4.2752
G01 X35.9476 Y-4.1847
G01 X35.9498 Y-4.0939
G00 Z5.0000
G00 X27.8307 Y-21.6008
G01 F80.00
G01 Z-0.0500
G01 F40.00
G01 X27.8307 Y-19.6070
G01 X27.8290 Y-19.5376
G01 X27.8241 Y-19.4715
G01 X27.8160 Y-19.4057
G01 X27.8047 Y-19.3404
G01 X27.7901 Y-19.2757
G01 X27.7725 Y-19.2118
G01 X27.7517 Y-19.1489
G01 X27.7278 Y-19.0870
G01 X27.7009 Y-19.0264
G01 X27.6711 Y-18.9672
G01 X27.6385 Y-18.9095
G01 X27.6030 Y-18.8535
G01 X27.5648 Y-18.7993
G01 X27.5240 Y-18.7470
G01 X27.4807 Y-18.6968
G01 X27.4350 Y-18.6488
G01 X27.3870 Y-18.6031
G01 X27.3368 Y-18.5598
G01 X27.2845 Y-18.5190
G01 X27.2303 Y-18.4808
G01 X27.1743 Y-18.4453
G01 X27.1166 Y-18.4127
G01 X27.0574 Y-18.3829
G01 X26.9968 Y-18.3560
G01 X26.9349 Y-18.3321
G01 X26.8720 Y-18.3113
G01 X26.8081 Y-18.2937
G01 X26.7434 Y-18.2791
G01 X26.6781 Y-18.2678
G01 X26.6123 Y-18.2597
G01 X26.5462 Y-18.2548
G01 X26.4799 Y-18.2532
G01 X26.4136 Y-18.2548
G01 X26.3475 Y-18.2597
G01 X26.2817 Y-18.2678
G01 X26.2164 Y-18.2791
G01 X26.1517 Y-18.2937
G01 X26.0878 Y-18.3113
G01 X26.0249 Y-18.3321
G01 X25.9630 Y-18.3560
G01 X25.9024 Y-18.3829
G01 X25.8432 Y-18.4127
G01 X25.7855 Y-18.4453
G01 X25.7295 Y-18.4808
G01 X25.6753 Y-18.5190
G01 X25.6230 Y-18.5598
G01 X25.5728 Y-18.6031
G01 X25.5248 Y-18.6488
G01 X25.4791 Y-18.6968
G01 X25.4358 Y-18.7470
G01 X25.3950 Y-18.7993
G01 X25.3568 Y-18.8535
G01 X25.3213 Y-18.9095
G01 X25.2887 Y-18.9672
G01 X25.2589 Y-19.0264
G01 X25.2320 Y-19.0870
G01 X25.2081 Y-19.1489
G01 X25.1873 Y-19.2118
G01 X25.1697 Y-19.2757
G01 X25.1551 Y-19.3404
G01 X25.1438 Y-19.4057
G01 X25.1357 Y-19.4715
G01 X25.1308 Y-19.5376
G01 X25.1291 Y-19.6070
G01 X25.1291 Y-21.6008
G01 X25.1308 Y-21.6702
G01 X25.1357 Y-21.7363
G01 X25.1438 Y-21.8021
G01 X25.1551 Y-21.8674
G01 X25.1697 Y-21.9321
G01 X25.1873 Y-21.9960
G01 X25.2081 Y-22.0589
G01 X25.2320 Y-22.1208
G01 X25.2589 Y-22.1814
G01 X25.2887 Y-22.2406
G01 X25.3213 Y-22.2983
G01 X25.3568 Y-22.3543
G01 X25.3950 Y-22.4085
G01 X25.4358 Y-22.4608
G01 X25.4791 Y-22.5110
G01 X25.5248 Y-22.5590
G01 X25.5728 Y-22.6047
G01 X25.6230 Y-22.6480
G01 X25.6753 Y-22.6888
G01 X25.7295 Y-22.7270
G01 X25.7855 Y-22.7625
G01 X25.8432 Y-22.7951
G01 X25.9024 Y-22.8249
G01 X25.9630 Y-22.8518
G01 X26.0249 Y-22.8757
G01 X26.0878 Y-22.8965
G01 X26.1517 Y-22.9141
G01 X26.2164 Y-22.9287
G01 X26.2817 Y-22.9400
G01 X26.3475 Y-22.9481
G01 X26.4136 Y-22.9530
G01 X26.4799 Y-22.9546
G01 X26.5462 Y-22.9530
G01 X26.6123 Y-22.9481
G01 X26.6781 Y-22.9400
G01 X26.7434 Y-22.9287
G01 X26.8081 Y-22.9141
G01 X26.8720 Y-22.8965
G01 X26.9349 Y-22.8757
G01 X26.9968 Y-22.8518
G01 X27.0574 Y-22.8249
G01 X27.1166 Y-22.7951
G01 X27.1743 Y-22.7625
G01 X27.2303 Y-22.7270
G01 X27.2845 Y-22.6888
G01 X27.3368 Y-22.6480
G01 X27.3870 Y-22.6047
G01 X27.4350 Y-22.5590
G01 X27.4807 Y-22.5110
G01 X27.5240 Y-22.4608
G01 X27.5648 Y-22.4085
G01 X27.6030 Y-22.3543
G01 X27.6385 Y-22.2983
G01 X27.6711 Y-22.2406
G01 X27.7009 Y-22.1814
G01 X27.7278 Y-22.1208
G01 X27.7517 Y-22.0589
G01 X27.7725 Y-21.9960
G01 X27.7901 Y-21.9321
G01 X27.8047 Y-21.8674
G01 X27.8160 Y-21.8021
G01 X27.8241 Y-21.7363
G01 X27.8290 Y-21.6702
G01 X27.8307 Y-21.6008
G00 Z5.0000
G00 X27.7304 Y-21.6039
G01 F80.00
G01 Z-0.0500
G01 F40.00
G01 X27.7304 Y-19.6039
G01 X27.7285 Y-19.5364
G01 X27.7237 Y-19.4752
G01 X27.7169 Y-19.4204
G01 X27.7075 Y-19.3660
G01 X27.6929 Y-19.3001
G01 X27.6766 Y-19.2409
G01 X27.6552 Y-19.1769
G01 X27.6352 Y-19.1254
G01 X27.6129 Y-19.0748
G01 X27.5827 Y-19.0144
G01 X27.5493 Y-18.9558
G01 X27.5197 Y-18.9092
G01 X27.4843 Y-18.8590
G01 X27.4465 Y-18.8106
G01 X27.4065 Y-18.7641
G01 X27.3641 Y-18.7197
G01 X27.3197 Y-18.6773
