(G-CODE GENERATED BY FLATCAM v8.993 - www.flatcam.org - Version Date: 2020/06/05)

(Name: 131u02_Ф2_низ.gbr_iso_combined_cnc)
(Type: G-code from Geometry)
(Units: MM)

(Created on Sunday, 11 October 2020 at 19:28)

(This preprocessor is the default preprocessor used by FlatCAM.)
(It is made to work with MACH3 compatible motion controllers.)

(TOOL DIAMETER: 0.14 mm)
(Feedrate_XY: 60.0 mm/min)
(Feedrate_Z: 70.0 mm/min)
(Feedrate rapids 1500.0 mm/min)

(Z_Cut: -0.06 mm)
(Z_Move: 2.0 mm)
(Z Start: None mm)
(Z End: 25.0 mm)
(Steps per circle: 128)
(Preprocessor Geometry: default)

(X range:  -98.5592 ...    0.2008  mm)
(Y range:  -33.4196 ...    0.2404  mm)

(Spindle Speed: None RPM)
G21
G90
G94



G01 F60.00
G00 Z2.0000

M03
G00 X-3.1736 Y-4.9608
G01 F70.00
G01 Z-0.0600
G01 F60.00
G01 X-3.1753 Y-4.8906
G01 X-3.1805 Y-4.8206
G01 X-3.1891 Y-4.7510
G01 X-3.2011 Y-4.6818
G01 X-3.2165 Y-4.6133
G01 X-3.2352 Y-4.5457
G01 X-3.2572 Y-4.4791
G01 X-3.2825 Y-4.4136
G01 X-3.3109 Y-4.3494
G01 X-3.3425 Y-4.2867
G01 X-3.3771 Y-4.2256
G01 X-3.4146 Y-4.1663
G01 X-3.4550 Y-4.1090
G01 X-3.4982 Y-4.0536
G01 X-3.5441 Y-4.0005
G01 X-3.5925 Y-3.9497
G01 X-3.6433 Y-3.9013
G01 X-3.6964 Y-3.8554
G01 X-3.7518 Y-3.8122
G01 X-3.8091 Y-3.7718
G01 X-3.8684 Y-3.7343
G01 X-3.9295 Y-3.6997
G01 X-3.9922 Y-3.6681
G01 X-4.0564 Y-3.6397
G01 X-4.1219 Y-3.6144
G01 X-4.1885 Y-3.5924
G01 X-4.2561 Y-3.5737
G01 X-4.3246 Y-3.5583
G01 X-4.3938 Y-3.5463
G01 X-4.4634 Y-3.5377
G01 X-4.5334 Y-3.5325
G01 X-4.6036 Y-3.5308
G01 X-4.6738 Y-3.5325
G01 X-4.7438 Y-3.5377
G01 X-4.8134 Y-3.5463
G01 X-4.8826 Y-3.5583
G01 X-4.9511 Y-3.5737
G01 X-5.0187 Y-3.5924
G01 X-5.0853 Y-3.6144
G01 X-5.1508 Y-3.6397
G01 X-5.2150 Y-3.6681
G01 X-5.2777 Y-3.6997
G01 X-5.3388 Y-3.7343
G01 X-5.3981 Y-3.7718
G01 X-5.4554 Y-3.8122
G01 X-5.5108 Y-3.8554
G01 X-5.5639 Y-3.9013
G01 X-5.6147 Y-3.9497
G01 X-5.6631 Y-4.0005
G01 X-5.7090 Y-4.0536
G01 X-5.7522 Y-4.1090
G01 X-5.7926 Y-4.1663
G01 X-5.8301 Y-4.2256
G01 X-5.8647 Y-4.2867
G01 X-5.8963 Y-4.3494
G01 X-5.9247 Y-4.4136
G01 X-5.9500 Y-4.4791
G01 X-5.9720 Y-4.5457
G01 X-5.9907 Y-4.6133
G01 X-6.0061 Y-4.6818
G01 X-6.0181 Y-4.7510
G01 X-6.0267 Y-4.8206
G01 X-6.0319 Y-4.8906
G01 X-6.0336 Y-4.9608
G01 X-6.0319 Y-5.0310
G01 X-6.0267 Y-5.1010
G01 X-6.0181 Y-5.1706
G01 X-6.0061 Y-5.2398
G01 X-5.9907 Y-5.3083
G01 X-5.9720 Y-5.3759
G01 X-5.9500 Y-5.4425
G01 X-5.9247 Y-5.5080
G01 X-5.8963 Y-5.5722
G01 X-5.8647 Y-5.6349
G01 X-5.8301 Y-5.6960
G01 X-5.7926 Y-5.7553
G01 X-5.7522 Y-5.8126
G01 X-5.7090 Y-5.8680
G01 X-5.6631 Y-5.9211
G01 X-5.6147 Y-5.9719
G01 X-5.5639 Y-6.0203
G01 X-5.5108 Y-6.0662
G01 X-5.4554 Y-6.1094
G01 X-5.3981 Y-6.1498
G01 X-5.3388 Y-6.1873
G01 X-5.2777 Y-6.2219
G01 X-5.2150 Y-6.2535
G01 X-5.1508 Y-6.2819
G01 X-5.0853 Y-6.3072
G01 X-5.0187 Y-6.3292
G01 X-4.9511 Y-6.3479
G01 X-4.8826 Y-6.3633
G01 X-4.8134 Y-6.3753
G01 X-4.7438 Y-6.3839
G01 X-4.6738 Y-6.3891
G01 X-4.6036 Y-6.3908
G01 X-4.5334 Y-6.3891
G01 X-4.4634 Y-6.3839
G01 X-4.3938 Y-6.3753
G01 X-4.3246 Y-6.3633
G01 X-4.2561 Y-6.3479
G01 X-4.1885 Y-6.3292
G01 X-4.1219 Y-6.3072
G01 X-4.0564 Y-6.2819
G01 X-3.9922 Y-6.2535
G01 X-3.9295 Y-6.2219
G01 X-3.8684 Y-6.1873
G01 X-3.8091 Y-6.1498
G01 X-3.7518 Y-6.1094
G01 X-3.6964 Y-6.0662
G01 X-3.6433 Y-6.0203
G01 X-3.5925 Y-5.9719
G01 X-3.5441 Y-5.9211
G01 X-3.4982 Y-5.8680
G01 X-3.4550 Y-5.8126
G01 X-3.4146 Y-5.7553
G01 X-3.3771 Y-5.6960
G01 X-3.3425 Y-5.6349
G01 X-3.3109 Y-5.5722
G01 X-3.2825 Y-5.5080
G01 X-3.2572 Y-5.4425
G01 X-3.2352 Y-5.3759
G01 X-3.2165 Y-5.3083
G01 X-3.2011 Y-5.2398
G01 X-3.1891 Y-5.1706
G01 X-3.1805 Y-5.1010
G01 X-3.1753 Y-5.0310
G01 X-3.1736 Y-4.9608
G00 Z2.0000
G00 X-3.2436 Y-4.9608
G01 F70.00
G01 Z-0.0600
G01 F60.00
G01 X-3.2453 Y-4.8941
G01 X-3.2502 Y-4.8275
G01 X-3.2584 Y-4.7613
G01 X-3.2698 Y-4.6955
G01 X-3.2844 Y-4.6304
G01 X-3.3022 Y-4.5660
G01 X-3.3231 Y-4.5026
G01 X-3.3472 Y-4.4404
G01 X-3.3742 Y-4.3793
G01 X-3.4042 Y-4.3197
G01 X-3.4371 Y-4.2616
G01 X-3.4728 Y-4.2052
G01 X-3.5113 Y-4.1507
G01 X-3.5523 Y-4.0981
G01 X-3.5959 Y-4.0475
G01 X-3.6420 Y-3.9992
G01 X-3.6903 Y-3.9531
G01 X-3.7409 Y-3.9095
G01 X-3.7935 Y-3.8685
G01 X-3.8480 Y-3.8300
G01 X-3.9044 Y-3.7943
G01 X-3.9625 Y-3.7614
G01 X-4.0221 Y-3.7314
G01 X-4.0832 Y-3.7044
G01 X-4.1454 Y-3.6803
G01 X-4.2088 Y-3.6594
G01 X-4.2732 Y-3.6416
G01 X-4.3383 Y-3.6270
G01 X-4.4041 Y-3.6156
G01 X-4.4703 Y-3.6074
G01 X-4.5369 Y-3.6025
G01 X-4.6036 Y-3.6008
G01 X-4.6703 Y-3.6025
G01 X-4.7369 Y-3.6074
G01 X-4.8031 Y-3.6156
G01 X-4.8689 Y-3.6270
G01 X-4.9340 Y-3.6416
G01 X-4.9984 Y-3.6594
G01 X-5.0618 Y-3.6803
G01 X-5.1240 Y-3.7044
G01 X-5.1851 Y-3.7314
G01 X-5.2447 Y-3.7614
G01 X-5.3028 Y-3.7943
G01 X-5.3592 Y-3.8300
G01 X-5.4137 Y-3.8685
G01 X-5.4663 Y-3.9095
G01 X-5.5169 Y-3.9531
G01 X-5.5652 Y-3.9992
G01 X-5.6113 Y-4.0475
G01 X-5.6549 Y-4.0981
G01 X-5.6959 Y-4.1507
G01 X-5.7344 Y-4.2052
G01 X-5.7701 Y-4.2616
G01 X-5.8030 Y-4.3197
G01 X-5.8330 Y-4.3793
G01 X-5.8600 Y-4.4404
G01 X-5.8841 Y-4.5026
G01 X-5.9050 Y-4.5660
G01 X-5.9228 Y-4.6304
G01 X-5.9374 Y-4.6955
G01 X-5.9488 Y-4.7613
G01 X-5.9570 Y-4.8275
G01 X-5.9619 Y-4.8941
G01 X-5.9636 Y-4.9608
G01 X-5.9619 Y-5.0275
G01 X-5.9570 Y-5.0941
G01 X-5.9488 Y-5.1603
G01 X-5.9374 Y-5.2261
G01 X-5.9228 Y-5.2912
G01 X-5.9050 Y-5.3556
G01 X-5.8841 Y-5.4190
G01 X-5.8600 Y-5.4812
G01 X-5.8330 Y-5.5423
G01 X-5.8030 Y-5.6019
G01 X-5.7701 Y-5.6600
G01 X-5.7344 Y-5.7164
G01 X-5.6959 Y-5.7709
G01 X-5.6549 Y-5.8235
G01 X-5.6113 Y-5.8741
G01 X-5.5652 Y-5.9224
G01 X-5.5169 Y-5.9685
G01 X-5.4663 Y-6.0121
G01 X-5.4137 Y-6.0531
G01 X-5.3592 Y-6.0916
G01 X-5.3028 Y-6.1273
G01 X-5.2447 Y-6.1602
G01 X-5.1851 Y-6.1902
G01 X-5.1240 Y-6.2172
G01 X-5.0618 Y-6.2413
G01 X-4.9984 Y-6.2622
G01 X-4.9340 Y-6.2800
G01 X-4.8689 Y-6.2946
G01 X-4.8031 Y-6.3060
G01 X-4.7369 Y-6.3142
G01 X-4.6703 Y-6.3191
G01 X-4.6036 Y-6.3208
G01 X-4.5369 Y-6.3191
G01 X-4.4703 Y-6.3142
G01 X-4.4041 Y-6.3060
G01 X-4.3383 Y-6.2946
G01 X-4.2732 Y-6.2800
G01 X-4.2088 Y-6.2622
G01 X-4.1454 Y-6.2413
G01 X-4.0832 Y-6.2172
G01 X-4.0221 Y-6.1902
G01 X-3.9625 Y-6.1602
G01 X-3.9044 Y-6.1273
G01 X-3.8480 Y-6.0916
G01 X-3.7935 Y-6.0531
G01 X-3.7409 Y-6.0121
G01 X-3.6903 Y-5.9685
G01 X-3.6420 Y-5.9224
G01 X-3.5959 Y-5.8741
G01 X-3.5523 Y-5.8235
G01 X-3.5113 Y-5.7709
G01 X-3.4728 Y-5.7164
G01 X-3.4371 Y-5.6600
G01 X-3.4042 Y-5.6019
G01 X-3.3742 Y-5.5423
G01 X-3.3472 Y-5.4812
G01 X-3.3231 Y-5.4190
G01 X-3.3022 Y-5.3556
G01 X-3.2844 Y-5.2912
G01 X-3.2698 Y-5.2261
G01 X-3.2584 Y-5.1603
G01 X-3.2502 Y-5.0941
G01 X-3.2453 Y-5.0275
G01 X-3.2436 Y-4.9608
G00 Z2.0000
G00 X-3.3137 Y-4.9608
G01 F70.00
G01 Z-0.0600
G01 F60.00
G01 X-3.3152 Y-4.8975
G01 X-3.3199 Y-4.8344
G01 X-3.3276 Y-4.7715
G01 X-3.3384 Y-4.7091
G01 X-3.3523 Y-4.6474
G01 X-3.3692 Y-4.5864
G01 X-3.3891 Y-4.5262
G01 X-3.4119 Y-4.4672
G01 X-3.4375 Y-4.4093
G01 X-3.4660 Y-4.3527
G01 X-3.4972 Y-4.2976
G01 X-3.5311 Y-4.2441
G01 X-3.5675 Y-4.1924
G01 X-3.6065 Y-4.1425
G01 X-3.6478 Y-4.0945
G01 X-3.6915 Y-4.0487
G01 X-3.7373 Y-4.0050
G01 X-3.7853 Y-3.9637
G01 X-3.8352 Y-3.9247
G01 X-3.8869 Y-3.8883
G01 X-3.9404 Y-3.8544
G01 X-3.9955 Y-3.8232
G01 X-4.0521 Y-3.7947
G01 X-4.1100 Y-3.7691
G01 X-4.1690 Y-3.7463
G01 X-4.2292 Y-3.7264
G01 X-4.2902 Y-3.7095
G01 X-4.3519 Y-3.6956
G01 X-4.4143 Y-3.6848
G01 X-4.4772 Y-3.6771
G01 X-4.5403 Y-3.6724
G01 X-4.6036 Y-3.6709
G01 X-4.6669 Y-3.6724
G01 X-4.7300 Y-3.6771
G01 X-4.7929 Y-3.6848
G01 X-4.8553 Y-3.6956
G01 X-4.9170 Y-3.7095
G01 X-4.9780 Y-3.7264
G01 X-5.0382 Y-3.7463
G01 X-5.0972 Y-3.7691
G01 X-5.1551 Y-3.7947
G01 X-5.2117 Y-3.8232
G01 X-5.2668 Y-3.8544
G01 X-5.3203 Y-3.8883
G01 X-5.3720 Y-3.9247
G01 X-5.4219 Y-3.9637
G01 X-5.4699 Y-4.0050
G01 X-5.5157 Y-4.0487
G01 X-5.5594 Y-4.0945
G01 X-5.6007 Y-4.1425
G01 X-5.6397 Y-4.1924
G01 X-5.6761 Y-4.2441
G01 X-5.7100 Y-4.2976
G01 X-5.7412 Y-4.3527
G01 X-5.7697 Y-4.4093
G01 X-5.7953 Y-4.4672
G01 X-5.8181 Y-4.5262
G01 X-5.8380 Y-4.5864
G01 X-5.8549 Y-4.6474
G01 X-5.8688 Y-4.7091
G01 X-5.8796 Y-4.7715
G01 X-5.8873 Y-4.8344
G01 X-5.8920 Y-4.8975
G01 X-5.8935 Y-4.9608
G01 X-5.8920 Y-5.0241
G01 X-5.8873 Y-5.0872
G01 X-5.8796 Y-5.1501
G01 X-5.8688 Y-5.2125
G01 X-5.8549 Y-5.2742
G01 X-5.8380 Y-5.3352
G01 X-5.8181 Y-5.3954
G01 X-5.7953 Y-5.4544
G01 X-5.7697 Y-5.5123
G01 X-5.7412 Y-5.5689
G01 X-5.7100 Y-5.6240
G01 X-5.6761 Y-5.6775
G01 X-5.6397 Y-5.7292
G01 X-5.6007 Y-5.7791
G01 X-5.5594 Y-5.8271
G01 X-5.5157 Y-5.8729
G01 X-5.4699 Y-5.9166
G01 X-5.4219 Y-5.9579
G01 X-5.3720 Y-5.9969
G01 X-5.3203 Y-6.0333
G01 X-5.2668 Y-6.0672
G01 X-5.2117 Y-6.0984
G01 X-5.1551 Y-6.1269
G01 X-5.0972 Y-6.1525
G01 X-5.0382 Y-6.1753
G01 X-4.9780 Y-6.1952
G01 X-4.9170 Y-6.2121
G01 X-4.8553 Y-6.2260
G01 X-4.7929 Y-6.2368
G01 X-4.7300 Y-6.2445
G01 X-4.6669 Y-6.2492
G01 X-4.6036 Y-6.2507
G01 X-4.5403 Y-6.2492
G01 X-4.4772 Y-6.2445
G01 X-4.4143 Y-6.2368
G01 X-4.3519 Y-6.2260
G01 X-4.2902 Y-6.2121
G01 X-4.2292 Y-6.1952
G01 X-4.1690 Y-6.1753
G01 X-4.1100 Y-6.1525
G01 X-4.0521 Y-6.1269
G01 X-3.9955 Y-6.0984
G01 X-3.9404 Y-6.0672
G01 X-3.8869 Y-6.0333
G01 X-3.8352 Y-5.9969
G01 X-3.7853 Y-5.9579
G01 X-3.7373 Y-5.9166
G01 X-3.6915 Y-5.8729
G01 X-3.6478 Y-5.8271
G01 X-3.6065 Y-5.7791
G01 X-3.5675 Y-5.7292
G01 X-3.5311 Y-5.6775
G01 X-3.4972 Y-5.6240
G01 X-3.4660 Y-5.5689
G01 X-3.4375 Y-5.5123
G01 X-3.4119 Y-5.4544
G01 X-3.3891 Y-5.3954
G01 X-3.3692 Y-5.3352
G01 X-3.3523 Y-5.2742
G01 X-3.3384 Y-5.2125
G01 X-3.3276 Y-5.1501
G01 X-3.3199 Y-5.0872
G01 X-3.3152 Y-5.0241
G01 X-3.3137 Y-4.9608
G00 Z2.0000
G00 X-3.3837 Y-4.9608
G01 F70.00
G01 Z-0.0600
G01 F60.00
G01 X-3.3852 Y-4.9009
G01 X-3.3896 Y-4.8412
G01 X-3.3969 Y-4.7818
G01 X-3.4071 Y-4.7228
G01 X-3.4202 Y-4.6644
G01 X-3.4362 Y-4.6067
G01 X-3.4550 Y-4.5498
G01 X-3.4765 Y-4.4940
G01 X-3.5008 Y-4.4392
G01 X-3.5277 Y-4.3857
G01 X-3.5572 Y-4.3336
G01 X-3.5893 Y-4.2831
G01 X-3.6238 Y-4.2341
G01 X-3.6606 Y-4.1869
G01 X-3.6997 Y-4.1416
G01 X-3.7410 Y-4.0982
G01 X-3.7844 Y-4.0569
G01 X-3.8297 Y-4.0178
G01 X-3.8769 Y-3.9810
G01 X-3.9259 Y-3.9465
G01 X-3.9764 Y-3.9144
G01 X-4.0285 Y-3.8849
G01 X-4.0820 Y-3.8580
G01 X-4.1368 Y-3.8337
G01 X-4.1926 Y-3.8122
G01 X-4.2495 Y-3.7934
G01 X-4.3072 Y-3.7774
G01 X-4.3656 Y-3.7643
G01 X-4.4246 Y-3.7541
G01 X-4.4840 Y-3.7468
G01 X-4.5437 Y-3.7424
G01 X-4.6036 Y-3.7409
G01 X-4.6635 Y-3.7424
G01 X-4.7232 Y-3.7468
G01 X-4.7826 Y-3.7541
G01 X-4.8416 Y-3.7643
G01 X-4.9000 Y-3.7774
G01 X-4.9577 Y-3.7934
G01 X-5.0146 Y-3.8122
G01 X-5.0704 Y-3.8337
G01 X-5.1252 Y-3.8580
G01 X-5.1787 Y-3.8849
G01 X-5.2308 Y-3.9144
G01 X-5.2813 Y-3.9465
G01 X-5.3303 Y-3.9810
G01 X-5.3775 Y-4.0178
G01 X-5.4228 Y-4.0569
G01 X-5.4662 Y-4.0982
G01 X-5.5075 Y-4.1416
G01 X-5.5466 Y-4.1869
G01 X-5.5834 Y-4.2341
G01 X-5.6179 Y-4.2831
G01 X-5.6500 Y-4.3336
G01 X-5.6795 Y-4.3857
G01 X-5.7064 Y-4.4392
G01 X-5.7307 Y-4.4940
G01 X-5.7522 Y-4.5498
G01 X-5.7710 Y-4.6067
G01 X-5.7870 Y-4.6644
G01 X-5.8001 Y-4.7228
G01 X-5.8103 Y-4.7818
G01 X-5.8176 Y-4.8412
G01 X-5.8220 Y-4.9009
G01 X-5.8235 Y-4.9608
G01 X-5.8220 Y-5.0207
G01 X-5.8176 Y-5.0804
G01 X-5.8103 Y-5.1398
G01 X-5.8001 Y-5.1988
G01 X-5.7870 Y-5.2572
G01 X-5.7710 Y-5.3149
G01 X-5.7522 Y-5.3718
G01 X-5.7307 Y-5.4276
G01 X-5.7064 Y-5.4824
G01 X-5.6795 Y-5.5359
G01 X-5.6500 Y-5.5880
G01 X-5.6179 Y-5.6385
G01 X-5.5834 Y-5.6875
G01 X-5.5466 Y-5.7347
G01 X-5.5075 Y-5.7800
G01 X-5.4662 Y-5.8234
G01 X-5.4228 Y-5.8647
G01 X-5.3775 Y-5.9038
G01 X-5.3303 Y-5.9406
G01 X-5.2813 Y-5.9751
G01 X-5.2308 Y-6.0072
G01 X-5.1787 Y-6.0367
G01 X-5.1252 Y-6.0636
G01 X-5.0704 Y-6.0879
G01 X-5.0146 Y-6.1094
G01 X-4.9577 Y-6.1282
G01 X-4.9000 Y-6.1442
G01 X-4.8416 Y-6.1573
G01 X-4.7826 Y-6.1675
G01 X-4.7232 Y-6.1748
G01 X-4.6635 Y-6.1792
G01 X-4.6036 Y-6.1807
G01 X-4.5437 Y-6.1792
G01 X-4.4840 Y-6.1748
G01 X-4.4246 Y-6.1675
G01 X-4.3656 Y-6.1573
G01 X-4.3072 Y-6.1442
G01 X-4.2495 Y-6.1282
G01 X-4.1926 Y-6.1094
G01 X-4.1368 Y-6.0879
G01 X-4.0820 Y-6.0636
G01 X-4.0285 Y-6.0367
G01 X-3.9764 Y-6.0072
G01 X-3.9259 Y-5.9751
G01 X-3.8769 Y-5.9406
G01 X-3.8297 Y-5.9038
G01 X-3.7844 Y-5.8647
G01 X-3.7410 Y-5.8234
G01 X-3.6997 Y-5.7800
G01 X-3.6606 Y-5.7347
G01 X-3.6238 Y-5.6875
G01 X-3.5893 Y-5.6385
G01 X-3.5572 Y-5.5880
G01 X-3.5277 Y-5.5359
G01 X-3.5008 Y-5.4824
G01 X-3.4765 Y-5.4276
G01 X-3.4550 Y-5.3718
G01 X-3.4362 Y-5.3149
G01 X-3.4202 Y-5.2572
G01 X-3.4071 Y-5.1988
G01 X-3.3969 Y-5.1398
G01 X-3.3896 Y-5.0804
G01 X-3.3852 Y-5.0207
G01 X-3.3837 Y-4.9608
G00 Z2.0000
G00 X-12.6314 Y-11.4695
G01 F70.00
G01 Z-0.0600
G01 F60.00
G01 X-12.6328 Y-11.4136
G01 X-12.6369 Y-11.3578
G01 X-12.6437 Y-11.3022
G01 X-12.6533 Y-11.2471
G01 X-12.6656 Y-11.1925
G01 X-12.6805 Y-11.1386
G01 X-12.6980 Y-11.0854
G01 X-12.7182 Y-11.0332
G01 X-12.7409 Y-10.9821
G01 X-12.7660 Y-10.9321
G01 X-12.7936 Y-10.8834
G01 X-12.8235 Y-10.8361
G01 X-12.8557 Y-10.7904
G01 X-12.8902 Y-10.7463
G01 X-12.9267 Y-10.7039
G01 X-12.9653 Y-10.6634
G01 X-13.0058 Y-10.6248
G01 X-13.0482 Y-10.5883
G01 X-13.0923 Y-10.5538
G01 X-13.1380 Y-10.5216
G01 X-13.1853 Y-10.4917
G01 X-13.2340 Y-10.4641
G01 X-13.2840 Y-10.4390
G01 X-13.3351 Y-10.4163
G01 X-13.3873 Y-10.3961
G01 X-13.4405 Y-10.3786
G01 X-13.4944 Y-10.3637
G01 X-13.5490 Y-10.3514
G01 X-13.6041 Y-10.3418
G01 X-13.6597 Y-10.3350
G01 X-13.7155 Y-10.3309
G01 X-13.7714 Y-10.3295
G01 X-13.8273 Y-10.3309
G01 X-13.8831 Y-10.3350
G01 X-13.9387 Y-10.3418
G01 X-13.9938 Y-10.3514
G01 X-14.0484 Y-10.3637
G01 X-14.1023 Y-10.3786
G01 X-14.1555 Y-10.3961
G01 X-14.2077 Y-10.4163
G01 X-14.2588 Y-10.4390
G01 X-14.3088 Y-10.4641
G01 X-14.3575 Y-10.4917
G01 X-14.4048 Y-10.5216
G01 X-14.4505 Y-10.5538
G01 X-14.4946 Y-10.5883
G01 X-14.5370 Y-10.6248
G01 X-14.5775 Y-10.6634
G01 X-14.6161 Y-10.7039
G01 X-14.6526 Y-10.7463
G01 X-14.6871 Y-10.7904
G01 X-14.7193 Y-10.8361
G01 X-14.7492 Y-10.8834
G01 X-14.7768 Y-10.9321
G01 X-14.8019 Y-10.9821
G01 X-14.8246 Y-11.0332
G01 X-14.8448 Y-11.0854
G01 X-14.8623 Y-11.1386
G01 X-14.8772 Y-11.1925
G01 X-14.8895 Y-11.2471
G01 X-14.8991 Y-11.3022
G01 X-14.9059 Y-11.3578
G01 X-14.9100 Y-11.4136
G01 X-14.9114 Y-11.4695
G01 X-14.9100 Y-11.5254
G01 X-14.9059 Y-11.5812
G01 X-14.8991 Y-11.6368
G01 X-14.8895 Y-11.6919
G01 X-14.8772 Y-11.7465
G01 X-14.8623 Y-11.8004
G01 X-14.8448 Y-11.8536
G01 X-14.8246 Y-11.9058
G01 X-14.8019 Y-11.9569
G01 X-14.7768 Y-12.0069
G01 X-14.7492 Y-12.0556
G01 X-14.7193 Y-12.1029
G01 X-14.6871 Y-12.1486
G01 X-14.6526 Y-12.1927
G01 X-14.6161 Y-12.2351
G01 X-14.5775 Y-12.2756
G01 X-14.5370 Y-12.3142
G01 X-14.4946 Y-12.3507
G01 X-14.4505 Y-12.3852
G01 X-14.4048 Y-12.4174
G01 X-14.3575 Y-12.4473
G01 X-14.3088 Y-12.4749
G01 X-14.2588 Y-12.5000
G01 X-14.2077 Y-12.5227
G01 X-14.1555 Y-12.5429
G01 X-14.1023 Y-12.5604
G01 X-14.0484 Y-12.5753
G01 X-13.9938 Y-12.5876
G01 X-13.9387 Y-12.5972
G01 X-13.8831 Y-12.6040
G01 X-13.8273 Y-12.6081
G01 X-13.7714 Y-12.6095
G01 X-13.7155 Y-12.6081
G01 X-13.6597 Y-12.6040
G01 X-13.6041 Y-12.5972
G01 X-13.5490 Y-12.5876
G01 X-13.4944 Y-12.5753
G01 X-13.4405 Y-12.5604
G01 X-13.3873 Y-12.5429
G01 X-13.3351 Y-12.5227
G01 X-13.2840 Y-12.5000
G01 X-13.2340 Y-12.4749
G01 X-13.1853 Y-12.4473
G01 X-13.1380 Y-12.4174
G01 X-13.0923 Y-12.3852
G01 X-13.0482 Y-12.3507
G01 X-13.0058 Y-12.3142
G01 X-12.9653 Y-12.2756
G01 X-12.9267 Y-12.2351
G01 X-12.8902 Y-12.1927
G01 X-12.8557 Y-12.1486
G01 X-12.8235 Y-12.1029
G01 X-12.7936 Y-12.0556
G01 X-12.7660 Y-12.0069
G01 X-12.7409 Y-11.9569
G01 X-12.7182 Y-11.9058
G01 X-12.6980 Y-11.8536
G01 X-12.6805 Y-11.8004
G01 X-12.6656 Y-11.7465
G01 X-12.6533 Y-11.6919
G01 X-12.6437 Y-11.6368
G01 X-12.6369 Y-11.5812
G01 X-12.6328 Y-11.5254
G01 X-12.6314 Y-11.4695
G00 Z2.0000
G00 X-12.7014 Y-11.4695
G01 F70.00
G01 Z-0.0600
G01 F60.00
G01 X-12.7027 Y-11.4170
G01 X-12.7066 Y-11.3646
G01 X-12.7130 Y-11.3125
G01 X-12.7220 Y-11.2608
G01 X-12.7335 Y-11.2095
G01 X-12.7475 Y-11.1589
G01 X-12.7639 Y-11.1090
G01 X-12.7828 Y-11.0600
G01 X-12.8041 Y-11.0120
G01 X-12.8277 Y-10.9651
G01 X-12.8536 Y-10.9194
G01 X-12.8817 Y-10.8750
G01 X-12.9120 Y-10.8321
G01 X-12.9443 Y-10.7907
G01 X-12.9786 Y-10.7509
G01 X-13.0148 Y-10.7129
G01 X-13.0528 Y-10.6767
G01 X-13.0926 Y-10.6424
G01 X-13.1340 Y-10.6101
G01 X-13.1769 Y-10.5798
G01 X-13.2213 Y-10.5517
G01 X-13.2670 Y-10.5258
G01 X-13.3139 Y-10.5022
G01 X-13.3619 Y-10.4809
G01 X-13.4109 Y-10.4620
G01 X-13.4608 Y-10.4456
G01 X-13.5114 Y-10.4316
G01 X-13.5627 Y-10.4201
G01 X-13.6144 Y-10.4111
G01 X-13.6665 Y-10.4047
G01 X-13.7189 Y-10.4008
G01 X-13.7714 Y-10.3995
G01 X-13.8239 Y-10.4008
G01 X-13.8763 Y-10.4047
G01 X-13.9284 Y-10.4111
G01 X-13.9801 Y-10.4201
G01 X-14.0314 Y-10.4316
G01 X-14.0820 Y-10.4456
G01 X-14.1319 Y-10.4620
G01 X-14.1809 Y-10.4809
G01 X-14.2289 Y-10.5022
G01 X-14.2758 Y-10.5258
G01 X-14.3215 Y-10.5517
G01 X-14.3659 Y-10.5798
G01 X-14.4088 Y-10.6101
G01 X-14.4502 Y-10.6424
G01 X-14.4900 Y-10.6767
G01 X-14.5280 Y-10.7129
G01 X-14.5642 Y-10.7509
G01 X-14.5985 Y-10.7907
G01 X-14.6308 Y-10.8321
G01 X-14.6611 Y-10.8750
G01 X-14.6892 Y-10.9194
G01 X-14.7151 Y-10.9651
G01 X-14.7387 Y-11.0120
G01 X-14.7600 Y-11.0600
G01 X-14.7789 Y-11.1090
G01 X-14.7953 Y-11.1589
G01 X-14.8093 Y-11.2095
G01 X-14.8208 Y-11.2608
G01 X-14.8298 Y-11.3125
G01 X-14.8362 Y-11.3646
G01 X-14.8401 Y-11.4170
G01 X-14.8414 Y-11.4695
G01 X-14.8401 Y-11.5220
G01 X-14.8362 Y-11.5744
G01 X-14.8298 Y-11.6265
G01 X-14.8208 Y-11.6782
G01 X-14.8093 Y-11.7295
G01 X-14.7953 Y-11.7801
G01 X-14.7789 Y-11.8300
G01 X-14.7600 Y-11.8790
G01 X-14.7387 Y-11.9270
G01 X-14.7151 Y-11.9739
G01 X-14.6892 Y-12.0196
G01 X-14.6611 Y-12.0640
G01 X-14.6308 Y-12.1069
G01 X-14.5985 Y-12.1483
G01 X-14.5642 Y-12.1881
G01 X-14.5280 Y-12.2261
G01 X-14.4900 Y-12.2623
G01 X-14.4502 Y-12.2966
G01 X-14.4088 Y-12.3289
G01 X-14.3659 Y-12.3592
G01 X-14.3215 Y-12.3873
G01 X-14.2758 Y-12.4132
G01 X-14.2289 Y-12.4368
G01 X-14.1809 Y-12.4581
G01 X-14.1319 Y-12.4770
G01 X-14.0820 Y-12.4934
G01 X-14.0314 Y-12.5074
G01 X-13.9801 Y-12.5189
G01 X-13.9284 Y-12.5279
G01 X-13.8763 Y-12.5343
G01 X-13.8239 Y-12.5382
G01 X-13.7714 Y-12.5395
G01 X-13.7189 Y-12.5382
G01 X-13.6665 Y-12.5343
G01 X-13.6144 Y-12.5279
G01 X-13.5627 Y-12.5189
G01 X-13.5114 Y-12.5074
G01 X-13.4608 Y-12.4934
G01 X-13.4109 Y-12.4770
G01 X-13.3619 Y-12.4581
G01 X-13.3139 Y-12.4368
G01 X-13.2670 Y-12.4132
G01 X-13.2213 Y-12.3873
G01 X-13.1769 Y-12.3592
G01 X-13.1340 Y-12.3289
G01 X-13.0926 Y-12.2966
G01 X-13.0528 Y-12.2623
G01 X-13.0148 Y-12.2261
G01 X-12.9786 Y-12.1881
G01 X-12.9443 Y-12.1483
G01 X-12.9120 Y-12.1069
G01 X-12.8817 Y-12.0640
G01 X-12.8536 Y-12.0196
G01 X-12.8277 Y-11.9739
G01 X-12.8041 Y-11.9270
G01 X-12.7828 Y-11.8790
G01 X-12.7639 Y-11.8300
G01 X-12.7475 Y-11.7801
G01 X-12.7335 Y-11.7295
G01 X-12.7220 Y-11.6782
G01 X-12.7130 Y-11.6265
G01 X-12.7066 Y-11.5744
G01 X-12.7027 Y-11.5220
G01 X-12.7014 Y-11.4695
G00 Z2.0000
G00 X-13.4414 Y-11.4695
G01 F70.00
G01 Z-0.0600
G01 F60.00
G01 X-13.4430 Y-11.4372
G01 X-13.4478 Y-11.4051
G01 X-13.4556 Y-11.3737
G01 X-13.4665 Y-11.3432
G01 X-13.4804 Y-11.3139
G01 X-13.4970 Y-11.2862
G01 X-13.5163 Y-11.2602
G01 X-13.5381 Y-11.2362
G01 X-13.5621 Y-11.2144
G01 X-13.5881 Y-11.1951
G01 X-13.6158 Y-11.1785
G01 X-13.6451 Y-11.1646
G01 X-13.6756 Y-11.1537
G01 X-13.7070 Y-11.1459
G01 X-13.7391 Y-11.1411
G01 X-13.7714 Y-11.1395
G01 X-13.8037 Y-11.1411
G01 X-13.8358 Y-11.1459
G01 X-13.8672 Y-11.1537
G01 X-13.8977 Y-11.1646
G01 X-13.9270 Y-11.1785
G01 X-13.9547 Y-11.1951
G01 X-13.9807 Y-11.2144
G01 X-14.0047 Y-11.2362
G01 X-14.0265 Y-11.2602
G01 X-14.0458 Y-11.2862
G01 X-14.0624 Y-11.3139
G01 X-14.0763 Y-11.3432
G01 X-14.0872 Y-11.3737
G01 X-14.0950 Y-11.4051
G01 X-14.0998 Y-11.4372
G01 X-14.1014 Y-11.4695
G01 X-14.0998 Y-11.5018
G01 X-14.0950 Y-11.5339
G01 X-14.0872 Y-11.5653
G01 X-14.0763 Y-11.5958
G01 X-14.0624 Y-11.6251
G01 X-14.0458 Y-11.6528
G01 X-14.0265 Y-11.6788
G01 X-14.0047 Y-11.7028
G01 X-13.9807 Y-11.7246
G01 X-13.9547 Y-11.7439
G01 X-13.9270 Y-11.7605
G01 X-13.8977 Y-11.7744
G01 X-13.8672 Y-11.7853
G01 X-13.8358 Y-11.7931
G01 X-13.8037 Y-11.7979
G01 X-13.7714 Y-11.7995
G01 X-13.7391 Y-11.7979
G01 X-13.7070 Y-11.7931
G01 X-13.6756 Y-11.7853
G01 X-13.6451 Y-11.7744
G01 X-13.6158 Y-11.7605
G01 X-13.5881 Y-11.7439
G01 X-13.5621 Y-11.7246
G01 X-13.5381 Y-11.7028
G01 X-13.5163 Y-11.6788
G01 X-13.4970 Y-11.6528
G01 X-13.4804 Y-11.6251
G01 X-13.4665 Y-11.5958
G01 X-13.4556 Y-11.5653
G01 X-13.4478 Y-11.5339
G01 X-13.4430 Y-11.5018
G01 X-13.4414 Y-11.4695
G00 Z2.0000
G00 X-13.5114 Y-11.4695
G01 F70.00
G01 Z-0.0600
G01 F60.00
G01 X-13.5127 Y-11.4440
G01 X-13.5164 Y-11.4188
G01 X-13.5226 Y-11.3940
G01 X-13.5312 Y-11.3700
G01 X-13.5421 Y-11.3470
G01 X-13.5553 Y-11.3251
G01 X-13.5704 Y-11.3046
G01 X-13.5876 Y-11.2857
G01 X-13.6065 Y-11.2685
G01 X-13.6270 Y-11.2534
G01 X-13.6489 Y-11.2402
G01 X-13.6719 Y-11.2293
G01 X-13.6959 Y-11.2207
G01 X-13.7207 Y-11.2145
G01 X-13.7459 Y-11.2108
G01 X-13.7714 Y-11.2095
G01 X-13.7969 Y-11.2108
G01 X-13.8221 Y-11.2145
G01 X-13.8469 Y-11.2207
G01 X-13.8709 Y-11.2293
G01 X-13.8939 Y-11.2402
G01 X-13.9158 Y-11.2534
G01 X-13.9363 Y-11.2685
G01 X-13.9552 Y-11.2857
G01 X-13.9724 Y-11.3046
G01 X-13.9875 Y-11.3251
G01 X-14.0007 Y-11.3470
G01 X-14.0116 Y-11.3700
G01 X-14.0202 Y-11.3940
G01 X-14.0264 Y-11.4188
G01 X-14.0301 Y-11.4440
G01 X-14.0314 Y-11.4695
G01 X-14.0301 Y-11.4950
G01 X-14.0264 Y-11.5202
G01 X-14.0202 Y-11.5450
G01 X-14.0116 Y-11.5690
G01 X-14.0007 Y-11.5920
G01 X-13.9875 Y-11.6139
G01 X-13.9724 Y-11.6344
G01 X-13.9552 Y-11.6533
G01 X-13.9363 Y-11.6705
G01 X-13.9158 Y-11.6856
G01 X-13.8939 Y-11.6988
G01 X-13.8709 Y-11.7097
G01 X-13.8469 Y-11.7183
G01 X-13.8221 Y-11.7245
G01 X-13.7969 Y-11.7282
G01 X-13.7714 Y-11.7295
G01 X-13.7459 Y-11.7282
G01 X-13.7207 Y-11.7245
G01 X-13.6959 Y-11.7183
G01 X-13.6719 Y-11.7097
G01 X-13.6489 Y-11.6988
G01 X-13.6270 Y-11.6856
G01 X-13.6065 Y-11.6705
G01 X-13.5876 Y-11.6533
G01 X-13.5704 Y-11.6344
G01 X-13.5553 Y-11.6139
G01 X-13.5421 Y-11.5920
G01 X-13.5312 Y-11.5690
G01 X-13.5226 Y-11.5450
G01 X-13.5164 Y-11.5202
G01 X-13.5127 Y-11.4950
G01 X-13.5114 Y-11.4695
G00 Z2.0000
G00 X-13.5815 Y-11.4695
G01 F70.00
G01 Z-0.0600
G01 F60.00
G01 X-13.5824 Y-11.4509
G01 X-13.5851 Y-11.4324
G01 X-13.5896 Y-11.4144
G01 X-13.5959 Y-11.3968
G01 X-13.6039 Y-11.3800
G01 X-13.6135 Y-11.3640
G01 X-13.6246 Y-11.3490
G01 X-13.6371 Y-11.3352
G01 X-13.6509 Y-11.3227
G01 X-13.6659 Y-11.3116
G01 X-13.6819 Y-11.3020
G01 X-13.6987 Y-11.2940
G01 X-13.7163 Y-11.2877
G01 X-13.7343 Y-11.2832
G01 X-13.7528 Y-11.2805
G01 X-13.7714 Y-11.2796
G01 X-13.7900 Y-11.2805
G01 X-13.8085 Y-11.2832
G01 X-13.8265 Y-11.2877
G01 X-13.8441 Y-11.2940
G01 X-13.8609 Y-11.3020
G01 X-13.8769 Y-11.3116
G01 X-13.8919 Y-11.3227
G01 X-13.9057 Y-11.3352
G01 X-13.9182 Y-11.3490
G01 X-13.9293 Y-11.3640
G01 X-13.9389 Y-11.3800
G01 X-13.9469 Y-11.3968
G01 X-13.9532 Y-11.4144
G01 X-13.9577 Y-11.4324
G01 X-13.9604 Y-11.4509
G01 X-13.9613 Y-11.4695
G01 X-13.9604 Y-11.4881
G01 X-13.9577 Y-11.5066
G01 X-13.9532 Y-11.5246
G01 X-13.9469 Y-11.5422
G01 X-13.9389 Y-11.5590
G01 X-13.9293 Y-11.5750
G01 X-13.9182 Y-11.5900
G01 X-13.9057 Y-11.6038
G01 X-13.8919 Y-11.6163
G01 X-13.8769 Y-11.6274
G01 X-13.8609 Y-11.6370
G01 X-13.8441 Y-11.6450
G01 X-13.8265 Y-11.6513
G01 X-13.8085 Y-11.6558
G01 X-13.7900 Y-11.6585
G01 X-13.7714 Y-11.6594
G01 X-13.7528 Y-11.6585
G01 X-13.7343 Y-11.6558
G01 X-13.7163 Y-11.6513
G01 X-13.6987 Y-11.6450
G01 X-13.6819 Y-11.6370
G01 X-13.6659 Y-11.6274
G01 X-13.6509 Y-11.6163
G01 X-13.6371 Y-11.6038
G01 X-13.6246 Y-11.5900
G01 X-13.6135 Y-11.5750
G01 X-13.6039 Y-11.5590
G01 X-13.5959 Y-11.5422
G01 X-13.5896 Y-11.5246
G01 X-13.5851 Y-11.5066
G01 X-13.5824 Y-11.4881
G01 X-13.5815 Y-11.4695
G00 Z2.0000
G00 X-13.6515 Y-11.4695
G01 F70.00
G01 Z-0.0600
G01 F60.00
G01 X-13.6521 Y-11.4577
G01 X-13.6538 Y-11.4461
G01 X-13.6566 Y-11.4347
G01 X-13.6606 Y-11.4236
G01 X-13.6656 Y-11.4130
G01 X-13.6717 Y-11.4029
G01 X-13.6787 Y-11.3934
G01 X-13.6866 Y-11.3847
G01 X-13.6953 Y-11.3768
G01 X-13.7048 Y-11.3698
G01 X-13.7149 Y-11.3637
G01 X-13.7255 Y-11.3587
G01 X-13.7366 Y-11.3547
G01 X-13.7480 Y-11.3519
G01 X-13.7596 Y-11.3502
G01 X-13.7714 Y-11.3496
G01 X-13.7832 Y-11.3502
G01 X-13.7948 Y-11.3519
G01 X-13.8062 Y-11.3547
G01 X-13.8173 Y-11.3587
G01 X-13.8279 Y-11.3637
G01 X-13.8380 Y-11.3698
G01 X-13.8475 Y-11.3768
G01 X-13.8562 Y-11.3847
G01 X-13.8641 Y-11.3934
G01 X-13.8711 Y-11.4029
G01 X-13.8772 Y-11.4130
G01 X-13.8822 Y-11.4236
G01 X-13.8862 Y-11.4347
G01 X-13.8890 Y-11.4461
G01 X-13.8907 Y-11.4577
G01 X-13.8913 Y-11.4695
G01 X-13.8907 Y-11.4813
G01 X-13.8890 Y-11.4929
G01 X-13.8862 Y-11.5043
G01 X-13.8822 Y-11.5154
G01 X-13.8772 Y-11.5260
G01 X-13.8711 Y-11.5361
G01 X-13.8641 Y-11.5456
G01 X-13.8562 Y-11.5543
G01 X-13.8475 Y-11.5622
G01 X-13.8380 Y-11.5692
G01 X-13.8279 Y-11.5753
G01 X-13.8173 Y-11.5803
G01 X-13.8062 Y-11.5843
G01 X-13.7948 Y-11.5871
G01 X-13.7832 Y-11.5888
G01 X-13.7714 Y-11.5894
G01 X-13.7596 Y-11.5888
G01 X-13.7480 Y-11.5871
G01 X-13.7366 Y-11.5843
G01 X-13.7255 Y-11.5803
G01 X-13.7149 Y-11.5753
G01 X-13.7048 Y-11.5692
G01 X-13.6953 Y-11.5622
G01 X-13.6866 Y-11.5543
G01 X-13.6787 Y-11.5456
G01 X-13.6717 Y-11.5361
G01 X-13.6656 Y-11.5260
G01 X-13.6606 Y-11.5154
G01 X-13.6566 Y-11.5043
G01 X-13.6538 Y-11.4929
G01 X-13.6521 Y-11.4813
G01 X-13.6515 Y-11.4695
G00 Z2.0000
G00 X-15.1040 Y-11.5450
G01 F70.00
G01 Z-0.0600
G01 F60.00
G01 X-15.0874 Y-11.5406
G01 X-15.0722 Y-11.5377
G01 X-15.0568 Y-11.5360
G01 X-15.0414 Y-11.5355
G01 X-15.0260 Y-11.5360
G01 X-15.0106 Y-11.5377
G01 X-14.9954 Y-11.5406
G01 X-14.9788 Y-11.5450
G01 X-14.9801 Y-11.5263
G01 X-14.9814 Y-11.4695
G01 X-14.9801 Y-11.4127
G01 X-14.9788 Y-11.3940
G01 X-14.9954 Y-11.3984
G01 X-15.0106 Y-11.4013
G01 X-15.0260 Y-11.4030
G01 X-15.0414 Y-11.4035
G01 X-15.0568 Y-11.4030
G01 X-15.0722 Y-11.4013
G01 X-15.0874 Y-11.3984
G01 X-15.1040 Y-11.3940
G01 X-15.1027 Y-11.4127
G01 X-15.1014 Y-11.4695
G01 X-15.1027 Y-11.5263
G01 X-15.1040 Y-11.5450
G00 Z2.0000
G00 X-15.1714 Y-11.4695
G01 F70.00
G01 Z-0.0600
G01 F60.00
G01 X-15.1728 Y-11.4136
G01 X-15.1769 Y-11.3578
G01 X-15.1837 Y-11.3022
G01 X-15.1933 Y-11.2471
G01 X-15.2056 Y-11.1925
G01 X-15.2205 Y-11.1386
G01 X-15.2380 Y-11.0854
G01 X-15.2582 Y-11.0332
G01 X-15.2809 Y-10.9821
G01 X-15.3060 Y-10.9321
G01 X-15.3336 Y-10.8834
G01 X-15.3635 Y-10.8361
G01 X-15.3957 Y-10.7904
G01 X-15.4302 Y-10.7463
G01 X-15.4667 Y-10.7039
G01 X-15.5053 Y-10.6634
G01 X-15.5458 Y-10.6248
G01 X-15.5882 Y-10.5883
G01 X-15.6323 Y-10.5538
G01 X-15.6780 Y-10.5216
G01 X-15.7253 Y-10.4917
G01 X-15.7740 Y-10.4641
G01 X-15.8240 Y-10.4390
G01 X-15.8751 Y-10.4163
G01 X-15.9273 Y-10.3961
G01 X-15.9805 Y-10.3786
G01 X-16.0344 Y-10.3637
G01 X-16.0890 Y-10.3514
G01 X-16.1441 Y-10.3418
G01 X-16.1997 Y-10.3350
G01 X-16.2555 Y-10.3309
G01 X-16.3114 Y-10.3295
G01 X-16.3673 Y-10.3309
G01 X-16.4231 Y-10.3350
G01 X-16.4787 Y-10.3418
G01 X-16.5338 Y-10.3514
G01 X-16.5884 Y-10.3637
G01 X-16.6423 Y-10.3786
G01 X-16.6955 Y-10.3961
G01 X-16.7477 Y-10.4163
G01 X-16.7988 Y-10.4390
G01 X-16.8488 Y-10.4641
G01 X-16.8975 Y-10.4917
G01 X-16.9448 Y-10.5216
G01 X-16.9905 Y-10.5538
G01 X-17.0346 Y-10.5883
G01 X-17.0770 Y-10.6248
G01 X-17.1175 Y-10.6634
G01 X-17.1561 Y-10.7039
G01 X-17.1926 Y-10.7463
G01 X-17.2271 Y-10.7904
G01 X-17.2593 Y-10.8361
G01 X-17.2892 Y-10.8834
G01 X-17.3168 Y-10.9321
G01 X-17.3419 Y-10.9821
G01 X-17.3646 Y-11.0332
G01 X-17.3848 Y-11.0854
G01 X-17.4023 Y-11.1386
G01 X-17.4172 Y-11.1925
G01 X-17.4295 Y-11.2471
G01 X-17.4391 Y-11.3022
G01 X-17.4459 Y-11.3578
G01 X-17.4500 Y-11.4136
G01 X-17.4514 Y-11.4695
G01 X-17.4500 Y-11.5254
G01 X-17.4459 Y-11.5812
G01 X-17.4391 Y-11.6368
G01 X-17.4295 Y-11.6919
G01 X-17.4172 Y-11.7465
G01 X-17.4023 Y-11.8004
G01 X-17.3848 Y-11.8536
G01 X-17.3646 Y-11.9058
G01 X-17.3419 Y-11.9569
G01 X-17.3168 Y-12.0069
G01 X-17.2892 Y-12.0556
G01 X-17.2593 Y-12.1029
G01 X-17.2271 Y-12.1486
G01 X-17.1926 Y-12.1927
G01 X-17.1561 Y-12.2351
G01 X-17.1175 Y-12.2756
G01 X-17.0770 Y-12.3142
G01 X-17.0346 Y-12.3507
G01 X-16.9905 Y-12.3852
G01 X-16.9448 Y-12.4174
G01 X-16.8975 Y-12.4473
G01 X-16.8488 Y-12.4749
G01 X-16.7988 Y-12.5000
G01 X-16.7477 Y-12.5227
G01 X-16.6955 Y-12.5429
G01 X-16.6423 Y-12.5604
G01 X-16.5884 Y-12.5753
G01 X-16.5338 Y-12.5876
G01 X-16.4787 Y-12.5972
G01 X-16.4231 Y-12.6040
G01 X-16.3673 Y-12.6081
G01 X-16.3114 Y-12.6095
G01 X-16.2555 Y-12.6081
G01 X-16.1997 Y-12.6040
G01 X-16.1441 Y-12.5972
G01 X-16.0890 Y-12.5876
G01 X-16.0344 Y-12.5753
G01 X-15.9805 Y-12.5604
G01 X-15.9273 Y-12.5429
G01 X-15.8751 Y-12.5227
G01 X-15.8240 Y-12.5000
G01 X-15.7740 Y-12.4749
G01 X-15.7253 Y-12.4473
G01 X-15.6780 Y-12.4174
G01 X-15.6323 Y-12.3852
G01 X-15.5882 Y-12.3507
G01 X-15.5458 Y-12.3142
G01 X-15.5053 Y-12.2756
G01 X-15.4667 Y-12.2351
G01 X-15.4302 Y-12.1927
G01 X-15.3957 Y-12.1486
G01 X-15.3635 Y-12.1029
G01 X-15.3336 Y-12.0556
G01 X-15.3060 Y-12.0069
G01 X-15.2809 Y-11.9569
G01 X-15.2582 Y-11.9058
G01 X-15.2380 Y-11.8536
G01 X-15.2205 Y-11.8004
G01 X-15.2056 Y-11.7465
G01 X-15.1933 Y-11.6919
G01 X-15.1837 Y-11.6368
G01 X-15.1769 Y-11.5812
G01 X-15.1728 Y-11.5254
G01 X-15.1714 Y-11.4695
G00 Z2.0000
G00 X-15.2414 Y-11.4695
G01 F70.00
G01 Z-0.0600
G01 F60.00
G01 X-15.2427 Y-11.4170
G01 X-15.2466 Y-11.3646
G01 X-15.2530 Y-11.3125
G01 X-15.2620 Y-11.2608
G01 X-15.2735 Y-11.2095
G01 X-15.2875 Y-11.1589
G01 X-15.3039 Y-11.1090
G01 X-15.3228 Y-11.0600
G01 X-15.3441 Y-11.0120
G01 X-15.3677 Y-10.9651
G01 X-15.3936 Y-10.9194
G01 X-15.4217 Y-10.8750
G01 X-15.4520 Y-10.8321
G01 X-15.4843 Y-10.7907
G01 X-15.5186 Y-10.7509
G01 X-15.5548 Y-10.7129
G01 X-15.5928 Y-10.6767
G01 X-15.6326 Y-10.6424
G01 X-15.6740 Y-10.6101
G01 X-15.7169 Y-10.5798
G01 X-15.7613 Y-10.5517
G01 X-15.8070 Y-10.5258
G01 X-15.8539 Y-10.5022
G01 X-15.9019 Y-10.4809
G01 X-15.9509 Y-10.4620
G01 X-16.0008 Y-10.4456
G01 X-16.0514 Y-10.4316
G01 X-16.1027 Y-10.4201
G01 X-16.1544 Y-10.4111
G01 X-16.2065 Y-10.4047
G01 X-16.2589 Y-10.4008
G01 X-16.3114 Y-10.3995
G01 X-16.3639 Y-10.4008
G01 X-16.4163 Y-10.4047
G01 X-16.4684 Y-10.4111
G01 X-16.5201 Y-10.4201
G01 X-16.5714 Y-10.4316
G01 X-16.6220 Y-10.4456
G01 X-16.6719 Y-10.4620
G01 X-16.7209 Y-10.4809
G01 X-16.7689 Y-10.5022
G01 X-16.8158 Y-10.5258
G01 X-16.8615 Y-10.5517
G01 X-16.9059 Y-10.5798
G01 X-16.9488 Y-10.6101
G01 X-16.9902 Y-10.6424
G01 X-17.0300 Y-10.6767
G01 X-17.0680 Y-10.7129
G01 X-17.1042 Y-10.7509
G01 X-17.1385 Y-10.7907
G01 X-17.1708 Y-10.8321
G01 X-17.2011 Y-10.8750
G01 X-17.2292 Y-10.9194
G01 X-17.2551 Y-10.9651
G01 X-17.2787 Y-11.0120
G01 X-17.3000 Y-11.0600
G01 X-17.3189 Y-11.1090
G01 X-17.3353 Y-11.1589
G01 X-17.3493 Y-11.2095
G01 X-17.3608 Y-11.2608
G01 X-17.3698 Y-11.3125
G01 X-17.3762 Y-11.3646
G01 X-17.3801 Y-11.4170
G01 X-17.3814 Y-11.4695
G01 X-17.3801 Y-11.5220
G01 X-17.3762 Y-11.5744
G01 X-17.3698 Y-11.6265
G01 X-17.3608 Y-11.6782
G01 X-17.3493 Y-11.7295
G01 X-17.3353 Y-11.7801
G01 X-17.3189 Y-11.8300
G01 X-17.3000 Y-11.8790
G01 X-17.2787 Y-11.9270
G01 X-17.2551 Y-11.9739
G01 X-17.2292 Y-12.0196
G01 X-17.2011 Y-12.0640
G01 X-17.1708 Y-12.1069
G01 X-17.1385 Y-12.1483
G01 X-17.1042 Y-12.1881
G01 X-17.0680 Y-12.2261
G01 X-17.0300 Y-12.2623
G01 X-16.9902 Y-12.2966
G01 X-16.9488 Y-12.3289
G01 X-16.9059 Y-12.3592
G01 X-16.8615 Y-12.3873
G01 X-16.8158 Y-12.4132
G01 X-16.7689 Y-12.4368
G01 X-16.7209 Y-12.4581
G01 X-16.6719 Y-12.4770
G01 X-16.6220 Y-12.4934
G01 X-16.5714 Y-12.5074
G01 X-16.5201 Y-12.5189
G01 X-16.4684 Y-12.5279
G01 X-16.4163 Y-12.5343
G01 X-16.3639 Y-12.5382
G01 X-16.3114 Y-12.5395
G01 X-16.2589 Y-12.5382
G01 X-16.2065 Y-12.5343
G01 X-16.1544 Y-12.5279
G01 X-16.1027 Y-12.5189
G01 X-16.0514 Y-12.5074
G01 X-16.0008 Y-12.4934
G01 X-15.9509 Y-12.4770
G01 X-15.9019 Y-12.4581
G01 X-15.8539 Y-12.4368
G01 X-15.8070 Y-12.4132
G01 X-15.7613 Y-12.3873
G01 X-15.7169 Y-12.3592
G01 X-15.6740 Y-12.3289
G01 X-15.6326 Y-12.2966
G01 X-15.5928 Y-12.2623
G01 X-15.5548 Y-12.2261
G01 X-15.5186 Y-12.1881
G01 X-15.4843 Y-12.1483
G01 X-15.4520 Y-12.1069
G01 X-15.4217 Y-12.0640
G01 X-15.3936 Y-12.0196
G01 X-15.3677 Y-11.9739
G01 X-15.3441 Y-11.9270
G01 X-15.3228 Y-11.8790
G01 X-15.3039 Y-11.8300
G01 X-15.2875 Y-11.7801
G01 X-15.2735 Y-11.7295
G01 X-15.2620 Y-11.6782
G01 X-15.2530 Y-11.6265
G01 X-15.2466 Y-11.5744
G01 X-15.2427 Y-11.5220
G01 X-15.2414 Y-11.4695
G00 Z2.0000
G00 X-15.9814 Y-11.4695
G01 F70.00
G01 Z-0.0600
G01 F60.00
G01 X-15.9830 Y-11.4372
G01 X-15.9878 Y-11.4051
G01 X-15.9956 Y-11.3737
G01 X-16.0065 Y-11.3432
G01 X-16.0204 Y-11.3139
G01 X-16.0370 Y-11.2862
G01 X-16.0563 Y-11.2602
G01 X-16.0781 Y-11.2362
G01 X-16.1021 Y-11.2144
G01 X-16.1281 Y-11.1951
G01 X-16.1558 Y-11.1785
G01 X-16.1851 Y-11.1646
G01 X-16.2156 Y-11.1537
G01 X-16.2470 Y-11.1459
G01 X-16.2791 Y-11.1411
G01 X-16.3114 Y-11.1395
G01 X-16.3437 Y-11.1411
G01 X-16.3758 Y-11.1459
G01 X-16.4072 Y-11.1537
G01 X-16.4377 Y-11.1646
G01 X-16.4670 Y-11.1785
G01 X-16.4947 Y-11.1951
G01 X-16.5207 Y-11.2144
G01 X-16.5447 Y-11.2362
G01 X-16.5665 Y-11.2602
G01 X-16.5858 Y-11.2862
G01 X-16.6024 Y-11.3139
G01 X-16.6163 Y-11.3432
G01 X-16.6272 Y-11.3737
G01 X-16.6350 Y-11.4051
G01 X-16.6398 Y-11.4372
G01 X-16.6414 Y-11.4695
G01 X-16.6398 Y-11.5018
G01 X-16.6350 Y-11.5339
G01 X-16.6272 Y-11.5653
G01 X-16.6163 Y-11.5958
G01 X-16.6024 Y-11.6251
G01 X-16.5858 Y-11.6528
G01 X-16.5665 Y-11.6788
G01 X-16.5447 Y-11.7028
G01 X-16.5207 Y-11.7246
G01 X-16.4947 Y-11.7439
G01 X-16.4670 Y-11.7605
G01 X-16.4377 Y-11.7744
G01 X-16.4072 Y-11.7853
G01 X-16.3758 Y-11.7931
G01 X-16.3437 Y-11.7979
G01 X-16.3114 Y-11.7995
G01 X-16.2791 Y-11.7979
G01 X-16.2470 Y-11.7931
G01 X-16.2156 Y-11.7853
G01 X-16.1851 Y-11.7744
G01 X-16.1558 Y-11.7605
G01 X-16.1281 Y-11.7439
G01 X-16.1021 Y-11.7246
G01 X-16.0781 Y-11.7028
G01 X-16.0563 Y-11.6788
G01 X-16.0370 Y-11.6528
G01 X-16.0204 Y-11.6251
G01 X-16.0065 Y-11.5958
G01 X-15.9956 Y-11.5653
G01 X-15.9878 Y-11.5339
G01 X-15.9830 Y-11.5018
G01 X-15.9814 Y-11.4695
G00 Z2.0000
G00 X-16.0514 Y-11.4695
G01 F70.00
G01 Z-0.0600
G01 F60.00
G01 X-16.0527 Y-11.4440
G01 X-16.0564 Y-11.4188
G01 X-16.0626 Y-11.3940
G01 X-16.0712 Y-11.3700
G01 X-16.0821 Y-11.3470
G01 X-16.0953 Y-11.3251
G01 X-16.1104 Y-11.3046
G01 X-16.1276 Y-11.2857
G01 X-16.1465 Y-11.2685
G01 X-16.1670 Y-11.2534
G01 X-16.1889 Y-11.2402
G01 X-16.2119 Y-11.2293
G01 X-16.2359 Y-11.2207
G01 X-16.2607 Y-11.2145
G01 X-16.2859 Y-11.2108
G01 X-16.3114 Y-11.2095
G01 X-16.3369 Y-11.2108
G01 X-16.3621 Y-11.2145
G01 X-16.3869 Y-11.2207
G01 X-16.4109 Y-11.2293
G01 X-16.4339 Y-11.2402
G01 X-16.4558 Y-11.2534
G01 X-16.4763 Y-11.2685
G01 X-16.4952 Y-11.2857
G01 X-16.5124 Y-11.3046
G01 X-16.5275 Y-11.3251
G01 X-16.5407 Y-11.3470
G01 X-16.5516 Y-11.3700
G01 X-16.5602 Y-11.3940
G01 X-16.5664 Y-11.4188
G01 X-16.5701 Y-11.4440
G01 X-16.5714 Y-11.4695
G01 X-16.5701 Y-11.4950
G01 X-16.5664 Y-11.5202
G01 X-16.5602 Y-11.5450
G01 X-16.5516 Y-11.5690
G01 X-16.5407 Y-11.5920
G01 X-16.5275 Y-11.6139
G01 X-16.5124 Y-11.6344
G01 X-16.4952 Y-11.6533
G01 X-16.4763 Y-11.6705
G01 X-16.4558 Y-11.6856
G01 X-16.4339 Y-11.6988
G01 X-16.4109 Y-11.7097
G01 X-16.3869 Y-11.7183
G01 X-16.3621 Y-11.7245
G01 X-16.3369 Y-11.7282
G01 X-16.3114 Y-11.7295
G01 X-16.2859 Y-11.7282
G01 X-16.2607 Y-11.7245
G01 X-16.2359 Y-11.7183
G01 X-16.2119 Y-11.7097
G01 X-16.1889 Y-11.6988
G01 X-16.1670 Y-11.6856
G01 X-16.1465 Y-11.6705
G01 X-16.1276 Y-11.6533
G01 X-16.1104 Y-11.6344
G01 X-16.0953 Y-11.6139
G01 X-16.0821 Y-11.5920
G01 X-16.0712 Y-11.5690
G01 X-16.0626 Y-11.5450
G01 X-16.0564 Y-11.5202
G01 X-16.0527 Y-11.4950
G01 X-16.0514 Y-11.4695
G00 Z2.0000
G00 X-16.1215 Y-11.4695
G01 F70.00
G01 Z-0.0600
G01 F60.00
G01 X-16.1224 Y-11.4509
G01 X-16.1251 Y-11.4324
G01 X-16.1296 Y-11.4144
G01 X-16.1359 Y-11.3968
G01 X-16.1439 Y-11.3800
G01 X-16.1535 Y-11.3640
G01 X-16.1646 Y-11.3490
G01 X-16.1771 Y-11.3352
G01 X-16.1909 Y-11.3227
G01 X-16.2059 Y-11.3116
G01 X-16.2219 Y-11.3020
G01 X-16.2387 Y-11.2940
G01 X-16.2563 Y-11.2877
G01 X-16.2743 Y-11.2832
G01 X-16.2928 Y-11.2805
G01 X-16.3114 Y-11.2796
G01 X-16.3300 Y-11.2805
G01 X-16.3485 Y-11.2832
G01 X-16.3665 Y-11.2877
G01 X-16.3841 Y-11.2940
G01 X-16.4009 Y-11.3020
G01 X-16.4169 Y-11.3116
G01 X-16.4319 Y-11.3227
G01 X-16.4457 Y-11.3352
G01 X-16.4582 Y-11.3490
G01 X-16.4693 Y-11.3640
G01 X-16.4789 Y-11.3800
G01 X-16.4869 Y-11.3968
G01 X-16.4932 Y-11.4144
G01 X-16.4977 Y-11.4324
G01 X-16.5004 Y-11.4509
G01 X-16.5013 Y-11.4695
G01 X-16.5004 Y-11.4881
G01 X-16.4977 Y-11.5066
G01 X-16.4932 Y-11.5246
G01 X-16.4869 Y-11.5422
G01 X-16.4789 Y-11.5590
G01 X-16.4693 Y-11.5750
G01 X-16.4582 Y-11.5900
G01 X-16.4457 Y-11.6038
G01 X-16.4319 Y-11.6163
G01 X-16.4169 Y-11.6274
G01 X-16.4009 Y-11.6370
G01 X-16.3841 Y-11.6450
G01 X-16.3665 Y-11.6513
G01 X-16.3485 Y-11.6558
G01 X-16.3300 Y-11.6585
G01 X-16.3114 Y-11.6594
G01 X-16.2928 Y-11.6585
G01 X-16.2743 Y-11.6558
G01 X-16.2563 Y-11.6513
G01 X-16.2387 Y-11.6450
G01 X-16.2219 Y-11.6370
G01 X-16.2059 Y-11.6274
G01 X-16.1909 Y-11.6163
G01 X-16.1771 Y-11.6038
G01 X-16.1646 Y-11.5900
G01 X-16.1535 Y-11.5750
G01 X-16.1439 Y-11.5590
G01 X-16.1359 Y-11.5422
G01 X-16.1296 Y-11.5246
G01 X-16.1251 Y-11.5066
G01 X-16.1224 Y-11.4881
G01 X-16.1215 Y-11.4695
G00 Z2.0000
G00 X-16.1915 Y-11.4695
G01 F70.00
G01 Z-0.0600
G01 F60.00
G01 X-16.1921 Y-11.4577
G01 X-16.1938 Y-11.4461
G01 X-16.1966 Y-11.4347
G01 X-16.2006 Y-11.4236
G01 X-16.2056 Y-11.4130
G01 X-16.2117 Y-11.4029
G01 X-16.2187 Y-11.3934
G01 X-16.2266 Y-11.3847
G01 X-16.2353 Y-11.3768
G01 X-16.2448 Y-11.3698
G01 X-16.2549 Y-11.3637
G01 X-16.2655 Y-11.3587
G01 X-16.2766 Y-11.3547
G01 X-16.2880 Y-11.3519
G01 X-16.2996 Y-11.3502
G01 X-16.3114 Y-11.3496
G01 X-16.3232 Y-11.3502
G01 X-16.3348 Y-11.3519
G01 X-16.3462 Y-11.3547
G01 X-16.3573 Y-11.3587
G01 X-16.3679 Y-11.3637
G01 X-16.3780 Y-11.3698
G01 X-16.3875 Y-11.3768
G01 X-16.3962 Y-11.3847
G01 X-16.4041 Y-11.3934
G01 X-16.4111 Y-11.4029
G01 X-16.4172 Y-11.4130
G01 X-16.4222 Y-11.4236
G01 X-16.4262 Y-11.4347
G01 X-16.4290 Y-11.4461
G01 X-16.4307 Y-11.4577
G01 X-16.4313 Y-11.4695
G01 X-16.4307 Y-11.4813
G01 X-16.4290 Y-11.4929
G01 X-16.4262 Y-11.5043
G01 X-16.4222 Y-11.5154
G01 X-16.4172 Y-11.5260
G01 X-16.4111 Y-11.5361
G01 X-16.4041 Y-11.5456
G01 X-16.3962 Y-11.5543
G01 X-16.3875 Y-11.5622
G01 X-16.3780 Y-11.5692
G01 X-16.3679 Y-11.5753
G01 X-16.3573 Y-11.5803
G01 X-16.3462 Y-11.5843
G01 X-16.3348 Y-11.5871
G01 X-16.3232 Y-11.5888
G01 X-16.3114 Y-11.5894
G01 X-16.2996 Y-11.5888
G01 X-16.2880 Y-11.5871
G01 X-16.2766 Y-11.5843
G01 X-16.2655 Y-11.5803
G01 X-16.2549 Y-11.5753
G01 X-16.2448 Y-11.5692
G01 X-16.2353 Y-11.5622
G01 X-16.2266 Y-11.5543
G01 X-16.2187 Y-11.5456
G01 X-16.2117 Y-11.5361
G01 X-16.2056 Y-11.5260
G01 X-16.2006 Y-11.5154
G01 X-16.1966 Y-11.5043
G01 X-16.1938 Y-11.4929
G01 X-16.1921 Y-11.4813
G01 X-16.1915 Y-11.4695
G00 Z2.0000
G00 X-17.6441 Y-11.5448
G01 F70.00
G01 Z-0.0600
G01 F60.00
G01 X-17.6275 Y-11.5404
G01 X-17.6123 Y-11.5375
G01 X-17.5969 Y-11.5358
G01 X-17.5815 Y-11.5353
G01 X-17.5660 Y-11.5358
G01 X-17.5506 Y-11.5375
G01 X-17.5354 Y-11.5404
G01 X-17.5188 Y-11.5448
G01 X-17.5201 Y-11.5263
G01 X-17.5214 Y-11.4695
G01 X-17.5201 Y-11.4127
G01 X-17.5188 Y-11.3942
G01 X-17.5354 Y-11.3986
G01 X-17.5506 Y-11.4015
G01 X-17.5660 Y-11.4032
G01 X-17.5814 Y-11.4037
G01 X-17.5969 Y-11.4032
G01 X-17.6123 Y-11.4015
G01 X-17.6275 Y-11.3986
G01 X-17.6441 Y-11.3942
G01 X-17.6428 Y-11.4127
G01 X-17.6415 Y-11.4695
G01 X-17.6428 Y-11.5263
G01 X-17.6441 Y-11.5448
G00 Z2.0000
G00 X-17.7837 Y-11.8680
G01 F70.00
G01 Z-0.0600
G01 F60.00
G01 X-17.7683 Y-11.8834
G01 X-17.7593 Y-11.8603
G01 X-17.7415 Y-11.8062
G01 X-17.7263 Y-11.7513
G01 X-17.7173 Y-11.7112
G01 X-17.7127 Y-11.6965
G01 X-17.7065 Y-11.6823
G01 X-17.6979 Y-11.6675
G01 X-17.6886 Y-11.6551
G01 X-17.6780 Y-11.6439
G01 X-17.6621 Y-11.6308
G01 X-17.6444 Y-11.6202
G01 X-17.6237 Y-11.6118
G01 X-17.6037 Y-11.6070
G01 X-17.5832 Y-11.6053
G01 X-17.5609 Y-11.6068
G01 X-17.5408 Y-11.6113
G01 X-17.5216 Y-11.6187
G01 X-17.5110 Y-11.6243
G01 X-17.5008 Y-11.6308
G01 X-17.4837 Y-11.6451
G01 X-17.4754 Y-11.6538
G01 X-17.4680 Y-11.6632
G01 X-17.4564 Y-11.6823
G01 X-17.4508 Y-11.6949
G01 X-17.4465 Y-11.7079
G01 X-17.4366 Y-11.7513
G01 X-17.4214 Y-11.8062
G01 X-17.4036 Y-11.8603
G01 X-17.3831 Y-11.9134
G01 X-17.3600 Y-11.9654
G01 X-17.3344 Y-12.0163
G01 X-17.3063 Y-12.0658
G01 X-17.2759 Y-12.1139
G01 X-17.2431 Y-12.1605
G01 X-17.2081 Y-12.2054
G01 X-17.1709 Y-12.2485
G01 X-17.1316 Y-12.2897
G01 X-17.0904 Y-12.3290
G01 X-17.0473 Y-12.3662
G01 X-17.0024 Y-12.4012
G01 X-16.9558 Y-12.4340
G01 X-16.9077 Y-12.4644
G01 X-16.8582 Y-12.4925
G01 X-16.8073 Y-12.5181
G01 X-16.7553 Y-12.5412
G01 X-16.7022 Y-12.5617
G01 X-16.6481 Y-12.5795
G01 X-16.5932 Y-12.5947
G01 X-16.5377 Y-12.6072
G01 X-16.4816 Y-12.6169
G01 X-16.4251 Y-12.6239
G01 X-16.3683 Y-12.6281
G01 X-16.3114 Y-12.6295
G01 X-16.2545 Y-12.6281
G01 X-16.1977 Y-12.6239
G01 X-16.1412 Y-12.6169
G01 X-16.0851 Y-12.6072
G01 X-16.0296 Y-12.5947
G01 X-15.9747 Y-12.5795
G01 X-15.9206 Y-12.5617
G01 X-15.8675 Y-12.5412
G01 X-15.8155 Y-12.5181
G01 X-15.7646 Y-12.4925
G01 X-15.7151 Y-12.4644
G01 X-15.6670 Y-12.4340
G01 X-15.6204 Y-12.4012
G01 X-15.5755 Y-12.3662
G01 X-15.5324 Y-12.3290
G01 X-15.4912 Y-12.2897
G01 X-15.4519 Y-12.2485
G01 X-15.4147 Y-12.2054
G01 X-15.3797 Y-12.1605
G01 X-15.3469 Y-12.1139
G01 X-15.3165 Y-12.0658
G01 X-15.2884 Y-12.0163
G01 X-15.2628 Y-11.9654
G01 X-15.2397 Y-11.9134
G01 X-15.2192 Y-11.8603
G01 X-15.2014 Y-11.8062
G01 X-15.1862 Y-11.7513
G01 X-15.1776 Y-11.7131
G01 X-15.1738 Y-11.6999
G01 X-15.1657 Y-11.6810
G01 X-15.1538 Y-11.6621
G01 X-15.1404 Y-11.6465
G01 X-15.1262 Y-11.6341
G01 X-15.1104 Y-11.6237
G01 X-15.0918 Y-11.6149
G01 X-15.0737 Y-11.6093
G01 X-15.0551 Y-11.6062
G01 X-15.0345 Y-11.6056
G01 X-15.0158 Y-11.6078
G01 X-15.0008 Y-11.6115
G01 X-14.9862 Y-11.6168
G01 X-14.9724 Y-11.6237
G01 X-14.9594 Y-11.6320
G01 X-14.9474 Y-11.6417
G01 X-14.9365 Y-11.6527
G01 X-14.9269 Y-11.6649
G01 X-14.9188 Y-11.6780
G01 X-14.9121 Y-11.6919
G01 X-14.9069 Y-11.7065
G01 X-14.8966 Y-11.7513
G01 X-14.8814 Y-11.8062
G01 X-14.8636 Y-11.8603
G01 X-14.8431 Y-11.9134
G01 X-14.8200 Y-11.9654
G01 X-14.7944 Y-12.0163
G01 X-14.7663 Y-12.0658
G01 X-14.7359 Y-12.1139
G01 X-14.7031 Y-12.1605
G01 X-14.6681 Y-12.2054
G01 X-14.6309 Y-12.2485
G01 X-14.5916 Y-12.2897
G01 X-14.5504 Y-12.3290
G01 X-14.5073 Y-12.3662
G01 X-14.4624 Y-12.4012
G01 X-14.4158 Y-12.4340
G01 X-14.3677 Y-12.4644
G01 X-14.3182 Y-12.4925
G01 X-14.2673 Y-12.5181
G01 X-14.2153 Y-12.5412
G01 X-14.1622 Y-12.5617
G01 X-14.1081 Y-12.5795
G01 X-14.0532 Y-12.5947
G01 X-13.9977 Y-12.6072
G01 X-13.9416 Y-12.6169
G01 X-13.8851 Y-12.6239
G01 X-13.8283 Y-12.6281
G01 X-13.7714 Y-12.6295
G01 X-13.7145 Y-12.6281
G01 X-13.6577 Y-12.6239
G01 X-13.6012 Y-12.6169
G01 X-13.5451 Y-12.6072
G01 X-13.4896 Y-12.5947
G01 X-13.4347 Y-12.5795
G01 X-13.3806 Y-12.5617
G01 X-13.3275 Y-12.5412
G01 X-13.2755 Y-12.5181
G01 X-13.2246 Y-12.4925
G01 X-13.1751 Y-12.4644
G01 X-13.1270 Y-12.4340
G01 X-13.0804 Y-12.4012
G01 X-13.0355 Y-12.3662
G01 X-12.9924 Y-12.3290
G01 X-12.9512 Y-12.2897
G01 X-12.9119 Y-12.2485
G01 X-12.8747 Y-12.2054
G01 X-12.8397 Y-12.1605
G01 X-12.8069 Y-12.1139
G01 X-12.7765 Y-12.0658
G01 X-12.7484 Y-12.0163
G01 X-12.7228 Y-11.9654
G01 X-12.6997 Y-11.9134
G01 X-12.6792 Y-11.8603
G01 X-12.6614 Y-11.8062
G01 X-12.6462 Y-11.7513
G01 X-12.6337 Y-11.6958
G01 X-12.6240 Y-11.6397
G01 X-12.6170 Y-11.5832
G01 X-12.6128 Y-11.5264
G01 X-12.6114 Y-11.4695
G01 X-12.6128 Y-11.4126
G01 X-12.6170 Y-11.3558
G01 X-12.6240 Y-11.2993
G01 X-12.6337 Y-11.2432
G01 X-12.6462 Y-11.1877
G01 X-12.6614 Y-11.1328
G01 X-12.6792 Y-11.0787
G01 X-12.6997 Y-11.0256
G01 X-12.7228 Y-10.9736
G01 X-12.7484 Y-10.9227
G01 X-12.7765 Y-10.8732
G01 X-12.8069 Y-10.8251
G01 X-12.8397 Y-10.7785
G01 X-12.8747 Y-10.7336
G01 X-12.9119 Y-10.6905
G01 X-12.9512 Y-10.6493
G01 X-12.9924 Y-10.6100
G01 X-13.0355 Y-10.5728
G01 X-13.0804 Y-10.5378
G01 X-13.1270 Y-10.5050
G01 X-13.1751 Y-10.4746
G01 X-13.2246 Y-10.4465
G01 X-13.2755 Y-10.4209
G01 X-13.3275 Y-10.3978
G01 X-13.3806 Y-10.3773
G01 X-13.4347 Y-10.3595
G01 X-13.4896 Y-10.3443
G01 X-13.5451 Y-10.3318
G01 X-13.6012 Y-10.3221
G01 X-13.6577 Y-10.3151
G01 X-13.7145 Y-10.3109
G01 X-13.7714 Y-10.3095
G01 X-13.8283 Y-10.3109
G01 X-13.8851 Y-10.3151
G01 X-13.9416 Y-10.3221
G01 X-13.9977 Y-10.3318
G01 X-14.0532 Y-10.3443
G01 X-14.1081 Y-10.3595
G01 X-14.1622 Y-10.3773
G01 X-14.2153 Y-10.3978
G01 X-14.2673 Y-10.4209
G01 X-14.3182 Y-10.4465
G01 X-14.3677 Y-10.4746
G01 X-14.4158 Y-10.5050
G01 X-14.4624 Y-10.5378
G01 X-14.5073 Y-10.5728
G01 X-14.5504 Y-10.6100
G01 X-14.5916 Y-10.6493
G01 X-14.6309 Y-10.6905
G01 X-14.6681 Y-10.7336
G01 X-14.7031 Y-10.7785
G01 X-14.7359 Y-10.8251
G01 X-14.7663 Y-10.8732
G01 X-14.7944 Y-10.9227
G01 X-14.8200 Y-10.9736
G01 X-14.8431 Y-11.0256
G01 X-14.8636 Y-11.0787
G01 X-14.8814 Y-11.1328
G01 X-14.8966 Y-11.1877
G01 X-14.9079 Y-11.2358
G01 X-14.9141 Y-11.2518
G01 X-14.9222 Y-11.2670
G01 X-14.9321 Y-11.2810
G01 X-14.9449 Y-11.2949
G01 X-14.9594 Y-11.3070
G01 X-14.9739 Y-11.3162
G01 X-14.9910 Y-11.3241
G01 X-15.0074 Y-11.3293
G01 X-15.0260 Y-11.3327
G01 X-15.0431 Y-11.3335
G01 X-15.0585 Y-11.3325
G01 X-15.0754 Y-11.3293
G01 X-15.0918 Y-11.3241
G01 X-15.1059 Y-11.3178
G01 X-15.1206 Y-11.3090
G01 X-15.1328 Y-11.2995
G01 X-15.1451 Y-11.2875
G01 X-15.1549 Y-11.2755
G01 X-15.1657 Y-11.2580
G01 X-15.1738 Y-11.2391
G01 X-15.1776 Y-11.2259
G01 X-15.1862 Y-11.1877
G01 X-15.2014 Y-11.1328
G01 X-15.2192 Y-11.0787
G01 X-15.2397 Y-11.0256
G01 X-15.2628 Y-10.9736
G01 X-15.2884 Y-10.9227
G01 X-15.3165 Y-10.8732
G01 X-15.3469 Y-10.8251
G01 X-15.3797 Y-10.7785
G01 X-15.4147 Y-10.7336
G01 X-15.4519 Y-10.6905
G01 X-15.4912 Y-10.6493
G01 X-15.5324 Y-10.6100
G01 X-15.5755 Y-10.5728
G01 X-15.6204 Y-10.5378
G01 X-15.6670 Y-10.5050
G01 X-15.7151 Y-10.4746
G01 X-15.7646 Y-10.4465
G01 X-15.8155 Y-10.4209
G01 X-15.8675 Y-10.3978
G01 X-15.9206 Y-10.3773
G01 X-15.9747 Y-10.3595
G01 X-16.0296 Y-10.3443
G01 X-16.0851 Y-10.3318
G01 X-16.1412 Y-10.3221
G01 X-16.1977 Y-10.3151
G01 X-16.2545 Y-10.3109
G01 X-16.3114 Y-10.3095
G01 X-16.3683 Y-10.3109
G01 X-16.4251 Y-10.3151
G01 X-16.4816 Y-10.3221
G01 X-16.5377 Y-10.3318
G01 X-16.5932 Y-10.3443
G01 X-16.6481 Y-10.3595
G01 X-16.7022 Y-10.3773
G01 X-16.7553 Y-10.3978
G01 X-16.8073 Y-10.4209
G01 X-16.8582 Y-10.4465
G01 X-16.9077 Y-10.4746
G01 X-16.9558 Y-10.5050
G01 X-17.0024 Y-10.5378
G01 X-17.0473 Y-10.5728
G01 X-17.0904 Y-10.6100
G01 X-17.1316 Y-10.6493
G01 X-17.1709 Y-10.6905
G01 X-17.2081 Y-10.7336
G01 X-17.2431 Y-10.7785
G01 X-17.2759 Y-10.8251
G01 X-17.3063 Y-10.8732
G01 X-17.3344 Y-10.9227
G01 X-17.3600 Y-10.9736
G01 X-17.3831 Y-11.0256
G01 X-17.4036 Y-11.0787
G01 X-17.4214 Y-11.1328
G01 X-17.4366 Y-11.1877
G01 X-17.4465 Y-11.2311
G01 X-17.4502 Y-11.2425
G01 X-17.4549 Y-11.2536
G01 X-17.4660 Y-11.2729
G01 X-17.4789 Y-11.2890
G01 X-17.4953 Y-11.3041
G01 X-17.5139 Y-11.3164
G01 X-17.5327 Y-11.3250
G01 X-17.5541 Y-11.3311
G01 X-17.5746 Y-11.3336
G01 X-17.5969 Y-11.3329
G01 X-17.6188 Y-11.3287
G01 X-17.6382 Y-11.3217
G01 X-17.6578 Y-11.3111
G01 X-17.6755 Y-11.2975
G01 X-17.6875 Y-11.2852
G01 X-17.6969 Y-11.2729
G01 X-17.7049 Y-11.2597
G01 X-17.7121 Y-11.2441
G01 X-17.7168 Y-11.2294
G01 X-17.7263 Y-11.1877
G01 X-17.7415 Y-11.1328
G01 X-17.7593 Y-11.0787
G01 X-17.7683 Y-11.0556
G01 X-17.7837 Y-11.0710
G01 X-17.7776 Y-11.0871
G01 X-17.7601 Y-11.1402
G01 X-17.7457 Y-11.1925
G01 X-17.7331 Y-11.2488
G01 X-17.7238 Y-11.3022
G01 X-17.7170 Y-11.3578
G01 X-17.7129 Y-11.4136
G01 X-17.7115 Y-11.4695
G01 X-17.7129 Y-11.5254
G01 X-17.7170 Y-11.5812
G01 X-17.7238 Y-11.6368
G01 X-17.7331 Y-11.6902
G01 X-17.7457 Y-11.7465
G01 X-17.7601 Y-11.7988
G01 X-17.7776 Y-11.8519
G01 X-17.7837 Y-11.8680
G00 Z2.0000
G00 X-17.8656 Y-11.8850
G01 F70.00
G01 Z-0.0600
G01 F60.00
G01 X-17.7448 Y-12.0058
G01 X-17.7151 Y-11.9402
G01 X-17.6934 Y-11.8839
G01 X-17.6745 Y-11.8265
G01 X-17.6584 Y-11.7684
G01 X-17.6484 Y-11.7249
G01 X-17.6454 Y-11.7169
G01 X-17.6415 Y-11.7093
G01 X-17.6339 Y-11.6989
G01 X-17.6245 Y-11.6901
G01 X-17.6137 Y-11.6831
G01 X-17.6009 Y-11.6780
G01 X-17.5883 Y-11.6756
G01 X-17.5754 Y-11.6755
G01 X-17.5628 Y-11.6778
G01 X-17.5500 Y-11.6827
G01 X-17.5398 Y-11.6890
G01 X-17.5308 Y-11.6970
G01 X-17.5232 Y-11.7064
G01 X-17.5175 Y-11.7169
G01 X-17.5138 Y-11.7274
G01 X-17.5045 Y-11.7684
G01 X-17.4884 Y-11.8265
G01 X-17.4695 Y-11.8839
G01 X-17.4478 Y-11.9402
G01 X-17.4233 Y-11.9954
G01 X-17.3961 Y-12.0493
G01 X-17.3664 Y-12.1018
G01 X-17.3341 Y-12.1528
G01 X-17.2993 Y-12.2022
G01 X-17.2622 Y-12.2498
G01 X-17.2228 Y-12.2955
G01 X-17.1811 Y-12.3392
G01 X-17.1374 Y-12.3809
G01 X-17.0917 Y-12.4203
G01 X-17.0441 Y-12.4574
G01 X-16.9947 Y-12.4922
G01 X-16.9437 Y-12.5245
G01 X-16.8912 Y-12.5542
G01 X-16.8373 Y-12.5814
G01 X-16.7821 Y-12.6059
G01 X-16.7258 Y-12.6276
G01 X-16.6684 Y-12.6465
G01 X-16.6103 Y-12.6626
G01 X-16.5514 Y-12.6758
G01 X-16.4919 Y-12.6862
G01 X-16.4320 Y-12.6936
G01 X-16.3718 Y-12.6980
G01 X-16.3114 Y-12.6995
G01 X-16.2510 Y-12.6980
G01 X-16.1908 Y-12.6936
G01 X-16.1309 Y-12.6862
G01 X-16.0714 Y-12.6758
G01 X-16.0125 Y-12.6626
G01 X-15.9544 Y-12.6465
G01 X-15.8970 Y-12.6276
G01 X-15.8407 Y-12.6059
G01 X-15.7855 Y-12.5814
G01 X-15.7316 Y-12.5542
G01 X-15.6791 Y-12.5245
G01 X-15.6281 Y-12.4922
G01 X-15.5787 Y-12.4574
G01 X-15.5311 Y-12.4203
G01 X-15.4854 Y-12.3809
G01 X-15.4417 Y-12.3392
G01 X-15.4000 Y-12.2955
G01 X-15.3606 Y-12.2498
G01 X-15.3235 Y-12.2022
G01 X-15.2887 Y-12.1528
G01 X-15.2564 Y-12.1018
G01 X-15.2267 Y-12.0493
G01 X-15.1995 Y-11.9954
G01 X-15.1750 Y-11.9402
G01 X-15.1533 Y-11.8839
G01 X-15.1344 Y-11.8265
G01 X-15.1183 Y-11.7684
G01 X-15.1089 Y-11.7268
G01 X-15.1027 Y-11.7117
G01 X-15.0971 Y-11.7031
G01 X-15.0897 Y-11.6948
G01 X-15.0810 Y-11.6878
G01 X-15.0713 Y-11.6822
G01 X-15.0609 Y-11.6782
G01 X-15.0508 Y-11.6761
G01 X-15.0397 Y-11.6755
G01 X-15.0286 Y-11.6767
G01 X-15.0130 Y-11.6815
G01 X-14.9990 Y-11.6898
G01 X-14.9873 Y-11.7011
G01 X-14.9785 Y-11.7148
G01 X-14.9737 Y-11.7276
G01 X-14.9645 Y-11.7684
G01 X-14.9484 Y-11.8265
G01 X-14.9295 Y-11.8839
G01 X-14.9078 Y-11.9402
G01 X-14.8833 Y-11.9954
G01 X-14.8561 Y-12.0493
G01 X-14.8264 Y-12.1018
G01 X-14.7941 Y-12.1528
G01 X-14.7593 Y-12.2022
G01 X-14.7222 Y-12.2498
G01 X-14.6828 Y-12.2955
G01 X-14.6411 Y-12.3392
G01 X-14.5974 Y-12.3809
G01 X-14.5517 Y-12.4203
G01 X-14.5041 Y-12.4574
G01 X-14.4547 Y-12.4922
G01 X-14.4037 Y-12.5245
G01 X-14.3512 Y-12.5542
G01 X-14.2973 Y-12.5814
G01 X-14.2421 Y-12.6059
G01 X-14.1858 Y-12.6276
G01 X-14.1284 Y-12.6465
G01 X-14.0703 Y-12.6626
G01 X-14.0114 Y-12.6758
G01 X-13.9519 Y-12.6862
G01 X-13.8920 Y-12.6936
G01 X-13.8318 Y-12.6980
G01 X-13.7714 Y-12.6995
G01 X-13.7110 Y-12.6980
G01 X-13.6508 Y-12.6936
G01 X-13.5909 Y-12.6862
G01 X-13.5314 Y-12.6758
G01 X-13.4725 Y-12.6626
G01 X-13.4144 Y-12.6465
G01 X-13.3570 Y-12.6276
G01 X-13.3007 Y-12.6059
G01 X-13.2455 Y-12.5814
G01 X-13.1916 Y-12.5542
G01 X-13.1391 Y-12.5245
G01 X-13.0881 Y-12.4922
G01 X-13.0387 Y-12.4574
G01 X-12.9911 Y-12.4203
G01 X-12.9454 Y-12.3809
G01 X-12.9017 Y-12.3392
G01 X-12.8600 Y-12.2955
G01 X-12.8206 Y-12.2498
G01 X-12.7835 Y-12.2022
G01 X-12.7487 Y-12.1528
G01 X-12.7164 Y-12.1018
G01 X-12.6867 Y-12.0493
G01 X-12.6595 Y-11.9954
G01 X-12.6350 Y-11.9402
G01 X-12.6133 Y-11.8839
G01 X-12.5944 Y-11.8265
G01 X-12.5783 Y-11.7684
G01 X-12.5651 Y-11.7095
G01 X-12.5547 Y-11.6500
G01 X-12.5473 Y-11.5901
G01 X-12.5429 Y-11.5299
G01 X-12.5414 Y-11.4695
G01 X-12.5429 Y-11.4091
G01 X-12.5473 Y-11.3489
G01 X-12.5547 Y-11.2890
G01 X-12.5651 Y-11.2295
G01 X-12.5783 Y-11.1706
G01 X-12.5944 Y-11.1125
G01 X-12.6133 Y-11.0551
G01 X-12.6350 Y-10.9988
G01 X-12.6595 Y-10.9436
G01 X-12.6867 Y-10.8897
G01 X-12.7164 Y-10.8372
G01 X-12.7487 Y-10.7862
G01 X-12.7835 Y-10.7368
G01 X-12.8206 Y-10.6892
G01 X-12.8600 Y-10.6435
G01 X-12.9017 Y-10.5998
G01 X-12.9454 Y-10.5581
G01 X-12.9911 Y-10.5187
G01 X-13.0387 Y-10.4816
G01 X-13.0881 Y-10.4468
G01 X-13.1391 Y-10.4145
G01 X-13.1916 Y-10.3848
G01 X-13.2455 Y-10.3576
G01 X-13.3007 Y-10.3331
G01 X-13.3570 Y-10.3114
G01 X-13.4144 Y-10.2925
G01 X-13.4725 Y-10.2764
G01 X-13.5314 Y-10.2632
G01 X-13.5909 Y-10.2528
G01 X-13.6508 Y-10.2454
G01 X-13.7110 Y-10.2410
G01 X-13.7714 Y-10.2395
G01 X-13.8318 Y-10.2410
G01 X-13.8920 Y-10.2454
G01 X-13.9519 Y-10.2528
G01 X-14.0114 Y-10.2632
G01 X-14.0703 Y-10.2764
G01 X-14.1284 Y-10.2925
G01 X-14.1858 Y-10.3114
G01 X-14.2421 Y-10.3331
G01 X-14.2973 Y-10.3576
G01 X-14.3512 Y-10.3848
G01 X-14.4037 Y-10.4145
G01 X-14.4547 Y-10.4468
G01 X-14.5041 Y-10.4816
G01 X-14.5517 Y-10.5187
G01 X-14.5974 Y-10.5581
G01 X-14.6411 Y-10.5998
G01 X-14.6828 Y-10.6435
G01 X-14.7222 Y-10.6892
G01 X-14.7593 Y-10.7368
G01 X-14.7941 Y-10.7862
G01 X-14.8264 Y-10.8372
G01 X-14.8561 Y-10.8897
G01 X-14.8833 Y-10.9436
G01 X-14.9078 Y-10.9988
G01 X-14.9295 Y-11.0551
G01 X-14.9484 Y-11.1125
G01 X-14.9645 Y-11.1706
G01 X-14.9739 Y-11.2122
G01 X-14.9797 Y-11.2265
G01 X-14.9847 Y-11.2345
G01 X-14.9907 Y-11.2418
G01 X-14.9983 Y-11.2487
G01 X-15.0062 Y-11.2540
G01 X-15.0146 Y-11.2582
G01 X-15.0236 Y-11.2612
G01 X-15.0328 Y-11.2630
G01 X-15.0423 Y-11.2635
G01 X-15.0517 Y-11.2628
G01 X-15.0609 Y-11.2608
G01 X-15.0698 Y-11.2575
G01 X-15.0781 Y-11.2531
G01 X-15.0858 Y-11.2476
G01 X-15.0927 Y-11.2412
G01 X-15.0986 Y-11.2338
G01 X-15.1035 Y-11.2258
G01 X-15.1089 Y-11.2122
G01 X-15.1183 Y-11.1706
G01 X-15.1344 Y-11.1125
G01 X-15.1533 Y-11.0551
G01 X-15.1750 Y-10.9988
G01 X-15.1995 Y-10.9436
G01 X-15.2267 Y-10.8897
G01 X-15.2564 Y-10.8372
G01 X-15.2887 Y-10.7862
G01 X-15.3235 Y-10.7368
G01 X-15.3606 Y-10.6892
G01 X-15.4000 Y-10.6435
G01 X-15.4417 Y-10.5998
G01 X-15.4854 Y-10.5581
G01 X-15.5311 Y-10.5187
G01 X-15.5787 Y-10.4816
G01 X-15.6281 Y-10.4468
G01 X-15.6791 Y-10.4145
G01 X-15.7316 Y-10.3848
G01 X-15.7855 Y-10.3576
G01 X-15.8407 Y-10.3331
G01 X-15.8970 Y-10.3114
G01 X-15.9544 Y-10.2925
G01 X-16.0125 Y-10.2764
G01 X-16.0714 Y-10.2632
G01 X-16.1309 Y-10.2528
G01 X-16.1908 Y-10.2454
G01 X-16.2510 Y-10.2410
G01 X-16.3114 Y-10.2395
G01 X-16.3718 Y-10.2410
G01 X-16.4320 Y-10.2454
G01 X-16.4919 Y-10.2528
G01 X-16.5514 Y-10.2632
G01 X-16.6103 Y-10.2764
G01 X-16.6684 Y-10.2925
G01 X-16.7258 Y-10.3114
G01 X-16.7821 Y-10.3331
G01 X-16.8373 Y-10.3576
G01 X-16.8912 Y-10.3848
G01 X-16.9437 Y-10.4145
G01 X-16.9947 Y-10.4468
G01 X-17.0441 Y-10.4816
G01 X-17.0917 Y-10.5187
G01 X-17.1374 Y-10.5581
G01 X-17.1811 Y-10.5998
G01 X-17.2228 Y-10.6435
G01 X-17.2622 Y-10.6892
G01 X-17.2993 Y-10.7368
G01 X-17.3341 Y-10.7862
G01 X-17.3664 Y-10.8372
G01 X-17.3961 Y-10.8897
G01 X-17.4233 Y-10.9436
G01 X-17.4478 Y-10.9988
G01 X-17.4695 Y-11.0551
G01 X-17.4884 Y-11.1125
G01 X-17.5045 Y-11.1706
G01 X-17.5138 Y-11.2116
G01 X-17.5171 Y-11.2213
G01 X-17.5223 Y-11.2312
G01 X-17.5290 Y-11.2401
G01 X-17.5370 Y-11.2479
G01 X-17.5469 Y-11.2547
G01 X-17.5595 Y-11.2602
G01 X-17.5720 Y-11.2631
G01 X-17.5857 Y-11.2636
G01 X-17.5985 Y-11.2616
G01 X-17.6114 Y-11.2570
G01 X-17.6225 Y-11.2505
G01 X-17.6327 Y-11.2414
G01 X-17.6410 Y-11.2305
G01 X-17.6454 Y-11.2221
G01 X-17.6484 Y-11.2141
G01 X-17.6584 Y-11.1706
G01 X-17.6745 Y-11.1125
G01 X-17.6934 Y-11.0551
G01 X-17.7151 Y-10.9988
G01 X-17.7448 Y-10.9332
G01 X-17.8656 Y-11.0540
G01 X-17.8440 Y-11.1090
G01 X-17.8276 Y-11.1589
G01 X-17.8136 Y-11.2095
G01 X-17.8021 Y-11.2608
G01 X-17.7931 Y-11.3125
G01 X-17.7867 Y-11.3646
G01 X-17.7828 Y-11.4170
G01 X-17.7815 Y-11.4695
G01 X-17.7828 Y-11.5220
G01 X-17.7867 Y-11.5744
G01 X-17.7931 Y-11.6265
G01 X-17.8021 Y-11.6782
G01 X-17.8136 Y-11.7295
G01 X-17.8276 Y-11.7801
G01 X-17.8440 Y-11.8300
G01 X-17.8656 Y-11.8850
G00 Z2.0000
G00 X-18.5215 Y-11.4695
G01 F70.00
G01 Z-0.0600
G01 F60.00
G01 X-18.5231 Y-11.4372
G01 X-18.5279 Y-11.4051
G01 X-18.5357 Y-11.3737
G01 X-18.5466 Y-11.3432
G01 X-18.5605 Y-11.3139
G01 X-18.5771 Y-11.2862
G01 X-18.5964 Y-11.2602
G01 X-18.6182 Y-11.2362
G01 X-18.6422 Y-11.2144
G01 X-18.6682 Y-11.1951
G01 X-18.6959 Y-11.1785
G01 X-18.7252 Y-11.1646
G01 X-18.7557 Y-11.1537
G01 X-18.7871 Y-11.1459
G01 X-18.8192 Y-11.1411
G01 X-18.8515 Y-11.1395
G01 X-18.8838 Y-11.1411
G01 X-18.9159 Y-11.1459
G01 X-18.9473 Y-11.1537
G01 X-18.9778 Y-11.1646
G01 X-19.0071 Y-11.1785
G01 X-19.0348 Y-11.1951
G01 X-19.0608 Y-11.2144
G01 X-19.0848 Y-11.2362
G01 X-19.1066 Y-11.2602
G01 X-19.1259 Y-11.2862
G01 X-19.1425 Y-11.3139
G01 X-19.1564 Y-11.3432
G01 X-19.1673 Y-11.3737
G01 X-19.1751 Y-11.4051
G01 X-19.1799 Y-11.4372
G01 X-19.1815 Y-11.4695
G01 X-19.1799 Y-11.5018
G01 X-19.1751 Y-11.5339
G01 X-19.1673 Y-11.5653
G01 X-19.1564 Y-11.5958
G01 X-19.1425 Y-11.6251
G01 X-19.1259 Y-11.6528
G01 X-19.1066 Y-11.6788
G01 X-19.0848 Y-11.7028
G01 X-19.0608 Y-11.7246
G01 X-19.0348 Y-11.7439
G01 X-19.0071 Y-11.7605
G01 X-18.9778 Y-11.7744
G01 X-18.9473 Y-11.7853
G01 X-18.9159 Y-11.7931
G01 X-18.8838 Y-11.7979
G01 X-18.8515 Y-11.7995
G01 X-18.8192 Y-11.7979
G01 X-18.7871 Y-11.7931
G01 X-18.7557 Y-11.7853
G01 X-18.7252 Y-11.7744
G01 X-18.6959 Y-11.7605
G01 X-18.6682 Y-11.7439
G01 X-18.6422 Y-11.7246
G01 X-18.6182 Y-11.7028
G01 X-18.5964 Y-11.6788
G01 X-18.5771 Y-11.6528
G01 X-18.5605 Y-11.6251
G01 X-18.5466 Y-11.5958
G01 X-18.5357 Y-11.5653
G01 X-18.5279 Y-11.5339
G01 X-18.5231 Y-11.5018
G01 X-18.5215 Y-11.4695
G00 Z2.0000
G00 X-18.5915 Y-11.4695
G01 F70.00
G01 Z-0.0600
G01 F60.00
G01 X-18.5928 Y-11.4440
G01 X-18.5965 Y-11.4188
G01 X-18.6027 Y-11.3940
G01 X-18.6113 Y-11.3700
G01 X-18.6222 Y-11.3470
G01 X-18.6354 Y-11.3251
G01 X-18.6505 Y-11.3046
G01 X-18.6677 Y-11.2857
G01 X-18.6866 Y-11.2685
G01 X-18.7071 Y-11.2534
G01 X-18.7290 Y-11.2402
G01 X-18.7520 Y-11.2293
G01 X-18.7760 Y-11.2207
G01 X-18.8008 Y-11.2145
G01 X-18.8260 Y-11.2108
G01 X-18.8515 Y-11.2095
G01 X-18.8770 Y-11.2108
G01 X-18.9022 Y-11.2145
G01 X-18.9270 Y-11.2207
G01 X-18.9510 Y-11.2293
G01 X-18.9740 Y-11.2402
G01 X-18.9959 Y-11.2534
G01 X-19.0164 Y-11.2685
G01 X-19.0353 Y-11.2857
G01 X-19.0525 Y-11.3046
G01 X-19.0676 Y-11.3251
G01 X-19.0808 Y-11.3470
G01 X-19.0917 Y-11.3700
G01 X-19.1003 Y-11.3940
G01 X-19.1065 Y-11.4188
G01 X-19.1102 Y-11.4440
G01 X-19.1115 Y-11.4695
G01 X-19.1102 Y-11.4950
G01 X-19.1065 Y-11.5202
G01 X-19.1003 Y-11.5450
G01 X-19.0917 Y-11.5690
G01 X-19.0808 Y-11.5920
G01 X-19.0676 Y-11.6139
G01 X-19.0525 Y-11.6344
G01 X-19.0353 Y-11.6533
G01 X-19.0164 Y-11.6705
G01 X-18.9959 Y-11.6856
G01 X-18.9740 Y-11.6988
G01 X-18.9510 Y-11.7097
G01 X-18.9270 Y-11.7183
G01 X-18.9022 Y-11.7245
G01 X-18.8770 Y-11.7282
G01 X-18.8515 Y-11.7295
G01 X-18.8260 Y-11.7282
G01 X-18.8008 Y-11.7245
G01 X-18.7760 Y-11.7183
G01 X-18.7520 Y-11.7097
G01 X-18.7290 Y-11.6988
G01 X-18.7071 Y-11.6856
G01 X-18.6866 Y-11.6705
G01 X-18.6677 Y-11.6533
G01 X-18.6505 Y-11.6344
G01 X-18.6354 Y-11.6139
G01 X-18.6222 Y-11.5920
G01 X-18.6113 Y-11.5690
G01 X-18.6027 Y-11.5450
G01 X-18.5965 Y-11.5202
G01 X-18.5928 Y-11.4950
G01 X-18.5915 Y-11.4695
G00 Z2.0000
G00 X-18.6616 Y-11.4695
G01 F70.00
G01 Z-0.0600
G01 F60.00
G01 X-18.6625 Y-11.4509
G01 X-18.6652 Y-11.4324
G01 X-18.6697 Y-11.4144
G01 X-18.6760 Y-11.3968
G01 X-18.6840 Y-11.3800
G01 X-18.6936 Y-11.3640
G01 X-18.7047 Y-11.3490
G01 X-18.7172 Y-11.3352
G01 X-18.7310 Y-11.3227
G01 X-18.7460 Y-11.3116
G01 X-18.7620 Y-11.3020
G01 X-18.7788 Y-11.2940
G01 X-18.7964 Y-11.2877
G01 X-18.8144 Y-11.2832
G01 X-18.8329 Y-11.2805
G01 X-18.8515 Y-11.2796
G01 X-18.8701 Y-11.2805
G01 X-18.8886 Y-11.2832
G01 X-18.9066 Y-11.2877
G01 X-18.9242 Y-11.2940
G01 X-18.9410 Y-11.3020
G01 X-18.9570 Y-11.3116
G01 X-18.9720 Y-11.3227
G01 X-18.9858 Y-11.3352
G01 X-18.9983 Y-11.3490
G01 X-19.0094 Y-11.3640
G01 X-19.0190 Y-11.3800
G01 X-19.0270 Y-11.3968
G01 X-19.0333 Y-11.4144
G01 X-19.0378 Y-11.4324
G01 X-19.0405 Y-11.4509
G01 X-19.0414 Y-11.4695
G01 X-19.0405 Y-11.4881
G01 X-19.0378 Y-11.5066
G01 X-19.0333 Y-11.5246
G01 X-19.0270 Y-11.5422
G01 X-19.0190 Y-11.5590
G01 X-19.0094 Y-11.5750
G01 X-18.9983 Y-11.5900
G01 X-18.9858 Y-11.6038
G01 X-18.9720 Y-11.6163
G01 X-18.9570 Y-11.6274
G01 X-18.9410 Y-11.6370
G01 X-18.9242 Y-11.6450
G01 X-18.9066 Y-11.6513
G01 X-18.8886 Y-11.6558
G01 X-18.8701 Y-11.6585
G01 X-18.8515 Y-11.6594
G01 X-18.8329 Y-11.6585
G01 X-18.8144 Y-11.6558
G01 X-18.7964 Y-11.6513
G01 X-18.7788 Y-11.6450
G01 X-18.7620 Y-11.6370
G01 X-18.7460 Y-11.6274
G01 X-18.7310 Y-11.6163
G01 X-18.7172 Y-11.6038
G01 X-18.7047 Y-11.5900
G01 X-18.6936 Y-11.5750
G01 X-18.6840 Y-11.5590
G01 X-18.6760 Y-11.5422
G01 X-18.6697 Y-11.5246
G01 X-18.6652 Y-11.5066
G01 X-18.6625 Y-11.4881
G01 X-18.6616 Y-11.4695
G00 Z2.0000
G00 X-18.7316 Y-11.4695
G01 F70.00
G01 Z-0.0600
G01 F60.00
G01 X-18.7322 Y-11.4577
G01 X-18.7339 Y-11.4461
G01 X-18.7367 Y-11.4347
G01 X-18.7407 Y-11.4236
G01 X-18.7457 Y-11.4130
G01 X-18.7518 Y-11.4029
G01 X-18.7588 Y-11.3934
G01 X-18.7667 Y-11.3847
G01 X-18.7754 Y-11.3768
G01 X-18.7849 Y-11.3698
G01 X-18.7950 Y-11.3637
G01 X-18.8056 Y-11.3587
G01 X-18.8167 Y-11.3547
G01 X-18.8281 Y-11.3519
G01 X-18.8397 Y-11.3502
G01 X-18.8515 Y-11.3496
G01 X-18.8633 Y-11.3502
G01 X-18.8749 Y-11.3519
G01 X-18.8863 Y-11.3547
G01 X-18.8974 Y-11.3587
G01 X-18.9080 Y-11.3637
G01 X-18.9181 Y-11.3698
G01 X-18.9276 Y-11.3768
G01 X-18.9363 Y-11.3847
G01 X-18.9442 Y-11.3934
G01 X-18.9512 Y-11.4029
G01 X-18.9573 Y-11.4130
G01 X-18.9623 Y-11.4236
G01 X-18.9663 Y-11.4347
G01 X-18.9691 Y-11.4461
G01 X-18.9708 Y-11.4577
G01 X-18.9714 Y-11.4695
G01 X-18.9708 Y-11.4813
G01 X-18.9691 Y-11.4929
G01 X-18.9663 Y-11.5043
G01 X-18.9623 Y-11.5154
G01 X-18.9573 Y-11.5260
G01 X-18.9512 Y-11.5361
G01 X-18.9442 Y-11.5456
G01 X-18.9363 Y-11.5543
G01 X-18.9276 Y-11.5622
G01 X-18.9181 Y-11.5692
G01 X-18.9080 Y-11.5753
G01 X-18.8974 Y-11.5803
G01 X-18.8863 Y-11.5843
G01 X-18.8749 Y-11.5871
G01 X-18.8633 Y-11.5888
G01 X-18.8515 Y-11.5894
G01 X-18.8397 Y-11.5888
G01 X-18.8281 Y-11.5871
G01 X-18.8167 Y-11.5843
G01 X-18.8056 Y-11.5803
G01 X-18.7950 Y-11.5753
G01 X-18.7849 Y-11.5692
G01 X-18.7754 Y-11.5622
G01 X-18.7667 Y-11.5543
G01 X-18.7588 Y-11.5456
G01 X-18.7518 Y-11.5361
G01 X-18.7457 Y-11.5260
G01 X-18.7407 Y-11.5154
G01 X-18.7367 Y-11.5043
G01 X-18.7339 Y-11.4929
G01 X-18.7322 Y-11.4813
G01 X-18.7316 Y-11.4695
G00 Z2.0000
G00 X-19.2653 Y-10.3862
G01 F70.00
G01 Z-0.0600
G01 F60.00
G01 X-19.2499 Y-10.4016
G01 X-19.2339 Y-10.3956
G01 X-19.1808 Y-10.3781
G01 X-19.1285 Y-10.3637
G01 X-19.0722 Y-10.3511
G01 X-19.0188 Y-10.3418
G01 X-18.9632 Y-10.3350
G01 X-18.9074 Y-10.3309
G01 X-18.8515 Y-10.3295
G01 X-18.7956 Y-10.3309
G01 X-18.7398 Y-10.3350
G01 X-18.6842 Y-10.3418
G01 X-18.6308 Y-10.3511
G01 X-18.5745 Y-10.3637
G01 X-18.5222 Y-10.3781
G01 X-18.4691 Y-10.3956
G01 X-18.4530 Y-10.4017
G01 X-18.4376 Y-10.3863
G01 X-18.4607 Y-10.3773
G01 X-18.5148 Y-10.3595
G01 X-18.5697 Y-10.3443
G01 X-18.6252 Y-10.3318
G01 X-18.6813 Y-10.3221
G01 X-18.7378 Y-10.3151
G01 X-18.7946 Y-10.3109
G01 X-18.8515 Y-10.3095
G01 X-18.9084 Y-10.3109
G01 X-18.9652 Y-10.3151
G01 X-19.0217 Y-10.3221
G01 X-19.0778 Y-10.3318
G01 X-19.1333 Y-10.3443
G01 X-19.1882 Y-10.3595
G01 X-19.2423 Y-10.3773
G01 X-19.2653 Y-10.3862
G00 Z2.0000
G00 X-19.3877 Y-10.3628
G01 F70.00
G01 Z-0.0600
G01 F60.00
G01 X-19.2670 Y-10.4836
G01 X-19.2120 Y-10.4620
G01 X-19.1621 Y-10.4456
G01 X-19.1115 Y-10.4316
G01 X-19.0602 Y-10.4201
G01 X-19.0085 Y-10.4111
G01 X-18.9564 Y-10.4047
G01 X-18.9040 Y-10.4008
G01 X-18.8515 Y-10.3995
G01 X-18.7990 Y-10.4008
G01 X-18.7466 Y-10.4047
G01 X-18.6945 Y-10.4111
G01 X-18.6428 Y-10.4201
G01 X-18.5915 Y-10.4316
G01 X-18.5409 Y-10.4456
G01 X-18.4910 Y-10.4620
G01 X-18.4360 Y-10.4836
G01 X-18.3152 Y-10.3628
G01 X-18.3808 Y-10.3331
G01 X-18.4371 Y-10.3114
G01 X-18.4945 Y-10.2925
G01 X-18.5526 Y-10.2764
G01 X-18.6115 Y-10.2632
G01 X-18.6710 Y-10.2528
G01 X-18.7309 Y-10.2454
G01 X-18.7911 Y-10.2410
G01 X-18.8515 Y-10.2395
G01 X-18.9119 Y-10.2410
G01 X-18.9721 Y-10.2454
G01 X-19.0320 Y-10.2528
G01 X-19.0915 Y-10.2632
G01 X-19.1504 Y-10.2764
G01 X-19.2085 Y-10.2925
G01 X-19.2659 Y-10.3114
G01 X-19.3222 Y-10.3331
G01 X-19.3877 Y-10.3628
G00 Z2.0000
G00 X-19.9582 Y-10.9332
G01 F70.00
G01 Z-0.0600
G01 F60.00
G01 X-19.9879 Y-10.9988
G01 X-20.0096 Y-11.0551
G01 X-20.0285 Y-11.1125
G01 X-20.0446 Y-11.1706
G01 X-20.0578 Y-11.2295
G01 X-20.0682 Y-11.2890
G01 X-20.0756 Y-11.3489
G01 X-20.0800 Y-11.4091
G01 X-20.0815 Y-11.4695
G01 X-20.0800 Y-11.5299
G01 X-20.0756 Y-11.5901
G01 X-20.0682 Y-11.6500
G01 X-20.0578 Y-11.7095
G01 X-20.0446 Y-11.7684
G01 X-20.0285 Y-11.8265
G01 X-20.0096 Y-11.8839
G01 X-19.9879 Y-11.9402
G01 X-19.9582 Y-12.0058
G01 X-19.8374 Y-11.8850
G01 X-19.8590 Y-11.8300
G01 X-19.8754 Y-11.7801
G01 X-19.8894 Y-11.7295
G01 X-19.9009 Y-11.6782
G01 X-19.9099 Y-11.6265
G01 X-19.9163 Y-11.5744
G01 X-19.9202 Y-11.5220
G01 X-19.9215 Y-11.4695
G01 X-19.9202 Y-11.4170
G01 X-19.9163 Y-11.3646
G01 X-19.9099 Y-11.3125
G01 X-19.9009 Y-11.2608
G01 X-19.8894 Y-11.2095
G01 X-19.8754 Y-11.1589
G01 X-19.8590 Y-11.1090
G01 X-19.8374 Y-11.0540
G01 X-19.9582 Y-10.9332
G00 Z2.0000
G00 X-19.9347 Y-11.0556
G01 F70.00
G01 Z-0.0600
G01 F60.00
G01 X-19.9437 Y-11.0787
G01 X-19.9615 Y-11.1328
G01 X-19.9767 Y-11.1877
G01 X-19.9892 Y-11.2432
G01 X-19.9989 Y-11.2993
G01 X-20.0059 Y-11.3558
G01 X-20.0101 Y-11.4126
G01 X-20.0115 Y-11.4695
G01 X-20.0101 Y-11.5264
G01 X-20.0059 Y-11.5832
G01 X-19.9989 Y-11.6397
G01 X-19.9892 Y-11.6958
G01 X-19.9767 Y-11.7513
G01 X-19.9615 Y-11.8062
G01 X-19.9437 Y-11.8603
G01 X-19.9347 Y-11.8834
G01 X-19.9193 Y-11.8680
G01 X-19.9254 Y-11.8519
G01 X-19.9429 Y-11.7988
G01 X-19.9573 Y-11.7465
G01 X-19.9699 Y-11.6902
G01 X-19.9792 Y-11.6368
G01 X-19.9860 Y-11.5812
G01 X-19.9901 Y-11.5254
G01 X-19.9915 Y-11.4695
G01 X-19.9901 Y-11.4136
G01 X-19.9860 Y-11.3578
G01 X-19.9792 Y-11.3022
G01 X-19.9699 Y-11.2488
G01 X-19.9573 Y-11.1925
G01 X-19.9429 Y-11.1402
G01 X-19.9254 Y-11.0871
G01 X-19.9193 Y-11.0710
G01 X-19.9347 Y-11.0556
G00 Z2.0000
G00 X-19.3877 Y-12.5762
G01 F70.00
G01 Z-0.0600
G01 F60.00
G01 X-19.3222 Y-12.6059
G01 X-19.2659 Y-12.6276
G01 X-19.2085 Y-12.6465
G01 X-19.1504 Y-12.6626
G01 X-19.0915 Y-12.6758
G01 X-19.0320 Y-12.6862
G01 X-18.9721 Y-12.6936
G01 X-18.9119 Y-12.6980
G01 X-18.8515 Y-12.6995
G01 X-18.7911 Y-12.6980
G01 X-18.7309 Y-12.6936
G01 X-18.6710 Y-12.6862
G01 X-18.6115 Y-12.6758
G01 X-18.5526 Y-12.6626
G01 X-18.4945 Y-12.6465
G01 X-18.4371 Y-12.6276
G01 X-18.3808 Y-12.6059
G01 X-18.3152 Y-12.5762
G01 X-18.4360 Y-12.4554
G01 X-18.4910 Y-12.4770
G01 X-18.5409 Y-12.4934
G01 X-18.5915 Y-12.5074
G01 X-18.6428 Y-12.5189
G01 X-18.6945 Y-12.5279
G01 X-18.7466 Y-12.5343
G01 X-18.7990 Y-12.5382
G01 X-18.8515 Y-12.5395
G01 X-18.9040 Y-12.5382
G01 X-18.9564 Y-12.5343
G01 X-19.0085 Y-12.5279
G01 X-19.0602 Y-12.5189
G01 X-19.1115 Y-12.5074
G01 X-19.1621 Y-12.4934
G01 X-19.2120 Y-12.4770
G01 X-19.2670 Y-12.4554
G01 X-19.3877 Y-12.5762
G00 Z2.0000
G00 X-19.2653 Y-12.5528
G01 F70.00
G01 Z-0.0600
G01 F60.00
G01 X-19.2423 Y-12.5617
G01 X-19.1882 Y-12.5795
G01 X-19.1333 Y-12.5947
G01 X-19.0778 Y-12.6072
G01 X-19.0217 Y-12.6169
G01 X-18.9652 Y-12.6239
G01 X-18.9084 Y-12.6281
G01 X-18.8515 Y-12.6295
G01 X-18.7946 Y-12.6281
G01 X-18.7378 Y-12.6239
G01 X-18.6813 Y-12.6169
G01 X-18.6252 Y-12.6072
G01 X-18.5697 Y-12.5947
G01 X-18.5148 Y-12.5795
G01 X-18.4607 Y-12.5617
G01 X-18.4376 Y-12.5527
G01 X-18.4530 Y-12.5373
G01 X-18.4691 Y-12.5434
G01 X-18.5222 Y-12.5609
G01 X-18.5745 Y-12.5753
G01 X-18.6308 Y-12.5879
G01 X-18.6842 Y-12.5972
G01 X-18.7398 Y-12.6040
G01 X-18.7956 Y-12.6081
G01 X-18.8515 Y-12.6095
G01 X-18.9074 Y-12.6081
G01 X-18.9632 Y-12.6040
G01 X-19.0188 Y-12.5972
G01 X-19.0722 Y-12.5879
G01 X-19.1285 Y-12.5753
G01 X-19.1808 Y-12.5609
G01 X-19.2339 Y-12.5434
G01 X-19.2499 Y-12.5374
G01 X-19.2653 Y-12.5528
G00 Z2.0000
G00 X-22.6003 Y-8.8284
G01 F70.00
G01 Z-0.0600
G01 F60.00
G01 X-22.0629 Y-8.2910
G01 X-22.6003 Y-7.7536
G01 X-22.7135 Y-7.8667
G01 X-22.3369 Y-8.2434
G01 X-22.3291 Y-8.2536
G01 X-22.3232 Y-8.2650
G01 X-22.3194 Y-8.2782
G01 X-22.3182 Y-8.2910
G01 X-22.3194 Y-8.3038
G01 X-22.3232 Y-8.3170
G01 X-22.3291 Y-8.3284
G01 X-22.3369 Y-8.3386
G01 X-22.7135 Y-8.7153
G01 X-22.6003 Y-8.8284
G00 Z2.0000
G00 X-22.6003 Y-8.7294
G01 F70.00
G01 Z-0.0600
G01 F60.00
G01 X-22.1619 Y-8.2910
G01 X-22.6003 Y-7.8526
G01 X-22.6145 Y-7.8668
G01 X-22.2892 Y-8.1920
G01 X-22.2789 Y-8.2035
G01 X-22.2718 Y-8.2132
G01 X-22.2656 Y-8.2235
G01 X-22.2602 Y-8.2343
G01 X-22.2558 Y-8.2455
G01 X-22.2503 Y-8.2671
G01 X-22.2487 Y-8.2790
G01 X-22.2482 Y-8.2910
G01 X-22.2487 Y-8.3030
G01 X-22.2503 Y-8.3149
G01 X-22.2558 Y-8.3365
G01 X-22.2602 Y-8.3477
G01 X-22.2656 Y-8.3585
G01 X-22.2718 Y-8.3688
G01 X-22.2789 Y-8.3785
G01 X-22.2892 Y-8.3900
G01 X-22.6145 Y-8.7153
G01 X-22.6003 Y-8.7294
G00 Z2.0000
G00 X-23.3310 Y-8.2910
G01 F70.00
G01 Z-0.0600
G01 F60.00
G01 X-23.3326 Y-8.2587
G01 X-23.3374 Y-8.2266
G01 X-23.3452 Y-8.1952
G01 X-23.3561 Y-8.1647
G01 X-23.3700 Y-8.1354
G01 X-23.3866 Y-8.1077
G01 X-23.4059 Y-8.0817
G01 X-23.4277 Y-8.0577
G01 X-23.4517 Y-8.0359
G01 X-23.4777 Y-8.0166
G01 X-23.5054 Y-8.0000
G01 X-23.5347 Y-7.9861
G01 X-23.5652 Y-7.9752
G01 X-23.5966 Y-7.9674
G01 X-23.6287 Y-7.9626
G01 X-23.6610 Y-7.9610
G01 X-23.6933 Y-7.9626
G01 X-23.7254 Y-7.9674
G01 X-23.7568 Y-7.9752
G01 X-23.7873 Y-7.9861
G01 X-23.8166 Y-8.0000
G01 X-23.8443 Y-8.0166
G01 X-23.8703 Y-8.0359
G01 X-23.8943 Y-8.0577
G01 X-23.9161 Y-8.0817
G01 X-23.9354 Y-8.1077
G01 X-23.9520 Y-8.1354
G01 X-23.9659 Y-8.1647
G01 X-23.9768 Y-8.1952
G01 X-23.9846 Y-8.2266
G01 X-23.9894 Y-8.2587
G01 X-23.9910 Y-8.2910
G01 X-23.9894 Y-8.3233
G01 X-23.9846 Y-8.3554
G01 X-23.9768 Y-8.3868
G01 X-23.9659 Y-8.4173
G01 X-23.9520 Y-8.4466
G01 X-23.9354 Y-8.4743
G01 X-23.9161 Y-8.5003
G01 X-23.8943 Y-8.5243
G01 X-23.8703 Y-8.5461
G01 X-23.8443 Y-8.5654
G01 X-23.8166 Y-8.5820
G01 X-23.7873 Y-8.5959
G01 X-23.7568 Y-8.6068
G01 X-23.7254 Y-8.6146
G01 X-23.6933 Y-8.6194
G01 X-23.6610 Y-8.6210
G01 X-23.6287 Y-8.6194
G01 X-23.5966 Y-8.6146
G01 X-23.5652 Y-8.6068
G01 X-23.5347 Y-8.5959
G01 X-23.5054 Y-8.5820
G01 X-23.4777 Y-8.5654
G01 X-23.4517 Y-8.5461
G01 X-23.4277 Y-8.5243
G01 X-23.4059 Y-8.5003
G01 X-23.3866 Y-8.4743
G01 X-23.3700 Y-8.4466
G01 X-23.3561 Y-8.4173
G01 X-23.3452 Y-8.3868
G01 X-23.3374 Y-8.3554
G01 X-23.3326 Y-8.3233
G01 X-23.3310 Y-8.2910
G00 Z2.0000
G00 X-23.4010 Y-8.2910
G01 F70.00
G01 Z-0.0600
G01 F60.00
G01 X-23.4023 Y-8.2655
G01 X-23.4060 Y-8.2403
G01 X-23.4122 Y-8.2155
G01 X-23.4208 Y-8.1915
G01 X-23.4317 Y-8.1685
G01 X-23.4449 Y-8.1466
G01 X-23.4600 Y-8.1261
G01 X-23.4772 Y-8.1072
G01 X-23.4961 Y-8.0900
G01 X-23.5166 Y-8.0749
G01 X-23.5385 Y-8.0617
G01 X-23.5615 Y-8.0508
G01 X-23.5855 Y-8.0422
G01 X-23.6103 Y-8.0360
G01 X-23.6355 Y-8.0323
G01 X-23.6610 Y-8.0310
G01 X-23.6865 Y-8.0323
G01 X-23.7117 Y-8.0360
G01 X-23.7365 Y-8.0422
G01 X-23.7605 Y-8.0508
G01 X-23.7835 Y-8.0617
G01 X-23.8054 Y-8.0749
G01 X-23.8259 Y-8.0900
G01 X-23.8448 Y-8.1072
G01 X-23.8620 Y-8.1261
G01 X-23.8771 Y-8.1466
G01 X-23.8903 Y-8.1685
G01 X-23.9012 Y-8.1915
G01 X-23.9098 Y-8.2155
G01 X-23.9160 Y-8.2403
G01 X-23.9197 Y-8.2655
G01 X-23.9210 Y-8.2910
G01 X-23.9197 Y-8.3165
G01 X-23.9160 Y-8.3417
G01 X-23.9098 Y-8.3665
G01 X-23.9012 Y-8.3905
G01 X-23.8903 Y-8.4135
G01 X-23.8771 Y-8.4354
G01 X-23.8620 Y-8.4559
G01 X-23.8448 Y-8.4748
G01 X-23.8259 Y-8.4920
G01 X-23.8054 Y-8.5071
G01 X-23.7835 Y-8.5203
G01 X-23.7605 Y-8.5312
G01 X-23.7365 Y-8.5398
G01 X-23.7117 Y-8.5460
G01 X-23.6865 Y-8.5497
G01 X-23.6610 Y-8.5510
G01 X-23.6355 Y-8.5497
G01 X-23.6103 Y-8.5460
G01 X-23.5855 Y-8.5398
G01 X-23.5615 Y-8.5312
G01 X-23.5385 Y-8.5203
G01 X-23.5166 Y-8.5071
G01 X-23.4961 Y-8.4920
G01 X-23.4772 Y-8.4748
G01 X-23.4600 Y-8.4559
G01 X-23.4449 Y-8.4354
G01 X-23.4317 Y-8.4135
G01 X-23.4208 Y-8.3905
G01 X-23.4122 Y-8.3665
G01 X-23.4060 Y-8.3417
G01 X-23.4023 Y-8.3165
G01 X-23.4010 Y-8.2910
G00 Z2.0000
G00 X-23.4711 Y-8.2910
G01 F70.00
G01 Z-0.0600
G01 F60.00
G01 X-23.4720 Y-8.2724
G01 X-23.4747 Y-8.2539
G01 X-23.4792 Y-8.2359
G01 X-23.4855 Y-8.2183
G01 X-23.4935 Y-8.2015
G01 X-23.5031 Y-8.1855
G01 X-23.5142 Y-8.1705
G01 X-23.5267 Y-8.1567
G01 X-23.5405 Y-8.1442
G01 X-23.5555 Y-8.1331
G01 X-23.5715 Y-8.1235
G01 X-23.5883 Y-8.1155
G01 X-23.6059 Y-8.1092
G01 X-23.6239 Y-8.1047
G01 X-23.6424 Y-8.1020
G01 X-23.6610 Y-8.1011
G01 X-23.6796 Y-8.1020
G01 X-23.6981 Y-8.1047
G01 X-23.7161 Y-8.1092
G01 X-23.7337 Y-8.1155
G01 X-23.7505 Y-8.1235
G01 X-23.7665 Y-8.1331
G01 X-23.7815 Y-8.1442
G01 X-23.7953 Y-8.1567
G01 X-23.8078 Y-8.1705
G01 X-23.8189 Y-8.1855
G01 X-23.8285 Y-8.2015
G01 X-23.8365 Y-8.2183
G01 X-23.8428 Y-8.2359
G01 X-23.8473 Y-8.2539
G01 X-23.8500 Y-8.2724
G01 X-23.8509 Y-8.2910
G01 X-23.8500 Y-8.3096
G01 X-23.8473 Y-8.3281
G01 X-23.8428 Y-8.3461
G01 X-23.8365 Y-8.3637
G01 X-23.8285 Y-8.3805
G01 X-23.8189 Y-8.3965
G01 X-23.8078 Y-8.4115
G01 X-23.7953 Y-8.4253
G01 X-23.7815 Y-8.4378
G01 X-23.7665 Y-8.4489
G01 X-23.7505 Y-8.4585
G01 X-23.7337 Y-8.4665
G01 X-23.7161 Y-8.4728
G01 X-23.6981 Y-8.4773
G01 X-23.6796 Y-8.4800
G01 X-23.6610 Y-8.4809
G01 X-23.6424 Y-8.4800
G01 X-23.6239 Y-8.4773
G01 X-23.6059 Y-8.4728
G01 X-23.5883 Y-8.4665
G01 X-23.5715 Y-8.4585
G01 X-23.5555 Y-8.4489
G01 X-23.5405 Y-8.4378
G01 X-23.5267 Y-8.4253
G01 X-23.5142 Y-8.4115
G01 X-23.5031 Y-8.3965
G01 X-23.4935 Y-8.3805
G01 X-23.4855 Y-8.3637
G01 X-23.4792 Y-8.3461
G01 X-23.4747 Y-8.3281
G01 X-23.4720 Y-8.3096
G01 X-23.4711 Y-8.2910
G00 Z2.0000
G00 X-23.5411 Y-8.2910
G01 F70.00
G01 Z-0.0600
G01 F60.00
G01 X-23.5417 Y-8.2792
G01 X-23.5434 Y-8.2676
G01 X-23.5462 Y-8.2562
G01 X-23.5502 Y-8.2451
G01 X-23.5552 Y-8.2345
G01 X-23.5613 Y-8.2244
G01 X-23.5683 Y-8.2149
G01 X-23.5762 Y-8.2062
G01 X-23.5849 Y-8.1983
G01 X-23.5944 Y-8.1913
G01 X-23.6045 Y-8.1852
G01 X-23.6151 Y-8.1802
G01 X-23.6262 Y-8.1762
G01 X-23.6376 Y-8.1734
G01 X-23.6492 Y-8.1717
G01 X-23.6610 Y-8.1711
G01 X-23.6728 Y-8.1717
G01 X-23.6844 Y-8.1734
G01 X-23.6958 Y-8.1762
G01 X-23.7069 Y-8.1802
G01 X-23.7175 Y-8.1852
G01 X-23.7276 Y-8.1913
G01 X-23.7371 Y-8.1983
G01 X-23.7458 Y-8.2062
G01 X-23.7537 Y-8.2149
G01 X-23.7607 Y-8.2244
G01 X-23.7668 Y-8.2345
G01 X-23.7718 Y-8.2451
G01 X-23.7758 Y-8.2562
G01 X-23.7786 Y-8.2676
G01 X-23.7803 Y-8.2792
G01 X-23.7809 Y-8.2910
G01 X-23.7803 Y-8.3028
G01 X-23.7786 Y-8.3144
G01 X-23.7758 Y-8.3258
G01 X-23.7718 Y-8.3369
G01 X-23.7668 Y-8.3475
G01 X-23.7607 Y-8.3576
G01 X-23.7537 Y-8.3671
G01 X-23.7458 Y-8.3758
G01 X-23.7371 Y-8.3837
G01 X-23.7276 Y-8.3907
G01 X-23.7175 Y-8.3968
G01 X-23.7069 Y-8.4018
G01 X-23.6958 Y-8.4058
G01 X-23.6844 Y-8.4086
G01 X-23.6728 Y-8.4103
G01 X-23.6610 Y-8.4109
G01 X-23.6492 Y-8.4103
G01 X-23.6376 Y-8.4086
G01 X-23.6262 Y-8.4058
G01 X-23.6151 Y-8.4018
G01 X-23.6045 Y-8.3968
G01 X-23.5944 Y-8.3907
G01 X-23.5849 Y-8.3837
G01 X-23.5762 Y-8.3758
G01 X-23.5683 Y-8.3671
G01 X-23.5613 Y-8.3576
G01 X-23.5552 Y-8.3475
G01 X-23.5502 Y-8.3369
G01 X-23.5462 Y-8.3258
G01 X-23.5434 Y-8.3144
G01 X-23.5417 Y-8.3028
G01 X-23.5411 Y-8.2910
G00 Z2.0000
G00 X-24.0994 Y-9.3517
G01 F70.00
G01 Z-0.0600
G01 F60.00
G01 X-23.6610 Y-9.7901
G01 X-23.2225 Y-9.3516
G01 X-23.2367 Y-9.3375
G01 X-23.5620 Y-9.6628
G01 X-23.5735 Y-9.6731
G01 X-23.5832 Y-9.6802
G01 X-23.5935 Y-9.6864
G01 X-23.6138 Y-9.6956
G01 X-23.6253 Y-9.6992
G01 X-23.6371 Y-9.7017
G01 X-23.6490 Y-9.7033
G01 X-23.6610 Y-9.7038
G01 X-23.6730 Y-9.7033
G01 X-23.6849 Y-9.7017
G01 X-23.6967 Y-9.6992
G01 X-23.7082 Y-9.6956
G01 X-23.7285 Y-9.6864
G01 X-23.7388 Y-9.6802
G01 X-23.7485 Y-9.6731
G01 X-23.7600 Y-9.6628
G01 X-24.0853 Y-9.3375
G01 X-24.0994 Y-9.3517
G00 Z2.0000
G00 X-24.1984 Y-9.3517
G01 F70.00
G01 Z-0.0600
G01 F60.00
G01 X-23.6610 Y-9.8891
G01 X-23.1235 Y-9.3516
G01 X-23.2367 Y-9.2385
G01 X-23.6134 Y-9.6151
G01 X-23.6236 Y-9.6229
G01 X-23.6358 Y-9.6291
G01 X-23.6482 Y-9.6326
G01 X-23.6610 Y-9.6338
G01 X-23.6738 Y-9.6326
G01 X-23.6862 Y-9.6291
G01 X-23.6984 Y-9.6229
G01 X-23.7086 Y-9.6151
G01 X-24.0853 Y-9.2385
G01 X-24.1984 Y-9.3517
G00 Z2.0000
G00 X-24.7216 Y-7.8526
G01 F70.00
G01 Z-0.0600
G01 F60.00
G01 X-25.1600 Y-8.2910
G01 X-24.7216 Y-8.7294
G01 X-24.7075 Y-8.7153
G01 X-25.0328 Y-8.3900
G01 X-25.0431 Y-8.3785
G01 X-25.0502 Y-8.3688
G01 X-25.0564 Y-8.3585
G01 X-25.0618 Y-8.3477
G01 X-25.0662 Y-8.3365
G01 X-25.0717 Y-8.3149
G01 X-25.0733 Y-8.3030
G01 X-25.0738 Y-8.2910
G01 X-25.0733 Y-8.2790
G01 X-25.0717 Y-8.2671
G01 X-25.0662 Y-8.2455
G01 X-25.0618 Y-8.2343
G01 X-25.0564 Y-8.2235
G01 X-25.0502 Y-8.2132
G01 X-25.0431 Y-8.2035
G01 X-25.0328 Y-8.1920
G01 X-24.7075 Y-7.8667
G01 X-24.7216 Y-7.8526
G00 Z2.0000
G00 X-24.7216 Y-7.7536
G01 F70.00
G01 Z-0.0600
G01 F60.00
G01 X-25.2590 Y-8.2910
G01 X-24.7216 Y-8.8284
G01 X-24.6085 Y-8.7153
G01 X-24.9851 Y-8.3386
G01 X-24.9929 Y-8.3284
G01 X-24.9988 Y-8.3170
G01 X-25.0026 Y-8.3038
G01 X-25.0038 Y-8.2910
G01 X-25.0026 Y-8.2782
G01 X-24.9988 Y-8.2650
G01 X-24.9929 Y-8.2536
G01 X-24.9851 Y-8.2434
G01 X-24.6085 Y-7.8667
G01 X-24.7216 Y-7.7536
G00 Z2.0000
G00 X-23.4453 Y-7.0076
G01 F70.00
G01 Z-0.0600
G01 F60.00
G01 X-23.4545 Y-6.9974
G01 X-23.4627 Y-6.9864
G01 X-23.4698 Y-6.9746
G01 X-23.4757 Y-6.9621
G01 X-23.4803 Y-6.9492
G01 X-23.4836 Y-6.9359
G01 X-23.4857 Y-6.9223
G01 X-23.4863 Y-6.9086
G01 X-23.4858 Y-6.8966
G01 X-23.4840 Y-6.8829
G01 X-23.4808 Y-6.8696
G01 X-23.4763 Y-6.8566
G01 X-23.4706 Y-6.8441
G01 X-23.4637 Y-6.8322
G01 X-23.4556 Y-6.8211
G01 X-23.4465 Y-6.8108
G01 X-23.4365 Y-6.8014
G01 X-23.4255 Y-6.7931
G01 X-23.4138 Y-6.7859
G01 X-23.4015 Y-6.7799
G01 X-23.3886 Y-6.7751
G01 X-23.3532 Y-6.7652
G01 X-23.3038 Y-6.7489
G01 X-23.2553 Y-6.7302
G01 X-23.2077 Y-6.7091
G01 X-23.1612 Y-6.6857
G01 X-23.1160 Y-6.6601
G01 X-23.0720 Y-6.6322
G01 X-23.0295 Y-6.6023
G01 X-22.9885 Y-6.5703
G01 X-22.9491 Y-6.5363
G01 X-22.9114 Y-6.5004
G01 X-22.8755 Y-6.4627
G01 X-22.8415 Y-6.4233
G01 X-22.8095 Y-6.3823
G01 X-22.7796 Y-6.3398
G01 X-22.7517 Y-6.2958
G01 X-22.7261 Y-6.2506
G01 X-22.7027 Y-6.2041
G01 X-22.6816 Y-6.1565
G01 X-22.6629 Y-6.1080
G01 X-22.6466 Y-6.0586
G01 X-22.6327 Y-6.0084
G01 X-22.6213 Y-5.9577
G01 X-22.6124 Y-5.9064
G01 X-22.6060 Y-5.8548
G01 X-22.6022 Y-5.8029
G01 X-22.6009 Y-5.7509
G01 X-22.6022 Y-5.6989
G01 X-22.6060 Y-5.6470
G01 X-22.6124 Y-5.5954
G01 X-22.6213 Y-5.5441
G01 X-22.6327 Y-5.4934
G01 X-22.6466 Y-5.4432
G01 X-22.6629 Y-5.3938
G01 X-22.6816 Y-5.3453
G01 X-22.7027 Y-5.2977
G01 X-22.7261 Y-5.2512
G01 X-22.7517 Y-5.2060
G01 X-22.7796 Y-5.1620
G01 X-22.8095 Y-5.1195
G01 X-22.8415 Y-5.0785
G01 X-22.8755 Y-5.0391
G01 X-22.9114 Y-5.0014
G01 X-22.9491 Y-4.9655
G01 X-22.9885 Y-4.9315
G01 X-23.0295 Y-4.8995
G01 X-23.0720 Y-4.8696
G01 X-23.1160 Y-4.8417
G01 X-23.1612 Y-4.8161
G01 X-23.2077 Y-4.7927
G01 X-23.2553 Y-4.7716
G01 X-23.3038 Y-4.7529
G01 X-23.3532 Y-4.7366
G01 X-23.4034 Y-4.7227
G01 X-23.4541 Y-4.7113
G01 X-23.5054 Y-4.7024
G01 X-23.5570 Y-4.6960
G01 X-23.6089 Y-4.6922
G01 X-23.6609 Y-4.6909
G01 X-23.7129 Y-4.6922
G01 X-23.7648 Y-4.6960
G01 X-23.8164 Y-4.7024
G01 X-23.8677 Y-4.7113
G01 X-23.9184 Y-4.7227
G01 X-23.9686 Y-4.7366
G01 X-24.0180 Y-4.7529
G01 X-24.0665 Y-4.7716
G01 X-24.1141 Y-4.7927
G01 X-24.1606 Y-4.8161
G01 X-24.2058 Y-4.8417
G01 X-24.2498 Y-4.8696
G01 X-24.2923 Y-4.8995
G01 X-24.3333 Y-4.9315
G01 X-24.3727 Y-4.9655
G01 X-24.4104 Y-5.0014
G01 X-24.4463 Y-5.0391
G01 X-24.4803 Y-5.0785
G01 X-24.5123 Y-5.1195
G01 X-24.5422 Y-5.1620
G01 X-24.5701 Y-5.2060
G01 X-24.5957 Y-5.2512
G01 X-24.6191 Y-5.2977
G01 X-24.6402 Y-5.3453
G01 X-24.6589 Y-5.3938
G01 X-24.6752 Y-5.4432
G01 X-24.6891 Y-5.4934
G01 X-24.7005 Y-5.5441
G01 X-24.7094 Y-5.5954
G01 X-24.7158 Y-5.6470
G01 X-24.7196 Y-5.6989
G01 X-24.7209 Y-5.7509
G01 X-24.7196 Y-5.8029
G01 X-24.7158 Y-5.8548
G01 X-24.7094 Y-5.9064
G01 X-24.7005 Y-5.9577
G01 X-24.6891 Y-6.0084
G01 X-24.6752 Y-6.0586
G01 X-24.6589 Y-6.1080
G01 X-24.6402 Y-6.1565
G01 X-24.6191 Y-6.2041
G01 X-24.5957 Y-6.2506
G01 X-24.5701 Y-6.2958
G01 X-24.5422 Y-6.3398
G01 X-24.5123 Y-6.3823
G01 X-24.4803 Y-6.4233
G01 X-24.4463 Y-6.4627
G01 X-24.4104 Y-6.5004
G01 X-24.3727 Y-6.5363
G01 X-24.3333 Y-6.5703
G01 X-24.2923 Y-6.6023
G01 X-24.2498 Y-6.6322
G01 X-24.2058 Y-6.6601
G01 X-24.1606 Y-6.6857
G01 X-24.1141 Y-6.7091
G01 X-24.0665 Y-6.7302
G01 X-24.0180 Y-6.7489
G01 X-23.9686 Y-6.7652
G01 X-23.9317 Y-6.7756
G01 X-23.9205 Y-6.7799
G01 X-23.9096 Y-6.7851
G01 X-23.8908 Y-6.7971
G01 X-23.8742 Y-6.8120
G01 X-23.8602 Y-6.8293
G01 X-23.8491 Y-6.8487
G01 X-23.8427 Y-6.8646
G01 X-23.8383 Y-6.8812
G01 X-23.8360 Y-6.8982
G01 X-23.8358 Y-6.9154
G01 X-23.8377 Y-6.9325
G01 X-23.8416 Y-6.9492
G01 X-23.8476 Y-6.9653
G01 X-23.8555 Y-6.9805
G01 X-23.8642 Y-6.9933
G01 X-23.8754 Y-7.0063
G01 X-24.0994 Y-7.2303
G01 X-24.0853 Y-7.2445
G01 X-23.7524 Y-6.9122
G01 X-23.7430 Y-6.9047
G01 X-23.7330 Y-6.8981
G01 X-23.7209 Y-6.8916
G01 X-23.7098 Y-6.8870
G01 X-23.6983 Y-6.8833
G01 X-23.6866 Y-6.8806
G01 X-23.6747 Y-6.8789
G01 X-23.6610 Y-6.8782
G01 X-23.6490 Y-6.8787
G01 X-23.6371 Y-6.8803
G01 X-23.6253 Y-6.8828
G01 X-23.6122 Y-6.8870
G01 X-23.6011 Y-6.8916
G01 X-23.5890 Y-6.8981
G01 X-23.5790 Y-6.9047
G01 X-23.5696 Y-6.9122
G01 X-23.2367 Y-7.2445
G01 X-23.2225 Y-7.2304
G01 X-23.4453 Y-7.0076
G00 Z2.0000
G00 X-23.3958 Y-6.9581
G01 F70.00
G01 Z-0.0600
G01 F60.00
G01 X-23.4050 Y-6.9467
G01 X-23.4113 Y-6.9346
G01 X-23.4153 Y-6.9205
G01 X-23.4163 Y-6.9060
G01 X-23.4142 Y-6.8916
G01 X-23.4096 Y-6.8786
G01 X-23.4026 Y-6.8669
G01 X-23.3927 Y-6.8561
G01 X-23.3830 Y-6.8490
G01 X-23.3715 Y-6.8433
G01 X-23.3329 Y-6.8322
G01 X-23.2802 Y-6.8148
G01 X-23.2285 Y-6.7949
G01 X-23.1778 Y-6.7724
G01 X-23.1282 Y-6.7475
G01 X-23.0800 Y-6.7201
G01 X-23.0331 Y-6.6904
G01 X-22.9878 Y-6.6585
G01 X-22.9440 Y-6.6244
G01 X-22.9021 Y-6.5882
G01 X-22.8619 Y-6.5499
G01 X-22.8236 Y-6.5097
G01 X-22.7874 Y-6.4678
G01 X-22.7533 Y-6.4240
G01 X-22.7214 Y-6.3787
G01 X-22.6917 Y-6.3318
G01 X-22.6643 Y-6.2836
G01 X-22.6394 Y-6.2340
G01 X-22.6169 Y-6.1833
G01 X-22.5970 Y-6.1316
G01 X-22.5796 Y-6.0789
G01 X-22.5648 Y-6.0255
G01 X-22.5526 Y-5.9713
G01 X-22.5432 Y-5.9167
G01 X-22.5364 Y-5.8617
G01 X-22.5323 Y-5.8063
G01 X-22.5309 Y-5.7509
G01 X-22.5323 Y-5.6955
G01 X-22.5364 Y-5.6401
G01 X-22.5432 Y-5.5851
G01 X-22.5526 Y-5.5305
G01 X-22.5648 Y-5.4763
G01 X-22.5796 Y-5.4229
G01 X-22.5970 Y-5.3702
G01 X-22.6169 Y-5.3185
G01 X-22.6394 Y-5.2678
G01 X-22.6643 Y-5.2182
G01 X-22.6917 Y-5.1700
G01 X-22.7214 Y-5.1231
G01 X-22.7533 Y-5.0778
G01 X-22.7874 Y-5.0340
G01 X-22.8236 Y-4.9921
G01 X-22.8619 Y-4.9519
G01 X-22.9021 Y-4.9136
G01 X-22.9440 Y-4.8774
G01 X-22.9878 Y-4.8433
G01 X-23.0331 Y-4.8114
G01 X-23.0800 Y-4.7817
G01 X-23.1282 Y-4.7543
G01 X-23.1778 Y-4.7294
G01 X-23.2285 Y-4.7069
G01 X-23.2802 Y-4.6870
G01 X-23.3329 Y-4.6696
G01 X-23.3863 Y-4.6548
G01 X-23.4405 Y-4.6426
G01 X-23.4951 Y-4.6332
G01 X-23.5501 Y-4.6264
G01 X-23.6055 Y-4.6223
G01 X-23.6609 Y-4.6209
G01 X-23.7163 Y-4.6223
G01 X-23.7717 Y-4.6264
G01 X-23.8267 Y-4.6332
G01 X-23.8813 Y-4.6426
G01 X-23.9355 Y-4.6548
G01 X-23.9889 Y-4.6696
G01 X-24.0416 Y-4.6870
G01 X-24.0933 Y-4.7069
G01 X-24.1440 Y-4.7294
G01 X-24.1936 Y-4.7543
G01 X-24.2418 Y-4.7817
G01 X-24.2887 Y-4.8114
G01 X-24.3340 Y-4.8433
G01 X-24.3778 Y-4.8774
G01 X-24.4197 Y-4.9136
G01 X-24.4599 Y-4.9519
G01 X-24.4982 Y-4.9921
G01 X-24.5344 Y-5.0340
G01 X-24.5685 Y-5.0778
G01 X-24.6004 Y-5.1231
G01 X-24.6301 Y-5.1700
G01 X-24.6575 Y-5.2182
G01 X-24.6824 Y-5.2678
G01 X-24.7049 Y-5.3185
G01 X-24.7248 Y-5.3702
G01 X-24.7422 Y-5.4229
G01 X-24.7570 Y-5.4763
G01 X-24.7692 Y-5.5305
G01 X-24.7786 Y-5.5851
G01 X-24.7854 Y-5.6401
G01 X-24.7895 Y-5.6955
G01 X-24.7909 Y-5.7509
G01 X-24.7895 Y-5.8063
G01 X-24.7854 Y-5.8617
G01 X-24.7786 Y-5.9167
G01 X-24.7692 Y-5.9713
G01 X-24.7570 Y-6.0255
G01 X-24.7422 Y-6.0789
G01 X-24.7248 Y-6.1316
G01 X-24.7049 Y-6.1833
G01 X-24.6824 Y-6.2340
G01 X-24.6575 Y-6.2836
G01 X-24.6301 Y-6.3318
G01 X-24.6004 Y-6.3787
G01 X-24.5685 Y-6.4240
G01 X-24.5344 Y-6.4678
G01 X-24.4982 Y-6.5097
G01 X-24.4599 Y-6.5499
G01 X-24.4197 Y-6.5882
G01 X-24.3778 Y-6.6244
G01 X-24.3340 Y-6.6585
G01 X-24.2887 Y-6.6904
G01 X-24.2418 Y-6.7201
G01 X-24.1936 Y-6.7475
G01 X-24.1440 Y-6.7724
G01 X-24.0933 Y-6.7949
G01 X-24.0416 Y-6.8148
G01 X-23.9889 Y-6.8322
G01 X-23.9553 Y-6.8415
G01 X-23.9457 Y-6.8453
G01 X-23.9360 Y-6.8508
G01 X-23.9267 Y-6.8584
G01 X-23.9189 Y-6.8675
G01 X-23.9131 Y-6.8771
G01 X-23.9094 Y-6.8858
G01 X-23.9068 Y-6.8957
G01 X-23.9057 Y-6.9060
G01 X-23.9060 Y-6.9162
G01 X-23.9077 Y-6.9255
G01 X-23.9109 Y-6.9353
G01 X-23.9156 Y-6.9445
G01 X-23.9210 Y-6.9523
G01 X-24.1984 Y-7.2303
G01 X-24.0853 Y-7.3435
G01 X-23.7086 Y-6.9669
G01 X-23.6984 Y-6.9591
G01 X-23.6862 Y-6.9529
G01 X-23.6738 Y-6.9494
G01 X-23.6610 Y-6.9482
G01 X-23.6473 Y-6.9495
G01 X-23.6350 Y-6.9532
G01 X-23.6236 Y-6.9591
G01 X-23.6134 Y-6.9669
G01 X-23.2367 Y-7.3435
G01 X-23.1235 Y-7.2304
G01 X-23.3958 Y-6.9581
G00 Z2.0000
G00 X-23.4009 Y-5.7509
G01 F70.00
G01 Z-0.0600
G01 F60.00
G01 X-23.4022 Y-5.7254
G01 X-23.4059 Y-5.7002
G01 X-23.4121 Y-5.6754
G01 X-23.4207 Y-5.6514
G01 X-23.4316 Y-5.6284
G01 X-23.4448 Y-5.6065
G01 X-23.4599 Y-5.5860
G01 X-23.4771 Y-5.5671
G01 X-23.4960 Y-5.5499
G01 X-23.5165 Y-5.5348
G01 X-23.5384 Y-5.5216
G01 X-23.5614 Y-5.5107
G01 X-23.5854 Y-5.5021
G01 X-23.6102 Y-5.4959
G01 X-23.6354 Y-5.4922
G01 X-23.6609 Y-5.4909
G01 X-23.6864 Y-5.4922
G01 X-23.7116 Y-5.4959
G01 X-23.7364 Y-5.5021
G01 X-23.7604 Y-5.5107
G01 X-23.7834 Y-5.5216
G01 X-23.8053 Y-5.5348
G01 X-23.8258 Y-5.5499
G01 X-23.8447 Y-5.5671
G01 X-23.8619 Y-5.5860
G01 X-23.8770 Y-5.6065
G01 X-23.8902 Y-5.6284
G01 X-23.9011 Y-5.6514
G01 X-23.9097 Y-5.6754
G01 X-23.9159 Y-5.7002
G01 X-23.9196 Y-5.7254
G01 X-23.9209 Y-5.7509
G01 X-23.9196 Y-5.7764
G01 X-23.9159 Y-5.8016
G01 X-23.9097 Y-5.8264
G01 X-23.9011 Y-5.8504
G01 X-23.8902 Y-5.8734
G01 X-23.8770 Y-5.8953
G01 X-23.8619 Y-5.9158
G01 X-23.8447 Y-5.9347
G01 X-23.8258 Y-5.9519
G01 X-23.8053 Y-5.9670
G01 X-23.7834 Y-5.9802
G01 X-23.7604 Y-5.9911
G01 X-23.7364 Y-5.9997
G01 X-23.7116 Y-6.0059
G01 X-23.6864 Y-6.0096
G01 X-23.6609 Y-6.0109
G01 X-23.6354 Y-6.0096
G01 X-23.6102 Y-6.0059
G01 X-23.5854 Y-5.9997
G01 X-23.5614 Y-5.9911
G01 X-23.5384 Y-5.9802
G01 X-23.5165 Y-5.9670
G01 X-23.4960 Y-5.9519
G01 X-23.4771 Y-5.9347
G01 X-23.4599 Y-5.9158
G01 X-23.4448 Y-5.8953
G01 X-23.4316 Y-5.8734
G01 X-23.4207 Y-5.8504
G01 X-23.4121 Y-5.8264
G01 X-23.4059 Y-5.8016
G01 X-23.4022 Y-5.7764
G01 X-23.4009 Y-5.7509
G00 Z2.0000
G00 X-23.4710 Y-5.7509
G01 F70.00
G01 Z-0.0600
G01 F60.00
G01 X-23.4719 Y-5.7323
G01 X-23.4746 Y-5.7138
G01 X-23.4791 Y-5.6958
G01 X-23.4854 Y-5.6782
G01 X-23.4934 Y-5.6614
G01 X-23.5030 Y-5.6454
G01 X-23.5141 Y-5.6304
G01 X-23.5266 Y-5.6166
G01 X-23.5404 Y-5.6041
G01 X-23.5554 Y-5.5930
G01 X-23.5714 Y-5.5834
G01 X-23.5882 Y-5.5754
G01 X-23.6058 Y-5.5691
G01 X-23.6238 Y-5.5646
G01 X-23.6423 Y-5.5619
G01 X-23.6609 Y-5.5610
G01 X-23.6795 Y-5.5619
G01 X-23.6980 Y-5.5646
G01 X-23.7160 Y-5.5691
G01 X-23.7336 Y-5.5754
G01 X-23.7504 Y-5.5834
G01 X-23.7664 Y-5.5930
G01 X-23.7814 Y-5.6041
G01 X-23.7952 Y-5.6166
G01 X-23.8077 Y-5.6304
G01 X-23.8188 Y-5.6454
G01 X-23.8284 Y-5.6614
G01 X-23.8364 Y-5.6782
G01 X-23.8427 Y-5.6958
G01 X-23.8472 Y-5.7138
G01 X-23.8499 Y-5.7323
G01 X-23.8508 Y-5.7509
G01 X-23.8499 Y-5.7695
G01 X-23.8472 Y-5.7880
G01 X-23.8427 Y-5.8060
G01 X-23.8364 Y-5.8236
G01 X-23.8284 Y-5.8404
G01 X-23.8188 Y-5.8564
G01 X-23.8077 Y-5.8714
G01 X-23.7952 Y-5.8852
G01 X-23.7814 Y-5.8977
G01 X-23.7664 Y-5.9088
G01 X-23.7504 Y-5.9184
G01 X-23.7336 Y-5.9264
G01 X-23.7160 Y-5.9327
G01 X-23.6980 Y-5.9372
G01 X-23.6795 Y-5.9399
G01 X-23.6609 Y-5.9408
G01 X-23.6423 Y-5.9399
G01 X-23.6238 Y-5.9372
G01 X-23.6058 Y-5.9327
G01 X-23.5882 Y-5.9264
G01 X-23.5714 Y-5.9184
G01 X-23.5554 Y-5.9088
G01 X-23.5404 Y-5.8977
G01 X-23.5266 Y-5.8852
G01 X-23.5141 Y-5.8714
G01 X-23.5030 Y-5.8564
G01 X-23.4934 Y-5.8404
G01 X-23.4854 Y-5.8236
G01 X-23.4791 Y-5.8060
G01 X-23.4746 Y-5.7880
G01 X-23.4719 Y-5.7695
G01 X-23.4710 Y-5.7509
G00 Z2.0000
G00 X-23.5410 Y-5.7509
G01 F70.00
G01 Z-0.0600
G01 F60.00
G01 X-23.5416 Y-5.7391
G01 X-23.5433 Y-5.7275
G01 X-23.5461 Y-5.7161
G01 X-23.5501 Y-5.7050
G01 X-23.5551 Y-5.6944
G01 X-23.5612 Y-5.6843
G01 X-23.5682 Y-5.6748
G01 X-23.5761 Y-5.6661
G01 X-23.5848 Y-5.6582
G01 X-23.5943 Y-5.6512
G01 X-23.6044 Y-5.6451
G01 X-23.6150 Y-5.6401
G01 X-23.6261 Y-5.6361
G01 X-23.6375 Y-5.6333
G01 X-23.6491 Y-5.6316
G01 X-23.6609 Y-5.6310
G01 X-23.6727 Y-5.6316
G01 X-23.6843 Y-5.6333
G01 X-23.6957 Y-5.6361
G01 X-23.7068 Y-5.6401
G01 X-23.7174 Y-5.6451
G01 X-23.7275 Y-5.6512
G01 X-23.7370 Y-5.6582
G01 X-23.7457 Y-5.6661
G01 X-23.7536 Y-5.6748
G01 X-23.7606 Y-5.6843
G01 X-23.7667 Y-5.6944
G01 X-23.7717 Y-5.7050
G01 X-23.7757 Y-5.7161
G01 X-23.7785 Y-5.7275
G01 X-23.7802 Y-5.7391
G01 X-23.7808 Y-5.7509
G01 X-23.7802 Y-5.7627
G01 X-23.7785 Y-5.7743
G01 X-23.7757 Y-5.7857
G01 X-23.7717 Y-5.7968
G01 X-23.7667 Y-5.8074
G01 X-23.7606 Y-5.8175
G01 X-23.7536 Y-5.8270
G01 X-23.7457 Y-5.8357
G01 X-23.7370 Y-5.8436
G01 X-23.7275 Y-5.8506
G01 X-23.7174 Y-5.8567
G01 X-23.7068 Y-5.8617
G01 X-23.6957 Y-5.8657
G01 X-23.6843 Y-5.8685
G01 X-23.6727 Y-5.8702
G01 X-23.6609 Y-5.8708
G01 X-23.6491 Y-5.8702
G01 X-23.6375 Y-5.8685
G01 X-23.6261 Y-5.8657
G01 X-23.6150 Y-5.8617
G01 X-23.6044 Y-5.8567
G01 X-23.5943 Y-5.8506
G01 X-23.5848 Y-5.8436
G01 X-23.5761 Y-5.8357
G01 X-23.5682 Y-5.8270
G01 X-23.5612 Y-5.8175
G01 X-23.5551 Y-5.8074
G01 X-23.5501 Y-5.7968
G01 X-23.5461 Y-5.7857
G01 X-23.5433 Y-5.7743
G01 X-23.5416 Y-5.7627
G01 X-23.5410 Y-5.7509
G00 Z2.0000
G00 X-23.3309 Y-5.7509
G01 F70.00
G01 Z-0.0600
G01 F60.00
G01 X-23.3325 Y-5.7186
G01 X-23.3373 Y-5.6865
G01 X-23.3451 Y-5.6551
G01 X-23.3560 Y-5.6246
G01 X-23.3699 Y-5.5953
G01 X-23.3865 Y-5.5676
G01 X-23.4058 Y-5.5416
G01 X-23.4276 Y-5.5176
G01 X-23.4516 Y-5.4958
G01 X-23.4776 Y-5.4765
G01 X-23.5053 Y-5.4599
G01 X-23.5346 Y-5.4460
G01 X-23.5651 Y-5.4351
G01 X-23.5965 Y-5.4273
G01 X-23.6286 Y-5.4225
G01 X-23.6609 Y-5.4209
G01 X-23.6932 Y-5.4225
G01 X-23.7253 Y-5.4273
G01 X-23.7567 Y-5.4351
G01 X-23.7872 Y-5.4460
G01 X-23.8165 Y-5.4599
G01 X-23.8442 Y-5.4765
G01 X-23.8702 Y-5.4958
G01 X-23.8942 Y-5.5176
G01 X-23.9160 Y-5.5416
G01 X-23.9353 Y-5.5676
G01 X-23.9519 Y-5.5953
G01 X-23.9658 Y-5.6246
G01 X-23.9767 Y-5.6551
G01 X-23.9845 Y-5.6865
G01 X-23.9893 Y-5.7186
G01 X-23.9909 Y-5.7509
G01 X-23.9893 Y-5.7832
G01 X-23.9845 Y-5.8153
G01 X-23.9767 Y-5.8467
G01 X-23.9658 Y-5.8772
G01 X-23.9519 Y-5.9065
G01 X-23.9353 Y-5.9342
G01 X-23.9160 Y-5.9602
G01 X-23.8942 Y-5.9842
G01 X-23.8702 Y-6.0060
G01 X-23.8442 Y-6.0253
G01 X-23.8165 Y-6.0419
G01 X-23.7872 Y-6.0558
G01 X-23.7567 Y-6.0667
G01 X-23.7253 Y-6.0745
G01 X-23.6932 Y-6.0793
G01 X-23.6609 Y-6.0809
G01 X-23.6286 Y-6.0793
G01 X-23.5965 Y-6.0745
G01 X-23.5651 Y-6.0667
G01 X-23.5346 Y-6.0558
G01 X-23.5053 Y-6.0419
G01 X-23.4776 Y-6.0253
G01 X-23.4516 Y-6.0060
G01 X-23.4276 Y-5.9842
G01 X-23.4058 Y-5.9602
G01 X-23.3865 Y-5.9342
G01 X-23.3699 Y-5.9065
G01 X-23.3560 Y-5.8772
G01 X-23.3451 Y-5.8467
G01 X-23.3373 Y-5.8153
G01 X-23.3325 Y-5.7832
G01 X-23.3309 Y-5.7509
G00 Z2.0000
G00 X-22.6909 Y-5.7509
G01 F70.00
G01 Z-0.0600
G01 F60.00
G01 X-22.6921 Y-5.7033
G01 X-22.6956 Y-5.6558
G01 X-22.7014 Y-5.6086
G01 X-22.7095 Y-5.5617
G01 X-22.7200 Y-5.5152
G01 X-22.7327 Y-5.4693
G01 X-22.7476 Y-5.4241
G01 X-22.7647 Y-5.3797
G01 X-22.7840 Y-5.3362
G01 X-22.8054 Y-5.2936
G01 X-22.8289 Y-5.2522
G01 X-22.8544 Y-5.2120
G01 X-22.8818 Y-5.1731
G01 X-22.9111 Y-5.1355
G01 X-22.9422 Y-5.0995
G01 X-22.9750 Y-5.0650
G01 X-23.0095 Y-5.0322
G01 X-23.0455 Y-5.0011
G01 X-23.0831 Y-4.9718
G01 X-23.1220 Y-4.9444
G01 X-23.1622 Y-4.9189
G01 X-23.2036 Y-4.8954
G01 X-23.2462 Y-4.8740
G01 X-23.2897 Y-4.8547
G01 X-23.3341 Y-4.8376
G01 X-23.3793 Y-4.8227
G01 X-23.4252 Y-4.8100
G01 X-23.4717 Y-4.7995
G01 X-23.5186 Y-4.7914
G01 X-23.5658 Y-4.7856
G01 X-23.6133 Y-4.7821
G01 X-23.6609 Y-4.7809
G01 X-23.7085 Y-4.7821
G01 X-23.7560 Y-4.7856
G01 X-23.8032 Y-4.7914
G01 X-23.8501 Y-4.7995
G01 X-23.8966 Y-4.8100
G01 X-23.9425 Y-4.8227
G01 X-23.9877 Y-4.8376
G01 X-24.0321 Y-4.8547
G01 X-24.0756 Y-4.8740
G01 X-24.1182 Y-4.8954
G01 X-24.1596 Y-4.9189
G01 X-24.1998 Y-4.9444
G01 X-24.2387 Y-4.9718
G01 X-24.2763 Y-5.0011
G01 X-24.3123 Y-5.0322
G01 X-24.3468 Y-5.0650
G01 X-24.3796 Y-5.0995
G01 X-24.4107 Y-5.1355
G01 X-24.4400 Y-5.1731
G01 X-24.4674 Y-5.2120
G01 X-24.4929 Y-5.2522
G01 X-24.5164 Y-5.2936
G01 X-24.5378 Y-5.3362
G01 X-24.5571 Y-5.3797
G01 X-24.5742 Y-5.4241
G01 X-24.5891 Y-5.4693
G01 X-24.6018 Y-5.5152
G01 X-24.6123 Y-5.5617
G01 X-24.6204 Y-5.6086
G01 X-24.6262 Y-5.6558
G01 X-24.6297 Y-5.7033
G01 X-24.6309 Y-5.7509
G01 X-24.6297 Y-5.7985
G01 X-24.6262 Y-5.8460
G01 X-24.6204 Y-5.8932
G01 X-24.6123 Y-5.9401
G01 X-24.6018 Y-5.9866
G01 X-24.5891 Y-6.0325
G01 X-24.5742 Y-6.0777
G01 X-24.5571 Y-6.1221
G01 X-24.5378 Y-6.1656
G01 X-24.5164 Y-6.2082
G01 X-24.4929 Y-6.2496
G01 X-24.4674 Y-6.2898
G01 X-24.4400 Y-6.3287
G01 X-24.4107 Y-6.3663
G01 X-24.3796 Y-6.4023
G01 X-24.3468 Y-6.4368
G01 X-24.3123 Y-6.4696
G01 X-24.2763 Y-6.5007
G01 X-24.2387 Y-6.5300
G01 X-24.1998 Y-6.5574
G01 X-24.1596 Y-6.5829
G01 X-24.1182 Y-6.6064
G01 X-24.0756 Y-6.6278
G01 X-24.0321 Y-6.6471
G01 X-23.9877 Y-6.6642
G01 X-23.9425 Y-6.6791
G01 X-23.8966 Y-6.6918
G01 X-23.8501 Y-6.7023
G01 X-23.8032 Y-6.7104
G01 X-23.7560 Y-6.7162
G01 X-23.7085 Y-6.7197
G01 X-23.6609 Y-6.7209
G01 X-23.6133 Y-6.7197
G01 X-23.5658 Y-6.7162
G01 X-23.5186 Y-6.7104
G01 X-23.4717 Y-6.7023
G01 X-23.4252 Y-6.6918
G01 X-23.3793 Y-6.6791
G01 X-23.3341 Y-6.6642
G01 X-23.2897 Y-6.6471
G01 X-23.2462 Y-6.6278
G01 X-23.2036 Y-6.6064
G01 X-23.1622 Y-6.5829
G01 X-23.1220 Y-6.5574
G01 X-23.0831 Y-6.5300
G01 X-23.0455 Y-6.5007
G01 X-23.0095 Y-6.4696
G01 X-22.9750 Y-6.4368
G01 X-22.9422 Y-6.4023
G01 X-22.9111 Y-6.3663
G01 X-22.8818 Y-6.3287
G01 X-22.8544 Y-6.2898
G01 X-22.8289 Y-6.2496
G01 X-22.8054 Y-6.2082
G01 X-22.7840 Y-6.1656
G01 X-22.7647 Y-6.1221
G01 X-22.7476 Y-6.0777
G01 X-22.7327 Y-6.0325
G01 X-22.7200 Y-5.9866
G01 X-22.7095 Y-5.9401
G01 X-22.7014 Y-5.8932
G01 X-22.6956 Y-5.8460
G01 X-22.6921 Y-5.7985
G01 X-22.6909 Y-5.7509
G00 Z2.0000
G00 X-22.6209 Y-5.7509
G01 F70.00
G01 Z-0.0600
G01 F60.00
G01 X-22.6222 Y-5.6999
G01 X-22.6259 Y-5.6490
G01 X-22.6322 Y-5.5983
G01 X-22.6409 Y-5.5480
G01 X-22.6521 Y-5.4982
G01 X-22.6657 Y-5.4490
G01 X-22.6817 Y-5.4005
G01 X-22.7001 Y-5.3529
G01 X-22.7208 Y-5.3062
G01 X-22.7437 Y-5.2606
G01 X-22.7689 Y-5.2162
G01 X-22.7962 Y-5.1731
G01 X-22.8256 Y-5.1314
G01 X-22.8570 Y-5.0911
G01 X-22.8903 Y-5.0525
G01 X-22.9255 Y-5.0155
G01 X-22.9625 Y-4.9803
G01 X-23.0011 Y-4.9470
G01 X-23.0414 Y-4.9156
G01 X-23.0831 Y-4.8862
G01 X-23.1262 Y-4.8589
G01 X-23.1706 Y-4.8337
G01 X-23.2162 Y-4.8108
G01 X-23.2629 Y-4.7901
G01 X-23.3105 Y-4.7717
G01 X-23.3590 Y-4.7557
G01 X-23.4082 Y-4.7421
G01 X-23.4580 Y-4.7309
G01 X-23.5083 Y-4.7222
G01 X-23.5590 Y-4.7159
G01 X-23.6099 Y-4.7122
G01 X-23.6609 Y-4.7109
G01 X-23.7119 Y-4.7122
G01 X-23.7628 Y-4.7159
G01 X-23.8135 Y-4.7222
G01 X-23.8638 Y-4.7309
G01 X-23.9136 Y-4.7421
G01 X-23.9628 Y-4.7557
G01 X-24.0113 Y-4.7717
G01 X-24.0589 Y-4.7901
G01 X-24.1056 Y-4.8108
G01 X-24.1512 Y-4.8337
G01 X-24.1956 Y-4.8589
G01 X-24.2387 Y-4.8862
G01 X-24.2804 Y-4.9156
G01 X-24.3207 Y-4.9470
G01 X-24.3593 Y-4.9803
G01 X-24.3963 Y-5.0155
G01 X-24.4315 Y-5.0525
G01 X-24.4648 Y-5.0911
G01 X-24.4962 Y-5.1314
G01 X-24.5256 Y-5.1731
G01 X-24.5529 Y-5.2162
G01 X-24.5781 Y-5.2606
G01 X-24.6010 Y-5.3062
G01 X-24.6217 Y-5.3529
G01 X-24.6401 Y-5.4005
G01 X-24.6561 Y-5.4490
G01 X-24.6697 Y-5.4982
G01 X-24.6809 Y-5.5480
G01 X-24.6896 Y-5.5983
G01 X-24.6959 Y-5.6490
G01 X-24.6996 Y-5.6999
G01 X-24.7009 Y-5.7509
G01 X-24.6996 Y-5.8019
G01 X-24.6959 Y-5.8528
G01 X-24.6896 Y-5.9035
G01 X-24.6809 Y-5.9538
G01 X-24.6697 Y-6.0036
G01 X-24.6561 Y-6.0528
G01 X-24.6401 Y-6.1013
G01 X-24.6217 Y-6.1489
G01 X-24.6010 Y-6.1956
G01 X-24.5781 Y-6.2412
G01 X-24.5529 Y-6.2856
G01 X-24.5256 Y-6.3287
G01 X-24.4962 Y-6.3704
G01 X-24.4648 Y-6.4107
G01 X-24.4315 Y-6.4493
G01 X-24.3963 Y-6.4863
G01 X-24.3593 Y-6.5215
G01 X-24.3207 Y-6.5548
G01 X-24.2804 Y-6.5862
G01 X-24.2387 Y-6.6156
G01 X-24.1956 Y-6.6429
G01 X-24.1512 Y-6.6681
G01 X-24.1056 Y-6.6910
G01 X-24.0589 Y-6.7117
G01 X-24.0113 Y-6.7301
G01 X-23.9628 Y-6.7461
G01 X-23.9136 Y-6.7597
G01 X-23.8638 Y-6.7709
G01 X-23.8135 Y-6.7796
G01 X-23.7628 Y-6.7859
G01 X-23.7119 Y-6.7896
G01 X-23.6609 Y-6.7909
G01 X-23.6099 Y-6.7896
G01 X-23.5590 Y-6.7859
G01 X-23.5083 Y-6.7796
G01 X-23.4580 Y-6.7709
G01 X-23.4082 Y-6.7597
G01 X-23.3590 Y-6.7461
G01 X-23.3105 Y-6.7301
G01 X-23.2629 Y-6.7117
G01 X-23.2162 Y-6.6910
G01 X-23.1706 Y-6.6681
G01 X-23.1262 Y-6.6429
G01 X-23.0831 Y-6.6156
G01 X-23.0414 Y-6.5862
G01 X-23.0011 Y-6.5548
G01 X-22.9625 Y-6.5215
G01 X-22.9255 Y-6.4863
G01 X-22.8903 Y-6.4493
G01 X-22.8570 Y-6.4107
G01 X-22.8256 Y-6.3704
G01 X-22.7962 Y-6.3287
G01 X-22.7689 Y-6.2856
G01 X-22.7437 Y-6.2412
G01 X-22.7208 Y-6.1956
G01 X-22.7001 Y-6.1489
G01 X-22.6817 Y-6.1013
G01 X-22.6657 Y-6.0528
G01 X-22.6521 Y-6.0036
G01 X-22.6409 Y-5.9538
G01 X-22.6322 Y-5.9035
G01 X-22.6259 Y-5.8528
G01 X-22.6222 Y-5.8019
G01 X-22.6209 Y-5.7509
G00 Z2.0000
G00 X-22.6209 Y-3.2109
G01 F70.00
G01 Z-0.0600
G01 F60.00
G01 X-22.6222 Y-3.1599
G01 X-22.6259 Y-3.1090
G01 X-22.6322 Y-3.0583
G01 X-22.6409 Y-3.0080
G01 X-22.6521 Y-2.9582
G01 X-22.6657 Y-2.9090
G01 X-22.6817 Y-2.8605
G01 X-22.7001 Y-2.8129
G01 X-22.7208 Y-2.7662
G01 X-22.7437 Y-2.7206
G01 X-22.7689 Y-2.6762
G01 X-22.7962 Y-2.6331
G01 X-22.8256 Y-2.5914
G01 X-22.8570 Y-2.5511
G01 X-22.8903 Y-2.5125
G01 X-22.9255 Y-2.4755
G01 X-22.9625 Y-2.4403
G01 X-23.0011 Y-2.4070
G01 X-23.0414 Y-2.3756
G01 X-23.0831 Y-2.3462
G01 X-23.1262 Y-2.3189
G01 X-23.1706 Y-2.2937
G01 X-23.2162 Y-2.2708
G01 X-23.2629 Y-2.2501
G01 X-23.3105 Y-2.2317
G01 X-23.3590 Y-2.2157
G01 X-23.4082 Y-2.2021
G01 X-23.4580 Y-2.1909
G01 X-23.5083 Y-2.1822
G01 X-23.5590 Y-2.1759
G01 X-23.6099 Y-2.1722
G01 X-23.6609 Y-2.1709
G01 X-23.7119 Y-2.1722
G01 X-23.7628 Y-2.1759
G01 X-23.8135 Y-2.1822
G01 X-23.8638 Y-2.1909
G01 X-23.9136 Y-2.2021
G01 X-23.9628 Y-2.2157
G01 X-24.0113 Y-2.2317
G01 X-24.0589 Y-2.2501
G01 X-24.1056 Y-2.2708
G01 X-24.1512 Y-2.2937
G01 X-24.1956 Y-2.3189
G01 X-24.2387 Y-2.3462
G01 X-24.2804 Y-2.3756
G01 X-24.3207 Y-2.4070
G01 X-24.3593 Y-2.4403
G01 X-24.3963 Y-2.4755
G01 X-24.4315 Y-2.5125
G01 X-24.4648 Y-2.5511
G01 X-24.4962 Y-2.5914
G01 X-24.5256 Y-2.6331
G01 X-24.5529 Y-2.6762
G01 X-24.5781 Y-2.7206
G01 X-24.6010 Y-2.7662
G01 X-24.6217 Y-2.8129
G01 X-24.6401 Y-2.8605
G01 X-24.6561 Y-2.9090
G01 X-24.6697 Y-2.9582
G01 X-24.6809 Y-3.0080
G01 X-24.6896 Y-3.0583
G01 X-24.6959 Y-3.1090
G01 X-24.6996 Y-3.1599
G01 X-24.7009 Y-3.2109
G01 X-24.6996 Y-3.2619
G01 X-24.6959 Y-3.3128
G01 X-24.6896 Y-3.3635
G01 X-24.6809 Y-3.4138
G01 X-24.6697 Y-3.4636
G01 X-24.6561 Y-3.5128
G01 X-24.6401 Y-3.5613
G01 X-24.6217 Y-3.6089
G01 X-24.6010 Y-3.6556
G01 X-24.5781 Y-3.7012
G01 X-24.5529 Y-3.7456
G01 X-24.5256 Y-3.7887
G01 X-24.4962 Y-3.8304
G01 X-24.4648 Y-3.8707
G01 X-24.4315 Y-3.9093
G01 X-24.3963 Y-3.9463
G01 X-24.3593 Y-3.9815
G01 X-24.3207 Y-4.0148
G01 X-24.2804 Y-4.0462
G01 X-24.2387 Y-4.0756
G01 X-24.1956 Y-4.1029
G01 X-24.1512 Y-4.1281
G01 X-24.1056 Y-4.1510
G01 X-24.0589 Y-4.1717
G01 X-24.0113 Y-4.1901
G01 X-23.9628 Y-4.2061
G01 X-23.9136 Y-4.2197
G01 X-23.8638 Y-4.2309
G01 X-23.8135 Y-4.2396
G01 X-23.7628 Y-4.2459
G01 X-23.7119 Y-4.2496
G01 X-23.6609 Y-4.2509
G01 X-23.6099 Y-4.2496
G01 X-23.5590 Y-4.2459
G01 X-23.5083 Y-4.2396
G01 X-23.4580 Y-4.2309
G01 X-23.4082 Y-4.2197
G01 X-23.3590 Y-4.2061
G01 X-23.3105 Y-4.1901
G01 X-23.2629 Y-4.1717
G01 X-23.2162 Y-4.1510
G01 X-23.1706 Y-4.1281
G01 X-23.1262 Y-4.1029
G01 X-23.0831 Y-4.0756
G01 X-23.0414 Y-4.0462
G01 X-23.0011 Y-4.0148
G01 X-22.9625 Y-3.9815
G01 X-22.9255 Y-3.9463
G01 X-22.8903 Y-3.9093
G01 X-22.8570 Y-3.8707
G01 X-22.8256 Y-3.8304
G01 X-22.7962 Y-3.7887
G01 X-22.7689 Y-3.7456
G01 X-22.7437 Y-3.7012
G01 X-22.7208 Y-3.6556
G01 X-22.7001 Y-3.6089
G01 X-22.6817 Y-3.5613
G01 X-22.6657 Y-3.5128
G01 X-22.6521 Y-3.4636
G01 X-22.6409 Y-3.4138
G01 X-22.6322 Y-3.3635
G01 X-22.6259 Y-3.3128
G01 X-22.6222 Y-3.2619
G01 X-22.6209 Y-3.2109
G00 Z2.0000
G00 X-22.6009 Y-3.2109
G01 F70.00
G01 Z-0.0600
G01 F60.00
G01 X-22.6022 Y-3.1589
G01 X-22.6060 Y-3.1070
G01 X-22.6124 Y-3.0554
G01 X-22.6213 Y-3.0041
G01 X-22.6327 Y-2.9534
G01 X-22.6466 Y-2.9032
G01 X-22.6629 Y-2.8538
G01 X-22.6816 Y-2.8053
G01 X-22.7027 Y-2.7577
G01 X-22.7261 Y-2.7112
G01 X-22.7517 Y-2.6660
G01 X-22.7796 Y-2.6220
G01 X-22.8095 Y-2.5795
G01 X-22.8415 Y-2.5385
G01 X-22.8755 Y-2.4991
G01 X-22.9114 Y-2.4614
G01 X-22.9491 Y-2.4255
G01 X-22.9885 Y-2.3915
G01 X-23.0295 Y-2.3595
G01 X-23.0720 Y-2.3296
G01 X-23.1160 Y-2.3017
G01 X-23.1612 Y-2.2761
G01 X-23.2077 Y-2.2527
G01 X-23.2553 Y-2.2316
G01 X-23.3038 Y-2.2129
G01 X-23.3532 Y-2.1966
G01 X-23.4034 Y-2.1827
G01 X-23.4541 Y-2.1713
G01 X-23.5054 Y-2.1624
G01 X-23.5570 Y-2.1560
G01 X-23.6089 Y-2.1522
G01 X-23.6609 Y-2.1509
G01 X-23.7129 Y-2.1522
G01 X-23.7648 Y-2.1560
G01 X-23.8164 Y-2.1624
G01 X-23.8677 Y-2.1713
G01 X-23.9184 Y-2.1827
G01 X-23.9686 Y-2.1966
G01 X-24.0180 Y-2.2129
G01 X-24.0665 Y-2.2316
G01 X-24.1141 Y-2.2527
G01 X-24.1606 Y-2.2761
