(G-CODE GENERATED BY FLATCAM v8.993 - www.flatcam.org - Version Date: 2020/06/05)

(Name: 131u02_Ф1_верх.gbr_iso_combined_cnc)
(Type: G-code from Geometry)
(Units: MM)

(Created on Wednesday, 07 October 2020 at 19:23)

(This preprocessor is the default preprocessor used by FlatCAM.)
(It is made to work with MACH3 compatible motion controllers.)

(TOOL DIAMETER: 0.15 mm)
(Feedrate_XY: 60.0 mm/min)
(Feedrate_Z: 70.0 mm/min)
(Feedrate rapids 1500.0 mm/min)

(Z_Cut: -0.07 mm)
(Z_Move: 2.0 mm)
(Z Start: None mm)
(Z End: 25.0 mm)
(Steps per circle: 128)
(Preprocessor Geometry: default)

(X range:    0.2761 ...   98.1048  mm)
(Y range:  -32.6601 ...   -0.1597  mm)

(Spindle Speed: None RPM)
G21
G90
G94



G01 F60.00
G00 Z2.0000

M03
G00 X1.0437 Y-0.8149
G01 F70.00
G01 Z-0.0700
G01 F60.00
G01 X1.0463 Y-0.8132
G01 X1.0493 Y-0.8133
G01 X1.0516 Y-0.8154
G01 X1.0521 Y-0.8184
G01 X1.0521 Y-1.7055
G01 X1.0511 Y-1.7093
G01 X1.0476 Y-1.7109
G01 X1.0441 Y-1.7093
G01 X1.0431 Y-1.7055
G01 X1.0430 Y-1.0076
G01 X1.0422 Y-0.9985
G01 X1.0401 Y-0.9886
G01 X1.0366 Y-0.9791
G01 X1.0324 Y-0.9709
G01 X1.0236 Y-0.9591
G01 X1.0127 Y-0.9492
G01 X1.0010 Y-0.9421
G01 X0.9872 Y-0.9370
G01 X0.9727 Y-0.9346
G01 X0.9589 Y-0.9350
G01 X0.9445 Y-0.9383
G01 X0.9319 Y-0.9438
G01 X0.9234 Y-0.9492
G01 X0.9157 Y-0.9558
G01 X0.7172 Y-1.1541
G01 X0.7149 Y-1.1553
G01 X0.7123 Y-1.1549
G01 X0.7104 Y-1.1533
G01 X0.7097 Y-1.1508
G01 X0.7116 Y-1.1469
G01 X1.0437 Y-0.8149
G00 Z2.0000
G00 X1.4209 Y-0.8715
G01 F70.00
G01 Z-0.0700
G01 F60.00
G01 X1.4244 Y-0.8686
G01 X1.5577 Y-0.8131
G01 X1.6931 Y-0.8131
G01 X1.8282 Y-0.8696
G01 X1.8960 Y-0.9821
G01 X1.8965 Y-0.9851
G01 X1.8963 Y-1.0966
G01 X1.8297 Y-1.2080
G01 X1.8219 Y-1.2173
G01 X1.8169 Y-1.2250
G01 X1.8107 Y-1.2393
G01 X1.8076 Y-1.2546
G01 X1.8073 Y-1.2656
G01 X1.8085 Y-1.2757
G01 X1.8113 Y-1.2863
G01 X1.8156 Y-1.2965
G01 X1.8214 Y-1.3059
G01 X1.8297 Y-1.3159
G01 X1.8954 Y-1.4255
G01 X1.8965 Y-1.4284
G01 X1.8963 Y-1.5410
G01 X1.8297 Y-1.6524
G01 X1.8274 Y-1.6548
G01 X1.6929 Y-1.7108
G01 X1.5575 Y-1.7108
G01 X1.4224 Y-1.6543
G01 X1.3546 Y-1.5418
G01 X1.3542 Y-1.5386
G01 X1.3561 Y-1.5359
G01 X1.3593 Y-1.5352
G01 X1.3621 Y-1.5368
G01 X1.4193 Y-1.6314
G01 X1.4251 Y-1.6385
G01 X1.4317 Y-1.6448
G01 X1.4390 Y-1.6503
G01 X1.4470 Y-1.6548
G01 X1.5465 Y-1.6964
G01 X1.5598 Y-1.7004
G01 X1.5736 Y-1.7019
G01 X1.6789 Y-1.7018
G01 X1.6917 Y-1.7002
G01 X1.7041 Y-1.6964
G01 X1.8011 Y-1.6559
G01 X1.8100 Y-1.6512
G01 X1.8189 Y-1.6448
G01 X1.8268 Y-1.6371
G01 X1.8334 Y-1.6284
G01 X1.8777 Y-1.5547
G01 X1.8839 Y-1.5403
G01 X1.8871 Y-1.5250
G01 X1.8874 Y-1.4488
G01 X1.8865 Y-1.4387
G01 X1.8842 Y-1.4288
G01 X1.8814 Y-1.4211
G01 X1.8772 Y-1.4128
G01 X1.8302 Y-1.3354
G01 X1.8243 Y-1.3285
G01 X1.8182 Y-1.3229
G01 X1.8044 Y-1.3139
G01 X1.6911 Y-1.2665
G01 X1.6886 Y-1.2650
G01 X1.6875 Y-1.2624
G01 X1.6880 Y-1.2599
G01 X1.6901 Y-1.2579
G01 X1.8011 Y-1.2115
G01 X1.8100 Y-1.2068
G01 X1.8182 Y-1.2010
G01 X1.8268 Y-1.1927
G01 X1.8339 Y-1.1832
G01 X1.8772 Y-1.1111
G01 X1.8824 Y-1.1003
G01 X1.8860 Y-1.0879
G01 X1.8874 Y-1.0751
G01 X1.8874 Y-1.0044
G01 X1.8854 Y-0.9889
G01 X1.8821 Y-0.9784
G01 X1.8777 Y-0.9692
G01 X1.8319 Y-0.8932
G01 X1.8261 Y-0.8861
G01 X1.8196 Y-0.8797
G01 X1.8123 Y-0.8742
G01 X1.8044 Y-0.8695
G01 X1.7049 Y-0.8278
G01 X1.6944 Y-0.8243
G01 X1.6853 Y-0.8226
G01 X1.6761 Y-0.8220
G01 X1.5736 Y-0.8220
G01 X1.5598 Y-0.8235
G01 X1.5465 Y-0.8275
G01 X1.4503 Y-0.8676
G01 X1.4414 Y-0.8722
G01 X1.4331 Y-0.8779
G01 X1.4245 Y-0.8861
G01 X1.4172 Y-0.8955
G01 X1.3624 Y-0.9867
G01 X1.3597 Y-0.9886
G01 X1.3565 Y-0.9882
G01 X1.3543 Y-0.9855
G01 X1.3546 Y-0.9821
G01 X1.4209 Y-0.8715
G00 Z2.0000
G00 X2.5325 Y-0.8149
G01 F70.00
G01 Z-0.0700
G01 F60.00
G01 X2.5351 Y-0.8132
G01 X2.5381 Y-0.8133
G01 X2.5404 Y-0.8154
G01 X2.5409 Y-0.8184
G01 X2.5409 Y-1.7055
G01 X2.5399 Y-1.7093
G01 X2.5364 Y-1.7109
G01 X2.5329 Y-1.7093
G01 X2.5319 Y-1.7055
G01 X2.5318 Y-1.0076
G01 X2.5309 Y-0.9976
G01 X2.5289 Y-0.9886
G01 X2.5258 Y-0.9799
G01 X2.5212 Y-0.9709
G01 X2.5124 Y-0.9591
G01 X2.5023 Y-0.9498
G01 X2.4898 Y-0.9421
G01 X2.4769 Y-0.9372
G01 X2.4624 Y-0.9347
G01 X2.4477 Y-0.9350
G01 X2.4333 Y-0.9383
G01 X2.4207 Y-0.9438
G01 X2.4122 Y-0.9492
G01 X2.4045 Y-0.9558
G01 X2.2060 Y-1.1541
G01 X2.2037 Y-1.1553
G01 X2.2011 Y-1.1549
G01 X2.1992 Y-1.1533
G01 X2.1985 Y-1.1508
G01 X2.2004 Y-1.1469
G01 X2.5325 Y-0.8149
G00 Z2.0000
G00 X3.2519 Y-1.7055
G01 F70.00
G01 Z-0.0700
G01 F60.00
G01 X3.2517 Y-1.7079
G01 X3.2504 Y-1.7097
G01 X3.2485 Y-1.7108
G01 X3.2461 Y-1.7107
G01 X3.2324 Y-1.7001
G01 X3.2193 Y-1.6933
G01 X3.2041 Y-1.6891
G01 X3.1894 Y-1.6881
G01 X3.1793 Y-1.6891
G01 X3.0471 Y-1.7109
G01 X2.9142 Y-1.6888
G01 X2.9106 Y-1.6871
G01 X2.8443 Y-1.5988
G01 X2.8429 Y-1.5960
G01 X2.8429 Y-1.2073
G01 X2.8431 Y-1.2049
G01 X2.8445 Y-1.2029
G01 X2.8467 Y-1.2019
G01 X2.8493 Y-1.2023
G01 X2.8512 Y-1.2039
G01 X2.8519 Y-1.2062
G01 X2.8519 Y-1.5697
G01 X2.8534 Y-1.5835
G01 X2.8574 Y-1.5969
G01 X2.8653 Y-1.6115
G01 X2.9003 Y-1.6582
G01 X2.9107 Y-1.6686
G01 X2.9228 Y-1.6769
G01 X2.9338 Y-1.6818
G01 X2.9445 Y-1.6846
G01 X3.0360 Y-1.6999
G01 X3.0469 Y-1.7008
G01 X3.0588 Y-1.6999
G01 X3.1504 Y-1.6846
G01 X3.1611 Y-1.6818
G01 X3.1720 Y-1.6769
G01 X3.1842 Y-1.6686
G01 X3.1946 Y-1.6581
G01 X3.2295 Y-1.6115
G01 X3.2374 Y-1.5969
G01 X3.2414 Y-1.5836
G01 X3.2429 Y-1.5697
G01 X3.2429 Y-1.2062
G01 X3.2439 Y-1.2035
G01 X3.2461 Y-1.2021
G01 X3.2487 Y-1.2021
G01 X3.2509 Y-1.2035
G01 X3.2519 Y-1.2073
G01 X3.2519 Y-1.7055
G00 Z2.0000
G00 X4.0767 Y-0.9676
G01 F70.00
G01 Z-0.0700
G01 F60.00
G01 X4.0328 Y-0.8948
G01 X4.0254 Y-0.8854
G01 X4.0159 Y-0.8768
G01 X4.0075 Y-0.8713
G01 X3.9993 Y-0.8672
G01 X3.9031 Y-0.8271
G01 X3.8870 Y-0.8229
G01 X3.8769 Y-0.8220
G01 X3.7735 Y-0.8220
G01 X3.7643 Y-0.8227
G01 X3.7552 Y-0.8245
G01 X3.7456 Y-0.8278
G01 X3.6453 Y-0.8699
G01 X3.6367 Y-0.8752
G01 X3.6289 Y-0.8815
G01 X3.6220 Y-0.8889
G01 X3.6166 Y-0.8963
G01 X3.5715 Y-0.9717
G01 X3.5660 Y-0.9853
G01 X3.5633 Y-0.9998
G01 X3.5631 Y-1.5195
G01 X3.5639 Y-1.5287
G01 X3.5658 Y-1.5377
G01 X3.5691 Y-1.5472
G01 X3.5733 Y-1.5555
G01 X3.6186 Y-1.6307
G01 X3.6282 Y-1.6417
G01 X3.6397 Y-1.6508
G01 X3.6502 Y-1.6563
G01 X3.7456 Y-1.6961
G01 X3.7588 Y-1.7002
G01 X3.7735 Y-1.7019
G01 X3.8806 Y-1.7017
G01 X3.8925 Y-1.7000
G01 X3.9031 Y-1.6968
G01 X4.0035 Y-1.6548
G01 X4.0122 Y-1.6497
G01 X4.0209 Y-1.6430
G01 X4.0278 Y-1.6357
G01 X4.0338 Y-1.6276
G01 X4.0793 Y-1.5514
G01 X4.0849 Y-1.5368
G01 X4.0872 Y-1.5223
G01 X4.0873 Y-1.0044
G01 X4.0864 Y-0.9943
G01 X4.0844 Y-0.9853
G01 X4.0809 Y-0.9758
G01 X4.0767 Y-0.9676
G00 Z2.0000
G00 X4.0953 Y-0.9811
G01 F70.00
G01 Z-0.0700
G01 F60.00
G01 X4.0964 Y-0.9851
G01 X4.0964 Y-1.5401
G01 X4.0290 Y-1.6533
G01 X4.0261 Y-1.6553
G01 X3.8945 Y-1.7102
G01 X3.8910 Y-1.7109
G01 X3.7576 Y-1.7108
G01 X3.6227 Y-1.6546
G01 X3.5551 Y-1.5428
G01 X3.5540 Y-1.5388
G01 X3.5540 Y-0.9838
G01 X3.6214 Y-0.8706
G01 X3.6243 Y-0.8686
G01 X3.7576 Y-0.8131
G01 X3.8930 Y-0.8131
G01 X4.0281 Y-0.8696
G01 X4.0953 Y-0.9811
G00 Z2.0000
G00 X4.4038 Y-1.7109
G01 F70.00
G01 Z-0.0700
G01 F60.00
G01 X4.4002 Y-1.7100
G01 X4.3984 Y-1.7068
G01 X4.3986 Y-1.6493
G01 X4.4662 Y-1.5367
G01 X4.8563 Y-1.2115
G01 X4.8625 Y-1.2058
G01 X4.8685 Y-1.1987
G01 X4.9215 Y-1.1111
G01 X4.9280 Y-1.0968
G01 X4.9305 Y-1.0870
G01 X4.9317 Y-1.0760
G01 X4.9318 Y-1.0053
G01 X4.9311 Y-0.9961
G01 X4.9295 Y-0.9880
G01 X4.9267 Y-0.9792
G01 X4.9229 Y-0.9708
G01 X4.8777 Y-0.8955
G01 X4.8717 Y-0.8875
G01 X4.8646 Y-0.8803
G01 X4.8559 Y-0.8736
G01 X4.8462 Y-0.8683
G01 X4.7492 Y-0.8278
G01 X4.7369 Y-0.8239
G01 X4.7241 Y-0.8221
G01 X4.6179 Y-0.8220
G01 X4.6041 Y-0.8235
G01 X4.5908 Y-0.8275
G01 X4.4913 Y-0.8691
G01 X4.4833 Y-0.8736
G01 X4.4760 Y-0.8791
G01 X4.4694 Y-0.8854
G01 X4.4636 Y-0.8925
G01 X4.4064 Y-0.9871
G01 X4.4036 Y-0.9887
G01 X4.4004 Y-0.9880
G01 X4.3985 Y-0.9853
G01 X4.3989 Y-0.9821
G01 X4.4667 Y-0.8696
G01 X4.6018 Y-0.8131
G01 X4.7372 Y-0.8131
G01 X4.8717 Y-0.8691
G01 X4.8740 Y-0.8715
G01 X4.9406 Y-0.9829
G01 X4.9408 Y-1.0944
G01 X4.9397 Y-1.0984
G01 X4.8727 Y-1.2097
G01 X4.4829 Y-1.5346
G01 X4.4761 Y-1.5410
G01 X4.4670 Y-1.5528
G01 X4.4415 Y-1.5964
G01 X4.4380 Y-1.6059
G01 X4.4360 Y-1.6149
G01 X4.4351 Y-1.6241
G01 X4.4353 Y-1.6333
G01 X4.4373 Y-1.6451
G01 X4.4415 Y-1.6572
G01 X4.4477 Y-1.6685
G01 X4.4551 Y-1.6779
G01 X4.4646 Y-1.6865
G01 X4.4747 Y-1.6930
G01 X4.4865 Y-1.6981
G01 X4.4990 Y-1.7010
G01 X4.5100 Y-1.7019
G01 X4.9354 Y-1.7019
G01 X4.9380 Y-1.7022
G01 X4.9399 Y-1.7037
G01 X4.9408 Y-1.7062
G01 X4.9403 Y-1.7085
G01 X4.9382 Y-1.7105
G01 X4.9354 Y-1.7109
G01 X4.4038 Y-1.7109
G00 Z2.0000
G00 X6.5736 Y-0.9136
G01 F70.00
G01 Z-0.0700
G01 F60.00
G01 X6.5256 Y-0.8338
G01 X6.5176 Y-0.8237
G01 X6.5087 Y-0.8158
G01 X6.5003 Y-0.8102
G01 X6.4921 Y-0.8062
G01 X6.3873 Y-0.7626
G01 X6.3713 Y-0.7581
G01 X6.3602 Y-0.7571
G01 X6.2467 Y-0.7571
G01 X6.2375 Y-0.7578
G01 X6.2284 Y-0.7596
G01 X6.2188 Y-0.7629
G01 X6.1099 Y-0.8085
G01 X6.1012 Y-0.8136
G01 X6.0933 Y-0.8199
G01 X6.0864 Y-0.8271
G01 X6.0804 Y-0.8353
G01 X6.0311 Y-0.9176
G01 X6.0256 Y-0.9312
G01 X6.0229 Y-0.9457
G01 X6.0227 Y-1.5166
G01 X6.0235 Y-1.5258
G01 X6.0256 Y-1.5357
G01 X6.0287 Y-1.5443
G01 X6.0329 Y-1.5526
G01 X6.0819 Y-1.6340
G01 X6.0913 Y-1.6451
G01 X6.1035 Y-1.6548
G01 X6.1140 Y-1.6603
G01 X6.2187 Y-1.7041
G01 X6.2320 Y-1.7082
G01 X6.2467 Y-1.7099
G01 X6.3630 Y-1.7098
G01 X6.3749 Y-1.7082
G01 X6.3864 Y-1.7048
G01 X6.4955 Y-1.6592
G01 X6.5050 Y-1.6538
G01 X6.5130 Y-1.6476
G01 X6.5200 Y-1.6404
G01 X6.5266 Y-1.6316
G01 X6.5758 Y-1.5493
G01 X6.5815 Y-1.5348
G01 X6.5841 Y-1.5194
G01 X6.5843 Y-0.9512
G01 X6.5834 Y-0.9411
G01 X6.5815 Y-0.9321
G01 X6.5782 Y-0.9226
G01 X6.5736 Y-0.9136
G00 Z2.0000
G00 X6.6071 Y-0.9207
G01 F70.00
G01 Z-0.0700
G01 F60.00
G01 X6.6089 Y-0.9249
G01 X6.6093 Y-0.9288
G01 X6.6093 Y-1.5402
G01 X6.6071 Y-1.5462
G01 X6.5336 Y-1.6687
G01 X6.5310 Y-1.6712
G01 X6.5275 Y-1.6731
G01 X6.3825 Y-1.7336
G01 X6.3759 Y-1.7349
G01 X6.2276 Y-1.7347
G01 X6.0760 Y-1.6712
G01 X6.0723 Y-1.6669
G01 X5.9998 Y-1.5462
G01 X5.9980 Y-1.5420
G01 X5.9976 Y-1.5381
G01 X5.9976 Y-0.9267
G01 X5.9998 Y-0.9207
G01 X6.0734 Y-0.7982
G01 X6.0760 Y-0.7957
G01 X6.0795 Y-0.7938
G01 X6.2276 Y-0.7323
G01 X6.3799 Y-0.7325
G01 X6.5275 Y-0.7938
G01 X6.5315 Y-0.7960
G01 X6.5347 Y-0.8000
G01 X6.6071 Y-0.9207
G00 Z2.0000
G00 X7.3915 Y-1.7215
G01 F70.00
G01 Z-0.0700
G01 F60.00
G01 X7.3906 Y-1.7272
G01 X7.3874 Y-1.7317
G01 X7.3826 Y-1.7344
G01 X7.3772 Y-1.7348
G01 X7.3720 Y-1.7328
G01 X7.3636 Y-1.7255
G01 X7.3568 Y-1.7208
G01 X7.3452 Y-1.7150
G01 X7.3291 Y-1.7106
G01 X7.3134 Y-1.7098
G01 X7.1587 Y-1.7349
G01 X7.0112 Y-1.7104
G01 X7.0064 Y-1.7089
G01 X7.0028 Y-1.7059
G01 X6.9295 Y-1.6084
G01 X6.9266 Y-1.6020
G01 X6.9265 Y-1.1733
G01 X6.9274 Y-1.1676
G01 X6.9311 Y-1.1627
G01 X6.9372 Y-1.1600
G01 X6.9438 Y-1.1608
G01 X6.9491 Y-1.1649
G01 X6.9508 Y-1.1682
G01 X6.9515 Y-1.1718
G01 X6.9515 Y-1.5718
G01 X6.9530 Y-1.5857
G01 X6.9574 Y-1.5998
G01 X6.9655 Y-1.6144
G01 X7.0031 Y-1.6645
G01 X7.0134 Y-1.6750
G01 X7.0256 Y-1.6832
G01 X7.0357 Y-1.6878
G01 X7.0472 Y-1.6910
G01 X7.1476 Y-1.7078
G01 X7.1585 Y-1.7086
G01 X7.1705 Y-1.7078
G01 X7.2709 Y-1.6910
G01 X7.2815 Y-1.6881
G01 X7.2925 Y-1.6832
G01 X7.3047 Y-1.6750
G01 X7.3150 Y-1.6645
G01 X7.3526 Y-1.6144
G01 X7.3607 Y-1.5999
G01 X7.3648 Y-1.5866
G01 X7.3665 Y-1.5719
G01 X7.3665 Y-1.1718
G01 X7.3674 Y-1.1676
G01 X7.3693 Y-1.1645
G01 X7.3720 Y-1.1620
G01 X7.3754 Y-1.1604
G01 X7.3790 Y-1.1599
G01 X7.3826 Y-1.1604
G01 X7.3860 Y-1.1620
G01 X7.3887 Y-1.1645
G01 X7.3910 Y-1.1688
G01 X7.3915 Y-1.1733
G01 X7.3915 Y-1.7215
G00 Z2.0000
G00 X7.9074 Y-1.6778
G01 F70.00
G01 Z-0.0700
G01 F60.00
G01 X7.9169 Y-1.6854
G01 X7.9255 Y-1.6906
G01 X7.9357 Y-1.6949
G01 X7.9463 Y-1.6977
G01 X7.9591 Y-1.6989
G01 X7.9729 Y-1.6977
G01 X7.9818 Y-1.6956
G01 X8.0112 Y-1.6858
G01 X8.0149 Y-1.6854
G01 X8.0202 Y-1.6867
G01 X8.0244 Y-1.6902
G01 X8.0267 Y-1.6945
G01 X8.0269 Y-1.7000
G01 X8.0245 Y-1.7056
G01 X8.0191 Y-1.7096
G01 X7.9460 Y-1.7340
G01 X7.9422 Y-1.7349
G01 X7.9386 Y-1.7346
G01 X7.9325 Y-1.7314
G01 X7.8606 Y-1.6714
G01 X7.8571 Y-1.6676
G01 X7.8557 Y-1.6642
G01 X7.8554 Y-1.6603
G01 X7.8554 Y-1.2590
G01 X7.8544 Y-1.2480
G01 X7.8521 Y-1.2382
G01 X7.8461 Y-1.2238
G01 X7.8371 Y-1.2110
G01 X7.8250 Y-1.1997
G01 X7.8116 Y-1.1918
G01 X7.7986 Y-1.1872
G01 X7.7859 Y-1.1851
G01 X7.7188 Y-1.1847
G01 X7.7153 Y-1.1834
G01 X7.7119 Y-1.1808
G01 X7.7096 Y-1.1772
G01 X7.7087 Y-1.1730
G01 X7.7092 Y-1.1688
G01 X7.7111 Y-1.1649
G01 X7.7142 Y-1.1620
G01 X7.7188 Y-1.1601
G01 X7.7859 Y-1.1597
G01 X7.7986 Y-1.1576
G01 X7.8107 Y-1.1534
G01 X7.8243 Y-1.1456
G01 X7.8353 Y-1.1359
G01 X7.8442 Y-1.1242
G01 X7.8510 Y-1.1101
G01 X7.8541 Y-1.0986
G01 X7.8554 Y-1.0858
G01 X7.8554 Y-0.7440
G01 X7.8566 Y-0.7392
G01 X7.8590 Y-0.7357
G01 X7.8631 Y-0.7330
G01 X7.8673 Y-0.7321
G01 X7.8721 Y-0.7328
G01 X7.8763 Y-0.7353
G01 X7.8792 Y-0.7392
G01 X7.8804 Y-0.7440
G01 X7.8804 Y-1.0858
G01 X7.8817 Y-1.0986
G01 X7.8848 Y-1.1101
G01 X7.8916 Y-1.1242
G01 X7.9005 Y-1.1359
G01 X7.9123 Y-1.1462
G01 X7.9259 Y-1.1538
G01 X7.9372 Y-1.1576
G01 X7.9499 Y-1.1597
G01 X8.0170 Y-1.1601
G01 X8.0210 Y-1.1617
G01 X8.0239 Y-1.1640
G01 X8.0262 Y-1.1676
G01 X8.0271 Y-1.1718
G01 X8.0266 Y-1.1760
G01 X8.0243 Y-1.1803
G01 X8.0210 Y-1.1831
G01 X8.0170 Y-1.1847
G01 X7.9490 Y-1.1852
G01 X7.9354 Y-1.1877
G01 X7.9225 Y-1.1925
G01 X7.9086 Y-1.2014
G01 X7.8969 Y-1.2131
G01 X7.8880 Y-1.2270
G01 X7.8825 Y-1.2426
G01 X7.8809 Y-1.2517
G01 X7.8804 Y-1.2599
G01 X7.8806 Y-1.6249
G01 X7.8829 Y-1.6394
G01 X7.8885 Y-1.6541
G01 X7.8965 Y-1.6666
G01 X7.9074 Y-1.6778
G00 Z2.0000
G00 X8.7011 Y-1.7215
G01 F70.00
G01 Z-0.0700
G01 F60.00
G01 X8.7011 Y-0.7455
G01 X8.7015 Y-0.7416
G01 X8.7029 Y-0.7382
G01 X8.7077 Y-0.7336
G01 X8.7145 Y-0.7321
G01 X9.0815 Y-0.7321
G01 X9.0860 Y-0.7334
G01 X9.2335 Y-0.7950
G01 X9.2382 Y-0.8000
G01 X9.3123 Y-0.9243
G01 X9.3128 Y-0.9288
G01 X9.3128 Y-1.0492
G01 X9.3124 Y-1.0531
G01 X9.3106 Y-1.0573
G01 X9.2382 Y-1.1781
G01 X9.2350 Y-1.1821
G01 X9.2310 Y-1.1843
G01 X9.0845 Y-1.2453
G01 X9.0794 Y-1.2460
G01 X8.7956 Y-1.2462
G01 X8.7820 Y-1.2485
G01 X8.7682 Y-1.2536
G01 X8.7565 Y-1.2608
G01 X8.7462 Y-1.2700
G01 X8.7383 Y-1.2801
G01 X8.7322 Y-1.2915
G01 X8.7280 Y-1.3046
G01 X8.7262 Y-1.3174
G01 X8.7261 Y-1.7236
G01 X8.7246 Y-1.7283
G01 X8.7215 Y-1.7321
G01 X8.7172 Y-1.7344
G01 X8.7124 Y-1.7349
G01 X8.7077 Y-1.7334
G01 X8.7039 Y-1.7303
G01 X8.7016 Y-1.7260
G01 X8.7011 Y-1.7215
G00 Z2.0000
G00 X8.8011 Y-1.2210
G01 F70.00
G01 Z-0.0700
G01 F60.00
G01 X9.0628 Y-1.2210
G01 X9.0739 Y-1.2201
G01 X9.0829 Y-1.2182
G01 X9.0908 Y-1.2155
G01 X9.1964 Y-1.1715
G01 X9.2077 Y-1.1655
G01 X9.2185 Y-1.1569
G01 X9.2247 Y-1.1502
G01 X9.2301 Y-1.1428
G01 X9.2789 Y-1.0612
G01 X9.2827 Y-1.0529
G01 X9.2853 Y-1.0450
G01 X9.2871 Y-1.0360
G01 X9.2878 Y-1.0268
G01 X9.2877 Y-0.9494
G01 X9.2865 Y-0.9384
G01 X9.2840 Y-0.9286
G01 X9.2771 Y-0.9136
G01 X9.2306 Y-0.8361
G01 X9.2211 Y-0.8237
G01 X9.2100 Y-0.8142
G01 X9.1973 Y-0.8069
G01 X9.0899 Y-0.7622
G01 X9.0802 Y-0.7592
G01 X9.0702 Y-0.7575
G01 X8.7965 Y-0.7573
G01 X8.7838 Y-0.7592
G01 X8.7708 Y-0.7636
G01 X8.7595 Y-0.7698
G01 X8.7494 Y-0.7778
G01 X8.7398 Y-0.7890
G01 X8.7330 Y-0.8009
G01 X8.7284 Y-0.8139
G01 X8.7263 Y-0.8275
G01 X8.7266 Y-1.1542
G01 X8.7294 Y-1.1677
G01 X8.7346 Y-1.1805
G01 X8.7415 Y-1.1914
G01 X8.7508 Y-1.2015
G01 X8.7618 Y-1.2098
G01 X8.7742 Y-1.2159
G01 X8.7874 Y-1.2197
G01 X8.8011 Y-1.2210
G00 Z2.0000
G00 X10.0700 Y-1.5515
G01 F70.00
G01 Z-0.0700
G01 F60.00
G01 X10.0700 Y-1.3545
G01 X10.0683 Y-1.3399
G01 X10.0649 Y-1.3284
G01 X10.0593 Y-1.3169
G01 X10.0156 Y-1.2442
G01 X10.0096 Y-1.2361
G01 X10.0024 Y-1.2289
G01 X9.9889 Y-1.2194
G01 X9.9736 Y-1.2131
G01 X9.8789 Y-1.1894
G01 X9.8698 Y-1.1880
G01 X9.8607 Y-1.1877
G01 X9.8452 Y-1.1896
G01 X9.7488 Y-1.2139
G01 X9.7403 Y-1.2173
G01 X9.7314 Y-1.2223
G01 X9.7233 Y-1.2283
G01 X9.7161 Y-1.2354
G01 X9.7085 Y-1.2458
G01 X9.6648 Y-1.3184
G01 X9.6594 Y-1.3302
G01 X9.6563 Y-1.3417
G01 X9.6550 Y-1.3555
G01 X9.6550 Y-1.5524
G01 X9.6557 Y-1.5615
G01 X9.6575 Y-1.5706
G01 X9.6601 Y-1.5785
G01 X9.6639 Y-1.5868
G01 X9.7068 Y-1.6584
G01 X9.7129 Y-1.6666
G01 X9.7199 Y-1.6739
G01 X9.7272 Y-1.6797
G01 X9.7351 Y-1.6845
G01 X9.7435 Y-1.6883
G01 X9.7524 Y-1.6911
G01 X9.8584 Y-1.7085
G01 X9.8749 Y-1.7076
G01 X9.9682 Y-1.6920
G01 X9.9798 Y-1.6890
G01 X9.9916 Y-1.6836
G01 X10.0016 Y-1.6769
G01 X10.0104 Y-1.6687
G01 X10.0178 Y-1.6591
G01 X10.0623 Y-1.5844
G01 X10.0656 Y-1.5767
G01 X10.0681 Y-1.5679
G01 X10.0700 Y-1.5515
G00 Z2.0000
G00 X10.0928 Y-1.5829
G01 F70.00
G01 Z-0.0700
G01 F60.00
G01 X10.0204 Y-1.7036
G01 X10.0172 Y-1.7075
G01 X10.0130 Y-1.7098
G01 X9.8622 Y-1.7349
G01 X9.7147 Y-1.7104
G01 X9.7104 Y-1.7092
G01 X9.7070 Y-1.7067
G01 X9.6322 Y-1.5829
G01 X9.6302 Y-1.5781
G01 X9.6300 Y-1.3321
G01 X9.6305 Y-1.3276
G01 X9.6322 Y-1.3240
G01 X9.7071 Y-1.2001
G01 X9.7100 Y-1.1980
G01 X9.7138 Y-1.1966
G01 X9.8625 Y-1.1599
G01 X10.0113 Y-1.1966
G01 X10.0151 Y-1.1980
G01 X10.0180 Y-1.2001
G01 X10.0928 Y-1.3240
G01 X10.0948 Y-1.3288
G01 X10.0950 Y-1.5748
G01 X10.0945 Y-1.5793
G01 X10.0928 Y-1.5829
G00 Z2.0000
G00 X10.7143 Y-1.5145
G01 F70.00
G01 Z-0.0700
G01 F60.00
G01 X10.8527 Y-1.1686
G01 X10.8546 Y-1.1650
G01 X10.8577 Y-1.1620
G01 X10.8628 Y-1.1600
G01 X10.8684 Y-1.1604
G01 X10.8732 Y-1.1632
G01 X10.8761 Y-1.1672
G01 X10.9984 Y-1.4729
G01 X11.0033 Y-1.4828
G01 X11.0084 Y-1.4905
G01 X11.0150 Y-1.4981
G01 X11.0226 Y-1.5047
G01 X11.0303 Y-1.5099
G01 X11.0393 Y-1.5144
G01 X11.0480 Y-1.5173
G01 X11.0570 Y-1.5193
G01 X11.0670 Y-1.5201
G01 X11.0780 Y-1.5194
G01 X11.0879 Y-1.5174
G01 X11.0975 Y-1.5141
G01 X11.1073 Y-1.5090
G01 X11.1155 Y-1.5032
G01 X11.1235 Y-1.4956
G01 X11.1298 Y-1.4877
G01 X11.1354 Y-1.4782
G01 X11.1405 Y-1.4644
G01 X11.2195 Y-1.1686
G01 X11.2211 Y-1.1653
G01 X11.2236 Y-1.1626
G01 X11.2298 Y-1.1600
G01 X11.2334 Y-1.1600
G01 X11.2369 Y-1.1612
G01 X11.2419 Y-1.1656
G01 X11.2438 Y-1.1708
G01 X11.2433 Y-1.1765
G01 X11.0971 Y-1.7247
G01 X11.0957 Y-1.7285
G01 X11.0934 Y-1.7314
G01 X11.0882 Y-1.7344
G01 X11.0821 Y-1.7346
G01 X11.0766 Y-1.7320
G01 X11.0733 Y-1.7276
G01 X10.9343 Y-1.3803
G01 X10.9295 Y-1.3703
G01 X10.9244 Y-1.3627
G01 X10.9177 Y-1.3551
G01 X10.9101 Y-1.3484
G01 X10.9017 Y-1.3429
G01 X10.8925 Y-1.3385
G01 X10.8838 Y-1.3356
G01 X10.8739 Y-1.3337
G01 X10.8638 Y-1.3331
G01 X10.8546 Y-1.3338
G01 X10.8447 Y-1.3358
G01 X10.8352 Y-1.3392
G01 X10.8261 Y-1.3438
G01 X10.8178 Y-1.3496
G01 X10.8104 Y-1.3564
G01 X10.8039 Y-1.3642
G01 X10.7990 Y-1.3720
G01 X10.7951 Y-1.3803
G01 X10.6567 Y-1.7262
G01 X10.6548 Y-1.7298
G01 X10.6522 Y-1.7324
G01 X10.6490 Y-1.7342
G01 X10.6447 Y-1.7349
G01 X10.6410 Y-1.7344
G01 X10.6372 Y-1.7324
G01 X10.6346 Y-1.7298
G01 X10.6327 Y-1.7262
G01 X10.4134 Y-1.1779
G01 X10.4123 Y-1.1741
G01 X10.4125 Y-1.1698
G01 X10.4137 Y-1.1664
G01 X10.4164 Y-1.1630
G01 X10.4212 Y-1.1604
G01 X10.4273 Y-1.1602
G01 X10.4323 Y-1.1624
G01 X10.4361 Y-1.1672
G01 X10.5754 Y-1.5154
G01 X10.5804 Y-1.5252
G01 X10.5873 Y-1.5350
G01 X10.5937 Y-1.5416
G01 X10.6015 Y-1.5480
G01 X10.6093 Y-1.5528
G01 X10.6186 Y-1.5570
G01 X10.6283 Y-1.5599
G01 X10.6373 Y-1.5613
G01 X10.6465 Y-1.5617
G01 X10.6566 Y-1.5607
G01 X10.6656 Y-1.5587
G01 X10.6751 Y-1.5552
G01 X10.6840 Y-1.5505
G01 X10.6916 Y-1.5452
G01 X10.6990 Y-1.5384
G01 X10.7049 Y-1.5314
G01 X10.7104 Y-1.5228
G01 X10.7143 Y-1.5145
G00 Z2.0000
G00 X11.5611 Y-1.5381
G01 F70.00
G01 Z-0.0700
G01 F60.00
G01 X11.5615 Y-1.3282
G01 X11.5633 Y-1.3240
G01 X11.6358 Y-1.2033
G01 X11.6382 Y-1.2001
G01 X11.6411 Y-1.1980
G01 X11.7897 Y-1.1605
G01 X11.7936 Y-1.1599
G01 X11.7975 Y-1.1605
G01 X11.9425 Y-1.1966
G01 X11.9466 Y-1.1982
G01 X11.9504 Y-1.2015
G01 X12.0246 Y-1.2885
G01 X12.0261 Y-1.2955
G01 X12.0261 Y-1.4174
G01 X12.0240 Y-1.4238
G01 X12.0190 Y-1.4281
G01 X12.0127 Y-1.4293
G01 X11.6611 Y-1.4293
G01 X11.6483 Y-1.4304
G01 X11.6359 Y-1.4337
G01 X11.6242 Y-1.4391
G01 X11.6129 Y-1.4470
G01 X11.6038 Y-1.4561
G01 X11.5963 Y-1.4666
G01 X11.5908 Y-1.4782
G01 X11.5874 Y-1.4906
G01 X11.5861 Y-1.5034
G01 X11.5862 Y-1.5323
G01 X11.5880 Y-1.5453
G01 X11.6060 Y-1.6195
G01 X11.6108 Y-1.6314
G01 X11.6181 Y-1.6430
G01 X11.6240 Y-1.6499
G01 X11.6301 Y-1.6555
G01 X11.6438 Y-1.6644
G01 X11.7400 Y-1.7048
G01 X11.7524 Y-1.7084
G01 X11.7653 Y-1.7098
G01 X11.8758 Y-1.7099
G01 X11.8895 Y-1.7084
G01 X11.8985 Y-1.7060
G01 X11.9079 Y-1.7022
G01 X12.0070 Y-1.6505
G01 X12.0119 Y-1.6488
G01 X12.0162 Y-1.6489
G01 X12.0201 Y-1.6505
G01 X12.0237 Y-1.6538
G01 X12.0256 Y-1.6577
G01 X12.0261 Y-1.6619
G01 X12.0249 Y-1.6667
G01 X12.0224 Y-1.6701
G01 X12.0186 Y-1.6727
G01 X11.8993 Y-1.7346
G01 X11.7505 Y-1.7349
G01 X11.7459 Y-1.7344
G01 X11.5990 Y-1.6731
G01 X11.5941 Y-1.6700
G01 X11.5919 Y-1.6670
G01 X11.5906 Y-1.6632
G01 X11.5616 Y-1.5428
G01 X11.5611 Y-1.5381
G00 Z2.0000
G00 X11.6769 Y-1.4043
G01 F70.00
G01 Z-0.0700
G01 F60.00
G01 X11.9270 Y-1.4043
G01 X11.9380 Y-1.4033
G01 X11.9487 Y-1.4008
G01 X11.9630 Y-1.3945
G01 X11.9750 Y-1.3860
G01 X11.9852 Y-1.3754
G01 X11.9930 Y-1.3630
G01 X11.9983 Y-1.3493
G01 X12.0009 Y-1.3348
G01 X12.0006 Y-1.3187
G01 X11.9976 Y-1.3044
G01 X11.9931 Y-1.2934
G01 X11.9864 Y-1.2825
G01 X11.9465 Y-1.2356
G01 X11.9397 Y-1.2293
G01 X11.9314 Y-1.2234
G01 X11.9224 Y-1.2186
G01 X11.9128 Y-1.2151
G01 X11.8109 Y-1.1896
G01 X11.7945 Y-1.1876
G01 X11.7863 Y-1.1880
G01 X11.7772 Y-1.1894
G01 X11.6808 Y-1.2136
G01 X11.6697 Y-1.2181
G01 X11.6588 Y-1.2249
G01 X11.6491 Y-1.2334
G01 X11.6416 Y-1.2427
G01 X11.6091 Y-1.2971
G01 X11.6039 Y-1.3119
G01 X11.6019 Y-1.3274
G01 X11.6030 Y-1.3420
G01 X11.6069 Y-1.3562
G01 X11.6140 Y-1.3701
G01 X11.6232 Y-1.3816
G01 X11.6344 Y-1.3911
G01 X11.6473 Y-1.3982
G01 X11.6623 Y-1.4028
G01 X11.6769 Y-1.4043
G00 Z2.0000
G00 X12.3433 Y-1.1733
G01 F70.00
G01 Z-0.0700
G01 F60.00
G01 X12.3442 Y-1.1676
G01 X12.3479 Y-1.1627
G01 X12.3534 Y-1.1601
G01 X12.3588 Y-1.1603
G01 X12.3642 Y-1.1631
G01 X12.3720 Y-1.1724
G01 X12.3786 Y-1.1788
G01 X12.3915 Y-1.1875
G01 X12.3998 Y-1.1913
G01 X12.4086 Y-1.1941
G01 X12.4176 Y-1.1958
G01 X12.4267 Y-1.1964
G01 X12.4431 Y-1.1946
G01 X12.4511 Y-1.1924
G01 X12.4595 Y-1.1889
G01 X12.4721 Y-1.1813
G01 X12.4955 Y-1.1620
G01 X12.5013 Y-1.1599
G01 X12.6504 Y-1.1599
G01 X12.6551 Y-1.1614
G01 X12.6585 Y-1.1640
G01 X12.6608 Y-1.1676
G01 X12.6617 Y-1.1724
G01 X12.6610 Y-1.1766
G01 X12.6585 Y-1.1808
G01 X12.6551 Y-1.1834
G01 X12.6504 Y-1.1849
G01 X12.5305 Y-1.1850
G01 X12.5161 Y-1.1872
G01 X12.5032 Y-1.1917
G01 X12.4951 Y-1.1959
G01 X12.4876 Y-1.2012
G01 X12.3946 Y-1.2786
G01 X12.3850 Y-1.2885
G01 X12.3773 Y-1.3001
G01 X12.3734 Y-1.3085
G01 X12.3708 Y-1.3164
G01 X12.3690 Y-1.3255
G01 X12.3684 Y-1.3338
G01 X12.3683 Y-1.7230
G01 X12.3674 Y-1.7272
G01 X12.3647 Y-1.7313
G01 X12.3606 Y-1.7340
G01 X12.3558 Y-1.7349
G01 X12.3504 Y-1.7337
G01 X12.3465 Y-1.7308
G01 X12.3440 Y-1.7266
G01 X12.3433 Y-1.7215
G01 X12.3433 Y-1.1733
G00 Z2.0000
G00 X13.6121 Y-1.3432
G01 F70.00
G01 Z-0.0700
G01 F60.00
G01 X13.8187 Y-1.3432
G01 X13.8324 Y-1.3417
G01 X13.8422 Y-1.3391
G01 X13.8515 Y-1.3351
G01 X13.8602 Y-1.3300
G01 X13.8682 Y-1.3237
G01 X13.8752 Y-1.3164
G01 X13.8817 Y-1.3074
G01 X13.8864 Y-1.2984
G01 X13.8898 Y-1.2889
G01 X13.8921 Y-1.2781
G01 X13.8927 Y-1.2671
G01 X13.8918 Y-1.2560
G01 X13.8892 Y-1.2453
G01 X13.7841 Y-0.9650
G01 X13.7761 Y-0.9506
G01 X13.7652 Y-0.9382
G01 X13.7518 Y-0.9286
G01 X13.7435 Y-0.9246
G01 X13.7357 Y-0.9219
G01 X13.7231 Y-0.9194
G01 X13.7112 Y-0.9190
G01 X13.6994 Y-0.9205
G01 X13.6880 Y-0.9239
G01 X13.6764 Y-0.9295
G01 X13.6667 Y-0.9364
G01 X13.6576 Y-0.9455
G01 X13.6507 Y-0.9552
G01 X13.6447 Y-0.9676
G01 X13.5401 Y-1.2471
G01 X13.5382 Y-1.2551
G01 X13.5372 Y-1.2643
G01 X13.5372 Y-1.2726
G01 X13.5383 Y-1.2817
G01 X13.5405 Y-1.2907
G01 X13.5434 Y-1.2984
G01 X13.5477 Y-1.3066
G01 X13.5523 Y-1.3135
G01 X13.5637 Y-1.3255
G01 X13.5703 Y-1.3305
G01 X13.5783 Y-1.3351
G01 X13.5867 Y-1.3388
G01 X13.5947 Y-1.3411
G01 X13.6038 Y-1.3427
G01 X13.6121 Y-1.3432
G00 Z2.0000
G00 X13.8834 Y-1.3682
G01 F70.00
G01 Z-0.0700
G01 F60.00
G01 X13.5436 Y-1.3683
G01 X13.5336 Y-1.3693
G01 X13.5238 Y-1.3717
G01 X13.5144 Y-1.3754
G01 X13.5048 Y-1.3808
G01 X13.4961 Y-1.3876
G01 X13.4885 Y-1.3955
G01 X13.4822 Y-1.4045
G01 X13.4772 Y-1.4143
G01 X13.3594 Y-1.7279
G01 X13.3555 Y-1.7326
G01 X13.3492 Y-1.7349
G01 X13.3427 Y-1.7336
G01 X13.3377 Y-1.7292
G01 X13.3357 Y-1.7234
G01 X13.3368 Y-1.7171
G01 X13.7028 Y-0.7411
G01 X13.7062 Y-0.7356
G01 X13.7115 Y-0.7325
G01 X13.7164 Y-0.7322
G01 X13.7211 Y-0.7337
G01 X13.7248 Y-0.7370
G01 X13.7270 Y-0.7411
G01 X14.0930 Y-1.7171
G01 X14.0941 Y-1.7216
G01 X14.0935 Y-1.7264
G01 X14.0914 Y-1.7302
G01 X14.0877 Y-1.7334
G01 X14.0830 Y-1.7348
G01 X14.0776 Y-1.7343
G01 X14.0729 Y-1.7314
G01 X14.0701 Y-1.7274
G01 X13.9536 Y-1.4169
G01 X13.9490 Y-1.4069
G01 X13.9436 Y-1.3984
G01 X13.9370 Y-1.3908
G01 X13.9295 Y-1.3840
G01 X13.9211 Y-1.3784
G01 X13.9120 Y-1.3739
G01 X13.9034 Y-1.3709
G01 X13.8935 Y-1.3689
G01 X13.8834 Y-1.3682
G00 Z2.0000
G00 X14.5133 Y-1.9242
G01 F70.00
G01 Z-0.0700
G01 F60.00
G01 X14.5434 Y-1.8841
G01 X14.5484 Y-1.8763
G01 X14.5548 Y-1.8609
G01 X14.5576 Y-1.8454
G01 X14.5579 Y-1.1733
G01 X14.5586 Y-1.1682
G01 X14.5615 Y-1.1635
G01 X14.5662 Y-1.1606
G01 X14.5716 Y-1.1599
G01 X14.5763 Y-1.1614
G01 X14.5801 Y-1.1645
G01 X14.5824 Y-1.1688
G01 X14.5829 Y-1.1733
G01 X14.5827 Y-1.8715
G01 X14.5799 Y-1.8773
G01 X14.5077 Y-1.9736
G01 X14.5035 Y-1.9776
G01 X14.5001 Y-1.9790
G01 X14.4962 Y-1.9793
G01 X14.4231 Y-1.9793
G01 X14.4167 Y-1.9772
G01 X14.4124 Y-1.9722
G01 X14.4112 Y-1.9674
G01 X14.4119 Y-1.9626
G01 X14.4144 Y-1.9584
G01 X14.4183 Y-1.9555
G01 X14.4231 Y-1.9543
G01 X14.4597 Y-1.9540
G01 X14.4688 Y-1.9526
G01 X14.4767 Y-1.9505
G01 X14.4869 Y-1.9463
G01 X14.4970 Y-1.9402
G01 X14.5055 Y-1.9332
G01 X14.5133 Y-1.9242
G00 Z2.0000
G00 X10.9238 Y-7.3703
G01 F70.00
G01 Z-0.0700
G01 F60.00
G01 X10.8738 Y-7.3703
G01 X10.8736 Y-7.0065
G01 X10.8706 Y-6.9902
G01 X10.8645 Y-6.9758
G01 X10.8556 Y-6.9630
G01 X10.8442 Y-6.9523
G01 X10.8342 Y-6.9459
G01 X10.8232 Y-6.9411
G01 X10.8125 Y-6.9383
G01 X10.8006 Y-6.9370
G01 X10.2904 Y-6.9370
G01 X10.2904 Y-6.8870
G01 X10.9238 Y-6.8870
G01 X10.9238 Y-7.3703
G00 Z2.0000
G00 X10.9238 Y-8.4370
G01 F70.00
G01 Z-0.0700
G01 F60.00
G01 X9.0738 Y-8.4370
G01 X9.0738 Y-7.9537
G01 X9.1238 Y-7.9537
G01 X9.1238 Y-8.3120
G01 X9.1245 Y-8.3221
G01 X9.1268 Y-8.3329
G01 X9.1306 Y-8.3432
G01 X9.1359 Y-8.3529
G01 X9.1426 Y-8.3617
G01 X9.1505 Y-8.3694
G01 X9.1602 Y-8.3763
G01 X9.1701 Y-8.3813
G01 X9.1806 Y-8.3848
G01 X9.1896 Y-8.3864
G01 X9.1988 Y-8.3870
G01 X10.7988 Y-8.3870
G01 X10.8107 Y-8.3860
G01 X10.8223 Y-8.3832
G01 X10.8333 Y-8.3786
G01 X10.8442 Y-8.3717
G01 X10.8531 Y-8.3637
G01 X10.8606 Y-8.3544
G01 X10.8666 Y-8.3441
G01 X10.8708 Y-8.3329
G01 X10.8730 Y-8.3230
G01 X10.8738 Y-8.3129
G01 X10.8738 Y-7.9536
G01 X10.9238 Y-7.9536
G01 X10.9238 Y-8.4370
G00 Z2.0000
G00 X9.7071 Y-6.8870
G01 F70.00
G01 Z-0.0700
G01 F60.00
G01 X9.7071 Y-6.9370
G01 X9.1970 Y-6.9370
G01 X9.1851 Y-6.9383
G01 X9.1744 Y-6.9411
G01 X9.1634 Y-6.9459
G01 X9.1534 Y-6.9523
G01 X9.1420 Y-6.9630
G01 X9.1331 Y-6.9758
G01 X9.1270 Y-6.9902
G01 X9.1240 Y-7.0065
G01 X9.1238 Y-7.3704
G01 X9.0738 Y-7.3704
G01 X9.0738 Y-6.8870
G01 X9.7071 Y-6.8870
G00 Z2.0000
G00 X9.1238 Y-10.1615
G01 F70.00
G01 Z-0.0700
G01 F60.00
G01 X9.0629 Y-10.2044
G01 X9.0034 Y-10.2509
G01 X8.9434 Y-10.3025
G01 X8.8874 Y-10.3558
G01 X8.8354 Y-10.4104
G01 X8.7836 Y-10.4703
G01 X8.7350 Y-10.5328
G01 X8.6915 Y-10.5945
G01 X8.6502 Y-10.6598
G01 X8.6112 Y-10.7287
G01 X8.5773 Y-10.7961
G01 X8.5467 Y-10.8651
G01 X8.5182 Y-10.9389
G01 X8.4934 Y-11.0141
G01 X8.4733 Y-11.0868
G01 X8.4567 Y-11.1604
G01 X8.4429 Y-11.2402
G01 X8.4337 Y-11.3151
G01 X8.4281 Y-11.3904
G01 X8.4261 Y-11.4695
G01 X8.4281 Y-11.5486
G01 X8.4337 Y-11.6239
G01 X8.4431 Y-11.7006
G01 X8.4564 Y-11.7768
G01 X8.4729 Y-11.8504
G01 X8.4939 Y-11.9267
G01 X8.5188 Y-12.0018
G01 X8.5460 Y-12.0722
G01 X8.5773 Y-12.1429
G01 X8.6130 Y-12.2136
G01 X8.6502 Y-12.2792
G01 X8.6915 Y-12.3445
G01 X8.7372 Y-12.4092
G01 X8.7836 Y-12.4687
G01 X8.8329 Y-12.5258
G01 X8.8887 Y-12.5845
G01 X8.9434 Y-12.6365
G01 X9.0005 Y-12.6858
G01 X9.0629 Y-12.7346
G01 X9.1276 Y-12.7801
G01 X9.1914 Y-12.8204
G01 X9.2570 Y-12.8576
G01 X9.3277 Y-12.8933
G01 X9.3984 Y-12.9246
G01 X9.4688 Y-12.9518
G01 X9.5448 Y-12.9769
G01 X9.6184 Y-12.9973
G01 X9.6938 Y-13.0142
G01 X9.7700 Y-13.0275
G01 X9.8486 Y-13.0371
G01 X9.9238 Y-13.0426
G01 X9.9993 Y-13.0445
G01 X10.0765 Y-13.0427
G01 X10.1555 Y-13.0369
G01 X10.2304 Y-13.0277
G01 X10.3084 Y-13.0142
G01 X10.3838 Y-12.9973
G01 X10.4583 Y-12.9767
G01 X10.5317 Y-12.9524
G01 X10.6038 Y-12.9246
G01 X10.6745 Y-12.8933
G01 X10.7435 Y-12.8585
G01 X10.8108 Y-12.8204
G01 X10.8761 Y-12.7791
G01 X10.9393 Y-12.7346
G01 X11.0003 Y-12.6870
G01 X11.0588 Y-12.6365
G01 X11.1148 Y-12.5832
G01 X11.1681 Y-12.5272
G01 X11.2186 Y-12.4687
G01 X11.2672 Y-12.4062
G01 X11.3107 Y-12.3445
G01 X11.3520 Y-12.2792
G01 X11.3901 Y-12.2119
G01 X11.4256 Y-12.1412
G01 X11.4562 Y-12.0722
G01 X11.4846 Y-11.9984
G01 X11.5088 Y-11.9249
G01 X11.5289 Y-11.8522
G01 X11.5418 Y-11.7946
G01 X12.7470 Y-11.7946
G01 X12.7592 Y-11.8317
G01 X12.7782 Y-11.8809
G01 X12.7996 Y-11.9291
G01 X12.8225 Y-11.9746
G01 X12.8503 Y-12.0237
G01 X12.8776 Y-12.0667
G01 X12.9074 Y-12.1091
G01 X12.9416 Y-12.1529
G01 X12.9749 Y-12.1914
G01 X13.0113 Y-12.2296
G01 X13.0495 Y-12.2660
G01 X13.0880 Y-12.2993
G01 X13.1318 Y-12.3335
G01 X13.1742 Y-12.3633
G01 X13.2172 Y-12.3906
G01 X13.2663 Y-12.4184
G01 X13.3118 Y-12.4413
G01 X13.3600 Y-12.4627
G01 X13.4092 Y-12.4817
G01 X13.4576 Y-12.4977
G01 X13.5120 Y-12.5127
G01 X13.5617 Y-12.5238
G01 X13.6137 Y-12.5329
G01 X13.6660 Y-12.5393
G01 X13.7168 Y-12.5431
G01 X13.7714 Y-12.5445
G01 X13.8260 Y-12.5431
G01 X13.8768 Y-12.5393
G01 X13.9291 Y-12.5329
G01 X13.9811 Y-12.5238
G01 X14.0308 Y-12.5127
G01 X14.0852 Y-12.4977
G01 X14.1336 Y-12.4817
G01 X14.1828 Y-12.4627
G01 X14.2310 Y-12.4413
G01 X14.2765 Y-12.4184
G01 X14.3256 Y-12.3906
G01 X14.3686 Y-12.3633
G01 X14.4118 Y-12.3329
G01 X14.4534 Y-12.3005
G01 X14.4919 Y-12.2672
G01 X14.5328 Y-12.2283
G01 X14.5679 Y-12.1914
G01 X14.6024 Y-12.1515
G01 X14.6348 Y-12.1099
G01 X14.6642 Y-12.0683
G01 X14.6944 Y-12.0206
G01 X14.7195 Y-11.9763
G01 X14.7432 Y-11.9291
G01 X14.7646 Y-11.8809
G01 X14.7829 Y-11.8334
G01 X14.8004 Y-11.7807
G01 X14.8142 Y-11.7307
G01 X14.8257 Y-11.6792
G01 X14.8348 Y-11.6272
G01 X14.8414 Y-11.5730
G01 X14.8452 Y-11.5204
G01 X14.8464 Y-11.4695
G01 X14.8452 Y-11.4186
G01 X14.8412 Y-11.3641
G01 X14.8350 Y-11.3136
G01 X14.8257 Y-11.2598
G01 X14.8142 Y-11.2083
G01 X14.8001 Y-11.1574
G01 X14.7836 Y-11.1073
G01 X14.7646 Y-11.0581
G01 X14.7432 Y-11.0099
G01 X14.7195 Y-10.9627
G01 X14.6935 Y-10.9168
G01 X14.6652 Y-10.8723
G01 X14.6348 Y-10.8291
G01 X14.6024 Y-10.7875
G01 X14.5667 Y-10.7462
G01 X14.5315 Y-10.7094
G01 X14.4919 Y-10.6718
G01 X14.4534 Y-10.6385
G01 X14.4132 Y-10.6072
G01 X14.3702 Y-10.5767
G01 X14.3241 Y-10.5474
G01 X14.2782 Y-10.5214
G01 X14.2310 Y-10.4977
G01 X14.1828 Y-10.4763
G01 X14.1336 Y-10.4573
G01 X14.0835 Y-10.4408
G01 X14.0326 Y-10.4267
G01 X13.9811 Y-10.4152
G01 X13.9291 Y-10.4061
G01 X13.8768 Y-10.3997
G01 X13.8241 Y-10.3958
G01 X13.7732 Y-10.3945
G01 X13.7168 Y-10.3959
G01 X13.6660 Y-10.3997
G01 X13.6118 Y-10.4064
G01 X13.5617 Y-10.4152
G01 X13.5102 Y-10.4267
G01 X13.4593 Y-10.4408
G01 X13.4092 Y-10.4573
G01 X13.3600 Y-10.4763
G01 X13.3118 Y-10.4977
G01 X13.2646 Y-10.5214
G01 X13.2195 Y-10.5470
G01 X13.1742 Y-10.5757
G01 X13.1325 Y-10.6050
G01 X13.0880 Y-10.6397
G01 X13.0495 Y-10.6730
G01 X13.0113 Y-10.7094
G01 X12.9749 Y-10.7476
G01 X12.9398 Y-10.7882
G01 X12.9080 Y-10.8291
G01 X12.8776 Y-10.8723
G01 X12.8493 Y-10.9168
G01 X12.8233 Y-10.9627
G01 X12.7996 Y-11.0099
G01 X12.7782 Y-11.0581
G01 X12.7592 Y-11.1073
G01 X12.7470 Y-11.1444
G01 X11.5418 Y-11.1444
G01 X11.5289 Y-11.0868
G01 X11.5083 Y-11.0123
G01 X11.4840 Y-10.9389
G01 X11.4562 Y-10.8668
G01 X11.4249 Y-10.7961
G01 X11.3901 Y-10.7271
G01 X11.3520 Y-10.6598
G01 X11.3101 Y-10.5937
G01 X11.2662 Y-10.5313
G01 X11.2186 Y-10.4703
G01 X11.1681 Y-10.4118
G01 X11.1148 Y-10.3558
G01 X11.0588 Y-10.3025
G01 X11.0003 Y-10.2520
G01 X10.9393 Y-10.2044
G01 X10.8738 Y-10.1584
G01 X10.8737 Y-8.9092
G01 X10.8724 Y-8.8974
G01 X10.8691 Y-8.8859
G01 X10.8641 Y-8.8750
G01 X10.8579 Y-8.8659
G01 X10.8498 Y-8.8571
G01 X10.8405 Y-8.8496
G01 X10.8300 Y-8.8438
G01 X10.8197 Y-8.8400
G01 X10.8098 Y-8.8378
G01 X10.7988 Y-8.8370
G01 X9.1979 Y-8.8370
G01 X9.1851 Y-8.8383
G01 X9.1735 Y-8.8414
G01 X9.1626 Y-8.8463
G01 X9.1527 Y-8.8529
G01 X9.1408 Y-8.8644
G01 X9.1318 Y-8.8783
G01 X9.1260 Y-8.8938
G01 X9.1238 Y-8.9102
G01 X9.1238 Y-10.1615
G00 Z2.0000
G00 X6.4947 Y-11.9446
G01 F70.00
G01 Z-0.0700
G01 F60.00
G01 X6.4947 Y-12.8339
G01 X6.4940 Y-12.8390
G01 X6.4915 Y-12.8432
G01 X6.4876 Y-12.8461
G01 X6.4822 Y-12.8473
G01 X6.4768 Y-12.8461
G01 X6.4729 Y-12.8432
G01 X6.4704 Y-12.8390
G01 X6.4697 Y-12.8339
G01 X6.4697 Y-11.9446
G01 X6.4688 Y-11.9336
G01 X6.4664 Y-11.9229
G01 X6.4628 Y-11.9134
G01 X6.4585 Y-11.9053
G01 X6.4526 Y-11.8971
G01 X6.4457 Y-11.8897
G01 X6.4378 Y-11.8833
G01 X6.4300 Y-11.8785
G01 X6.4216 Y-11.8747
G01 X6.4120 Y-11.8717
G01 X6.3956 Y-11.8696
G01 X6.1877 Y-11.8696
G01 X6.1825 Y-11.8678
G01 X6.1785 Y-11.8641
G01 X6.1765 Y-11.8589
G01 X6.1769 Y-11.8535
G01 X6.1788 Y-11.8496
G01 X6.1819 Y-11.8467
G01 X6.1859 Y-11.8450
G01 X6.1898 Y-11.8446
G01 X6.7747 Y-11.8446
G01 X6.7786 Y-11.8450
G01 X6.7826 Y-11.8467
G01 X6.7857 Y-11.8496
G01 X6.7876 Y-11.8535
G01 X6.7880 Y-11.8589
G01 X6.7860 Y-11.8641
G01 X6.7820 Y-11.8678
G01 X6.7768 Y-11.8696
G01 X6.5688 Y-11.8696
G01 X6.5578 Y-11.8706
G01 X6.5471 Y-11.8731
G01 X6.5360 Y-11.8777
G01 X6.5258 Y-11.8839
G01 X6.5167 Y-11.8916
G01 X6.5090 Y-11.9007
G01 X6.5028 Y-11.9109
G01 X6.4982 Y-11.9220
G01 X6.4957 Y-11.9327
G01 X6.4947 Y-11.9446
G00 Z2.0000
G00 X5.2475 Y-11.8580
G01 F70.00
G01 Z-0.0700
G01 F60.00
G01 X5.2479 Y-11.8541
G01 X5.2496 Y-11.8501
G01 X5.2525 Y-11.8470
G01 X5.2558 Y-11.8453
G01 X5.2594 Y-11.8446
G01 X5.2636 Y-11.8451
G01 X5.2675 Y-11.8470
G01 X5.2704 Y-11.8501
G01 X5.6979 Y-12.5620
G01 X5.7030 Y-12.5685
G01 X5.7095 Y-12.5750
G01 X5.7168 Y-12.5806
G01 X5.7246 Y-12.5854
G01 X5.7331 Y-12.5891
G01 X5.7419 Y-12.5918
G01 X5.7509 Y-12.5933
G01 X5.7601 Y-12.5938
G01 X5.7738 Y-12.5923
G01 X5.7862 Y-12.5887
G01 X5.7977 Y-12.5831
G01 X5.8088 Y-12.5750
G01 X5.8183 Y-12.5649
G01 X5.8253 Y-12.5541
G01 X5.8307 Y-12.5414
G01 X5.8335 Y-12.5289
G01 X5.8342 Y-12.5188
G01 X5.8342 Y-11.8565
G01 X5.8349 Y-11.8529
G01 X5.8370 Y-11.8492
G01 X5.8403 Y-11.8464
G01 X5.8437 Y-11.8450
G01 X5.8479 Y-11.8446
G01 X5.8515 Y-11.8455
G01 X5.8551 Y-11.8478
G01 X5.8574 Y-11.8507
G01 X5.8588 Y-11.8541
G01 X5.8592 Y-11.8580
G01 X5.8592 Y-12.8339
G01 X5.8577 Y-12.8407
G01 X5.8531 Y-12.8455
G01 X5.8485 Y-12.8472
G01 X5.8431 Y-12.8468
G01 X5.8388 Y-12.8445
G01 X5.8355 Y-12.8405
G01 X5.4099 Y-12.1314
G01 X5.4043 Y-12.1241
G01 X5.3979 Y-12.1175
G01 X5.3907 Y-12.1118
G01 X5.3829 Y-12.1070
G01 X5.3745 Y-12.1031
G01 X5.3657 Y-12.1004
G01 X5.3576 Y-12.0988
G01 X5.3484 Y-12.0981
G01 X5.3347 Y-12.0992
G01 X5.3223 Y-12.1025
G01 X5.3098 Y-12.1083
G01 X5.2985 Y-12.1163
G01 X5.2896 Y-12.1256
G01 X5.2818 Y-12.1370
G01 X5.2763 Y-12.1496
G01 X5.2732 Y-12.1630
G01 X5.2725 Y-12.1731
G01 X5.2725 Y-12.8354
G01 X5.2716 Y-12.8396
G01 X5.2697 Y-12.8427
G01 X5.2670 Y-12.8452
G01 X5.2630 Y-12.8469
G01 X5.2588 Y-12.8473
G01 X5.2552 Y-12.8464
G01 X5.2516 Y-12.8441
G01 X5.2493 Y-12.8412
G01 X5.2479 Y-12.8378
G01 X5.2475 Y-12.8339
G01 X5.2475 Y-11.8580
G00 Z2.0000
G00 X4.7197 Y-12.4807
G01 F70.00
G01 Z-0.0700
G01 F60.00
G01 X4.3799 Y-12.4808
G01 X4.3699 Y-12.4818
G01 X4.3601 Y-12.4842
G01 X4.3507 Y-12.4879
G01 X4.3411 Y-12.4933
G01 X4.3324 Y-12.5001
G01 X4.3248 Y-12.5080
G01 X4.3184 Y-12.5170
G01 X4.3135 Y-12.5268
G01 X4.1957 Y-12.8403
G01 X4.1918 Y-12.8450
G01 X4.1855 Y-12.8473
G01 X4.1790 Y-12.8460
G01 X4.1740 Y-12.8416
G01 X4.1720 Y-12.8358
G01 X4.1731 Y-12.8295
G01 X4.5391 Y-11.8536
G01 X4.5425 Y-11.8481
G01 X4.5478 Y-11.8450
G01 X4.5527 Y-11.8447
G01 X4.5574 Y-11.8462
G01 X4.5611 Y-11.8495
G01 X4.5633 Y-11.8536
G01 X4.9292 Y-12.8295
G01 X4.9303 Y-12.8340
G01 X4.9297 Y-12.8388
G01 X4.9272 Y-12.8431
G01 X4.9239 Y-12.8458
G01 X4.9186 Y-12.8473
G01 X4.9138 Y-12.8467
G01 X4.9095 Y-12.8442
G01 X4.9063 Y-12.8398
G01 X4.7899 Y-12.5294
G01 X4.7853 Y-12.5194
G01 X4.7798 Y-12.5109
G01 X4.7733 Y-12.5033
G01 X4.7657 Y-12.4965
G01 X4.7574 Y-12.4909
G01 X4.7483 Y-12.4864
G01 X4.7387 Y-12.4832
G01 X4.7288 Y-12.4813
G01 X4.7197 Y-12.4807
G00 Z2.0000
G00 X4.4483 Y-12.4557
G01 F70.00
G01 Z-0.0700
G01 F60.00
G01 X4.6549 Y-12.4557
G01 X4.6687 Y-12.4542
G01 X4.6785 Y-12.4516
G01 X4.6878 Y-12.4476
G01 X4.6965 Y-12.4425
G01 X4.7044 Y-12.4362
G01 X4.7115 Y-12.4289
G01 X4.7174 Y-12.4207
G01 X4.7226 Y-12.4109
G01 X4.7261 Y-12.4014
G01 X4.7284 Y-12.3906
G01 X4.7290 Y-12.3796
G01 X4.7280 Y-12.3686
G01 X4.7255 Y-12.3578
G01 X4.6204 Y-12.0775
G01 X4.6124 Y-12.0631
G01 X4.6015 Y-12.0508
G01 X4.5943 Y-12.0450
G01 X4.5873 Y-12.0407
G01 X4.5720 Y-12.0344
G01 X4.5594 Y-12.0319
G01 X4.5475 Y-12.0315
G01 X4.5357 Y-12.0330
G01 X4.5243 Y-12.0364
G01 X4.5127 Y-12.0420
G01 X4.5030 Y-12.0489
G01 X4.4939 Y-12.0580
G01 X4.4870 Y-12.0677
G01 X4.4810 Y-12.0801
G01 X4.3764 Y-12.3596
G01 X4.3743 Y-12.3685
G01 X4.3734 Y-12.3768
G01 X4.3735 Y-12.3851
G01 X4.3746 Y-12.3942
G01 X4.3768 Y-12.4032
G01 X4.3797 Y-12.4109
G01 X4.3839 Y-12.4191
G01 X4.3886 Y-12.4260
G01 X4.4000 Y-12.4380
G01 X4.4066 Y-12.4430
G01 X4.4146 Y-12.4476
G01 X4.4222 Y-12.4509
G01 X4.4310 Y-12.4536
G01 X4.4391 Y-12.4551
G01 X4.4483 Y-12.4557
G00 Z2.0000
G00 X3.7261 Y-11.4695
G01 F70.00
G01 Z-0.0700
G01 F60.00
G01 X3.7240 Y-11.5541
G01 X3.7178 Y-11.6386
G01 X3.7074 Y-11.7226
G01 X3.6929 Y-11.8060
G01 X3.6744 Y-11.8886
G01 X3.6518 Y-11.9702
G01 X3.6252 Y-12.0506
G01 X3.5948 Y-12.1296
G01 X3.5605 Y-12.2070
G01 X3.5224 Y-12.2826
G01 X3.4807 Y-12.3563
G01 X3.4354 Y-12.4278
G01 X3.3866 Y-12.4971
G01 X3.3345 Y-12.5638
G01 X3.2792 Y-12.6279
G01 X3.2208 Y-12.6892
G01 X3.1595 Y-12.7476
G01 X3.0954 Y-12.8029
G01 X3.0287 Y-12.8550
G01 X2.9594 Y-12.9038
G01 X2.8879 Y-12.9491
G01 X2.8142 Y-12.9908
G01 X2.7386 Y-13.0289
G01 X2.6612 Y-13.0632
G01 X2.5822 Y-13.0936
G01 X2.5018 Y-13.1202
G01 X2.4202 Y-13.1428
G01 X2.3376 Y-13.1613
G01 X2.2542 Y-13.1758
G01 X2.1702 Y-13.1862
G01 X2.0857 Y-13.1924
G01 X2.0011 Y-13.1945
G01 X1.9165 Y-13.1924
G01 X1.8320 Y-13.1862
G01 X1.7480 Y-13.1758
G01 X1.6646 Y-13.1613
G01 X1.5820 Y-13.1428
G01 X1.5004 Y-13.1202
G01 X1.4200 Y-13.0936
G01 X1.3410 Y-13.0632
G01 X1.2636 Y-13.0289
G01 X1.1880 Y-12.9908
G01 X1.1143 Y-12.9491
G01 X1.0428 Y-12.9038
G01 X0.9735 Y-12.8550
G01 X0.9068 Y-12.8029
G01 X0.8427 Y-12.7476
G01 X0.7814 Y-12.6892
G01 X0.7230 Y-12.6279
G01 X0.6677 Y-12.5638
G01 X0.6156 Y-12.4971
G01 X0.5668 Y-12.4278
G01 X0.5215 Y-12.3563
G01 X0.4798 Y-12.2826
G01 X0.4417 Y-12.2070
G01 X0.4074 Y-12.1296
G01 X0.3770 Y-12.0506
G01 X0.3504 Y-11.9702
G01 X0.3278 Y-11.8886
G01 X0.3093 Y-11.8060
G01 X0.2948 Y-11.7226
G01 X0.2844 Y-11.6386
G01 X0.2782 Y-11.5541
G01 X0.2761 Y-11.4695
G01 X0.2782 Y-11.3849
G01 X0.2844 Y-11.3004
G01 X0.2948 Y-11.2164
G01 X0.3093 Y-11.1330
G01 X0.3278 Y-11.0504
G01 X0.3504 Y-10.9688
G01 X0.3770 Y-10.8884
G01 X0.4074 Y-10.8094
G01 X0.4417 Y-10.7320
G01 X0.4798 Y-10.6564
G01 X0.5215 Y-10.5827
G01 X0.5668 Y-10.5112
G01 X0.6156 Y-10.4419
G01 X0.6677 Y-10.3752
G01 X0.7230 Y-10.3111
G01 X0.7814 Y-10.2498
G01 X0.8427 Y-10.1914
G01 X0.9068 Y-10.1361
G01 X0.9735 Y-10.0840
G01 X1.0257 Y-10.0472
G01 X1.0328 Y-10.0414
G01 X1.0398 Y-10.0340
G01 X1.0457 Y-10.0258
G01 X1.0504 Y-10.0168
G01 X1.0538 Y-10.0073
G01 X1.0560 Y-9.9974
G01 X1.0568 Y-9.9864
G01 X1.0568 Y-8.7267
G01 X2.9068 Y-8.7267
G01 X2.9068 Y-9.9606
G01 X2.9076 Y-9.9716
G01 X2.9100 Y-9.9824
G01 X2.9140 Y-9.9927
G01 X2.9189 Y-10.0015
G01 X2.9250 Y-10.0096
G01 X2.9321 Y-10.0168
G01 X2.9386 Y-10.0219
G01 X2.9594 Y-10.0352
G01 X3.0287 Y-10.0840
G01 X3.0954 Y-10.1361
G01 X3.1595 Y-10.1914
G01 X3.2208 Y-10.2498
G01 X3.2792 Y-10.3111
G01 X3.3345 Y-10.3752
G01 X3.3866 Y-10.4419
G01 X3.4354 Y-10.5112
G01 X3.4807 Y-10.5827
G01 X3.5224 Y-10.6564
G01 X3.5605 Y-10.7320
G01 X3.5948 Y-10.8094
G01 X3.6252 Y-10.8884
G01 X3.6518 Y-10.9688
G01 X3.6744 Y-11.0504
G01 X3.6929 Y-11.1330
G01 X3.7074 Y-11.2164
G01 X3.7178 Y-11.3004
G01 X3.7240 Y-11.3849
G01 X3.7261 Y-11.4695
G00 Z2.0000
G00 X2.8972 Y-10.0845
G01 F70.00
G01 Z-0.0700
G01 F60.00
G01 X2.8509 Y-10.0552
G01 X2.8318 Y-10.0442
G01 X2.8316 Y-8.9443
G01 X2.8302 Y-8.9297
G01 X2.8268 Y-8.9135
G01 X2.8224 Y-8.8994
G01 X2.8158 Y-8.8843
G01 X2.8075 Y-8.8699
G01 X2.7978 Y-8.8565
G01 X2.7866 Y-8.8443
G01 X2.7755 Y-8.8346
G01 X2.7651 Y-8.8270
G01 X2.7541 Y-8.8203
G01 X2.7323 Y-8.8105
G01 X2.7093 Y-8.8042
G01 X2.6855 Y-8.8017
G01 X1.2800 Y-8.8017
G01 X1.2671 Y-8.8024
G01 X1.2525 Y-8.8046
G01 X1.2400 Y-8.8076
G01 X1.2278 Y-8.8118
G01 X1.2160 Y-8.8169
G01 X1.2047 Y-8.8230
G01 X1.1939 Y-8.8301
G01 X1.1838 Y-8.8381
G01 X1.1744 Y-8.8469
G01 X1.1658 Y-8.8565
G01 X1.1581 Y-8.8668
G01 X1.1513 Y-8.8778
G01 X1.1447 Y-8.8909
G01 X1.1400 Y-8.9029
G01 X1.1363 Y-8.9153
G01 X1.1337 Y-8.9279
G01 X1.1318 Y-8.9517
G01 X1.1318 Y-10.0675
G01 X1.0859 Y-10.0966
G01 X1.0723 Y-10.1060
G01 X1.0839 Y-10.0963
G01 X1.0954 Y-10.0844
G01 X1.1055 Y-10.0713
G01 X1.1141 Y-10.0571
G01 X1.1211 Y-10.0421
G01 X1.1264 Y-10.0264
G01 X1.1299 Y-10.0103
G01 X1.1316 Y-9.9938
G01 X1.1318 Y-8.8017
G01 X2.8318 Y-8.8017
G01 X2.8320 Y-9.9680
G01 X2.8340 Y-9.9863
G01 X2.8377 Y-10.0024
G01 X2.8439 Y-10.0197
G01 X2.8513 Y-10.0346
G01 X2.8613 Y-10.0500
G01 X2.8719 Y-10.0627
G01 X2.8838 Y-10.0742
G01 X2.8972 Y-10.0845
G00 Z2.0000
G00 X2.7568 Y-10.0880
G01 F70.00
G01 Z-0.0700
G01 F60.00
G01 X2.7568 Y-8.9499
G01 X2.7561 Y-8.9416
G01 X2.7543 Y-8.9326
G01 X2.7484 Y-8.9172
G01 X2.7392 Y-8.9034
G01 X2.7272 Y-8.8920
G01 X2.7172 Y-8.8856
G01 X2.7062 Y-8.8808
G01 X2.6946 Y-8.8778
G01 X2.6827 Y-8.8767
G01 X1.2809 Y-8.8767
G01 X1.2726 Y-8.8773
G01 X1.2636 Y-8.8789
G01 X1.2481 Y-8.8847
G01 X1.2409 Y-8.8888
G01 X1.2335 Y-8.8943
G01 X1.2221 Y-8.9063
G01 X1.2157 Y-8.9163
G01 X1.2109 Y-8.9273
G01 X1.2079 Y-8.9389
G01 X1.2068 Y-8.9508
G01 X1.2068 Y-10.1098
G01 X1.1906 Y-10.1191
G01 X1.1268 Y-10.1594
G01 X1.0621 Y-10.2050
G01 X1.0019 Y-10.2520
G01 X0.9448 Y-10.3013
G01 X0.8874 Y-10.3558
G01 X0.8329 Y-10.4132
G01 X0.7836 Y-10.4703
G01 X0.7372 Y-10.5298
G01 X0.6915 Y-10.5945
G01 X0.6493 Y-10.6614
G01 X0.6121 Y-10.7271
G01 X0.5781 Y-10.7944
G01 X0.5460 Y-10.8668
G01 X0.5176 Y-10.9406
G01 X0.4939 Y-11.0123
G01 X0.4738 Y-11.0850
G01 X0.4564 Y-11.1622
G01 X0.4429 Y-11.2402
G01 X0.4337 Y-11.3151
G01 X0.4281 Y-11.3904
G01 X0.4261 Y-11.4704
G01 X0.4280 Y-11.5468
G01 X0.4335 Y-11.6220
G01 X0.4431 Y-11.7006
G01 X0.4567 Y-11.7786
G01 X0.4733 Y-11.8522
G01 X0.4934 Y-11.9249
G01 X0.5182 Y-12.0001
G01 X0.5467 Y-12.0739
G01 X0.5773 Y-12.1429
G01 X0.6112 Y-12.2103
G01 X0.6502 Y-12.2792
G01 X0.6926 Y-12.3460
G01 X0.7360 Y-12.4077
G01 X0.7825 Y-12.4672
G01 X0.8341 Y-12.5272
G01 X0.8887 Y-12.5845
G01 X0.9434 Y-12.6365
G01 X1.0005 Y-12.6858
G01 X1.0629 Y-12.7346
G01 X1.1276 Y-12.7801
G01 X1.1914 Y-12.8204
G01 X1.2587 Y-12.8585
G01 X1.3277 Y-12.8933
G01 X1.3984 Y-12.9246
G01 X1.4705 Y-12.9524
G01 X1.5439 Y-12.9767
G01 X1.6184 Y-12.9973
G01 X1.6938 Y-13.0142
G01 X1.7700 Y-13.0275
G01 X1.8467 Y-13.0369
G01 X1.9238 Y-13.0426
G01 X2.0011 Y-13.0445
G01 X2.0784 Y-13.0426
G01 X2.1555 Y-13.0369
G01 X2.2322 Y-13.0275
G01 X2.3084 Y-13.0142
G01 X2.3838 Y-12.9973
G01 X2.4583 Y-12.9767
G01 X2.5317 Y-12.9524
G01 X2.6038 Y-12.9246
G01 X2.6745 Y-12.8933
G01 X2.7435 Y-12.8585
G01 X2.8108 Y-12.8204
G01 X2.8761 Y-12.7791
G01 X2.9393 Y-12.7346
G01 X3.0003 Y-12.6870
G01 X3.0588 Y-12.6365
G01 X3.1148 Y-12.5832
G01 X3.1681 Y-12.5272
G01 X3.2186 Y-12.4687
G01 X3.2662 Y-12.4077
G01 X3.3107 Y-12.3445
G01 X3.3520 Y-12.2792
G01 X3.3901 Y-12.2119
G01 X3.4249 Y-12.1429
G01 X3.4562 Y-12.0722
G01 X3.4840 Y-12.0001
G01 X3.5083 Y-11.9267
G01 X3.5289 Y-11.8522
G01 X3.5458 Y-11.7768
G01 X3.5591 Y-11.7006
G01 X3.5685 Y-11.6239
G01 X3.5742 Y-11.5468
G01 X3.5761 Y-11.4695
G01 X3.5742 Y-11.3922
G01 X3.5685 Y-11.3151
G01 X3.5591 Y-11.2384
G01 X3.5458 Y-11.1622
G01 X3.5289 Y-11.0868
G01 X3.5083 Y-11.0123
G01 X3.4840 Y-10.9389
G01 X3.4562 Y-10.8668
G01 X3.4249 Y-10.7961
G01 X3.3901 Y-10.7271
G01 X3.3520 Y-10.6598
G01 X3.3107 Y-10.5945
G01 X3.2662 Y-10.5313
G01 X3.2186 Y-10.4703
G01 X3.1681 Y-10.4118
G01 X3.1148 Y-10.3558
G01 X3.0588 Y-10.3025
G01 X3.0003 Y-10.2520
G01 X2.9393 Y-10.2044
G01 X2.8761 Y-10.1599
G01 X2.8108 Y-10.1186
G01 X2.7568 Y-10.0880
G00 Z2.0000
G00 X1.1318 Y-8.0684
G01 F70.00
G01 Z-0.0700
G01 F60.00
G01 X1.1318 Y-8.3554
G01 X1.1340 Y-8.3773
G01 X1.1400 Y-8.4005
G01 X1.1487 Y-8.4208
G01 X1.1613 Y-8.4411
G01 X1.1757 Y-8.4578
G01 X1.1939 Y-8.4733
G01 X1.2144 Y-8.4857
G01 X1.2347 Y-8.4941
G01 X1.2580 Y-8.4998
G01 X1.2818 Y-8.5017
G01 X2.6818 Y-8.5017
G01 X2.7020 Y-8.5003
G01 X2.7218 Y-8.4963
G01 X2.7409 Y-8.4896
G01 X2.7589 Y-8.4804
G01 X2.7755 Y-8.4688
G01 X2.7892 Y-8.4565
G01 X2.8023 Y-8.4411
G01 X2.8123 Y-8.4256
G01 X2.8211 Y-8.4074
G01 X2.8268 Y-8.3899
G01 X2.8304 Y-8.3719
G01 X2.8318 Y-8.3535
G01 X2.8318 Y-8.0684
G01 X2.8318 Y-8.5017
G01 X1.1318 Y-8.5017
G01 X1.1318 Y-8.0684
G00 Z2.0000
G00 X1.0568 Y-7.9934
G01 F70.00
G01 Z-0.0700
G01 F60.00
G01 X1.2068 Y-7.9934
G01 X1.2068 Y-8.3517
G01 X1.2079 Y-8.3645
G01 X1.2112 Y-8.3770
G01 X1.2165 Y-8.3887
G01 X1.2244 Y-8.4000
G01 X1.2335 Y-8.4091
G01 X1.2448 Y-8.4170
G01 X1.2565 Y-8.4223
G01 X1.2690 Y-8.4256
G01 X1.2818 Y-8.4267
G01 X2.6818 Y-8.4267
G01 X2.6910 Y-8.4261
G01 X2.7009 Y-8.4242
G01 X2.7113 Y-8.4206
G01 X2.7211 Y-8.4156
G01 X2.7301 Y-8.4091
G01 X2.7380 Y-8.4014
G01 X2.7447 Y-8.3926
G01 X2.7500 Y-8.3829
G01 X2.7538 Y-8.3726
G01 X2.7561 Y-8.3618
G01 X2.7568 Y-8.3517
G01 X2.7568 Y-7.9934
G01 X2.9068 Y-7.9934
G01 X2.9068 Y-8.5767
G01 X1.0568 Y-8.5767
G01 X1.0568 Y-7.9934
G00 Z2.0000
G00 X1.6151 Y-6.9017
G01 F70.00
G01 Z-0.0700
G01 F60.00
G01 X1.2818 Y-6.9017
G01 X1.2689 Y-6.9023
G01 X1.2454 Y-6.9062
G01 X1.2227 Y-6.9138
G01 X1.2111 Y-6.9194
G01 X1.2000 Y-6.9260
G01 X1.1811 Y-6.9406
G01 X1.1707 Y-6.9510
G01 X1.1624 Y-6.9609
G01 X1.1551 Y-6.9715
G01 X1.1487 Y-6.9826
G01 X1.1432 Y-6.9943
G01 X1.1388 Y-7.0064
G01 X1.1351 Y-7.0206
G01 X1.1329 Y-7.0333
G01 X1.1318 Y-7.0517
G01 X1.1318 Y-7.3351
G01 X1.1318 Y-6.9017
G01 X1.6151 Y-6.9017
G00 Z2.0000
G00 X1.6901 Y-6.8267
G01 F70.00
G01 Z-0.0700
G01 F60.00
G01 X1.6901 Y-6.9767
G01 X1.2781 Y-6.9768
G01 X1.2654 Y-6.9785
G01 X1.2523 Y-6.9828
G01 X1.2409 Y-6.9888
G01 X1.2308 Y-6.9968
G01 X1.2210 Y-7.0078
G01 X1.2140 Y-7.0196
G01 X1.2093 Y-7.0326
G01 X1.2069 Y-7.0471
G01 X1.2068 Y-7.4101
G01 X1.0568 Y-7.4101
G01 X1.0568 Y-6.8267
G01 X1.6901 Y-6.8267
G00 Z2.0000
G00 X2.8001 Y-6.9017
G01 F70.00
G01 Z-0.0700
G01 F60.00
G01 X2.8318 Y-6.9311
G01 X2.8318 Y-7.3351
G01 X2.8318 Y-7.0517
G01 X2.8307 Y-7.0333
G01 X2.8282 Y-7.0188
G01 X2.8248 Y-7.0064
G01 X2.8204 Y-6.9943
G01 X2.8149 Y-6.9826
G01 X2.8085 Y-6.9715
G01 X2.8012 Y-6.9609
G01 X2.7929 Y-6.9510
G01 X2.7825 Y-6.9406
G01 X2.7636 Y-6.9260
G01 X2.7525 Y-6.9194
G01 X2.7409 Y-6.9138
G01 X2.7182 Y-6.9062
G01 X2.6947 Y-6.9023
G01 X2.6818 Y-6.9017
G01 X2.3484 Y-6.9017
G01 X2.8001 Y-6.9017
G00 Z2.0000
G00 X2.8301 Y-6.8267
G01 F70.00
G01 Z-0.0700
G01 F60.00
G01 X2.8743 Y-6.8687
G01 X2.9068 Y-6.8968
G01 X2.9068 Y-7.4101
G01 X2.7568 Y-7.4101
G01 X2.7566 Y-7.0462
G01 X2.7536 Y-7.0299
G01 X2.7504 Y-7.0213
G01 X2.7466 Y-7.0139
G01 X2.7367 Y-7.0007
G01 X2.7242 Y-6.9899
G01 X2.7147 Y-6.9843
G01 X2.7045 Y-6.9802
G01 X2.6937 Y-6.9777
G01 X2.6836 Y-6.9767
G01 X2.2734 Y-6.9767
G01 X2.2734 Y-6.8267
G01 X2.8301 Y-6.8267
G00 Z2.0000
G00 X5.8035 Y-4.9608
G01 F70.00
G01 Z-0.0700
G01 F60.00
G01 X5.8021 Y-5.0197
G01 X5.7977 Y-5.0784
G01 X5.7905 Y-5.1369
G01 X5.7805 Y-5.1949
G01 X5.7675 Y-5.2524
G01 X5.7518 Y-5.3091
G01 X5.7334 Y-5.3650
G01 X5.7122 Y-5.4200
G01 X5.6883 Y-5.4738
G01 X5.6618 Y-5.5264
G01 X5.6328 Y-5.5777
G01 X5.6013 Y-5.6274
G01 X5.5674 Y-5.6756
G01 X5.5311 Y-5.7220
G01 X5.4927 Y-5.7666
G01 X5.4521 Y-5.8093
G01 X5.4094 Y-5.8499
G01 X5.3648 Y-5.8883
G01 X5.3184 Y-5.9246
G01 X5.2702 Y-5.9585
G01 X5.2205 Y-5.9900
G01 X5.1692 Y-6.0190
G01 X5.1166 Y-6.0455
G01 X5.0628 Y-6.0694
G01 X5.0078 Y-6.0906
G01 X4.9519 Y-6.1090
G01 X4.8952 Y-6.1247
G01 X4.8377 Y-6.1377
G01 X4.7797 Y-6.1477
G01 X4.7212 Y-6.1549
G01 X4.6625 Y-6.1593
G01 X4.6036 Y-6.1607
G01 X4.5447 Y-6.1593
G01 X4.4860 Y-6.1549
G01 X4.4275 Y-6.1477
G01 X4.3695 Y-6.1377
G01 X4.3120 Y-6.1247
G01 X4.2553 Y-6.1090
G01 X4.1994 Y-6.0906
G01 X4.1444 Y-6.0694
G01 X4.0906 Y-6.0455
G01 X4.0380 Y-6.0190
G01 X3.9867 Y-5.9900
G01 X3.9370 Y-5.9585
G01 X3.8888 Y-5.9246
G01 X3.8424 Y-5.8883
G01 X3.7978 Y-5.8499
G01 X3.7551 Y-5.8093
G01 X3.7145 Y-5.7666
G01 X3.6761 Y-5.7220
G01 X3.6398 Y-5.6756
G01 X3.6059 Y-5.6274
G01 X3.5744 Y-5.5777
G01 X3.5454 Y-5.5264
G01 X3.5189 Y-5.4738
G01 X3.4950 Y-5.4200
G01 X3.4738 Y-5.3650
G01 X3.4554 Y-5.3091
G01 X3.4397 Y-5.2524
G01 X3.4267 Y-5.1949
G01 X3.4167 Y-5.1369
G01 X3.4095 Y-5.0784
G01 X3.4051 Y-5.0197
G01 X3.4037 Y-4.9608
G01 X3.4051 Y-4.9019
G01 X3.4095 Y-4.8432
G01 X3.4167 Y-4.7847
G01 X3.4267 Y-4.7267
G01 X3.4397 Y-4.6692
G01 X3.4554 Y-4.6125
G01 X3.4738 Y-4.5566
G01 X3.4950 Y-4.5016
G01 X3.5189 Y-4.4478
G01 X3.5454 Y-4.3952
G01 X3.5744 Y-4.3439
G01 X3.6059 Y-4.2942
G01 X3.6398 Y-4.2460
G01 X3.6761 Y-4.1996
G01 X3.7145 Y-4.1550
G01 X3.7551 Y-4.1123
G01 X3.7978 Y-4.0717
G01 X3.8424 Y-4.0333
G01 X3.8888 Y-3.9970
G01 X3.9370 Y-3.9631
G01 X3.9867 Y-3.9316
G01 X4.0380 Y-3.9026
G01 X4.0906 Y-3.8761
G01 X4.1444 Y-3.8522
G01 X4.1994 Y-3.8310
G01 X4.2553 Y-3.8126
G01 X4.3120 Y-3.7969
G01 X4.3695 Y-3.7839
G01 X4.4275 Y-3.7739
G01 X4.4860 Y-3.7667
G01 X4.5447 Y-3.7623
G01 X4.6036 Y-3.7609
G01 X4.6625 Y-3.7623
G01 X4.7212 Y-3.7667
G01 X4.7797 Y-3.7739
G01 X4.8377 Y-3.7839
G01 X4.8952 Y-3.7969
G01 X4.9519 Y-3.8126
G01 X5.0078 Y-3.8310
G01 X5.0628 Y-3.8522
G01 X5.1166 Y-3.8761
G01 X5.1692 Y-3.9026
G01 X5.2205 Y-3.9316
G01 X5.2702 Y-3.9631
G01 X5.3184 Y-3.9970
G01 X5.3648 Y-4.0333
G01 X5.4094 Y-4.0717
G01 X5.4521 Y-4.1123
G01 X5.4927 Y-4.1550
G01 X5.5311 Y-4.1996
G01 X5.5674 Y-4.2460
G01 X5.6013 Y-4.2942
G01 X5.6328 Y-4.3439
G01 X5.6618 Y-4.3952
G01 X5.6883 Y-4.4478
G01 X5.7122 Y-4.5016
G01 X5.7334 Y-4.5566
G01 X5.7518 Y-4.6125
G01 X5.7675 Y-4.6692
G01 X5.7805 Y-4.7267
G01 X5.7905 Y-4.7847
G01 X5.7977 Y-4.8432
G01 X5.8021 Y-4.9019
G01 X5.8035 Y-4.9608
G00 Z2.0000
G00 X5.8785 Y-4.9608
G01 F70.00
G01 Z-0.0700
G01 F60.00
G01 X5.8770 Y-5.0234
G01 X5.8724 Y-5.0858
G01 X5.8647 Y-5.1479
G01 X5.8540 Y-5.2095
G01 X5.8403 Y-5.2706
G01 X5.8236 Y-5.3309
G01 X5.8040 Y-5.3903
G01 X5.7815 Y-5.4487
G01 X5.7561 Y-5.5059
G01 X5.7280 Y-5.5618
G01 X5.6971 Y-5.6162
G01 X5.6637 Y-5.6691
G01 X5.6276 Y-5.7203
G01 X5.5891 Y-5.7696
G01 X5.5483 Y-5.8170
G01 X5.5051 Y-5.8623
G01 X5.4598 Y-5.9055
G01 X5.4124 Y-5.9463
G01 X5.3631 Y-5.9848
G01 X5.3119 Y-6.0209
G01 X5.2590 Y-6.0543
G01 X5.2046 Y-6.0852
G01 X5.1487 Y-6.1133
G01 X5.0915 Y-6.1387
G01 X5.0331 Y-6.1612
G01 X4.9737 Y-6.1808
G01 X4.9134 Y-6.1975
G01 X4.8523 Y-6.2112
G01 X4.7907 Y-6.2219
G01 X4.7286 Y-6.2296
G01 X4.6662 Y-6.2342
G01 X4.6036 Y-6.2357
G01 X4.5410 Y-6.2342
G01 X4.4786 Y-6.2296
G01 X4.4165 Y-6.2219
G01 X4.3549 Y-6.2112
G01 X4.2938 Y-6.1975
G01 X4.2335 Y-6.1808
G01 X4.1741 Y-6.1612
G01 X4.1157 Y-6.1387
G01 X4.0585 Y-6.1133
G01 X4.0026 Y-6.0852
G01 X3.9482 Y-6.0543
G01 X3.8953 Y-6.0209
G01 X3.8441 Y-5.9848
G01 X3.7948 Y-5.9463
G01 X3.7474 Y-5.9055
G01 X3.7021 Y-5.8623
G01 X3.6589 Y-5.8170
G01 X3.6181 Y-5.7696
G01 X3.5796 Y-5.7203
G01 X3.5435 Y-5.6691
G01 X3.5101 Y-5.6162
G01 X3.4792 Y-5.5618
G01 X3.4511 Y-5.5059
G01 X3.4257 Y-5.4487
G01 X3.4032 Y-5.3903
G01 X3.3836 Y-5.3309
G01 X3.3669 Y-5.2706
G01 X3.3532 Y-5.2095
G01 X3.3425 Y-5.1479
G01 X3.3348 Y-5.0858
G01 X3.3302 Y-5.0234
G01 X3.3287 Y-4.9608
G01 X3.3302 Y-4.8982
G01 X3.3348 Y-4.8358
G01 X3.3425 Y-4.7737
G01 X3.3532 Y-4.7121
G01 X3.3669 Y-4.6510
G01 X3.3836 Y-4.5907
G01 X3.4032 Y-4.5313
G01 X3.4257 Y-4.4729
G01 X3.4511 Y-4.4157
G01 X3.4792 Y-4.3598
G01 X3.5101 Y-4.3054
G01 X3.5435 Y-4.2525
G01 X3.5796 Y-4.2013
G01 X3.6181 Y-4.1520
G01 X3.6589 Y-4.1046
G01 X3.7021 Y-4.0593
G01 X3.7474 Y-4.0161
G01 X3.7948 Y-3.9753
G01 X3.8441 Y-3.9368
G01 X3.8953 Y-3.9007
G01 X3.9482 Y-3.8673
G01 X4.0026 Y-3.8364
G01 X4.0585 Y-3.8083
G01 X4.1157 Y-3.7829
G01 X4.1741 Y-3.7604
G01 X4.2335 Y-3.7408
G01 X4.2938 Y-3.7241
G01 X4.3549 Y-3.7104
G01 X4.4165 Y-3.6997
G01 X4.4786 Y-3.6920
G01 X4.5410 Y-3.6874
G01 X4.6036 Y-3.6859
G01 X4.6662 Y-3.6874
G01 X4.7286 Y-3.6920
G01 X4.7907 Y-3.6997
G01 X4.8523 Y-3.7104
G01 X4.9134 Y-3.7241
G01 X4.9737 Y-3.7408
G01 X5.0331 Y-3.7604
G01 X5.0915 Y-3.7829
G01 X5.1487 Y-3.8083
G01 X5.2046 Y-3.8364
G01 X5.2590 Y-3.8673
G01 X5.3119 Y-3.9007
G01 X5.3631 Y-3.9368
G01 X5.4124 Y-3.9753
G01 X5.4598 Y-4.0161
G01 X5.5051 Y-4.0593
G01 X5.5483 Y-4.1046
G01 X5.5891 Y-4.1520
G01 X5.6276 Y-4.2013
G01 X5.6637 Y-4.2525
G01 X5.6971 Y-4.3054
G01 X5.7280 Y-4.3598
G01 X5.7561 Y-4.4157
G01 X5.7815 Y-4.4729
G01 X5.8040 Y-4.5313
G01 X5.8236 Y-4.5907
G01 X5.8403 Y-4.6510
G01 X5.8540 Y-4.7121
G01 X5.8647 Y-4.7737
G01 X5.8724 Y-4.8358
G01 X5.8770 Y-4.8982
G01 X5.8785 Y-4.9608
G00 Z2.0000
G00 X5.9536 Y-4.9608
G01 F70.00
G01 Z-0.0700
G01 F60.00
G01 X5.9519 Y-5.0270
G01 X5.9471 Y-5.0931
G01 X5.9389 Y-5.1589
G01 X5.9276 Y-5.2242
G01 X5.9131 Y-5.2888
G01 X5.8954 Y-5.3527
G01 X5.8746 Y-5.4156
G01 X5.8508 Y-5.4774
G01 X5.8239 Y-5.5380
G01 X5.7942 Y-5.5972
G01 X5.7615 Y-5.6548
G01 X5.7260 Y-5.7108
G01 X5.6879 Y-5.7650
G01 X5.6471 Y-5.8172
G01 X5.6039 Y-5.8674
G01 X5.5582 Y-5.9154
G01 X5.5102 Y-5.9611
G01 X5.4600 Y-6.0043
G01 X5.4078 Y-6.0451
G01 X5.3536 Y-6.0832
G01 X5.2976 Y-6.1187
G01 X5.2400 Y-6.1514
G01 X5.1808 Y-6.1811
G01 X5.1202 Y-6.2080
G01 X5.0584 Y-6.2318
G01 X4.9955 Y-6.2526
G01 X4.9316 Y-6.2703
G01 X4.8670 Y-6.2848
G01 X4.8017 Y-6.2961
G01 X4.7359 Y-6.3043
G01 X4.6698 Y-6.3091
G01 X4.6036 Y-6.3108
G01 X4.5374 Y-6.3091
G01 X4.4713 Y-6.3043
G01 X4.4055 Y-6.2961
G01 X4.3402 Y-6.2848
G01 X4.2756 Y-6.2703
G01 X4.2117 Y-6.2526
G01 X4.1488 Y-6.2318
G01 X4.0870 Y-6.2080
G01 X4.0264 Y-6.1811
G01 X3.9672 Y-6.1514
G01 X3.9096 Y-6.1187
G01 X3.8536 Y-6.0832
G01 X3.7994 Y-6.0451
G01 X3.7472 Y-6.0043
G01 X3.6970 Y-5.9611
G01 X3.6490 Y-5.9154
G01 X3.6033 Y-5.8674
G01 X3.5601 Y-5.8172
G01 X3.5193 Y-5.7650
G01 X3.4812 Y-5.7108
G01 X3.4457 Y-5.6548
G01 X3.4130 Y-5.5972
G01 X3.3833 Y-5.5380
G01 X3.3564 Y-5.4774
G01 X3.3326 Y-5.4156
G01 X3.3118 Y-5.3527
G01 X3.2941 Y-5.2888
G01 X3.2796 Y-5.2242
G01 X3.2683 Y-5.1589
G01 X3.2601 Y-5.0931
G01 X3.2553 Y-5.0270
G01 X3.2536 Y-4.9608
G01 X3.2553 Y-4.8946
G01 X3.2601 Y-4.8285
G01 X3.2683 Y-4.7627
G01 X3.2796 Y-4.6974
G01 X3.2941 Y-4.6328
G01 X3.3118 Y-4.5689
G01 X3.3326 Y-4.5060
G01 X3.3564 Y-4.4442
G01 X3.3833 Y-4.3836
G01 X3.4130 Y-4.3244
G01 X3.4457 Y-4.2668
G01 X3.4812 Y-4.2108
G01 X3.5193 Y-4.1566
G01 X3.5601 Y-4.1044
G01 X3.6033 Y-4.0542
G01 X3.6490 Y-4.0062
G01 X3.6970 Y-3.9605
G01 X3.7472 Y-3.9173
G01 X3.7994 Y-3.8765
G01 X3.8536 Y-3.8384
G01 X3.9096 Y-3.8029
G01 X3.9672 Y-3.7702
G01 X4.0264 Y-3.7405
G01 X4.0870 Y-3.7136
G01 X4.1488 Y-3.6898
G01 X4.2117 Y-3.6690
G01 X4.2756 Y-3.6513
G01 X4.3402 Y-3.6368
G01 X4.4055 Y-3.6255
G01 X4.4713 Y-3.6173
G01 X4.5374 Y-3.6125
G01 X4.6036 Y-3.6108
G01 X4.6698 Y-3.6125
G01 X4.7359 Y-3.6173
G01 X4.8017 Y-3.6255
G01 X4.8670 Y-3.6368
G01 X4.9316 Y-3.6513
G01 X4.9955 Y-3.6690
G01 X5.0584 Y-3.6898
G01 X5.1202 Y-3.7136
G01 X5.1808 Y-3.7405
G01 X5.2400 Y-3.7702
G01 X5.2976 Y-3.8029
G01 X5.3536 Y-3.8384
G01 X5.4078 Y-3.8765
G01 X5.4600 Y-3.9173
G01 X5.5102 Y-3.9605
G01 X5.5582 Y-4.0062
G01 X5.6039 Y-4.0542
G01 X5.6471 Y-4.1044
G01 X5.6879 Y-4.1566
G01 X5.7260 Y-4.2108
G01 X5.7615 Y-4.2668
G01 X5.7942 Y-4.3244
G01 X5.8239 Y-4.3836
G01 X5.8508 Y-4.4442
G01 X5.8746 Y-4.5060
G01 X5.8954 Y-4.5689
G01 X5.9131 Y-4.6328
G01 X5.9276 Y-4.6974
G01 X5.9389 Y-4.7627
G01 X5.9471 Y-4.8285
G01 X5.9519 Y-4.8946
G01 X5.9536 Y-4.9608
G00 Z2.0000
G00 X6.0286 Y-4.9608
G01 F70.00
G01 Z-0.0700
G01 F60.00
G01 X6.0269 Y-5.0307
G01 X6.0217 Y-5.1005
G01 X6.0132 Y-5.1699
G01 X6.0012 Y-5.2388
G01 X5.9859 Y-5.3070
G01 X5.9672 Y-5.3744
G01 X5.9453 Y-5.4409
G01 X5.9201 Y-5.5061
G01 X5.8918 Y-5.5701
G01 X5.8603 Y-5.6325
G01 X5.8258 Y-5.6934
G01 X5.7884 Y-5.7525
G01 X5.7482 Y-5.8097
G01 X5.7051 Y-5.8648
G01 X5.6594 Y-5.9178
G01 X5.6112 Y-5.9684
G01 X5.5606 Y-6.0166
G01 X5.5076 Y-6.0623
G01 X5.4525 Y-6.1054
G01 X5.3953 Y-6.1456
G01 X5.3362 Y-6.1830
G01 X5.2753 Y-6.2175
G01 X5.2129 Y-6.2490
G01 X5.1489 Y-6.2773
G01 X5.0837 Y-6.3025
G01 X5.0172 Y-6.3244
G01 X4.9498 Y-6.3431
G01 X4.8816 Y-6.3584
G01 X4.8127 Y-6.3704
G01 X4.7433 Y-6.3789
G01 X4.6735 Y-6.3841
G01 X4.6036 Y-6.3858
G01 X4.5337 Y-6.3841
G01 X4.4639 Y-6.3789
G01 X4.3945 Y-6.3704
G01 X4.3256 Y-6.3584
G01 X4.2574 Y-6.3431
G01 X4.1900 Y-6.3244
G01 X4.1235 Y-6.3025
G01 X4.0583 Y-6.2773
G01 X3.9943 Y-6.2490
G01 X3.9319 Y-6.2175
G01 X3.8710 Y-6.1830
G01 X3.8119 Y-6.1456
G01 X3.7547 Y-6.1054
G01 X3.6996 Y-6.0623
G01 X3.6466 Y-6.0166
G01 X3.5960 Y-5.9684
G01 X3.5478 Y-5.9178
G01 X3.5021 Y-5.8648
G01 X3.4590 Y-5.8097
G01 X3.4188 Y-5.7525
G01 X3.3814 Y-5.6934
G01 X3.3469 Y-5.6325
G01 X3.3154 Y-5.5701
G01 X3.2871 Y-5.5061
G01 X3.2619 Y-5.4409
G01 X3.2400 Y-5.3744
G01 X3.2213 Y-5.3070
G01 X3.2060 Y-5.2388
G01 X3.1940 Y-5.1699
G01 X3.1855 Y-5.1005
G01 X3.1803 Y-5.0307
G01 X3.1786 Y-4.9608
G01 X3.1803 Y-4.8909
G01 X3.1855 Y-4.8211
G01 X3.1940 Y-4.7517
G01 X3.2060 Y-4.6828
G01 X3.2213 Y-4.6146
G01 X3.2400 Y-4.5472
G01 X3.2619 Y-4.4807
G01 X3.2871 Y-4.4155
G01 X3.3154 Y-4.3515
G01 X3.3469 Y-4.2891
G01 X3.3814 Y-4.2282
G01 X3.4188 Y-4.1691
G01 X3.4590 Y-4.1119
G01 X3.5021 Y-4.0568
G01 X3.5478 Y-4.0038
G01 X3.5960 Y-3.9532
G01 X3.6466 Y-3.9050
G01 X3.6996 Y-3.8593
G01 X3.7547 Y-3.8162
G01 X3.8119 Y-3.7760
G01 X3.8710 Y-3.7386
G01 X3.9319 Y-3.7041
G01 X3.9943 Y-3.6726
G01 X4.0583 Y-3.6443
G01 X4.1235 Y-3.6191
G01 X4.1900 Y-3.5972
G01 X4.2574 Y-3.5785
G01 X4.3256 Y-3.5632
G01 X4.3945 Y-3.5512
G01 X4.4639 Y-3.5427
G01 X4.5337 Y-3.5375
G01 X4.6036 Y-3.5358
G01 X4.6735 Y-3.5375
G01 X4.7433 Y-3.5427
G01 X4.8127 Y-3.5512
G01 X4.8816 Y-3.5632
G01 X4.9498 Y-3.5785
G01 X5.0172 Y-3.5972
G01 X5.0837 Y-3.6191
G01 X5.1489 Y-3.6443
G01 X5.2129 Y-3.6726
G01 X5.2753 Y-3.7041
G01 X5.3362 Y-3.7386
G01 X5.3953 Y-3.7760
G01 X5.4525 Y-3.8162
G01 X5.5076 Y-3.8593
G01 X5.5606 Y-3.9050
G01 X5.6112 Y-3.9532
G01 X5.6594 Y-4.0038
G01 X5.7051 Y-4.0568
G01 X5.7482 Y-4.1119
G01 X5.7884 Y-4.1691
G01 X5.8258 Y-4.2282
G01 X5.8603 Y-4.2891
G01 X5.8918 Y-4.3515
G01 X5.9201 Y-4.4155
G01 X5.9453 Y-4.4807
G01 X5.9672 Y-4.5472
G01 X5.9859 Y-4.6146
G01 X6.0012 Y-4.6828
G01 X6.0132 Y-4.7517
G01 X6.0217 Y-4.8211
G01 X6.0269 Y-4.8909
G01 X6.0286 Y-4.9608
G00 Z2.0000
G00 X13.8713 Y-11.4695
G01 F70.00
G01 Z-0.0700
G01 F60.00
G01 X13.8694 Y-11.4890
G01 X13.8637 Y-11.5077
G01 X13.8545 Y-11.5250
G01 X13.8420 Y-11.5401
G01 X13.8269 Y-11.5526
G01 X13.8096 Y-11.5618
G01 X13.7909 Y-11.5675
G01 X13.7714 Y-11.5694
G01 X13.7519 Y-11.5675
G01 X13.7332 Y-11.5618
G01 X13.7159 Y-11.5526
G01 X13.7008 Y-11.5401
G01 X13.6883 Y-11.5250
G01 X13.6791 Y-11.5077
G01 X13.6734 Y-11.4890
G01 X13.6715 Y-11.4695
G01 X13.6734 Y-11.4500
G01 X13.6791 Y-11.4313
G01 X13.6883 Y-11.4140
G01 X13.7008 Y-11.3989
G01 X13.7159 Y-11.3864
G01 X13.7332 Y-11.3772
G01 X13.7519 Y-11.3715
G01 X13.7714 Y-11.3696
G01 X13.7909 Y-11.3715
G01 X13.8096 Y-11.3772
G01 X13.8269 Y-11.3864
G01 X13.8420 Y-11.3989
G01 X13.8545 Y-11.4140
G01 X13.8637 Y-11.4313
G01 X13.8694 Y-11.4500
G01 X13.8713 Y-11.4695
G00 Z2.0000
G00 X13.9463 Y-11.4695
G01 F70.00
G01 Z-0.0700
G01 F60.00
G01 X13.9455 Y-11.4866
G01 X13.9430 Y-11.5036
G01 X13.9388 Y-11.5203
G01 X13.9330 Y-11.5364
G01 X13.9257 Y-11.5520
G01 X13.9169 Y-11.5667
G01 X13.9066 Y-11.5805
G01 X13.8951 Y-11.5932
G01 X13.8824 Y-11.6047
G01 X13.8686 Y-11.6150
G01 X13.8539 Y-11.6238
G01 X13.8383 Y-11.6311
G01 X13.8222 Y-11.6369
G01 X13.8055 Y-11.6411
G01 X13.7885 Y-11.6436
G01 X13.7714 Y-11.6444
G01 X13.7543 Y-11.6436
G01 X13.7373 Y-11.6411
G01 X13.7206 Y-11.6369
G01 X13.7045 Y-11.6311
G01 X13.6889 Y-11.6238
G01 X13.6742 Y-11.6150
G01 X13.6604 Y-11.6047
G01 X13.6477 Y-11.5932
G01 X13.6362 Y-11.5805
G01 X13.6259 Y-11.5667
G01 X13.6171 Y-11.5520
G01 X13.6098 Y-11.5364
G01 X13.6040 Y-11.5203
G01 X13.5998 Y-11.5036
G01 X13.5973 Y-11.4866
G01 X13.5965 Y-11.4695
G01 X13.5973 Y-11.4524
G01 X13.5998 Y-11.4354
G01 X13.6040 Y-11.4187
G01 X13.6098 Y-11.4026
G01 X13.6171 Y-11.3870
G01 X13.6259 Y-11.3723
G01 X13.6362 Y-11.3585
G01 X13.6477 Y-11.3458
G01 X13.6604 Y-11.3343
G01 X13.6742 Y-11.3240
G01 X13.6889 Y-11.3152
G01 X13.7045 Y-11.3079
G01 X13.7206 Y-11.3021
G01 X13.7373 Y-11.2979
G01 X13.7543 Y-11.2954
G01 X13.7714 Y-11.2946
G01 X13.7885 Y-11.2954
G01 X13.8055 Y-11.2979
G01 X13.8222 Y-11.3021
G01 X13.8383 Y-11.3079
G01 X13.8539 Y-11.3152
G01 X13.8686 Y-11.3240
G01 X13.8824 Y-11.3343
G01 X13.8951 Y-11.3458
G01 X13.9066 Y-11.3585
G01 X13.9169 Y-11.3723
G01 X13.9257 Y-11.3870
G01 X13.9330 Y-11.4026
G01 X13.9388 Y-11.4187
G01 X13.9430 Y-11.4354
G01 X13.9455 Y-11.4524
G01 X13.9463 Y-11.4695
G00 Z2.0000
G00 X14.0214 Y-11.4695
G01 F70.00
G01 Z-0.0700
G01 F60.00
G01 X14.0202 Y-11.4940
G01 X14.0166 Y-11.5183
G01 X14.0106 Y-11.5421
G01 X14.0023 Y-11.5652
G01 X13.9918 Y-11.5873
G01 X13.9792 Y-11.6084
G01 X13.9646 Y-11.6281
G01 X13.9481 Y-11.6462
G01 X13.9300 Y-11.6627
G01 X13.9103 Y-11.6773
G01 X13.8892 Y-11.6899
G01 X13.8671 Y-11.7004
G01 X13.8440 Y-11.7087
G01 X13.8202 Y-11.7147
G01 X13.7959 Y-11.7183
G01 X13.7714 Y-11.7195
G01 X13.7469 Y-11.7183
G01 X13.7226 Y-11.7147
G01 X13.6988 Y-11.7087
G01 X13.6757 Y-11.7004
G01 X13.6536 Y-11.6899
G01 X13.6325 Y-11.6773
G01 X13.6128 Y-11.6627
G01 X13.5947 Y-11.6462
G01 X13.5782 Y-11.6281
G01 X13.5636 Y-11.6084
G01 X13.5510 Y-11.5873
G01 X13.5405 Y-11.5652
G01 X13.5322 Y-11.5421
G01 X13.5262 Y-11.5183
G01 X13.5226 Y-11.4940
G01 X13.5214 Y-11.4695
G01 X13.5226 Y-11.4450
G01 X13.5262 Y-11.4207
G01 X13.5322 Y-11.3969
G01 X13.5405 Y-11.3738
G01 X13.5510 Y-11.3517
G01 X13.5636 Y-11.3306
G01 X13.5782 Y-11.3109
G01 X13.5947 Y-11.2928
G01 X13.6128 Y-11.2763
G01 X13.6325 Y-11.2617
G01 X13.6536 Y-11.2491
G01 X13.6757 Y-11.2386
G01 X13.6988 Y-11.2303
G01 X13.7226 Y-11.2243
G01 X13.7469 Y-11.2207
G01 X13.7714 Y-11.2195
G01 X13.7959 Y-11.2207
G01 X13.8202 Y-11.2243
G01 X13.8440 Y-11.2303
G01 X13.8671 Y-11.2386
G01 X13.8892 Y-11.2491
G01 X13.9103 Y-11.2617
G01 X13.9300 Y-11.2763
G01 X13.9481 Y-11.2928
G01 X13.9646 Y-11.3109
G01 X13.9792 Y-11.3306
G01 X13.9918 Y-11.3517
G01 X14.0023 Y-11.3738
G01 X14.0106 Y-11.3969
G01 X14.0166 Y-11.4207
G01 X14.0202 Y-11.4450
G01 X14.0214 Y-11.4695
G00 Z2.0000
G00 X14.0964 Y-11.4695
G01 F70.00
G01 Z-0.0700
G01 F60.00
G01 X14.0948 Y-11.5014
G01 X14.0901 Y-11.5329
G01 X14.0824 Y-11.5638
G01 X14.0716 Y-11.5939
G01 X14.0580 Y-11.6227
G01 X14.0416 Y-11.6500
G01 X14.0226 Y-11.6757
G01 X14.0012 Y-11.6993
G01 X13.9776 Y-11.7207
G01 X13.9519 Y-11.7397
G01 X13.9246 Y-11.7561
G01 X13.8958 Y-11.7697
G01 X13.8657 Y-11.7805
G01 X13.8348 Y-11.7882
G01 X13.8033 Y-11.7929
G01 X13.7714 Y-11.7945
G01 X13.7395 Y-11.7929
G01 X13.7080 Y-11.7882
G01 X13.6771 Y-11.7805
G01 X13.6470 Y-11.7697
G01 X13.6182 Y-11.7561
G01 X13.5909 Y-11.7397
G01 X13.5652 Y-11.7207
G01 X13.5416 Y-11.6993
G01 X13.5202 Y-11.6757
G01 X13.5012 Y-11.6500
G01 X13.4848 Y-11.6227
G01 X13.4712 Y-11.5939
G01 X13.4604 Y-11.5638
G01 X13.4527 Y-11.5329
G01 X13.4480 Y-11.5014
G01 X13.4464 Y-11.4695
G01 X13.4480 Y-11.4376
G01 X13.4527 Y-11.4061
G01 X13.4604 Y-11.3752
G01 X13.4712 Y-11.3451
G01 X13.4848 Y-11.3163
G01 X13.5012 Y-11.2890
G01 X13.5202 Y-11.2633
G01 X13.5416 Y-11.2397
G01 X13.5652 Y-11.2183
G01 X13.5909 Y-11.1993
G01 X13.6182 Y-11.1829
G01 X13.6470 Y-11.1693
G01 X13.6771 Y-11.1585
G01 X13.7080 Y-11.1508
G01 X13.7395 Y-11.1461
G01 X13.7714 Y-11.1445
G01 X13.8033 Y-11.1461
G01 X13.8348 Y-11.1508
G01 X13.8657 Y-11.1585
G01 X13.8958 Y-11.1693
G01 X13.9246 Y-11.1829
G01 X13.9519 Y-11.1993
G01 X13.9776 Y-11.2183
G01 X14.0012 Y-11.2397
G01 X14.0226 Y-11.2633
G01 X14.0416 Y-11.2890
G01 X14.0580 Y-11.3163
G01 X14.0716 Y-11.3451
G01 X14.0824 Y-11.3752
G01 X14.0901 Y-11.4061
G01 X14.0948 Y-11.4376
G01 X14.0964 Y-11.4695
G00 Z2.0000
G00 X15.0877 Y-11.4137
G01 F70.00
G01 Z-0.0700
G01 F60.00
G01 X15.0864 Y-11.4695
G01 X15.0877 Y-11.5253
G01 X15.0635 Y-11.5216
G01 X15.0414 Y-11.5205
G01 X15.0193 Y-11.5216
G01 X14.9951 Y-11.5253
G01 X14.9964 Y-11.4695
G01 X14.9951 Y-11.4137
G01 X15.0193 Y-11.4174
G01 X15.0414 Y-11.4185
G01 X15.0635 Y-11.4174
G01 X15.0877 Y-11.4137
G00 Z2.0000
G00 X15.1865 Y-11.2314
G01 F70.00
G01 Z-0.0700
G01 F60.00
G01 X15.1831 Y-11.2470
G01 X15.1741 Y-11.2989
G01 X15.1671 Y-11.3549
G01 X15.1628 Y-11.4131
G01 X15.1614 Y-11.4695
G01 X15.1628 Y-11.5259
G01 X15.1671 Y-11.5841
G01 X15.1741 Y-11.6401
G01 X15.1831 Y-11.6920
G01 X15.1865 Y-11.7076
G01 X15.1785 Y-11.6847
G01 X15.1671 Y-11.6637
G01 X15.1597 Y-11.6532
G01 X15.1513 Y-11.6434
G01 X15.1337 Y-11.6272
G01 X15.1232 Y-11.6197
G01 X15.1121 Y-11.6132
G01 X15.0902 Y-11.6036
G01 X15.0670 Y-11.5977
G01 X15.0543 Y-11.5960
G01 X15.0414 Y-11.5955
G01 X15.0285 Y-11.5960
G01 X15.0158 Y-11.5977
G01 X14.9926 Y-11.6036
G01 X14.9806 Y-11.6083
G01 X14.9691 Y-11.6141
G01 X14.9491 Y-11.6272
G01 X14.9315 Y-11.6434
G01 X14.9231 Y-11.6532
G01 X14.9157 Y-11.6637
G01 X14.9043 Y-11.6847
G01 X14.8963 Y-11.7076
G01 X14.8997 Y-11.6920
G01 X14.9087 Y-11.6401
G01 X14.9157 Y-11.5841
G01 X14.9200 Y-11.5259
G01 X14.9214 Y-11.4695
G01 X14.9200 Y-11.4131
G01 X14.9157 Y-11.3549
G01 X14.9087 Y-11.2989
G01 X14.8997 Y-11.2470
G01 X14.8963 Y-11.2314
G01 X14.9043 Y-11.2543
G01 X14.9157 Y-11.2753
G01 X14.9231 Y-11.2858
G01 X14.9315 Y-11.2956
G01 X14.9491 Y-11.3118
G01 X14.9596 Y-11.3193
G01 X14.9707 Y-11.3258
G01 X14.9926 Y-11.3354
G01 X15.0158 Y-11.3413
G01 X15.0285 Y-11.3430
G01 X15.0414 Y-11.3435
G01 X15.0543 Y-11.3430
G01 X15.0670 Y-11.3413
G01 X15.0902 Y-11.3354
G01 X15.1022 Y-11.3307
G01 X15.1137 Y-11.3249
G01 X15.1337 Y-11.3118
G01 X15.1435 Y-11.3034
G01 X15.1525 Y-11.2943
G01 X15.1671 Y-11.2753
G01 X15.1785 Y-11.2543
G01 X15.1865 Y-11.2314
G00 Z2.0000
G00 X16.4113 Y-11.4695
G01 F70.00
G01 Z-0.0700
G01 F60.00
G01 X16.4094 Y-11.4890
G01 X16.4037 Y-11.5077
G01 X16.3945 Y-11.5250
G01 X16.3820 Y-11.5401
G01 X16.3669 Y-11.5526
G01 X16.3496 Y-11.5618
G01 X16.3309 Y-11.5675
G01 X16.3114 Y-11.5694
G01 X16.2919 Y-11.5675
G01 X16.2732 Y-11.5618
G01 X16.2559 Y-11.5526
G01 X16.2408 Y-11.5401
G01 X16.2283 Y-11.5250
G01 X16.2191 Y-11.5077
G01 X16.2134 Y-11.4890
G01 X16.2115 Y-11.4695
G01 X16.2134 Y-11.4500
G01 X16.2191 Y-11.4313
G01 X16.2283 Y-11.4140
G01 X16.2408 Y-11.3989
G01 X16.2559 Y-11.3864
G01 X16.2732 Y-11.3772
G01 X16.2919 Y-11.3715
G01 X16.3114 Y-11.3696
G01 X16.3309 Y-11.3715
G01 X16.3496 Y-11.3772
G01 X16.3669 Y-11.3864
G01 X16.3820 Y-11.3989
G01 X16.3945 Y-11.4140
G01 X16.4037 Y-11.4313
G01 X16.4094 Y-11.4500
G01 X16.4113 Y-11.4695
G00 Z2.0000
G00 X16.4863 Y-11.4695
G01 F70.00
G01 Z-0.0700
G01 F60.00
G01 X16.4855 Y-11.4866
G01 X16.4830 Y-11.5036
G01 X16.4788 Y-11.5203
G01 X16.4730 Y-11.5364
G01 X16.4657 Y-11.5520
G01 X16.4569 Y-11.5667
G01 X16.4466 Y-11.5805
G01 X16.4351 Y-11.5932
G01 X16.4224 Y-11.6047
G01 X16.4086 Y-11.6150
G01 X16.3939 Y-11.6238
G01 X16.3783 Y-11.6311
G01 X16.3622 Y-11.6369
G01 X16.3455 Y-11.6411
G01 X16.3285 Y-11.6436
G01 X16.3114 Y-11.6444
G01 X16.2943 Y-11.6436
G01 X16.2773 Y-11.6411
G01 X16.2606 Y-11.6369
G01 X16.2445 Y-11.6311
G01 X16.2289 Y-11.6238
G01 X16.2142 Y-11.6150
G01 X16.2004 Y-11.6047
G01 X16.1877 Y-11.5932
G01 X16.1762 Y-11.5805
G01 X16.1659 Y-11.5667
G01 X16.1571 Y-11.5520
G01 X16.1498 Y-11.5364
G01 X16.1440 Y-11.5203
G01 X16.1398 Y-11.5036
G01 X16.1373 Y-11.4866
G01 X16.1365 Y-11.4695
G01 X16.1373 Y-11.4524
G01 X16.1398 Y-11.4354
G01 X16.1440 Y-11.4187
G01 X16.1498 Y-11.4026
G01 X16.1571 Y-11.3870
G01 X16.1659 Y-11.3723
G01 X16.1762 Y-11.3585
G01 X16.1877 Y-11.3458
G01 X16.2004 Y-11.3343
G01 X16.2142 Y-11.3240
G01 X16.2289 Y-11.3152
G01 X16.2445 Y-11.3079
G01 X16.2606 Y-11.3021
G01 X16.2773 Y-11.2979
G01 X16.2943 Y-11.2954
G01 X16.3114 Y-11.2946
G01 X16.3285 Y-11.2954
G01 X16.3455 Y-11.2979
G01 X16.3622 Y-11.3021
G01 X16.3783 Y-11.3079
G01 X16.3939 Y-11.3152
G01 X16.4086 Y-11.3240
G01 X16.4224 Y-11.3343
G01 X16.4351 Y-11.3458
G01 X16.4466 Y-11.3585
G01 X16.4569 Y-11.3723
G01 X16.4657 Y-11.3870
G01 X16.4730 Y-11.4026
G01 X16.4788 Y-11.4187
G01 X16.4830 Y-11.4354
G01 X16.4855 Y-11.4524
G01 X16.4863 Y-11.4695
G00 Z2.0000
G00 X16.5614 Y-11.4695
G01 F70.00
G01 Z-0.0700
G01 F60.00
G01 X16.5602 Y-11.4940
G01 X16.5566 Y-11.5183
G01 X16.5506 Y-11.5421
G01 X16.5423 Y-11.5652
G01 X16.5318 Y-11.5873
G01 X16.5192 Y-11.6084
G01 X16.5046 Y-11.6281
G01 X16.4881 Y-11.6462
G01 X16.4700 Y-11.6627
G01 X16.4503 Y-11.6773
G01 X16.4292 Y-11.6899
G01 X16.4071 Y-11.7004
G01 X16.3840 Y-11.7087
G01 X16.3602 Y-11.7147
G01 X16.3359 Y-11.7183
G01 X16.3114 Y-11.7195
G01 X16.2869 Y-11.7183
G01 X16.2626 Y-11.7147
G01 X16.2388 Y-11.7087
G01 X16.2157 Y-11.7004
G01 X16.1936 Y-11.6899
G01 X16.1725 Y-11.6773
G01 X16.1528 Y-11.6627
G01 X16.1347 Y-11.6462
G01 X16.1182 Y-11.6281
G01 X16.1036 Y-11.6084
G01 X16.0910 Y-11.5873
G01 X16.0805 Y-11.5652
G01 X16.0722 Y-11.5421
G01 X16.0662 Y-11.5183
G01 X16.0626 Y-11.4940
G01 X16.0614 Y-11.4695
G01 X16.0626 Y-11.4450
G01 X16.0662 Y-11.4207
G01 X16.0722 Y-11.3969
G01 X16.0805 Y-11.3738
G01 X16.0910 Y-11.3517
G01 X16.1036 Y-11.3306
G01 X16.1182 Y-11.3109
G01 X16.1347 Y-11.2928
G01 X16.1528 Y-11.2763
G01 X16.1725 Y-11.2617
G01 X16.1936 Y-11.2491
G01 X16.2157 Y-11.2386
G01 X16.2388 Y-11.2303
G01 X16.2626 Y-11.2243
G01 X16.2869 Y-11.2207
G01 X16.3114 Y-11.2195
G01 X16.3359 Y-11.2207
G01 X16.3602 Y-11.2243
G01 X16.3840 Y-11.2303
G01 X16.4071 Y-11.2386
G01 X16.4292 Y-11.2491
G01 X16.4503 Y-11.2617
G01 X16.4700 Y-11.2763
G01 X16.4881 Y-11.2928
G01 X16.5046 Y-11.3109
G01 X16.5192 Y-11.3306
G01 X16.5318 Y-11.3517
G01 X16.5423 Y-11.3738
G01 X16.5506 Y-11.3969
G01 X16.5566 Y-11.4207
G01 X16.5602 Y-11.4450
G01 X16.5614 Y-11.4695
G00 Z2.0000
G00 X16.6364 Y-11.4695
G01 F70.00
G01 Z-0.0700
G01 F60.00
G01 X16.6348 Y-11.5014
G01 X16.6301 Y-11.5329
G01 X16.6224 Y-11.5638
G01 X16.6116 Y-11.5939
G01 X16.5980 Y-11.6227
G01 X16.5816 Y-11.6500
G01 X16.5626 Y-11.6757
G01 X16.5412 Y-11.6993
G01 X16.5176 Y-11.7207
G01 X16.4919 Y-11.7397
G01 X16.4646 Y-11.7561
G01 X16.4358 Y-11.7697
G01 X16.4057 Y-11.7805
G01 X16.3748 Y-11.7882
G01 X16.3433 Y-11.7929
G01 X16.3114 Y-11.7945
G01 X16.2795 Y-11.7929
G01 X16.2480 Y-11.7882
G01 X16.2171 Y-11.7805
G01 X16.1870 Y-11.7697
G01 X16.1582 Y-11.7561
G01 X16.1309 Y-11.7397
G01 X16.1052 Y-11.7207
G01 X16.0816 Y-11.6993
G01 X16.0602 Y-11.6757
G01 X16.0412 Y-11.6500
G01 X16.0248 Y-11.6227
G01 X16.0112 Y-11.5939
G01 X16.0004 Y-11.5638
G01 X15.9927 Y-11.5329
G01 X15.9880 Y-11.5014
G01 X15.9864 Y-11.4695
G01 X15.9880 Y-11.4376
G01 X15.9927 Y-11.4061
G01 X16.0004 Y-11.3752
G01 X16.0112 Y-11.3451
G01 X16.0248 Y-11.3163
G01 X16.0412 Y-11.2890
G01 X16.0602 Y-11.2633
G01 X16.0816 Y-11.2397
G01 X16.1052 Y-11.2183
G01 X16.1309 Y-11.1993
G01 X16.1582 Y-11.1829
G01 X16.1870 Y-11.1693
G01 X16.2171 Y-11.1585
G01 X16.2480 Y-11.1508
G01 X16.2795 Y-11.1461
G01 X16.3114 Y-11.1445
G01 X16.3433 Y-11.1461
G01 X16.3748 Y-11.1508
G01 X16.4057 Y-11.1585
G01 X16.4358 Y-11.1693
G01 X16.4646 Y-11.1829
G01 X16.4919 Y-11.1993
G01 X16.5176 Y-11.2183
G01 X16.5412 Y-11.2397
G01 X16.5626 Y-11.2633
G01 X16.5816 Y-11.2890
G01 X16.5980 Y-11.3163
G01 X16.6116 Y-11.3451
G01 X16.6224 Y-11.3752
G01 X16.6301 Y-11.4061
G01 X16.6348 Y-11.4376
G01 X16.6364 Y-11.4695
G00 Z2.0000
G00 X17.6278 Y-11.5251
G01 F70.00
G01 Z-0.0700
G01 F60.00
G01 X17.6035 Y-11.5213
G01 X17.5814 Y-11.5203
G01 X17.5594 Y-11.5213
G01 X17.5351 Y-11.5251
G01 X17.5364 Y-11.4695
G01 X17.5351 Y-11.4139
G01 X17.5594 Y-11.4177
G01 X17.5815 Y-11.4187
G01 X17.6035 Y-11.4177
G01 X17.6278 Y-11.4139
G01 X17.6265 Y-11.4695
G01 X17.6278 Y-11.5251
G00 Z2.0000
G00 X17.7266 Y-11.2316
G01 F70.00
G01 Z-0.0700
G01 F60.00
G01 X17.7232 Y-11.2470
G01 X17.7142 Y-11.2989
G01 X17.7072 Y-11.3549
G01 X17.7029 Y-11.4131
G01 X17.7015 Y-11.4695
G01 X17.7029 Y-11.5259
G01 X17.7072 Y-11.5841
G01 X17.7142 Y-11.6401
G01 X17.7232 Y-11.6920
G01 X17.7266 Y-11.7074
G01 X17.7186 Y-11.6845
G01 X17.7072 Y-11.6635
G01 X17.6997 Y-11.6530
G01 X17.6913 Y-11.6432
G01 X17.6737 Y-11.6270
G01 X17.6538 Y-11.6138
G01 X17.6422 Y-11.6081
G01 X17.6302 Y-11.6034
G01 X17.6071 Y-11.5975
G01 X17.5943 Y-11.5958
G01 X17.5814 Y-11.5953
G01 X17.5686 Y-11.5958
G01 X17.5558 Y-11.5975
G01 X17.5327 Y-11.6034
G01 X17.5207 Y-11.6081
G01 X17.5091 Y-11.6138
G01 X17.4892 Y-11.6270
G01 X17.4716 Y-11.6432
G01 X17.4632 Y-11.6530
G01 X17.4557 Y-11.6635
G01 X17.4443 Y-11.6845
G01 X17.4363 Y-11.7074
G01 X17.4397 Y-11.6920
G01 X17.4487 Y-11.6401
G01 X17.4557 Y-11.5841
G01 X17.4600 Y-11.5259
G01 X17.4614 Y-11.4695
G01 X17.4600 Y-11.4131
G01 X17.4557 Y-11.3549
G01 X17.4487 Y-11.2989
G01 X17.4397 Y-11.2470
G01 X17.4363 Y-11.2316
G01 X17.4443 Y-11.2545
G01 X17.4557 Y-11.2755
G01 X17.4632 Y-11.2860
G01 X17.4716 Y-11.2958
G01 X17.4892 Y-11.3120
G01 X17.4997 Y-11.3195
G01 X17.5107 Y-11.3260
G01 X17.5327 Y-11.3356
G01 X17.5450 Y-11.3393
G01 X17.5576 Y-11.3418
G01 X17.5815 Y-11.3437
G01 X17.5943 Y-11.3432
G01 X17.6071 Y-11.3415
G01 X17.6302 Y-11.3356
G01 X17.6422 Y-11.3309
G01 X17.6538 Y-11.3252
G01 X17.6737 Y-11.3120
G01 X17.6913 Y-11.2958
G01 X17.6997 Y-11.2860
G01 X17.7072 Y-11.2755
G01 X17.7186 Y-11.2545
G01 X17.7266 Y-11.2316
G00 Z2.0000
G00 X17.7462 Y-11.9973
G01 F70.00
G01 Z-0.0700
G01 F60.00
G01 X17.7198 Y-11.9383
G01 X17.6981 Y-11.8822
G01 X17.6793 Y-11.8251
G01 X17.6632 Y-11.7671
G01 X17.6532 Y-11.7235
G01 X17.6496 Y-11.7140
G01 X17.6453 Y-11.7059
G01 X17.6376 Y-11.6956
G01 X17.6276 Y-11.6861
G01 X17.6168 Y-11.6791
G01 X17.6041 Y-11.6738
G01 X17.5906 Y-11.6708
G01 X17.5769 Y-11.6704
G01 X17.5632 Y-11.6725
G01 X17.5511 Y-11.6767
G01 X17.5390 Y-11.6834
G01 X17.5291 Y-11.6916
G01 X17.5207 Y-11.7013
G01 X17.5137 Y-11.7132
G01 X17.5089 Y-11.7261
G01 X17.4997 Y-11.7671
G01 X17.4836 Y-11.8251
G01 X17.4648 Y-11.8822
G01 X17.4431 Y-11.9383
G01 X17.4188 Y-11.9932
G01 X17.3917 Y-12.0470
G01 X17.3621 Y-12.0993
G01 X17.3299 Y-12.1501
G01 X17.2953 Y-12.1992
G01 X17.2583 Y-12.2466
G01 X17.2190 Y-12.2921
G01 X17.1776 Y-12.3357
G01 X17.1340 Y-12.3771
G01 X17.0885 Y-12.4164
G01 X17.0411 Y-12.4534
G01 X16.9920 Y-12.4880
G01 X16.9412 Y-12.5202
G01 X16.8889 Y-12.5498
G01 X16.8351 Y-12.5769
G01 X16.7802 Y-12.6012
G01 X16.7241 Y-12.6229
G01 X16.6670 Y-12.6417
G01 X16.6090 Y-12.6578
G01 X16.5504 Y-12.6709
G01 X16.4911 Y-12.6812
G01 X16.4315 Y-12.6886
G01 X16.3715 Y-12.6930
G01 X16.3114 Y-12.6945
G01 X16.2513 Y-12.6930
G01 X16.1913 Y-12.6886
G01 X16.1317 Y-12.6812
G01 X16.0724 Y-12.6709
G01 X16.0138 Y-12.6578
G01 X15.9558 Y-12.6417
G01 X15.8987 Y-12.6229
G01 X15.8426 Y-12.6012
G01 X15.7877 Y-12.5769
G01 X15.7339 Y-12.5498
G01 X15.6816 Y-12.5202
G01 X15.6308 Y-12.4880
G01 X15.5817 Y-12.4534
G01 X15.5343 Y-12.4164
G01 X15.4888 Y-12.3771
G01 X15.4452 Y-12.3357
G01 X15.4038 Y-12.2921
G01 X15.3645 Y-12.2466
G01 X15.3275 Y-12.1992
G01 X15.2929 Y-12.1501
G01 X15.2607 Y-12.0993
G01 X15.2311 Y-12.0470
G01 X15.2040 Y-11.9932
G01 X15.1797 Y-11.9383
G01 X15.1580 Y-11.8822
G01 X15.1392 Y-11.8251
G01 X15.1231 Y-11.7671
G01 X15.1134 Y-11.7246
G01 X15.1096 Y-11.7142
G01 X15.1043 Y-11.7046
G01 X15.0976 Y-11.6958
G01 X15.0897 Y-11.6881
G01 X15.0807 Y-11.6816
G01 X15.0709 Y-11.6765
G01 X15.0614 Y-11.6732
G01 X15.0506 Y-11.6710
G01 X15.0396 Y-11.6705
G01 X15.0286 Y-11.6716
G01 X15.0196 Y-11.6737
G01 X15.0119 Y-11.6765
G01 X15.0036 Y-11.6807
G01 X14.9967 Y-11.6852
G01 X14.9897 Y-11.6912
G01 X14.9840 Y-11.6972
G01 X14.9790 Y-11.7038
G01 X14.9744 Y-11.7118
G01 X14.9691 Y-11.7255
G01 X14.9597 Y-11.7671
G01 X14.9436 Y-11.8251
G01 X14.9248 Y-11.8822
G01 X14.9031 Y-11.9383
G01 X14.8788 Y-11.9932
G01 X14.8517 Y-12.0470
G01 X14.8221 Y-12.0993
G01 X14.7899 Y-12.1501
G01 X14.7553 Y-12.1992
G01 X14.7183 Y-12.2466
G01 X14.6790 Y-12.2921
G01 X14.6376 Y-12.3357
G01 X14.5940 Y-12.3771
G01 X14.5485 Y-12.4164
G01 X14.5011 Y-12.4534
G01 X14.4520 Y-12.4880
G01 X14.4012 Y-12.5202
G01 X14.3489 Y-12.5498
G01 X14.2951 Y-12.5769
G01 X14.2402 Y-12.6012
G01 X14.1841 Y-12.6229
G01 X14.1270 Y-12.6417
G01 X14.0690 Y-12.6578
G01 X14.0104 Y-12.6709
G01 X13.9511 Y-12.6812
G01 X13.8915 Y-12.6886
G01 X13.8315 Y-12.6930
G01 X13.7714 Y-12.6945
G01 X13.7113 Y-12.6930
G01 X13.6513 Y-12.6886
G01 X13.5917 Y-12.6812
G01 X13.5324 Y-12.6709
G01 X13.4738 Y-12.6578
G01 X13.4158 Y-12.6417
G01 X13.3587 Y-12.6229
G01 X13.3026 Y-12.6012
G01 X13.2477 Y-12.5769
G01 X13.1939 Y-12.5498
G01 X13.1416 Y-12.5202
G01 X13.0908 Y-12.4880
G01 X13.0417 Y-12.4534
G01 X12.9943 Y-12.4164
G01 X12.9488 Y-12.3771
G01 X12.9052 Y-12.3357
G01 X12.8638 Y-12.2921
G01 X12.8245 Y-12.2466
G01 X12.7875 Y-12.1992
G01 X12.7529 Y-12.1501
G01 X12.7207 Y-12.0993
G01 X12.6911 Y-12.0470
G01 X12.6640 Y-11.9932
G01 X12.6397 Y-11.9383
G01 X12.6218 Y-11.8919
G01 X12.6165 Y-11.8812
G01 X12.6095 Y-11.8714
G01 X12.6011 Y-11.8629
G01 X12.5915 Y-11.8559
G01 X12.5808 Y-11.8504
G01 X12.5668 Y-11.8462
G01 X12.5521 Y-11.8447
G01 X11.6399 Y-11.8447
G01 X11.6298 Y-11.8454
G01 X11.6208 Y-11.8472
G01 X11.6129 Y-11.8498
G01 X11.6053 Y-11.8532
G01 X11.5974 Y-11.8579
G01 X11.5902 Y-11.8635
G01 X11.5843 Y-11.8694
G01 X11.5791 Y-11.8758
G01 X11.5742 Y-11.8836
G01 X11.5684 Y-11.8971
G01 X11.5561 Y-11.9412
G01 X11.5311 Y-12.0169
G01 X11.5024 Y-12.0914
G01 X11.4701 Y-12.1643
G01 X11.4342 Y-12.2355
G01 X11.3949 Y-12.3049
G01 X11.3522 Y-12.3723
G01 X11.3063 Y-12.4375
G01 X11.2572 Y-12.5004
G01 X11.2051 Y-12.5608
G01 X11.1501 Y-12.6185
G01 X11.0924 Y-12.6735
G01 X11.0320 Y-12.7256
G01 X10.9691 Y-12.7747
G01 X10.9039 Y-12.8206
G01 X10.8365 Y-12.8633
G01 X10.7671 Y-12.9026
G01 X10.6959 Y-12.9385
G01 X10.6230 Y-12.9708
G01 X10.5485 Y-12.9995
G01 X10.4728 Y-13.0245
G01 X10.3959 Y-13.0458
G01 X10.3181 Y-13.0633
G01 X10.2395 Y-13.0769
G01 X10.1604 Y-13.0867
G01 X10.0808 Y-13.0925
G01 X10.0011 Y-13.0945
G01 X9.9214 Y-13.0925
G01 X9.8418 Y-13.0867
G01 X9.7627 Y-13.0769
G01 X9.6841 Y-13.0633
G01 X9.6063 Y-13.0458
G01 X9.5294 Y-13.0245
G01 X9.4537 Y-12.9995
G01 X9.3792 Y-12.9708
G01 X9.3063 Y-12.9385
G01 X9.2351 Y-12.9026
G01 X9.1657 Y-12.8633
G01 X9.0983 Y-12.8206
G01 X9.0331 Y-12.7747
G01 X8.9702 Y-12.7256
G01 X8.9098 Y-12.6735
G01 X8.8521 Y-12.6185
G01 X8.7971 Y-12.5608
G01 X8.7450 Y-12.5004
G01 X8.6959 Y-12.4375
G01 X8.6500 Y-12.3723
G01 X8.6073 Y-12.3049
G01 X8.5680 Y-12.2355
G01 X8.5321 Y-12.1643
G01 X8.4998 Y-12.0914
G01 X8.4711 Y-12.0169
G01 X8.4461 Y-11.9412
G01 X8.4248 Y-11.8643
G01 X8.4073 Y-11.7865
G01 X8.3937 Y-11.7079
G01 X8.3839 Y-11.6288
G01 X8.3781 Y-11.5492
G01 X8.3761 Y-11.4695
G01 X8.3781 Y-11.3898
G01 X8.3839 Y-11.3102
G01 X8.3937 Y-11.2311
G01 X8.4073 Y-11.1525
G01 X8.4248 Y-11.0747
G01 X8.4461 Y-10.9978
G01 X8.4711 Y-10.9221
G01 X8.4998 Y-10.8476
G01 X8.5321 Y-10.7747
G01 X8.5680 Y-10.7035
G01 X8.6073 Y-10.6341
G01 X8.6500 Y-10.5667
G01 X8.6959 Y-10.5015
G01 X8.7450 Y-10.4386
G01 X8.7971 Y-10.3782
G01 X8.8521 Y-10.3205
G01 X8.9098 Y-10.2655
G01 X8.9702 Y-10.2134
G01 X9.0331 Y-10.1643
G01 X9.0449 Y-10.1559
G01 X9.0518 Y-10.1498
G01 X9.0585 Y-10.1421
G01 X9.0636 Y-10.1345
G01 X9.0681 Y-10.1254
G01 X9.0713 Y-10.1158
G01 X9.0732 Y-10.1059
G01 X9.0738 Y-10.0967
G01 X9.0738 Y-8.7870
G01 X10.9238 Y-8.7870
G01 X10.9238 Y-10.0935
G01 X10.9246 Y-10.1045
G01 X10.9270 Y-10.1153
G01 X10.9302 Y-10.1239
G01 X10.9349 Y-10.1328
G01 X10.9408 Y-10.1411
G01 X10.9478 Y-10.1484
G01 X11.0320 Y-10.2134
G01 X11.0924 Y-10.2655
G01 X11.1501 Y-10.3205
G01 X11.2051 Y-10.3782
G01 X11.2572 Y-10.4386
G01 X11.3063 Y-10.5015
G01 X11.3522 Y-10.5667
G01 X11.3949 Y-10.6341
G01 X11.4342 Y-10.7035
G01 X11.4701 Y-10.7747
G01 X11.5024 Y-10.8476
G01 X11.5311 Y-10.9221
G01 X11.5561 Y-10.9978
G01 X11.5684 Y-11.0419
G01 X11.5742 Y-11.0554
G01 X11.5837 Y-11.0690
G01 X11.5902 Y-11.0755
G01 X11.5967 Y-11.0806
G01 X11.6037 Y-11.0850
G01 X11.6120 Y-11.0889
G01 X11.6199 Y-11.0916
G01 X11.6289 Y-11.0935
G01 X11.6399 Y-11.0943
G01 X12.5521 Y-11.0943
G01 X12.5659 Y-11.0930
G01 X12.5791 Y-11.0892
G01 X12.5899 Y-11.0841
G01 X12.6004 Y-11.0767
G01 X12.6089 Y-11.0683
G01 X12.6160 Y-11.0586
G01 X12.6214 Y-11.0480
G01 X12.6397 Y-11.0007
G01 X12.6640 Y-10.9458
G01 X12.6911 Y-10.8920
G01 X12.7207 Y-10.8397
G01 X12.7529 Y-10.7889
G01 X12.7875 Y-10.7398
G01 X12.8245 Y-10.6924
G01 X12.8638 Y-10.6469
G01 X12.9052 Y-10.6033
G01 X12.9488 Y-10.5619
G01 X12.9943 Y-10.5226
G01 X13.0417 Y-10.4856
G01 X13.0908 Y-10.4510
G01 X13.1416 Y-10.4188
G01 X13.1939 Y-10.3892
G01 X13.2477 Y-10.3621
G01 X13.3026 Y-10.3378
G01 X13.3587 Y-10.3161
G01 X13.4158 Y-10.2973
G01 X13.4738 Y-10.2812
G01 X13.5324 Y-10.2681
G01 X13.5917 Y-10.2578
G01 X13.6513 Y-10.2504
G01 X13.7113 Y-10.2460
G01 X13.7714 Y-10.2445
G01 X13.8315 Y-10.2460
G01 X13.8915 Y-10.2504
G01 X13.9511 Y-10.2578
G01 X14.0104 Y-10.2681
G01 X14.0690 Y-10.2812
G01 X14.1270 Y-10.2973
G01 X14.1841 Y-10.3161
G01 X14.2402 Y-10.3378
G01 X14.2951 Y-10.3621
G01 X14.3489 Y-10.3892
G01 X14.4012 Y-10.4188
G01 X14.4520 Y-10.4510
G01 X14.5011 Y-10.4856
G01 X14.5485 Y-10.5226
G01 X14.5940 Y-10.5619
G01 X14.6376 Y-10.6033
G01 X14.6790 Y-10.6469
G01 X14.7183 Y-10.6924
G01 X14.7553 Y-10.7398
G01 X14.7899 Y-10.7889
G01 X14.8221 Y-10.8397
G01 X14.8517 Y-10.8920
G01 X14.8788 Y-10.9458
G01 X14.9031 Y-11.0007
G01 X14.9248 Y-11.0568
G01 X14.9436 Y-11.1139
G01 X14.9597 Y-11.1719
G01 X14.9696 Y-11.2153
G01 X14.9740 Y-11.2264
G01 X14.9801 Y-11.2367
G01 X14.9877 Y-11.2459
G01 X14.9967 Y-11.2538
G01 X15.0069 Y-11.2601
G01 X15.0179 Y-11.2647
G01 X15.0304 Y-11.2677
G01 X15.0423 Y-11.2685
G01 X15.0542 Y-11.2674
G01 X15.0658 Y-11.2644
G01 X15.0792 Y-11.2583
G01 X15.0918 Y-11.2491
G01 X15.1022 Y-11.2375
G01 X15.1096 Y-11.2248
G01 X15.1139 Y-11.2126
G01 X15.1231 Y-11.1719
G01 X15.1392 Y-11.1139
G01 X15.1580 Y-11.0568
G01 X15.1797 Y-11.0007
G01 X15.2040 Y-10.9458
G01 X15.2311 Y-10.8920
G01 X15.2607 Y-10.8397
G01 X15.2929 Y-10.7889
G01 X15.3275 Y-10.7398
G01 X15.3645 Y-10.6924
G01 X15.4038 Y-10.6469
G01 X15.4452 Y-10.6033
G01 X15.4888 Y-10.5619
G01 X15.5343 Y-10.5226
G01 X15.5817 Y-10.4856
G01 X15.6308 Y-10.4510
G01 X15.6816 Y-10.4188
G01 X15.7339 Y-10.3892
G01 X15.7877 Y-10.3621
G01 X15.8426 Y-10.3378
G01 X15.8987 Y-10.3161
G01 X15.9558 Y-10.2973
G01 X16.0138 Y-10.2812
G01 X16.0724 Y-10.2681
G01 X16.1317 Y-10.2578
G01 X16.2130 Y-10.2483
G01 X16.2288 Y-10.2433
G01 X16.2423 Y-10.2355
G01 X16.2514 Y-10.2277
G01 X17.3173 Y-9.1623
G01 X17.3382 Y-9.1452
G01 X17.3606 Y-9.1302
G01 X17.3845 Y-9.1175
G01 X17.4094 Y-9.1071
G01 X17.4352 Y-9.0993
G01 X17.4617 Y-9.0940
G01 X17.4886 Y-9.0914
G01 X17.5030 Y-9.0910
G01 X19.9221 Y-9.0910
G01 X19.9365 Y-9.0914
G01 X19.9634 Y-9.0940
G01 X19.9899 Y-9.0993
G01 X20.0157 Y-9.1071
G01 X20.0406 Y-9.1175
G01 X20.0645 Y-9.1302
G01 X20.0759 Y-9.1374
G01 X20.0976 Y-9.1535
G01 X20.1182 Y-9.1723
G01 X21.8463 Y-10.9003
G01 X21.8532 Y-10.9064
G01 X21.8608 Y-10.9116
G01 X21.8698 Y-10.9162
G01 X21.8793 Y-10.9196
G01 X21.8883 Y-10.9215
G01 X21.8984 Y-10.9223
G01 X23.0394 Y-10.9223
G01 X23.0394 Y-12.5723
G01 X21.4894 Y-12.5723
G01 X21.4894 Y-11.3519
G01 X21.4887 Y-11.3427
G01 X21.4867 Y-11.3328
G01 X21.4837 Y-11.3241
G01 X21.4797 Y-11.3159
G01 X21.4741 Y-11.3074
G01 X21.4674 Y-11.2998
G01 X19.8310 Y-9.6633
G01 X19.8234 Y-9.6567
G01 X19.8133 Y-9.6502
G01 X19.8024 Y-9.6455
G01 X19.7908 Y-9.6425
G01 X19.7789 Y-9.6414
G01 X17.6471 Y-9.6414
G01 X17.6325 Y-9.6428
G01 X17.6219 Y-9.6458
G01 X17.6126 Y-9.6498
G01 X17.6032 Y-9.6556
G01 X17.5948 Y-9.6627
G01 X16.9440 Y-10.3134
G01 X16.9343 Y-10.3257
G01 X16.9274 Y-10.3397
G01 X16.9236 Y-10.3539
G01 X16.9228 Y-10.3695
G01 X16.9249 Y-10.3841
G01 X16.9299 Y-10.3979
G01 X16.9375 Y-10.4105
G01 X16.9473 Y-10.4214
G01 X16.9560 Y-10.4282
G01 X16.9920 Y-10.4510
G01 X17.0411 Y-10.4856
G01 X17.0885 Y-10.5226
G01 X17.1340 Y-10.5619
G01 X17.1776 Y-10.6033
G01 X17.2190 Y-10.6469
G01 X17.2583 Y-10.6924
G01 X17.2953 Y-10.7398
G01 X17.3299 Y-10.7889
G01 X17.3621 Y-10.8397
G01 X17.3917 Y-10.8920
G01 X17.4188 Y-10.9458
G01 X17.4431 Y-11.0007
G01 X17.4648 Y-11.0568
G01 X17.4836 Y-11.1139
G01 X17.4997 Y-11.1719
G01 X17.5085 Y-11.2111
G01 X17.5115 Y-11.2207
G01 X17.5162 Y-11.2307
G01 X17.5223 Y-11.2399
G01 X17.5297 Y-11.2481
G01 X17.5375 Y-11.2545
G01 X17.5511 Y-11.2623
G01 X17.5650 Y-11.2669
G01 X17.5805 Y-11.2687
G01 X17.5952 Y-11.2675
G01 X17.6102 Y-11.2630
G01 X17.6231 Y-11.2561
G01 X17.6345 Y-11.2468
G01 X17.6438 Y-11.2354
G01 X17.6492 Y-11.2258
G01 X17.6532 Y-11.2155
G01 X17.6632 Y-11.1719
G01 X17.6793 Y-11.1139
G01 X17.6981 Y-11.0568
G01 X17.7198 Y-11.0007
G01 X17.7462 Y-10.9417
G01 X17.8596 Y-11.0551
G01 X17.8393 Y-11.1073
G01 X17.8228 Y-11.1574
G01 X17.8087 Y-11.2083
G01 X17.7972 Y-11.2598
G01 X17.7881 Y-11.3118
G01 X17.7817 Y-11.3641
G01 X17.7778 Y-11.4168
G01 X17.7765 Y-11.4695
G01 X17.7778 Y-11.5222
G01 X17.7817 Y-11.5749
G01 X17.7881 Y-11.6272
G01 X17.7972 Y-11.6792
G01 X17.8087 Y-11.7307
G01 X17.8228 Y-11.7816
G01 X17.8393 Y-11.8317
G01 X17.8596 Y-11.8839
G01 X17.7462 Y-11.9973
G00 Z2.0000
G00 X18.3237 Y-12.5748
G01 F70.00
G01 Z-0.0700
G01 F60.00
G01 X18.4371 Y-12.4614
G01 X18.4893 Y-12.4817
G01 X18.5394 Y-12.4982
G01 X18.5903 Y-12.5123
G01 X18.6418 Y-12.5238
G01 X18.6938 Y-12.5329
G01 X18.7461 Y-12.5393
G01 X18.7988 Y-12.5432
G01 X18.8515 Y-12.5445
G01 X18.9042 Y-12.5432
G01 X18.9569 Y-12.5393
G01 X19.0092 Y-12.5329
G01 X19.0612 Y-12.5238
G01 X19.1127 Y-12.5123
G01 X19.1636 Y-12.4982
G01 X19.2137 Y-12.4817
G01 X19.2658 Y-12.4614
G01 X19.3793 Y-12.5748
G01 X19.3203 Y-12.6012
G01 X19.2642 Y-12.6229
G01 X19.2071 Y-12.6417
G01 X19.1491 Y-12.6578
G01 X19.0905 Y-12.6709
G01 X19.0312 Y-12.6812
G01 X18.9716 Y-12.6886
G01 X18.9116 Y-12.6930
G01 X18.8515 Y-12.6945
G01 X18.7914 Y-12.6930
G01 X18.7314 Y-12.6886
G01 X18.6718 Y-12.6812
G01 X18.6125 Y-12.6709
G01 X18.5539 Y-12.6578
G01 X18.4959 Y-12.6417
G01 X18.4388 Y-12.6229
G01 X18.3827 Y-12.6012
G01 X18.3237 Y-12.5748
G00 Z2.0000
G00 X18.9514 Y-11.4695
G01 F70.00
G01 Z-0.0700
G01 F60.00
G01 X18.9495 Y-11.4890
G01 X18.9438 Y-11.5077
G01 X18.9346 Y-11.5250
G01 X18.9221 Y-11.5401
G01 X18.9070 Y-11.5526
G01 X18.8897 Y-11.5618
G01 X18.8710 Y-11.5675
G01 X18.8515 Y-11.5694
G01 X18.8320 Y-11.5675
G01 X18.8133 Y-11.5618
G01 X18.7960 Y-11.5526
G01 X18.7809 Y-11.5401
G01 X18.7684 Y-11.5250
G01 X18.7592 Y-11.5077
G01 X18.7535 Y-11.4890
G01 X18.7516 Y-11.4695
G01 X18.7535 Y-11.4500
G01 X18.7592 Y-11.4313
G01 X18.7684 Y-11.4140
G01 X18.7809 Y-11.3989
G01 X18.7960 Y-11.3864
G01 X18.8133 Y-11.3772
G01 X18.8320 Y-11.3715
G01 X18.8515 Y-11.3696
G01 X18.8710 Y-11.3715
G01 X18.8897 Y-11.3772
G01 X18.9070 Y-11.3864
G01 X18.9221 Y-11.3989
G01 X18.9346 Y-11.4140
G01 X18.9438 Y-11.4313
G01 X18.9495 Y-11.4500
G01 X18.9514 Y-11.4695
G00 Z2.0000
G00 X19.0264 Y-11.4695
G01 F70.00
G01 Z-0.0700
G01 F60.00
G01 X19.0256 Y-11.4866
G01 X19.0231 Y-11.5036
G01 X19.0189 Y-11.5203
G01 X19.0131 Y-11.5364
G01 X19.0058 Y-11.5520
G01 X18.9970 Y-11.5667
G01 X18.9867 Y-11.5805
G01 X18.9752 Y-11.5932
G01 X18.9625 Y-11.6047
G01 X18.9487 Y-11.6150
G01 X18.9340 Y-11.6238
G01 X18.9184 Y-11.6311
G01 X18.9023 Y-11.6369
G01 X18.8856 Y-11.6411
G01 X18.8686 Y-11.6436
G01 X18.8515 Y-11.6444
G01 X18.8344 Y-11.6436
G01 X18.8174 Y-11.6411
G01 X18.8007 Y-11.6369
G01 X18.7846 Y-11.6311
G01 X18.7690 Y-11.6238
G01 X18.7543 Y-11.6150
G01 X18.7405 Y-11.6047
G01 X18.7278 Y-11.5932
G01 X18.7163 Y-11.5805
G01 X18.7060 Y-11.5667
G01 X18.6972 Y-11.5520
G01 X18.6899 Y-11.5364
G01 X18.6841 Y-11.5203
G01 X18.6799 Y-11.5036
G01 X18.6774 Y-11.4866
G01 X18.6766 Y-11.4695
G01 X18.6774 Y-11.4524
G01 X18.6799 Y-11.4354
G01 X18.6841 Y-11.4187
G01 X18.6899 Y-11.4026
G01 X18.6972 Y-11.3870
G01 X18.7060 Y-11.3723
G01 X18.7163 Y-11.3585
G01 X18.7278 Y-11.3458
G01 X18.7405 Y-11.3343
G01 X18.7543 Y-11.3240
G01 X18.7690 Y-11.3152
G01 X18.7846 Y-11.3079
G01 X18.8007 Y-11.3021
G01 X18.8174 Y-11.2979
G01 X18.8344 Y-11.2954
G01 X18.8515 Y-11.2946
G01 X18.8686 Y-11.2954
G01 X18.8856 Y-11.2979
G01 X18.9023 Y-11.3021
G01 X18.9184 Y-11.3079
G01 X18.9340 Y-11.3152
G01 X18.9487 Y-11.3240
G01 X18.9625 Y-11.3343
G01 X18.9752 Y-11.3458
G01 X18.9867 Y-11.3585
G01 X18.9970 Y-11.3723
G01 X19.0058 Y-11.3870
G01 X19.0131 Y-11.4026
G01 X19.0189 Y-11.4187
G01 X19.0231 Y-11.4354
G01 X19.0256 Y-11.4524
G01 X19.0264 Y-11.4695
G00 Z2.0000
G00 X19.1015 Y-11.4695
G01 F70.00
G01 Z-0.0700
G01 F60.00
G01 X19.1003 Y-11.4940
G01 X19.0967 Y-11.5183
G01 X19.0907 Y-11.5421
G01 X19.0824 Y-11.5652
G01 X19.0719 Y-11.5873
G01 X19.0593 Y-11.6084
G01 X19.0447 Y-11.6281
G01 X19.0282 Y-11.6462
G01 X19.0101 Y-11.6627
G01 X18.9904 Y-11.6773
G01 X18.9693 Y-11.6899
G01 X18.9472 Y-11.7004
G01 X18.9241 Y-11.7087
G01 X18.9003 Y-11.7147
G01 X18.8760 Y-11.7183
G01 X18.8515 Y-11.7195
G01 X18.8270 Y-11.7183
G01 X18.8027 Y-11.7147
G01 X18.7789 Y-11.7087
G01 X18.7558 Y-11.7004
G01 X18.7337 Y-11.6899
G01 X18.7126 Y-11.6773
G01 X18.6929 Y-11.6627
G01 X18.6748 Y-11.6462
G01 X18.6583 Y-11.6281
G01 X18.6437 Y-11.6084
G01 X18.6311 Y-11.5873
G01 X18.6206 Y-11.5652
G01 X18.6123 Y-11.5421
G01 X18.6063 Y-11.5183
G01 X18.6027 Y-11.4940
G01 X18.6015 Y-11.4695
G01 X18.6027 Y-11.4450
G01 X18.6063 Y-11.4207
G01 X18.6123 Y-11.3969
G01 X18.6206 Y-11.3738
G01 X18.6311 Y-11.3517
G01 X18.6437 Y-11.3306
G01 X18.6583 Y-11.3109
G01 X18.6748 Y-11.2928
G01 X18.6929 Y-11.2763
G01 X18.7126 Y-11.2617
G01 X18.7337 Y-11.2491
G01 X18.7558 Y-11.2386
G01 X18.7789 Y-11.2303
G01 X18.8027 Y-11.2243
G01 X18.8270 Y-11.2207
G01 X18.8515 Y-11.2195
G01 X18.8760 Y-11.2207
G01 X18.9003 Y-11.2243
G01 X18.9241 Y-11.2303
G01 X18.9472 Y-11.2386
G01 X18.9693 Y-11.2491
G01 X18.9904 Y-11.2617
G01 X19.0101 Y-11.2763
G01 X19.0282 Y-11.2928
G01 X19.0447 Y-11.3109
G01 X19.0593 Y-11.3306
G01 X19.0719 Y-11.3517
G01 X19.0824 Y-11.3738
G01 X19.0907 Y-11.3969
G01 X19.0967 Y-11.4207
G01 X19.1003 Y-11.4450
G01 X19.1015 Y-11.4695
G00 Z2.0000
G00 X19.1765 Y-11.4695
G01 F70.00
G01 Z-0.0700
G01 F60.00
G01 X19.1749 Y-11.5014
G01 X19.1702 Y-11.5329
G01 X19.1625 Y-11.5638
G01 X19.1517 Y-11.5939
G01 X19.1381 Y-11.6227
G01 X19.1217 Y-11.6500
G01 X19.1027 Y-11.6757
G01 X19.0813 Y-11.6993
G01 X19.0577 Y-11.7207
G01 X19.0320 Y-11.7397
G01 X19.0047 Y-11.7561
G01 X18.9759 Y-11.7697
G01 X18.9458 Y-11.7805
G01 X18.9149 Y-11.7882
G01 X18.8834 Y-11.7929
G01 X18.8515 Y-11.7945
G01 X18.8196 Y-11.7929
G01 X18.7881 Y-11.7882
G01 X18.7572 Y-11.7805
G01 X18.7271 Y-11.7697
G01 X18.6983 Y-11.7561
G01 X18.6710 Y-11.7397
G01 X18.6453 Y-11.7207
G01 X18.6217 Y-11.6993
G01 X18.6003 Y-11.6757
G01 X18.5813 Y-11.6500
G01 X18.5649 Y-11.6227
G01 X18.5513 Y-11.5939
G01 X18.5405 Y-11.5638
G01 X18.5328 Y-11.5329
G01 X18.5281 Y-11.5014
G01 X18.5265 Y-11.4695
G01 X18.5281 Y-11.4376
G01 X18.5328 Y-11.4061
G01 X18.5405 Y-11.3752
G01 X18.5513 Y-11.3451
G01 X18.5649 Y-11.3163
G01 X18.5813 Y-11.2890
G01 X18.6003 Y-11.2633
G01 X18.6217 Y-11.2397
G01 X18.6453 Y-11.2183
G01 X18.6710 Y-11.1993
G01 X18.6983 Y-11.1829
G01 X18.7271 Y-11.1693
G01 X18.7572 Y-11.1585
G01 X18.7881 Y-11.1508
G01 X18.8196 Y-11.1461
G01 X18.8515 Y-11.1445
G01 X18.8834 Y-11.1461
G01 X18.9149 Y-11.1508
G01 X18.9458 Y-11.1585
G01 X18.9759 Y-11.1693
G01 X19.0047 Y-11.1829
G01 X19.0320 Y-11.1993
G01 X19.0577 Y-11.2183
G01 X19.0813 Y-11.2397
G01 X19.1027 Y-11.2633
G01 X19.1217 Y-11.2890
G01 X19.1381 Y-11.3163
G01 X19.1517 Y-11.3451
G01 X19.1625 Y-11.3752
G01 X19.1702 Y-11.4061
G01 X19.1749 Y-11.4376
G01 X19.1765 Y-11.4695
G00 Z2.0000
G00 X19.8434 Y-11.8839
G01 F70.00
G01 Z-0.0700
G01 F60.00
G01 X19.8637 Y-11.8317
G01 X19.8802 Y-11.7816
G01 X19.8943 Y-11.7307
G01 X19.9058 Y-11.6792
G01 X19.9149 Y-11.6272
G01 X19.9213 Y-11.5749
G01 X19.9252 Y-11.5222
G01 X19.9265 Y-11.4695
G01 X19.9252 Y-11.4168
G01 X19.9213 Y-11.3641
G01 X19.9149 Y-11.3118
G01 X19.9058 Y-11.2598
G01 X19.8943 Y-11.2083
G01 X19.8802 Y-11.1574
G01 X19.8637 Y-11.1073
G01 X19.8434 Y-11.0551
G01 X19.9568 Y-10.9417
G01 X19.9832 Y-11.0007
G01 X20.0049 Y-11.0568
G01 X20.0237 Y-11.1139
G01 X20.0398 Y-11.1719
G01 X20.0529 Y-11.2305
G01 X20.0632 Y-11.2898
G01 X20.0706 Y-11.3494
G01 X20.0750 Y-11.4094
G01 X20.0765 Y-11.4695
G01 X20.0750 Y-11.5296
G01 X20.0706 Y-11.5896
G01 X20.0632 Y-11.6492
G01 X20.0529 Y-11.7085
G01 X20.0398 Y-11.7671
G01 X20.0237 Y-11.8251
G01 X20.0049 Y-11.8822
G01 X19.9832 Y-11.9383
G01 X19.9568 Y-11.9973
G01 X19.8434 Y-11.8839
G00 Z2.0000
G00 X18.3237 Y-10.3642
G01 F70.00
G01 Z-0.0700
G01 F60.00
G01 X18.3827 Y-10.3378
G01 X18.4388 Y-10.3161
G01 X18.4959 Y-10.2973
G01 X18.5539 Y-10.2812
G01 X18.6125 Y-10.2681
G01 X18.6718 Y-10.2578
G01 X18.7314 Y-10.2504
G01 X18.7914 Y-10.2460
G01 X18.8515 Y-10.2445
G01 X18.9116 Y-10.2460
G01 X18.9716 Y-10.2504
G01 X19.0312 Y-10.2578
G01 X19.0905 Y-10.2681
G01 X19.1491 Y-10.2812
G01 X19.2071 Y-10.2973
G01 X19.2642 Y-10.3161
G01 X19.3203 Y-10.3378
G01 X19.3793 Y-10.3642
G01 X19.2658 Y-10.4776
G01 X19.2137 Y-10.4573
G01 X19.1636 Y-10.4408
G01 X19.1127 Y-10.4267
G01 X19.0612 Y-10.4152
G01 X19.0092 Y-10.4061
G01 X18.9569 Y-10.3997
G01 X18.9042 Y-10.3958
G01 X18.8515 Y-10.3945
G01 X18.7988 Y-10.3958
G01 X18.7461 Y-10.3997
G01 X18.6938 Y-10.4061
G01 X18.6418 Y-10.4152
G01 X18.5903 Y-10.4267
G01 X18.5394 Y-10.4408
G01 X18.4893 Y-10.4573
G01 X18.4371 Y-10.4776
G01 X18.3237 Y-10.3642
G00 Z2.0000
G00 X16.9131 Y-10.4897
G01 F70.00
G01 Z-0.0700
G01 F60.00
G01 X16.8994 Y-10.4813
G01 X16.8428 Y-10.4499
G01 X16.8623 Y-10.4304
G01 X16.8720 Y-10.4476
G01 X16.8841 Y-10.4638
G01 X16.8983 Y-10.4782
G01 X16.9131 Y-10.4897
G00 Z2.0000
G00 X16.1418 Y-10.4082
G01 F70.00
G01 Z-0.0700
G01 F60.00
G01 X16.1017 Y-10.4152
G01 X16.0502 Y-10.4267
G01 X15.9993 Y-10.4408
G01 X15.9510 Y-10.4567
G01 X15.8983 Y-10.4771
G01 X15.8518 Y-10.4977
G01 X15.8046 Y-10.5214
G01 X15.7587 Y-10.5474
G01 X15.7142 Y-10.5757
G01 X15.6710 Y-10.6061
G01 X15.6309 Y-10.6374
G01 X15.5881 Y-10.6742
G01 X15.5513 Y-10.7094
G01 X15.5149 Y-10.7476
G01 X15.4804 Y-10.7875
G01 X15.4480 Y-10.8291
G01 X15.4176 Y-10.8723
G01 X15.3903 Y-10.9153
G01 X15.3625 Y-10.9644
G01 X15.3396 Y-11.0099
G01 X15.3182 Y-11.0581
G01 X15.2992 Y-11.1073
G01 X15.2832 Y-11.1557
G01 X15.2682 Y-11.2101
G01 X15.2571 Y-11.2598
G01 X15.2480 Y-11.3118
G01 X15.2416 Y-11.3641
G01 X15.2378 Y-11.4149
G01 X15.2364 Y-11.4713
G01 X15.2377 Y-11.5222
G01 X15.2416 Y-11.5749
G01 X15.2480 Y-11.6272
G01 X15.2567 Y-11.6774
G01 X15.2691 Y-11.7325
G01 X15.2827 Y-11.7816
G01 X15.2992 Y-11.8317
G01 X15.3182 Y-11.8809
G01 X15.3388 Y-11.9274
G01 X15.3633 Y-11.9763
G01 X15.3884 Y-12.0206
G01 X15.4186 Y-12.0683
G01 X15.4480 Y-12.1099
G01 X15.4804 Y-12.1515
G01 X15.5149 Y-12.1914
G01 X15.5500 Y-12.2283
G01 X15.5909 Y-12.2672
G01 X15.6294 Y-12.3005
G01 X15.6710 Y-12.3329
G01 X15.7142 Y-12.3633
G01 X15.7572 Y-12.3906
G01 X15.8063 Y-12.4184
G01 X15.8518 Y-12.4413
G01 X15.9000 Y-12.4627
G01 X15.9492 Y-12.4817
G01 X15.9993 Y-12.4982
G01 X16.0502 Y-12.5123
G01 X16.1017 Y-12.5238
G01 X16.1537 Y-12.5329
G01 X16.2042 Y-12.5391
G01 X16.2605 Y-12.5433
G01 X16.3114 Y-12.5445
G01 X16.3641 Y-12.5432
G01 X16.4168 Y-12.5393
G01 X16.4673 Y-12.5331
G01 X16.5229 Y-12.5235
G01 X16.5726 Y-12.5123
G01 X16.6235 Y-12.4982
G01 X16.6736 Y-12.4817
G01 X16.7228 Y-12.4627
G01 X16.7710 Y-12.4413
G01 X16.8165 Y-12.4184
G01 X16.8656 Y-12.3906
G01 X16.9086 Y-12.3633
G01 X16.9518 Y-12.3329
G01 X16.9934 Y-12.3005
G01 X17.0333 Y-12.2660
G01 X17.0715 Y-12.2296
G01 X17.1067 Y-12.1928
G01 X17.1435 Y-12.1500
G01 X17.1748 Y-12.1099
G01 X17.2052 Y-12.0667
G01 X17.2335 Y-12.0222
G01 X17.2590 Y-11.9771
G01 X17.2832 Y-11.9291
G01 X17.3046 Y-11.8809
G01 X17.3236 Y-11.8317
G01 X17.3401 Y-11.7816
G01 X17.3542 Y-11.7307
G01 X17.3657 Y-11.6792
G01 X17.3748 Y-11.6272
G01 X17.3814 Y-11.5730
G01 X17.3852 Y-11.5204
G01 X17.3864 Y-11.4695
G01 X17.3852 Y-11.4186
G01 X17.3812 Y-11.3641
G01 X17.3750 Y-11.3136
G01 X17.3657 Y-11.2598
G01 X17.3542 Y-11.2083
G01 X17.3401 Y-11.1574
G01 X17.3236 Y-11.1073
G01 X17.3046 Y-11.0581
G01 X17.2832 Y-11.0099
G01 X17.2595 Y-10.9627
G01 X17.2325 Y-10.9153
G01 X17.2052 Y-10.8723
G01 X17.1759 Y-10.8306
G01 X17.1435 Y-10.7890
G01 X17.1079 Y-10.7476
G01 X17.0728 Y-10.7107
G01 X17.0333 Y-10.6730
G01 X16.9934 Y-10.6385
G01 X16.9518 Y-10.6061
G01 X16.9086 Y-10.5757
G01 X16.8641 Y-10.5474
G01 X16.8182 Y-10.5214
G01 X16.7710 Y-10.4977
G01 X16.7138 Y-10.4728
G01 X17.5953 Y-9.5913
G01 X19.8298 Y-9.5913
G01 X21.5394 Y-11.3009
G01 X21.5394 Y-12.4491
G01 X21.5412 Y-12.4637
G01 X21.5462 Y-12.4785
G01 X21.5542 Y-12.4920
G01 X21.5640 Y-12.5029
G01 X21.5743 Y-12.5107
G01 X21.5866 Y-12.5169
G01 X21.5998 Y-12.5209
G01 X21.6135 Y-12.5223
G01 X22.9162 Y-12.5223
G01 X22.9281 Y-12.5210
G01 X22.9397 Y-12.5179
G01 X22.9506 Y-12.5130
G01 X22.9598 Y-12.5070
G01 X22.9687 Y-12.4990
G01 X22.9762 Y-12.4897
G01 X22.9818 Y-12.4802
G01 X22.9862 Y-12.4691
G01 X22.9886 Y-12.4583
G01 X22.9894 Y-12.4473
G01 X22.9894 Y-11.0464
G01 X22.9880 Y-11.0327
G01 X22.9844 Y-11.0203
G01 X22.9783 Y-11.0080
G01 X22.9700 Y-10.9969
G01 X22.9591 Y-10.9871
G01 X22.9456 Y-10.9791
G01 X22.9308 Y-10.9741
G01 X22.9162 Y-10.9723
G01 X21.8474 Y-10.9723
G01 X20.0815 Y-9.2064
G01 X20.0585 Y-9.1865
G01 X20.0387 Y-9.1731
G01 X20.0275 Y-9.1669
G01 X20.0108 Y-9.1590
G01 X19.9883 Y-9.1508
G01 X19.9759 Y-9.1474
G01 X19.9560 Y-9.1436
G01 X19.9359 Y-9.1415
G01 X19.9230 Y-9.1411
G01 X17.5021 Y-9.1411
G01 X17.4892 Y-9.1415
G01 X17.4691 Y-9.1436
G01 X17.4492 Y-9.1474
G01 X17.4350 Y-9.1514
G01 X17.4075 Y-9.1620
G01 X17.3864 Y-9.1731
G01 X17.3666 Y-9.1865
G01 X17.3436 Y-9.2064
G01 X16.1418 Y-10.4082
G00 Z2.0000
G00 X22.6003 Y-7.8667
G01 F70.00
G01 Z-0.0700
G01 F60.00
G01 X22.2746 Y-8.1930
G01 X22.2666 Y-8.2031
G01 X22.2586 Y-8.2155
G01 X22.2526 Y-8.2269
G01 X22.2476 Y-8.2387
G01 X22.2436 Y-8.2510
G01 X22.2407 Y-8.2635
G01 X22.2388 Y-8.2781
G01 X22.2382 Y-8.2910
G01 X22.2388 Y-8.3039
G01 X22.2407 Y-8.3185
G01 X22.2436 Y-8.3310
G01 X22.2476 Y-8.3433
G01 X22.2526 Y-8.3551
G01 X22.2586 Y-8.3665
G01 X22.2656 Y-8.3774
G01 X22.2746 Y-8.3890
G01 X22.6003 Y-8.7153
G01 X22.1760 Y-8.2910
G01 X22.6003 Y-7.8667
G00 Z2.0000
G00 X22.6003 Y-7.7607
G01 F70.00
G01 Z-0.0700
G01 F60.00
G01 X22.7064 Y-7.8668
G01 X22.3333 Y-8.2400
G01 X22.3248 Y-8.2509
G01 X22.3182 Y-8.2640
G01 X22.3145 Y-8.2773
G01 X22.3132 Y-8.2910
G01 X22.3146 Y-8.3056
G01 X22.3186 Y-8.3188
G01 X22.3248 Y-8.3311
G01 X22.3333 Y-8.3420
G01 X22.7064 Y-8.7153
G01 X22.6003 Y-8.8213
G01 X22.0700 Y-8.2910
G01 X22.6003 Y-7.7607
G00 Z2.0000
G00 X23.3913 Y-6.7655
G01 F70.00
G01 Z-0.0700
G01 F60.00
G01 X23.4076 Y-6.7699
G01 X23.4543 Y-6.7804
G01 X23.5087 Y-6.7898
G01 X23.5580 Y-6.7958
G01 X23.6057 Y-6.7994
G01 X23.6609 Y-6.8009
G01 X23.7161 Y-6.7994
G01 X23.7638 Y-6.7958
G01 X23.8131 Y-6.7898
G01 X23.8675 Y-6.7804
G01 X23.9142 Y-6.7699
G01 X23.9307 Y-6.7654
G01 X23.9165 Y-6.7707
G01 X23.9033 Y-6.7771
G01 X23.8908 Y-6.7848
G01 X23.8790 Y-6.7938
G01 X23.8683 Y-6.8038
G01 X23.8585 Y-6.8148
G01 X23.8499 Y-6.8267
G01 X23.8425 Y-6.8395
G01 X23.8363 Y-6.8528
G01 X23.8316 Y-6.8668
G01 X23.8278 Y-6.8829
G01 X23.8260 Y-6.8975
G01 X23.8257 Y-6.9122
G01 X23.8267 Y-6.9269
G01 X23.8293 Y-6.9414
G01 X23.8332 Y-6.9556
G01 X23.8392 Y-6.9710
G01 X23.8460 Y-6.9841
G01 X23.8551 Y-6.9979
G01 X23.8645 Y-7.0093
G01 X24.0853 Y-7.2303
G01 X23.7590 Y-6.9046
G01 X23.7474 Y-6.8956
G01 X23.7365 Y-6.8886
G01 X23.7251 Y-6.8826
G01 X23.7133 Y-6.8776
G01 X23.6992 Y-6.8732
G01 X23.6866 Y-6.8704
G01 X23.6739 Y-6.8688
G01 X23.6610 Y-6.8682
G01 X23.6481 Y-6.8688
G01 X23.6354 Y-6.8704
G01 X23.6228 Y-6.8732
G01 X23.6087 Y-6.8776
G01 X23.5969 Y-6.8826
G01 X23.5855 Y-6.8886
G01 X23.5731 Y-6.8966
G01 X23.5630 Y-6.9046
G01 X23.2367 Y-7.2304
G01 X23.4575 Y-7.0093
G01 X23.4668 Y-6.9979
G01 X23.4759 Y-6.9841
G01 X23.4835 Y-6.9694
G01 X23.4888 Y-6.9556
G01 X23.4927 Y-6.9414
G01 X23.4952 Y-6.9269
G01 X23.4963 Y-6.9123
G01 X23.4959 Y-6.8975
G01 X23.4941 Y-6.8829
G01 X23.4909 Y-6.8686
G01 X23.4863 Y-6.8546
G01 X23.4795 Y-6.8395
G01 X23.4721 Y-6.8268
G01 X23.4634 Y-6.8148
G01 X23.4537 Y-6.8038
G01 X23.4429 Y-6.7938
G01 X23.4312 Y-6.7849
G01 X23.4187 Y-6.7772
G01 X23.4054 Y-6.7707
G01 X23.3913 Y-6.7655
G00 Z2.0000
G00 X23.7608 Y-5.7509
G01 F70.00
G01 Z-0.0700
G01 F60.00
G01 X23.7589 Y-5.7704
G01 X23.7532 Y-5.7891
G01 X23.7440 Y-5.8064
G01 X23.7315 Y-5.8215
G01 X23.7164 Y-5.8340
G01 X23.6991 Y-5.8432
G01 X23.6804 Y-5.8489
G01 X23.6609 Y-5.8508
G01 X23.6414 Y-5.8489
G01 X23.6227 Y-5.8432
G01 X23.6054 Y-5.8340
G01 X23.5903 Y-5.8215
G01 X23.5778 Y-5.8064
G01 X23.5686 Y-5.7891
G01 X23.5629 Y-5.7704
G01 X23.5610 Y-5.7509
G01 X23.5629 Y-5.7314
G01 X23.5686 Y-5.7127
G01 X23.5778 Y-5.6954
G01 X23.5903 Y-5.6803
G01 X23.6054 Y-5.6678
G01 X23.6227 Y-5.6586
G01 X23.6414 Y-5.6529
G01 X23.6609 Y-5.6510
G01 X23.6804 Y-5.6529
G01 X23.6991 Y-5.6586
G01 X23.7164 Y-5.6678
G01 X23.7315 Y-5.6803
G01 X23.7440 Y-5.6954
G01 X23.7532 Y-5.7127
G01 X23.7589 Y-5.7314
G01 X23.7608 Y-5.7509
G00 Z2.0000
