(G-CODE GENERATED BY FLATCAM v8.993 - www.flatcam.org - Version Date: 2020/06/05)

(Name: 131u02_Ф2_низ.gbr_iso_combined_3_cnc)
(Type: G-code from Geometry)
(Units: MM)

(Created on Friday, 09 October 2020 at 06:03)

(This preprocessor is the default preprocessor used by FlatCAM.)
(It is made to work with MACH3 compatible motion controllers.)

(TOOL DIAMETER: 0.8 mm)
(Feedrate_XY: 120.0 mm/min)
(Feedrate_Z: 70.0 mm/min)
(Feedrate rapids 1500.0 mm/min)

(Z_Cut: -1.9 mm)
(DepthPerCut: 0.05 mm <=>38 passes)
(Z_Move: 2.0 mm)
(Z Start: None mm)
(Z End: 25.0 mm)
(Steps per circle: 128)
(Preprocessor Geometry: default)

(X range:  -98.6792 ...    0.3208  mm)
(Y range:  -33.5396 ...    0.3604  mm)

(Spindle Speed: None RPM)
G21
G90
G94



G01 F120.00
G00 Z2.0000

M03
G00 X-98.2792 Y-14.0611
G01 F70.00
G01 Z-0.0500
G01 F120.00
G01 X-72.8086 Y-14.0611
G01 X-71.2554 Y-14.3330
G01 X-69.9023 Y-14.7195
G01 X-68.0863 Y-15.6469
G01 X-67.1712 Y-16.4476
G01 X-65.8900 Y-17.9617
G01 X-65.1995 Y-19.2276
G01 X-64.7757 Y-20.5762
G01 X-64.5437 Y-22.0070
G01 X-64.5435 Y-33.1543
G01 X-64.5413 Y-33.1837
G01 X-64.5360 Y-33.2176
G01 X-64.5292 Y-33.2463
G01 X-64.5187 Y-33.2790
G01 X-64.5074 Y-33.3062
G01 X-64.4942 Y-33.3325
G01 X-64.4790 Y-33.3577
G01 X-64.4591 Y-33.3857
G01 X-64.4401 Y-33.4082
G01 X-64.4160 Y-33.4327
G01 X-64.3937 Y-33.4519
G01 X-64.3660 Y-33.4722
G01 X-64.3366 Y-33.4900
G01 X-64.3103 Y-33.5033
G01 X-64.2785 Y-33.5162
G01 X-64.2504 Y-33.5251
G01 X-64.2218 Y-33.5319
G01 X-64.1976 Y-33.5360
G01 X-64.1732 Y-33.5385
G01 X-64.1437 Y-33.5396
G01 X-29.0823 Y-33.5396
G01 X-29.0528 Y-33.5385
G01 X-29.0236 Y-33.5353
G01 X-28.9899 Y-33.5288
G01 X-28.9568 Y-33.5194
G01 X-28.9247 Y-33.5072
G01 X-28.8937 Y-33.4924
G01 X-28.8641 Y-33.4749
G01 X-28.8362 Y-33.4549
G01 X-28.8100 Y-33.4327
G01 X-28.7859 Y-33.4082
G01 X-28.7639 Y-33.3818
G01 X-28.7443 Y-33.3536
G01 X-28.7272 Y-33.3238
G01 X-28.7127 Y-33.2927
G01 X-28.7010 Y-33.2604
G01 X-28.6920 Y-33.2272
G01 X-28.6859 Y-33.1934
G01 X-28.6828 Y-33.1592
G01 X-28.6823 Y-22.0070
G01 X-28.4503 Y-20.5762
G01 X-28.0264 Y-19.2276
G01 X-27.3359 Y-17.9617
G01 X-26.0547 Y-16.4476
G01 X-25.1396 Y-15.6469
G01 X-23.3236 Y-14.7195
G01 X-21.9706 Y-14.3330
G01 X-20.4174 Y-14.0611
G01 X-0.0743 Y-14.0611
G01 X-0.0498 Y-14.0600
G01 X-0.0302 Y-14.0581
G01 X0.0084 Y-14.0514
G01 X0.0463 Y-14.0409
G01 X0.0648 Y-14.0343
G01 X0.0874 Y-14.0248
G01 X0.1050 Y-14.0162
G01 X0.1264 Y-14.0042
G01 X0.1591 Y-13.9824
G01 X0.1783 Y-13.9672
G01 X0.1930 Y-13.9542
G01 X0.2205 Y-13.9261
G01 X0.2421 Y-13.8994
G01 X0.2613 Y-13.8710
G01 X0.2803 Y-13.8366
G01 X0.2940 Y-13.8051
G01 X0.3050 Y-13.7725
G01 X0.3140 Y-13.7343
G01 X0.3189 Y-13.7003
G01 X0.3208 Y-13.6660
G01 X0.3208 Y-0.0396
G01 X0.3197 Y-0.0102
G01 X0.3165 Y0.0191
G01 X0.3100 Y0.0528
G01 X0.2990 Y0.0905
G01 X0.2865 Y0.1225
G01 X0.2712 Y0.1533
G01 X0.2534 Y0.1826
G01 X0.2331 Y0.2103
G01 X0.2105 Y0.2362
G01 X0.1821 Y0.2633
G01 X0.1551 Y0.2846
G01 X0.1264 Y0.3035
G01 X0.0918 Y0.3220
G01 X0.0602 Y0.3353
G01 X0.0275 Y0.3459
G01 X-0.0060 Y0.3536
G01 X-0.0400 Y0.3585
G01 X-0.0792 Y0.3604
G01 X-98.2792 Y0.3604
G01 X-98.3086 Y0.3593
G01 X-98.3379 Y0.3561
G01 X-98.3716 Y0.3496
G01 X-98.4047 Y0.3402
G01 X-98.4368 Y0.3280
G01 X-98.4678 Y0.3132
G01 X-98.4973 Y0.2957
G01 X-98.5291 Y0.2727
G01 X-98.5550 Y0.2501
G01 X-98.5789 Y0.2254
G01 X-98.6005 Y0.1987
G01 X-98.6197 Y0.1702
G01 X-98.6365 Y0.1402
G01 X-98.6506 Y0.1089
G01 X-98.6620 Y0.0765
G01 X-98.6705 Y0.0432
G01 X-98.6768 Y0.0045
G01 X-98.6791 Y-0.0298
G01 X-98.6792 Y-13.6611
G01 X-98.6773 Y-13.7003
G01 X-98.6715 Y-13.7392
G01 X-98.6620 Y-13.7772
G01 X-98.6488 Y-13.8142
G01 X-98.6320 Y-13.8497
G01 X-98.6118 Y-13.8834
G01 X-98.5884 Y-13.9149
G01 X-98.5620 Y-13.9440
G01 X-98.5330 Y-13.9703
G01 X-98.5014 Y-13.9937
G01 X-98.4678 Y-14.0139
G01 X-98.4323 Y-14.0307
G01 X-98.3953 Y-14.0439
G01 X-98.3572 Y-14.0534
G01 X-98.3184 Y-14.0592
G01 X-98.2792 Y-14.0611
G00 X-98.2792 Y-14.0611
G01 F70.00
G01 Z-0.1000
G01 F120.00
G01 X-72.8086 Y-14.0611
G01 X-71.2554 Y-14.3330
G01 X-69.9023 Y-14.7195
G01 X-68.0863 Y-15.6469
G01 X-67.1712 Y-16.4476
G01 X-65.8900 Y-17.9617
G01 X-65.1995 Y-19.2276
G01 X-64.7757 Y-20.5762
G01 X-64.5437 Y-22.0070
G01 X-64.5435 Y-33.1543
G01 X-64.5413 Y-33.1837
G01 X-64.5360 Y-33.2176
G01 X-64.5292 Y-33.2463
G01 X-64.5187 Y-33.2790
G01 X-64.5074 Y-33.3062
G01 X-64.4942 Y-33.3325
G01 X-64.4790 Y-33.3577
G01 X-64.4591 Y-33.3857
G01 X-64.4401 Y-33.4082
G01 X-64.4160 Y-33.4327
G01 X-64.3937 Y-33.4519
G01 X-64.3660 Y-33.4722
G01 X-64.3366 Y-33.4900
G01 X-64.3103 Y-33.5033
G01 X-64.2785 Y-33.5162
G01 X-64.2504 Y-33.5251
G01 X-64.2218 Y-33.5319
G01 X-64.1976 Y-33.5360
G01 X-64.1732 Y-33.5385
G01 X-64.1437 Y-33.5396
G01 X-29.0823 Y-33.5396
G01 X-29.0528 Y-33.5385
G01 X-29.0236 Y-33.5353
G01 X-28.9899 Y-33.5288
G01 X-28.9568 Y-33.5194
G01 X-28.9247 Y-33.5072
G01 X-28.8937 Y-33.4924
G01 X-28.8641 Y-33.4749
G01 X-28.8362 Y-33.4549
G01 X-28.8100 Y-33.4327
G01 X-28.7859 Y-33.4082
G01 X-28.7639 Y-33.3818
G01 X-28.7443 Y-33.3536
G01 X-28.7272 Y-33.3238
G01 X-28.7127 Y-33.2927
G01 X-28.7010 Y-33.2604
G01 X-28.6920 Y-33.2272
G01 X-28.6859 Y-33.1934
G01 X-28.6828 Y-33.1592
G01 X-28.6823 Y-22.0070
G01 X-28.4503 Y-20.5762
G01 X-28.0264 Y-19.2276
G01 X-27.3359 Y-17.9617
G01 X-26.0547 Y-16.4476
G01 X-25.1396 Y-15.6469
G01 X-23.3236 Y-14.7195
G01 X-21.9706 Y-14.3330
G01 X-20.4174 Y-14.0611
G01 X-0.0743 Y-14.0611
G01 X-0.0498 Y-14.0600
G01 X-0.0302 Y-14.0581
G01 X0.0084 Y-14.0514
G01 X0.0463 Y-14.0409
G01 X0.0648 Y-14.0343
G01 X0.0874 Y-14.0248
G01 X0.1050 Y-14.0162
G01 X0.1264 Y-14.0042
G01 X0.1591 Y-13.9824
G01 X0.1783 Y-13.9672
G01 X0.1930 Y-13.9542
G01 X0.2205 Y-13.9261
G01 X0.2421 Y-13.8994
G01 X0.2613 Y-13.8710
G01 X0.2803 Y-13.8366
G01 X0.2940 Y-13.8051
G01 X0.3050 Y-13.7725
G01 X0.3140 Y-13.7343
G01 X0.3189 Y-13.7003
G01 X0.3208 Y-13.6660
G01 X0.3208 Y-0.0396
G01 X0.3197 Y-0.0102
G01 X0.3165 Y0.0191
G01 X0.3100 Y0.0528
G01 X0.2990 Y0.0905
G01 X0.2865 Y0.1225
G01 X0.2712 Y0.1533
G01 X0.2534 Y0.1826
G01 X0.2331 Y0.2103
G01 X0.2105 Y0.2362
G01 X0.1821 Y0.2633
G01 X0.1551 Y0.2846
G01 X0.1264 Y0.3035
G01 X0.0918 Y0.3220
G01 X0.0602 Y0.3353
G01 X0.0275 Y0.3459
G01 X-0.0060 Y0.3536
G01 X-0.0400 Y0.3585
G01 X-0.0792 Y0.3604
G01 X-98.2792 Y0.3604
G01 X-98.3086 Y0.3593
G01 X-98.3379 Y0.3561
G01 X-98.3716 Y0.3496
G01 X-98.4047 Y0.3402
G01 X-98.4368 Y0.3280
G01 X-98.4678 Y0.3132
G01 X-98.4973 Y0.2957
G01 X-98.5291 Y0.2727
G01 X-98.5550 Y0.2501
G01 X-98.5789 Y0.2254
G01 X-98.6005 Y0.1987
G01 X-98.6197 Y0.1702
G01 X-98.6365 Y0.1402
G01 X-98.6506 Y0.1089
G01 X-98.6620 Y0.0765
G01 X-98.6705 Y0.0432
G01 X-98.6768 Y0.0045
G01 X-98.6791 Y-0.0298
G01 X-98.6792 Y-13.6611
G01 X-98.6773 Y-13.7003
G01 X-98.6715 Y-13.7392
G01 X-98.6620 Y-13.7772
G01 X-98.6488 Y-13.8142
G01 X-98.6320 Y-13.8497
G01 X-98.6118 Y-13.8834
G01 X-98.5884 Y-13.9149
G01 X-98.5620 Y-13.9440
G01 X-98.5330 Y-13.9703
G01 X-98.5014 Y-13.9937
G01 X-98.4678 Y-14.0139
G01 X-98.4323 Y-14.0307
G01 X-98.3953 Y-14.0439
G01 X-98.3572 Y-14.0534
G01 X-98.3184 Y-14.0592
G01 X-98.2792 Y-14.0611
G00 X-98.2792 Y-14.0611
G01 F70.00
G01 Z-0.1500
G01 F120.00
G01 X-72.8086 Y-14.0611
G01 X-71.2554 Y-14.3330
G01 X-69.9023 Y-14.7195
G01 X-68.0863 Y-15.6469
G01 X-67.1712 Y-16.4476
G01 X-65.8900 Y-17.9617
G01 X-65.1995 Y-19.2276
G01 X-64.7757 Y-20.5762
G01 X-64.5437 Y-22.0070
G01 X-64.5435 Y-33.1543
G01 X-64.5413 Y-33.1837
G01 X-64.5360 Y-33.2176
G01 X-64.5292 Y-33.2463
G01 X-64.5187 Y-33.2790
G01 X-64.5074 Y-33.3062
G01 X-64.4942 Y-33.3325
G01 X-64.4790 Y-33.3577
G01 X-64.4591 Y-33.3857
G01 X-64.4401 Y-33.4082
G01 X-64.4160 Y-33.4327
G01 X-64.3937 Y-33.4519
G01 X-64.3660 Y-33.4722
G01 X-64.3366 Y-33.4900
G01 X-64.3103 Y-33.5033
G01 X-64.2785 Y-33.5162
G01 X-64.2504 Y-33.5251
G01 X-64.2218 Y-33.5319
G01 X-64.1976 Y-33.5360
G01 X-64.1732 Y-33.5385
G01 X-64.1437 Y-33.5396
G01 X-29.0823 Y-33.5396
G01 X-29.0528 Y-33.5385
G01 X-29.0236 Y-33.5353
G01 X-28.9899 Y-33.5288
G01 X-28.9568 Y-33.5194
G01 X-28.9247 Y-33.5072
G01 X-28.8937 Y-33.4924
G01 X-28.8641 Y-33.4749
G01 X-28.8362 Y-33.4549
G01 X-28.8100 Y-33.4327
G01 X-28.7859 Y-33.4082
G01 X-28.7639 Y-33.3818
G01 X-28.7443 Y-33.3536
G01 X-28.7272 Y-33.3238
G01 X-28.7127 Y-33.2927
G01 X-28.7010 Y-33.2604
G01 X-28.6920 Y-33.2272
G01 X-28.6859 Y-33.1934
G01 X-28.6828 Y-33.1592
G01 X-28.6823 Y-22.0070
G01 X-28.4503 Y-20.5762
G01 X-28.0264 Y-19.2276
G01 X-27.3359 Y-17.9617
G01 X-26.0547 Y-16.4476
G01 X-25.1396 Y-15.6469
G01 X-23.3236 Y-14.7195
G01 X-21.9706 Y-14.3330
G01 X-20.4174 Y-14.0611
G01 X-0.0743 Y-14.0611
G01 X-0.0498 Y-14.0600
G01 X-0.0302 Y-14.0581
G01 X0.0084 Y-14.0514
G01 X0.0463 Y-14.0409
G01 X0.0648 Y-14.0343
G01 X0.0874 Y-14.0248
G01 X0.1050 Y-14.0162
G01 X0.1264 Y-14.0042
G01 X0.1591 Y-13.9824
G01 X0.1783 Y-13.9672
G01 X0.1930 Y-13.9542
G01 X0.2205 Y-13.9261
G01 X0.2421 Y-13.8994
G01 X0.2613 Y-13.8710
G01 X0.2803 Y-13.8366
G01 X0.2940 Y-13.8051
G01 X0.3050 Y-13.7725
G01 X0.3140 Y-13.7343
G01 X0.3189 Y-13.7003
G01 X0.3208 Y-13.6660
G01 X0.3208 Y-0.0396
G01 X0.3197 Y-0.0102
G01 X0.3165 Y0.0191
G01 X0.3100 Y0.0528
G01 X0.2990 Y0.0905
G01 X0.2865 Y0.1225
G01 X0.2712 Y0.1533
G01 X0.2534 Y0.1826
G01 X0.2331 Y0.2103
G01 X0.2105 Y0.2362
G01 X0.1821 Y0.2633
G01 X0.1551 Y0.2846
G01 X0.1264 Y0.3035
G01 X0.0918 Y0.3220
G01 X0.0602 Y0.3353
G01 X0.0275 Y0.3459
G01 X-0.0060 Y0.3536
G01 X-0.0400 Y0.3585
G01 X-0.0792 Y0.3604
G01 X-98.2792 Y0.3604
G01 X-98.3086 Y0.3593
G01 X-98.3379 Y0.3561
G01 X-98.3716 Y0.3496
G01 X-98.4047 Y0.3402
G01 X-98.4368 Y0.3280
G01 X-98.4678 Y0.3132
G01 X-98.4973 Y0.2957
G01 X-98.5291 Y0.2727
G01 X-98.5550 Y0.2501
G01 X-98.5789 Y0.2254
G01 X-98.6005 Y0.1987
G01 X-98.6197 Y0.1702
G01 X-98.6365 Y0.1402
G01 X-98.6506 Y0.1089
G01 X-98.6620 Y0.0765
G01 X-98.6705 Y0.0432
G01 X-98.6768 Y0.0045
G01 X-98.6791 Y-0.0298
G01 X-98.6792 Y-13.6611
G01 X-98.6773 Y-13.7003
G01 X-98.6715 Y-13.7392
G01 X-98.6620 Y-13.7772
G01 X-98.6488 Y-13.8142
G01 X-98.6320 Y-13.8497
G01 X-98.6118 Y-13.8834
G01 X-98.5884 Y-13.9149
G01 X-98.5620 Y-13.9440
G01 X-98.5330 Y-13.9703
G01 X-98.5014 Y-13.9937
G01 X-98.4678 Y-14.0139
G01 X-98.4323 Y-14.0307
G01 X-98.3953 Y-14.0439
G01 X-98.3572 Y-14.0534
G01 X-98.3184 Y-14.0592
G01 X-98.2792 Y-14.0611
G00 X-98.2792 Y-14.0611
G01 F70.00
G01 Z-0.2000
G01 F120.00
G01 X-72.8086 Y-14.0611
G01 X-71.2554 Y-14.3330
G01 X-69.9023 Y-14.7195
G01 X-68.0863 Y-15.6469
G01 X-67.1712 Y-16.4476
G01 X-65.8900 Y-17.9617
G01 X-65.1995 Y-19.2276
G01 X-64.7757 Y-20.5762
G01 X-64.5437 Y-22.0070
G01 X-64.5435 Y-33.1543
G01 X-64.5413 Y-33.1837
G01 X-64.5360 Y-33.2176
G01 X-64.5292 Y-33.2463
G01 X-64.5187 Y-33.2790
G01 X-64.5074 Y-33.3062
G01 X-64.4942 Y-33.3325
G01 X-64.4790 Y-33.3577
G01 X-64.4591 Y-33.3857
G01 X-64.4401 Y-33.4082
G01 X-64.4160 Y-33.4327
G01 X-64.3937 Y-33.4519
G01 X-64.3660 Y-33.4722
G01 X-64.3366 Y-33.4900
G01 X-64.3103 Y-33.5033
G01 X-64.2785 Y-33.5162
G01 X-64.2504 Y-33.5251
G01 X-64.2218 Y-33.5319
G01 X-64.1976 Y-33.5360
G01 X-64.1732 Y-33.5385
G01 X-64.1437 Y-33.5396
G01 X-29.0823 Y-33.5396
G01 X-29.0528 Y-33.5385
G01 X-29.0236 Y-33.5353
G01 X-28.9899 Y-33.5288
G01 X-28.9568 Y-33.5194
G01 X-28.9247 Y-33.5072
G01 X-28.8937 Y-33.4924
G01 X-28.8641 Y-33.4749
G01 X-28.8362 Y-33.4549
G01 X-28.8100 Y-33.4327
G01 X-28.7859 Y-33.4082
G01 X-28.7639 Y-33.3818
G01 X-28.7443 Y-33.3536
G01 X-28.7272 Y-33.3238
G01 X-28.7127 Y-33.2927
G01 X-28.7010 Y-33.2604
G01 X-28.6920 Y-33.2272
G01 X-28.6859 Y-33.1934
G01 X-28.6828 Y-33.1592
G01 X-28.6823 Y-22.0070
G01 X-28.4503 Y-20.5762
G01 X-28.0264 Y-19.2276
G01 X-27.3359 Y-17.9617
G01 X-26.0547 Y-16.4476
G01 X-25.1396 Y-15.6469
G01 X-23.3236 Y-14.7195
G01 X-21.9706 Y-14.3330
G01 X-20.4174 Y-14.0611
G01 X-0.0743 Y-14.0611
G01 X-0.0498 Y-14.0600
G01 X-0.0302 Y-14.0581
G01 X0.0084 Y-14.0514
G01 X0.0463 Y-14.0409
G01 X0.0648 Y-14.0343
G01 X0.0874 Y-14.0248
G01 X0.1050 Y-14.0162
G01 X0.1264 Y-14.0042
G01 X0.1591 Y-13.9824
G01 X0.1783 Y-13.9672
G01 X0.1930 Y-13.9542
G01 X0.2205 Y-13.9261
G01 X0.2421 Y-13.8994
G01 X0.2613 Y-13.8710
G01 X0.2803 Y-13.8366
G01 X0.2940 Y-13.8051
G01 X0.3050 Y-13.7725
G01 X0.3140 Y-13.7343
G01 X0.3189 Y-13.7003
G01 X0.3208 Y-13.6660
G01 X0.3208 Y-0.0396
G01 X0.3197 Y-0.0102
G01 X0.3165 Y0.0191
G01 X0.3100 Y0.0528
G01 X0.2990 Y0.0905
G01 X0.2865 Y0.1225
G01 X0.2712 Y0.1533
G01 X0.2534 Y0.1826
G01 X0.2331 Y0.2103
G01 X0.2105 Y0.2362
G01 X0.1821 Y0.2633
G01 X0.1551 Y0.2846
G01 X0.1264 Y0.3035
G01 X0.0918 Y0.3220
G01 X0.0602 Y0.3353
G01 X0.0275 Y0.3459
G01 X-0.0060 Y0.3536
G01 X-0.0400 Y0.3585
G01 X-0.0792 Y0.3604
G01 X-98.2792 Y0.3604
G01 X-98.3086 Y0.3593
G01 X-98.3379 Y0.3561
G01 X-98.3716 Y0.3496
G01 X-98.4047 Y0.3402
G01 X-98.4368 Y0.3280
G01 X-98.4678 Y0.3132
G01 X-98.4973 Y0.2957
G01 X-98.5291 Y0.2727
G01 X-98.5550 Y0.2501
G01 X-98.5789 Y0.2254
G01 X-98.6005 Y0.1987
G01 X-98.6197 Y0.1702
G01 X-98.6365 Y0.1402
G01 X-98.6506 Y0.1089
G01 X-98.6620 Y0.0765
G01 X-98.6705 Y0.0432
G01 X-98.6768 Y0.0045
G01 X-98.6791 Y-0.0298
G01 X-98.6792 Y-13.6611
G01 X-98.6773 Y-13.7003
G01 X-98.6715 Y-13.7392
G01 X-98.6620 Y-13.7772
G01 X-98.6488 Y-13.8142
G01 X-98.6320 Y-13.8497
G01 X-98.6118 Y-13.8834
G01 X-98.5884 Y-13.9149
G01 X-98.5620 Y-13.9440
G01 X-98.5330 Y-13.9703
G01 X-98.5014 Y-13.9937
G01 X-98.4678 Y-14.0139
G01 X-98.4323 Y-14.0307
G01 X-98.3953 Y-14.0439
G01 X-98.3572 Y-14.0534
G01 X-98.3184 Y-14.0592
G01 X-98.2792 Y-14.0611
G00 X-98.2792 Y-14.0611
G01 F70.00
G01 Z-0.2500
G01 F120.00
G01 X-72.8086 Y-14.0611
G01 X-71.2554 Y-14.3330
G01 X-69.9023 Y-14.7195
G01 X-68.0863 Y-15.6469
G01 X-67.1712 Y-16.4476
G01 X-65.8900 Y-17.9617
G01 X-65.1995 Y-19.2276
G01 X-64.7757 Y-20.5762
G01 X-64.5437 Y-22.0070
G01 X-64.5435 Y-33.1543
G01 X-64.5413 Y-33.1837
G01 X-64.5360 Y-33.2176
G01 X-64.5292 Y-33.2463
G01 X-64.5187 Y-33.2790
G01 X-64.5074 Y-33.3062
G01 X-64.4942 Y-33.3325
G01 X-64.4790 Y-33.3577
G01 X-64.4591 Y-33.3857
G01 X-64.4401 Y-33.4082
G01 X-64.4160 Y-33.4327
G01 X-64.3937 Y-33.4519
G01 X-64.3660 Y-33.4722
G01 X-64.3366 Y-33.4900
G01 X-64.3103 Y-33.5033
G01 X-64.2785 Y-33.5162
G01 X-64.2504 Y-33.5251
G01 X-64.2218 Y-33.5319
G01 X-64.1976 Y-33.5360
G01 X-64.1732 Y-33.5385
G01 X-64.1437 Y-33.5396
G01 X-29.0823 Y-33.5396
G01 X-29.0528 Y-33.5385
G01 X-29.0236 Y-33.5353
G01 X-28.9899 Y-33.5288
G01 X-28.9568 Y-33.5194
G01 X-28.9247 Y-33.5072
G01 X-28.8937 Y-33.4924
G01 X-28.8641 Y-33.4749
G01 X-28.8362 Y-33.4549
G01 X-28.8100 Y-33.4327
G01 X-28.7859 Y-33.4082
G01 X-28.7639 Y-33.3818
G01 X-28.7443 Y-33.3536
G01 X-28.7272 Y-33.3238
G01 X-28.7127 Y-33.2927
G01 X-28.7010 Y-33.2604
G01 X-28.6920 Y-33.2272
G01 X-28.6859 Y-33.1934
G01 X-28.6828 Y-33.1592
G01 X-28.6823 Y-22.0070
G01 X-28.4503 Y-20.5762
G01 X-28.0264 Y-19.2276
G01 X-27.3359 Y-17.9617
G01 X-26.0547 Y-16.4476
G01 X-25.1396 Y-15.6469
G01 X-23.3236 Y-14.7195
G01 X-21.9706 Y-14.3330
G01 X-20.4174 Y-14.0611
G01 X-0.0743 Y-14.0611
G01 X-0.0498 Y-14.0600
G01 X-0.0302 Y-14.0581
G01 X0.0084 Y-14.0514
G01 X0.0463 Y-14.0409
G01 X0.0648 Y-14.0343
G01 X0.0874 Y-14.0248
G01 X0.1050 Y-14.0162
G01 X0.1264 Y-14.0042
G01 X0.1591 Y-13.9824
G01 X0.1783 Y-13.9672
G01 X0.1930 Y-13.9542
G01 X0.2205 Y-13.9261
G01 X0.2421 Y-13.8994
G01 X0.2613 Y-13.8710
G01 X0.2803 Y-13.8366
G01 X0.2940 Y-13.8051
G01 X0.3050 Y-13.7725
G01 X0.3140 Y-13.7343
G01 X0.3189 Y-13.7003
G01 X0.3208 Y-13.6660
G01 X0.3208 Y-0.0396
G01 X0.3197 Y-0.0102
G01 X0.3165 Y0.0191
G01 X0.3100 Y0.0528
G01 X0.2990 Y0.0905
G01 X0.2865 Y0.1225
G01 X0.2712 Y0.1533
G01 X0.2534 Y0.1826
G01 X0.2331 Y0.2103
G01 X0.2105 Y0.2362
G01 X0.1821 Y0.2633
G01 X0.1551 Y0.2846
G01 X0.1264 Y0.3035
G01 X0.0918 Y0.3220
G01 X0.0602 Y0.3353
G01 X0.0275 Y0.3459
G01 X-0.0060 Y0.3536
G01 X-0.0400 Y0.3585
G01 X-0.0792 Y0.3604
G01 X-98.2792 Y0.3604
G01 X-98.3086 Y0.3593
G01 X-98.3379 Y0.3561
G01 X-98.3716 Y0.3496
G01 X-98.4047 Y0.3402
G01 X-98.4368 Y0.3280
G01 X-98.4678 Y0.3132
G01 X-98.4973 Y0.2957
G01 X-98.5291 Y0.2727
G01 X-98.5550 Y0.2501
G01 X-98.5789 Y0.2254
G01 X-98.6005 Y0.1987
G01 X-98.6197 Y0.1702
G01 X-98.6365 Y0.1402
G01 X-98.6506 Y0.1089
G01 X-98.6620 Y0.0765
G01 X-98.6705 Y0.0432
G01 X-98.6768 Y0.0045
G01 X-98.6791 Y-0.0298
G01 X-98.6792 Y-13.6611
G01 X-98.6773 Y-13.7003
G01 X-98.6715 Y-13.7392
G01 X-98.6620 Y-13.7772
G01 X-98.6488 Y-13.8142
G01 X-98.6320 Y-13.8497
G01 X-98.6118 Y-13.8834
G01 X-98.5884 Y-13.9149
G01 X-98.5620 Y-13.9440
G01 X-98.5330 Y-13.9703
G01 X-98.5014 Y-13.9937
G01 X-98.4678 Y-14.0139
G01 X-98.4323 Y-14.0307
G01 X-98.3953 Y-14.0439
G01 X-98.3572 Y-14.0534
G01 X-98.3184 Y-14.0592
G01 X-98.2792 Y-14.0611
G00 X-98.2792 Y-14.0611
G01 F70.00
G01 Z-0.3000
G01 F120.00
G01 X-72.8086 Y-14.0611
G01 X-71.2554 Y-14.3330
G01 X-69.9023 Y-14.7195
G01 X-68.0863 Y-15.6469
G01 X-67.1712 Y-16.4476
G01 X-65.8900 Y-17.9617
G01 X-65.1995 Y-19.2276
G01 X-64.7757 Y-20.5762
G01 X-64.5437 Y-22.0070
G01 X-64.5435 Y-33.1543
G01 X-64.5413 Y-33.1837
G01 X-64.5360 Y-33.2176
G01 X-64.5292 Y-33.2463
G01 X-64.5187 Y-33.2790
G01 X-64.5074 Y-33.3062
G01 X-64.4942 Y-33.3325
G01 X-64.4790 Y-33.3577
G01 X-64.4591 Y-33.3857
G01 X-64.4401 Y-33.4082
G01 X-64.4160 Y-33.4327
G01 X-64.3937 Y-33.4519
G01 X-64.3660 Y-33.4722
G01 X-64.3366 Y-33.4900
G01 X-64.3103 Y-33.5033
G01 X-64.2785 Y-33.5162
G01 X-64.2504 Y-33.5251
G01 X-64.2218 Y-33.5319
G01 X-64.1976 Y-33.5360
G01 X-64.1732 Y-33.5385
G01 X-64.1437 Y-33.5396
G01 X-29.0823 Y-33.5396
G01 X-29.0528 Y-33.5385
G01 X-29.0236 Y-33.5353
G01 X-28.9899 Y-33.5288
G01 X-28.9568 Y-33.5194
G01 X-28.9247 Y-33.5072
G01 X-28.8937 Y-33.4924
G01 X-28.8641 Y-33.4749
G01 X-28.8362 Y-33.4549
G01 X-28.8100 Y-33.4327
G01 X-28.7859 Y-33.4082
G01 X-28.7639 Y-33.3818
G01 X-28.7443 Y-33.3536
G01 X-28.7272 Y-33.3238
G01 X-28.7127 Y-33.2927
G01 X-28.7010 Y-33.2604
G01 X-28.6920 Y-33.2272
G01 X-28.6859 Y-33.1934
G01 X-28.6828 Y-33.1592
G01 X-28.6823 Y-22.0070
G01 X-28.4503 Y-20.5762
G01 X-28.0264 Y-19.2276
G01 X-27.3359 Y-17.9617
G01 X-26.0547 Y-16.4476
G01 X-25.1396 Y-15.6469
G01 X-23.3236 Y-14.7195
G01 X-21.9706 Y-14.3330
G01 X-20.4174 Y-14.0611
G01 X-0.0743 Y-14.0611
G01 X-0.0498 Y-14.0600
G01 X-0.0302 Y-14.0581
G01 X0.0084 Y-14.0514
G01 X0.0463 Y-14.0409
G01 X0.0648 Y-14.0343
G01 X0.0874 Y-14.0248
G01 X0.1050 Y-14.0162
G01 X0.1264 Y-14.0042
G01 X0.1591 Y-13.9824
G01 X0.1783 Y-13.9672
G01 X0.1930 Y-13.9542
G01 X0.2205 Y-13.9261
G01 X0.2421 Y-13.8994
G01 X0.2613 Y-13.8710
G01 X0.2803 Y-13.8366
G01 X0.2940 Y-13.8051
G01 X0.3050 Y-13.7725
G01 X0.3140 Y-13.7343
G01 X0.3189 Y-13.7003
G01 X0.3208 Y-13.6660
G01 X0.3208 Y-0.0396
G01 X0.3197 Y-0.0102
G01 X0.3165 Y0.0191
G01 X0.3100 Y0.0528
G01 X0.2990 Y0.0905
G01 X0.2865 Y0.1225
G01 X0.2712 Y0.1533
G01 X0.2534 Y0.1826
G01 X0.2331 Y0.2103
G01 X0.2105 Y0.2362
G01 X0.1821 Y0.2633
G01 X0.1551 Y0.2846
G01 X0.1264 Y0.3035
G01 X0.0918 Y0.3220
G01 X0.0602 Y0.3353
G01 X0.0275 Y0.3459
G01 X-0.0060 Y0.3536
G01 X-0.0400 Y0.3585
G01 X-0.0792 Y0.3604
G01 X-98.2792 Y0.3604
G01 X-98.3086 Y0.3593
G01 X-98.3379 Y0.3561
G01 X-98.3716 Y0.3496
G01 X-98.4047 Y0.3402
G01 X-98.4368 Y0.3280
G01 X-98.4678 Y0.3132
G01 X-98.4973 Y0.2957
G01 X-98.5291 Y0.2727
G01 X-98.5550 Y0.2501
G01 X-98.5789 Y0.2254
G01 X-98.6005 Y0.1987
G01 X-98.6197 Y0.1702
G01 X-98.6365 Y0.1402
G01 X-98.6506 Y0.1089
G01 X-98.6620 Y0.0765
G01 X-98.6705 Y0.0432
G01 X-98.6768 Y0.0045
G01 X-98.6791 Y-0.0298
G01 X-98.6792 Y-13.6611
G01 X-98.6773 Y-13.7003
G01 X-98.6715 Y-13.7392
G01 X-98.6620 Y-13.7772
G01 X-98.6488 Y-13.8142
G01 X-98.6320 Y-13.8497
G01 X-98.6118 Y-13.8834
G01 X-98.5884 Y-13.9149
G01 X-98.5620 Y-13.9440
G01 X-98.5330 Y-13.9703
G01 X-98.5014 Y-13.9937
G01 X-98.4678 Y-14.0139
G01 X-98.4323 Y-14.0307
G01 X-98.3953 Y-14.0439
G01 X-98.3572 Y-14.0534
G01 X-98.3184 Y-14.0592
G01 X-98.2792 Y-14.0611
G00 X-98.2792 Y-14.0611
G01 F70.00
G01 Z-0.3500
G01 F120.00
G01 X-72.8086 Y-14.0611
G01 X-71.2554 Y-14.3330
G01 X-69.9023 Y-14.7195
G01 X-68.0863 Y-15.6469
G01 X-67.1712 Y-16.4476
G01 X-65.8900 Y-17.9617
G01 X-65.1995 Y-19.2276
G01 X-64.7757 Y-20.5762
G01 X-64.5437 Y-22.0070
G01 X-64.5435 Y-33.1543
G01 X-64.5413 Y-33.1837
G01 X-64.5360 Y-33.2176
G01 X-64.5292 Y-33.2463
G01 X-64.5187 Y-33.2790
G01 X-64.5074 Y-33.3062
G01 X-64.4942 Y-33.3325
G01 X-64.4790 Y-33.3577
G01 X-64.4591 Y-33.3857
G01 X-64.4401 Y-33.4082
G01 X-64.4160 Y-33.4327
G01 X-64.3937 Y-33.4519
G01 X-64.3660 Y-33.4722
G01 X-64.3366 Y-33.4900
G01 X-64.3103 Y-33.5033
G01 X-64.2785 Y-33.5162
G01 X-64.2504 Y-33.5251
G01 X-64.2218 Y-33.5319
G01 X-64.1976 Y-33.5360
G01 X-64.1732 Y-33.5385
G01 X-64.1437 Y-33.5396
G01 X-29.0823 Y-33.5396
G01 X-29.0528 Y-33.5385
G01 X-29.0236 Y-33.5353
G01 X-28.9899 Y-33.5288
G01 X-28.9568 Y-33.5194
G01 X-28.9247 Y-33.5072
G01 X-28.8937 Y-33.4924
G01 X-28.8641 Y-33.4749
G01 X-28.8362 Y-33.4549
G01 X-28.8100 Y-33.4327
G01 X-28.7859 Y-33.4082
G01 X-28.7639 Y-33.3818
G01 X-28.7443 Y-33.3536
G01 X-28.7272 Y-33.3238
G01 X-28.7127 Y-33.2927
G01 X-28.7010 Y-33.2604
G01 X-28.6920 Y-33.2272
G01 X-28.6859 Y-33.1934
G01 X-28.6828 Y-33.1592
G01 X-28.6823 Y-22.0070
G01 X-28.4503 Y-20.5762
G01 X-28.0264 Y-19.2276
G01 X-27.3359 Y-17.9617
G01 X-26.0547 Y-16.4476
G01 X-25.1396 Y-15.6469
G01 X-23.3236 Y-14.7195
G01 X-21.9706 Y-14.3330
G01 X-20.4174 Y-14.0611
G01 X-0.0743 Y-14.0611
G01 X-0.0498 Y-14.0600
G01 X-0.0302 Y-14.0581
G01 X0.0084 Y-14.0514
G01 X0.0463 Y-14.0409
G01 X0.0648 Y-14.0343
G01 X0.0874 Y-14.0248
G01 X0.1050 Y-14.0162
G01 X0.1264 Y-14.0042
G01 X0.1591 Y-13.9824
G01 X0.1783 Y-13.9672
G01 X0.1930 Y-13.9542
G01 X0.2205 Y-13.9261
G01 X0.2421 Y-13.8994
G01 X0.2613 Y-13.8710
G01 X0.2803 Y-13.8366
G01 X0.2940 Y-13.8051
G01 X0.3050 Y-13.7725
G01 X0.3140 Y-13.7343
G01 X0.3189 Y-13.7003
G01 X0.3208 Y-13.6660
G01 X0.3208 Y-0.0396
G01 X0.3197 Y-0.0102
G01 X0.3165 Y0.0191
G01 X0.3100 Y0.0528
G01 X0.2990 Y0.0905
G01 X0.2865 Y0.1225
G01 X0.2712 Y0.1533
G01 X0.2534 Y0.1826
G01 X0.2331 Y0.2103
G01 X0.2105 Y0.2362
G01 X0.1821 Y0.2633
G01 X0.1551 Y0.2846
G01 X0.1264 Y0.3035
G01 X0.0918 Y0.3220
G01 X0.0602 Y0.3353
G01 X0.0275 Y0.3459
G01 X-0.0060 Y0.3536
G01 X-0.0400 Y0.3585
G01 X-0.0792 Y0.3604
G01 X-98.2792 Y0.3604
G01 X-98.3086 Y0.3593
G01 X-98.3379 Y0.3561
G01 X-98.3716 Y0.3496
G01 X-98.4047 Y0.3402
G01 X-98.4368 Y0.3280
G01 X-98.4678 Y0.3132
G01 X-98.4973 Y0.2957
G01 X-98.5291 Y0.2727
G01 X-98.5550 Y0.2501
G01 X-98.5789 Y0.2254
G01 X-98.6005 Y0.1987
G01 X-98.6197 Y0.1702
G01 X-98.6365 Y0.1402
G01 X-98.6506 Y0.1089
G01 X-98.6620 Y0.0765
G01 X-98.6705 Y0.0432
G01 X-98.6768 Y0.0045
G01 X-98.6791 Y-0.0298
G01 X-98.6792 Y-13.6611
G01 X-98.6773 Y-13.7003
G01 X-98.6715 Y-13.7392
G01 X-98.6620 Y-13.7772
G01 X-98.6488 Y-13.8142
G01 X-98.6320 Y-13.8497
G01 X-98.6118 Y-13.8834
G01 X-98.5884 Y-13.9149
G01 X-98.5620 Y-13.9440
G01 X-98.5330 Y-13.9703
G01 X-98.5014 Y-13.9937
G01 X-98.4678 Y-14.0139
G01 X-98.4323 Y-14.0307
G01 X-98.3953 Y-14.0439
G01 X-98.3572 Y-14.0534
G01 X-98.3184 Y-14.0592
G01 X-98.2792 Y-14.0611
G00 X-98.2792 Y-14.0611
G01 F70.00
G01 Z-0.4000
G01 F120.00
G01 X-72.8086 Y-14.0611
G01 X-71.2554 Y-14.3330
G01 X-69.9023 Y-14.7195
G01 X-68.0863 Y-15.6469
G01 X-67.1712 Y-16.4476
G01 X-65.8900 Y-17.9617
G01 X-65.1995 Y-19.2276
G01 X-64.7757 Y-20.5762
G01 X-64.5437 Y-22.0070
G01 X-64.5435 Y-33.1543
G01 X-64.5413 Y-33.1837
G01 X-64.5360 Y-33.2176
G01 X-64.5292 Y-33.2463
G01 X-64.5187 Y-33.2790
G01 X-64.5074 Y-33.3062
G01 X-64.4942 Y-33.3325
G01 X-64.4790 Y-33.3577
G01 X-64.4591 Y-33.3857
G01 X-64.4401 Y-33.4082
G01 X-64.4160 Y-33.4327
G01 X-64.3937 Y-33.4519
G01 X-64.3660 Y-33.4722
G01 X-64.3366 Y-33.4900
G01 X-64.3103 Y-33.5033
G01 X-64.2785 Y-33.5162
G01 X-64.2504 Y-33.5251
G01 X-64.2218 Y-33.5319
G01 X-64.1976 Y-33.5360
G01 X-64.1732 Y-33.5385
G01 X-64.1437 Y-33.5396
G01 X-29.0823 Y-33.5396
G01 X-29.0528 Y-33.5385
G01 X-29.0236 Y-33.5353
G01 X-28.9899 Y-33.5288
G01 X-28.9568 Y-33.5194
G01 X-28.9247 Y-33.5072
G01 X-28.8937 Y-33.4924
G01 X-28.8641 Y-33.4749
G01 X-28.8362 Y-33.4549
G01 X-28.8100 Y-33.4327
G01 X-28.7859 Y-33.4082
G01 X-28.7639 Y-33.3818
G01 X-28.7443 Y-33.3536
G01 X-28.7272 Y-33.3238
G01 X-28.7127 Y-33.2927
G01 X-28.7010 Y-33.2604
G01 X-28.6920 Y-33.2272
G01 X-28.6859 Y-33.1934
G01 X-28.6828 Y-33.1592
G01 X-28.6823 Y-22.0070
G01 X-28.4503 Y-20.5762
G01 X-28.0264 Y-19.2276
G01 X-27.3359 Y-17.9617
G01 X-26.0547 Y-16.4476
G01 X-25.1396 Y-15.6469
G01 X-23.3236 Y-14.7195
G01 X-21.9706 Y-14.3330
G01 X-20.4174 Y-14.0611
G01 X-0.0743 Y-14.0611
G01 X-0.0498 Y-14.0600
G01 X-0.0302 Y-14.0581
G01 X0.0084 Y-14.0514
G01 X0.0463 Y-14.0409
G01 X0.0648 Y-14.0343
G01 X0.0874 Y-14.0248
G01 X0.1050 Y-14.0162
G01 X0.1264 Y-14.0042
G01 X0.1591 Y-13.9824
G01 X0.1783 Y-13.9672
G01 X0.1930 Y-13.9542
G01 X0.2205 Y-13.9261
G01 X0.2421 Y-13.8994
G01 X0.2613 Y-13.8710
G01 X0.2803 Y-13.8366
G01 X0.2940 Y-13.8051
G01 X0.3050 Y-13.7725
G01 X0.3140 Y-13.7343
G01 X0.3189 Y-13.7003
G01 X0.3208 Y-13.6660
G01 X0.3208 Y-0.0396
G01 X0.3197 Y-0.0102
G01 X0.3165 Y0.0191
G01 X0.3100 Y0.0528
G01 X0.2990 Y0.0905
G01 X0.2865 Y0.1225
G01 X0.2712 Y0.1533
G01 X0.2534 Y0.1826
G01 X0.2331 Y0.2103
G01 X0.2105 Y0.2362
G01 X0.1821 Y0.2633
G01 X0.1551 Y0.2846
G01 X0.1264 Y0.3035
G01 X0.0918 Y0.3220
G01 X0.0602 Y0.3353
G01 X0.0275 Y0.3459
G01 X-0.0060 Y0.3536
G01 X-0.0400 Y0.3585
G01 X-0.0792 Y0.3604
G01 X-98.2792 Y0.3604
G01 X-98.3086 Y0.3593
G01 X-98.3379 Y0.3561
G01 X-98.3716 Y0.3496
G01 X-98.4047 Y0.3402
G01 X-98.4368 Y0.3280
G01 X-98.4678 Y0.3132
G01 X-98.4973 Y0.2957
G01 X-98.5291 Y0.2727
G01 X-98.5550 Y0.2501
G01 X-98.5789 Y0.2254
G01 X-98.6005 Y0.1987
G01 X-98.6197 Y0.1702
G01 X-98.6365 Y0.1402
G01 X-98.6506 Y0.1089
G01 X-98.6620 Y0.0765
G01 X-98.6705 Y0.0432
G01 X-98.6768 Y0.0045
G01 X-98.6791 Y-0.0298
G01 X-98.6792 Y-13.6611
G01 X-98.6773 Y-13.7003
G01 X-98.6715 Y-13.7392
G01 X-98.6620 Y-13.7772
G01 X-98.6488 Y-13.8142
G01 X-98.6320 Y-13.8497
G01 X-98.6118 Y-13.8834
G01 X-98.5884 Y-13.9149
G01 X-98.5620 Y-13.9440
G01 X-98.5330 Y-13.9703
G01 X-98.5014 Y-13.9937
G01 X-98.4678 Y-14.0139
G01 X-98.4323 Y-14.0307
G01 X-98.3953 Y-14.0439
G01 X-98.3572 Y-14.0534
G01 X-98.3184 Y-14.0592
G01 X-98.2792 Y-14.0611
G00 X-98.2792 Y-14.0611
G01 F70.00
G01 Z-0.4500
G01 F120.00
G01 X-72.8086 Y-14.0611
G01 X-71.2554 Y-14.3330
G01 X-69.9023 Y-14.7195
G01 X-68.0863 Y-15.6469
G01 X-67.1712 Y-16.4476
G01 X-65.8900 Y-17.9617
G01 X-65.1995 Y-19.2276
G01 X-64.7757 Y-20.5762
G01 X-64.5437 Y-22.0070
G01 X-64.5435 Y-33.1543
G01 X-64.5413 Y-33.1837
G01 X-64.5360 Y-33.2176
G01 X-64.5292 Y-33.2463
G01 X-64.5187 Y-33.2790
G01 X-64.5074 Y-33.3062
G01 X-64.4942 Y-33.3325
G01 X-64.4790 Y-33.3577
G01 X-64.4591 Y-33.3857
G01 X-64.4401 Y-33.4082
G01 X-64.4160 Y-33.4327
G01 X-64.3937 Y-33.4519
G01 X-64.3660 Y-33.4722
G01 X-64.3366 Y-33.4900
G01 X-64.3103 Y-33.5033
G01 X-64.2785 Y-33.5162
G01 X-64.2504 Y-33.5251
G01 X-64.2218 Y-33.5319
G01 X-64.1976 Y-33.5360
G01 X-64.1732 Y-33.5385
G01 X-64.1437 Y-33.5396
G01 X-29.0823 Y-33.5396
G01 X-29.0528 Y-33.5385
G01 X-29.0236 Y-33.5353
G01 X-28.9899 Y-33.5288
G01 X-28.9568 Y-33.5194
G01 X-28.9247 Y-33.5072
G01 X-28.8937 Y-33.4924
G01 X-28.8641 Y-33.4749
G01 X-28.8362 Y-33.4549
G01 X-28.8100 Y-33.4327
G01 X-28.7859 Y-33.4082
G01 X-28.7639 Y-33.3818
G01 X-28.7443 Y-33.3536
G01 X-28.7272 Y-33.3238
G01 X-28.7127 Y-33.2927
G01 X-28.7010 Y-33.2604
G01 X-28.6920 Y-33.2272
G01 X-28.6859 Y-33.1934
G01 X-28.6828 Y-33.1592
G01 X-28.6823 Y-22.0070
G01 X-28.4503 Y-20.5762
G01 X-28.0264 Y-19.2276
G01 X-27.3359 Y-17.9617
G01 X-26.0547 Y-16.4476
G01 X-25.1396 Y-15.6469
G01 X-23.3236 Y-14.7195
G01 X-21.9706 Y-14.3330
G01 X-20.4174 Y-14.0611
G01 X-0.0743 Y-14.0611
G01 X-0.0498 Y-14.0600
G01 X-0.0302 Y-14.0581
G01 X0.0084 Y-14.0514
G01 X0.0463 Y-14.0409
G01 X0.0648 Y-14.0343
G01 X0.0874 Y-14.0248
G01 X0.1050 Y-14.0162
G01 X0.1264 Y-14.0042
G01 X0.1591 Y-13.9824
G01 X0.1783 Y-13.9672
G01 X0.1930 Y-13.9542
G01 X0.2205 Y-13.9261
G01 X0.2421 Y-13.8994
G01 X0.2613 Y-13.8710
G01 X0.2803 Y-13.8366
G01 X0.2940 Y-13.8051
G01 X0.3050 Y-13.7725
G01 X0.3140 Y-13.7343
G01 X0.3189 Y-13.7003
G01 X0.3208 Y-13.6660
G01 X0.3208 Y-0.0396
G01 X0.3197 Y-0.0102
G01 X0.3165 Y0.0191
G01 X0.3100 Y0.0528
G01 X0.2990 Y0.0905
G01 X0.2865 Y0.1225
G01 X0.2712 Y0.1533
G01 X0.2534 Y0.1826
G01 X0.2331 Y0.2103
G01 X0.2105 Y0.2362
G01 X0.1821 Y0.2633
G01 X0.1551 Y0.2846
G01 X0.1264 Y0.3035
G01 X0.0918 Y0.3220
G01 X0.0602 Y0.3353
G01 X0.0275 Y0.3459
G01 X-0.0060 Y0.3536
G01 X-0.0400 Y0.3585
G01 X-0.0792 Y0.3604
G01 X-98.2792 Y0.3604
G01 X-98.3086 Y0.3593
G01 X-98.3379 Y0.3561
G01 X-98.3716 Y0.3496
G01 X-98.4047 Y0.3402
G01 X-98.4368 Y0.3280
G01 X-98.4678 Y0.3132
G01 X-98.4973 Y0.2957
G01 X-98.5291 Y0.2727
G01 X-98.5550 Y0.2501
G01 X-98.5789 Y0.2254
G01 X-98.6005 Y0.1987
G01 X-98.6197 Y0.1702
G01 X-98.6365 Y0.1402
G01 X-98.6506 Y0.1089
G01 X-98.6620 Y0.0765
G01 X-98.6705 Y0.0432
G01 X-98.6768 Y0.0045
G01 X-98.6791 Y-0.0298
G01 X-98.6792 Y-13.6611
G01 X-98.6773 Y-13.7003
G01 X-98.6715 Y-13.7392
G01 X-98.6620 Y-13.7772
G01 X-98.6488 Y-13.8142
G01 X-98.6320 Y-13.8497
G01 X-98.6118 Y-13.8834
G01 X-98.5884 Y-13.9149
G01 X-98.5620 Y-13.9440
G01 X-98.5330 Y-13.9703
G01 X-98.5014 Y-13.9937
G01 X-98.4678 Y-14.0139
G01 X-98.4323 Y-14.0307
G01 X-98.3953 Y-14.0439
G01 X-98.3572 Y-14.0534
G01 X-98.3184 Y-14.0592
G01 X-98.2792 Y-14.0611
G00 X-98.2792 Y-14.0611
G01 F70.00
G01 Z-0.5000
G01 F120.00
G01 X-72.8086 Y-14.0611
G01 X-71.2554 Y-14.3330
G01 X-69.9023 Y-14.7195
G01 X-68.0863 Y-15.6469
G01 X-67.1712 Y-16.4476
G01 X-65.8900 Y-17.9617
G01 X-65.1995 Y-19.2276
G01 X-64.7757 Y-20.5762
G01 X-64.5437 Y-22.0070
G01 X-64.5435 Y-33.1543
G01 X-64.5413 Y-33.1837
G01 X-64.5360 Y-33.2176
G01 X-64.5292 Y-33.2463
G01 X-64.5187 Y-33.2790
G01 X-64.5074 Y-33.3062
G01 X-64.4942 Y-33.3325
G01 X-64.4790 Y-33.3577
G01 X-64.4591 Y-33.3857
G01 X-64.4401 Y-33.4082
G01 X-64.4160 Y-33.4327
G01 X-64.3937 Y-33.4519
G01 X-64.3660 Y-33.4722
G01 X-64.3366 Y-33.4900
G01 X-64.3103 Y-33.5033
G01 X-64.2785 Y-33.5162
G01 X-64.2504 Y-33.5251
G01 X-64.2218 Y-33.5319
G01 X-64.1976 Y-33.5360
G01 X-64.1732 Y-33.5385
G01 X-64.1437 Y-33.5396
G01 X-29.0823 Y-33.5396
G01 X-29.0528 Y-33.5385
G01 X-29.0236 Y-33.5353
G01 X-28.9899 Y-33.5288
G01 X-28.9568 Y-33.5194
G01 X-28.9247 Y-33.5072
G01 X-28.8937 Y-33.4924
G01 X-28.8641 Y-33.4749
G01 X-28.8362 Y-33.4549
G01 X-28.8100 Y-33.4327
G01 X-28.7859 Y-33.4082
G01 X-28.7639 Y-33.3818
G01 X-28.7443 Y-33.3536
G01 X-28.7272 Y-33.3238
G01 X-28.7127 Y-33.2927
G01 X-28.7010 Y-33.2604
G01 X-28.6920 Y-33.2272
G01 X-28.6859 Y-33.1934
G01 X-28.6828 Y-33.1592
G01 X-28.6823 Y-22.0070
G01 X-28.4503 Y-20.5762
G01 X-28.0264 Y-19.2276
G01 X-27.3359 Y-17.9617
G01 X-26.0547 Y-16.4476
G01 X-25.1396 Y-15.6469
G01 X-23.3236 Y-14.7195
G01 X-21.9706 Y-14.3330
G01 X-20.4174 Y-14.0611
G01 X-0.0743 Y-14.0611
G01 X-0.0498 Y-14.0600
G01 X-0.0302 Y-14.0581
G01 X0.0084 Y-14.0514
G01 X0.0463 Y-14.0409
G01 X0.0648 Y-14.0343
G01 X0.0874 Y-14.0248
G01 X0.1050 Y-14.0162
G01 X0.1264 Y-14.0042
G01 X0.1591 Y-13.9824
G01 X0.1783 Y-13.9672
G01 X0.1930 Y-13.9542
G01 X0.2205 Y-13.9261
G01 X0.2421 Y-13.8994
G01 X0.2613 Y-13.8710
G01 X0.2803 Y-13.8366
G01 X0.2940 Y-13.8051
G01 X0.3050 Y-13.7725
G01 X0.3140 Y-13.7343
G01 X0.3189 Y-13.7003
G01 X0.3208 Y-13.6660
G01 X0.3208 Y-0.0396
G01 X0.3197 Y-0.0102
G01 X0.3165 Y0.0191
G01 X0.3100 Y0.0528
G01 X0.2990 Y0.0905
G01 X0.2865 Y0.1225
G01 X0.2712 Y0.1533
G01 X0.2534 Y0.1826
G01 X0.2331 Y0.2103
G01 X0.2105 Y0.2362
G01 X0.1821 Y0.2633
G01 X0.1551 Y0.2846
G01 X0.1264 Y0.3035
G01 X0.0918 Y0.3220
G01 X0.0602 Y0.3353
G01 X0.0275 Y0.3459
G01 X-0.0060 Y0.3536
G01 X-0.0400 Y0.3585
G01 X-0.0792 Y0.3604
G01 X-98.2792 Y0.3604
G01 X-98.3086 Y0.3593
G01 X-98.3379 Y0.3561
G01 X-98.3716 Y0.3496
G01 X-98.4047 Y0.3402
G01 X-98.4368 Y0.3280
G01 X-98.4678 Y0.3132
G01 X-98.4973 Y0.2957
G01 X-98.5291 Y0.2727
G01 X-98.5550 Y0.2501
G01 X-98.5789 Y0.2254
G01 X-98.6005 Y0.1987
G01 X-98.6197 Y0.1702
G01 X-98.6365 Y0.1402
G01 X-98.6506 Y0.1089
G01 X-98.6620 Y0.0765
G01 X-98.6705 Y0.0432
G01 X-98.6768 Y0.0045
G01 X-98.6791 Y-0.0298
G01 X-98.6792 Y-13.6611
G01 X-98.6773 Y-13.7003
G01 X-98.6715 Y-13.7392
G01 X-98.6620 Y-13.7772
G01 X-98.6488 Y-13.8142
G01 X-98.6320 Y-13.8497
G01 X-98.6118 Y-13.8834
G01 X-98.5884 Y-13.9149
G01 X-98.5620 Y-13.9440
G01 X-98.5330 Y-13.9703
G01 X-98.5014 Y-13.9937
G01 X-98.4678 Y-14.0139
G01 X-98.4323 Y-14.0307
G01 X-98.3953 Y-14.0439
G01 X-98.3572 Y-14.0534
G01 X-98.3184 Y-14.0592
G01 X-98.2792 Y-14.0611
G00 X-98.2792 Y-14.0611
G01 F70.00
G01 Z-0.5500
G01 F120.00
G01 X-72.8086 Y-14.0611
G01 X-71.2554 Y-14.3330
G01 X-69.9023 Y-14.7195
G01 X-68.0863 Y-15.6469
G01 X-67.1712 Y-16.4476
G01 X-65.8900 Y-17.9617
G01 X-65.1995 Y-19.2276
G01 X-64.7757 Y-20.5762
G01 X-64.5437 Y-22.0070
G01 X-64.5435 Y-33.1543
G01 X-64.5413 Y-33.1837
G01 X-64.5360 Y-33.2176
G01 X-64.5292 Y-33.2463
G01 X-64.5187 Y-33.2790
G01 X-64.5074 Y-33.3062
G01 X-64.4942 Y-33.3325
G01 X-64.4790 Y-33.3577
G01 X-64.4591 Y-33.3857
G01 X-64.4401 Y-33.4082
G01 X-64.4160 Y-33.4327
G01 X-64.3937 Y-33.4519
G01 X-64.3660 Y-33.4722
G01 X-64.3366 Y-33.4900
G01 X-64.3103 Y-33.5033
G01 X-64.2785 Y-33.5162
G01 X-64.2504 Y-33.5251
G01 X-64.2218 Y-33.5319
G01 X-64.1976 Y-33.5360
G01 X-64.1732 Y-33.5385
G01 X-64.1437 Y-33.5396
G01 X-29.0823 Y-33.5396
G01 X-29.0528 Y-33.5385
G01 X-29.0236 Y-33.5353
G01 X-28.9899 Y-33.5288
G01 X-28.9568 Y-33.5194
G01 X-28.9247 Y-33.5072
G01 X-28.8937 Y-33.4924
G01 X-28.8641 Y-33.4749
G01 X-28.8362 Y-33.4549
G01 X-28.8100 Y-33.4327
G01 X-28.7859 Y-33.4082
G01 X-28.7639 Y-33.3818
G01 X-28.7443 Y-33.3536
G01 X-28.7272 Y-33.3238
G01 X-28.7127 Y-33.2927
G01 X-28.7010 Y-33.2604
G01 X-28.6920 Y-33.2272
G01 X-28.6859 Y-33.1934
G01 X-28.6828 Y-33.1592
G01 X-28.6823 Y-22.0070
G01 X-28.4503 Y-20.5762
G01 X-28.0264 Y-19.2276
G01 X-27.3359 Y-17.9617
G01 X-26.0547 Y-16.4476
G01 X-25.1396 Y-15.6469
G01 X-23.3236 Y-14.7195
G01 X-21.9706 Y-14.3330
G01 X-20.4174 Y-14.0611
G01 X-0.0743 Y-14.0611
G01 X-0.0498 Y-14.0600
G01 X-0.0302 Y-14.0581
G01 X0.0084 Y-14.0514
G01 X0.0463 Y-14.0409
G01 X0.0648 Y-14.0343
G01 X0.0874 Y-14.0248
G01 X0.1050 Y-14.0162
G01 X0.1264 Y-14.0042
G01 X0.1591 Y-13.9824
G01 X0.1783 Y-13.9672
G01 X0.1930 Y-13.9542
G01 X0.2205 Y-13.9261
G01 X0.2421 Y-13.8994
G01 X0.2613 Y-13.8710
G01 X0.2803 Y-13.8366
G01 X0.2940 Y-13.8051
G01 X0.3050 Y-13.7725
G01 X0.3140 Y-13.7343
G01 X0.3189 Y-13.7003
G01 X0.3208 Y-13.6660
G01 X0.3208 Y-0.0396
G01 X0.3197 Y-0.0102
G01 X0.3165 Y0.0191
G01 X0.3100 Y0.0528
G01 X0.2990 Y0.0905
G01 X0.2865 Y0.1225
G01 X0.2712 Y0.1533
G01 X0.2534 Y0.1826
G01 X0.2331 Y0.2103
G01 X0.2105 Y0.2362
G01 X0.1821 Y0.2633
G01 X0.1551 Y0.2846
G01 X0.1264 Y0.3035
G01 X0.0918 Y0.3220
G01 X0.0602 Y0.3353
G01 X0.0275 Y0.3459
G01 X-0.0060 Y0.3536
G01 X-0.0400 Y0.3585
G01 X-0.0792 Y0.3604
G01 X-98.2792 Y0.3604
G01 X-98.3086 Y0.3593
G01 X-98.3379 Y0.3561
G01 X-98.3716 Y0.3496
G01 X-98.4047 Y0.3402
G01 X-98.4368 Y0.3280
G01 X-98.4678 Y0.3132
G01 X-98.4973 Y0.2957
G01 X-98.5291 Y0.2727
G01 X-98.5550 Y0.2501
G01 X-98.5789 Y0.2254
G01 X-98.6005 Y0.1987
G01 X-98.6197 Y0.1702
G01 X-98.6365 Y0.1402
G01 X-98.6506 Y0.1089
G01 X-98.6620 Y0.0765
G01 X-98.6705 Y0.0432
G01 X-98.6768 Y0.0045
G01 X-98.6791 Y-0.0298
G01 X-98.6792 Y-13.6611
G01 X-98.6773 Y-13.7003
G01 X-98.6715 Y-13.7392
G01 X-98.6620 Y-13.7772
G01 X-98.6488 Y-13.8142
G01 X-98.6320 Y-13.8497
G01 X-98.6118 Y-13.8834
G01 X-98.5884 Y-13.9149
G01 X-98.5620 Y-13.9440
G01 X-98.5330 Y-13.9703
G01 X-98.5014 Y-13.9937
G01 X-98.4678 Y-14.0139
G01 X-98.4323 Y-14.0307
G01 X-98.3953 Y-14.0439
G01 X-98.3572 Y-14.0534
G01 X-98.3184 Y-14.0592
G01 X-98.2792 Y-14.0611
G00 X-98.2792 Y-14.0611
G01 F70.00
G01 Z-0.6000
G01 F120.00
G01 X-72.8086 Y-14.0611
G01 X-71.2554 Y-14.3330
G01 X-69.9023 Y-14.7195
G01 X-68.0863 Y-15.6469
G01 X-67.1712 Y-16.4476
G01 X-65.8900 Y-17.9617
G01 X-65.1995 Y-19.2276
G01 X-64.7757 Y-20.5762
G01 X-64.5437 Y-22.0070
G01 X-64.5435 Y-33.1543
G01 X-64.5413 Y-33.1837
G01 X-64.5360 Y-33.2176
G01 X-64.5292 Y-33.2463
G01 X-64.5187 Y-33.2790
G01 X-64.5074 Y-33.3062
G01 X-64.4942 Y-33.3325
G01 X-64.4790 Y-33.3577
G01 X-64.4591 Y-33.3857
G01 X-64.4401 Y-33.4082
G01 X-64.4160 Y-33.4327
G01 X-64.3937 Y-33.4519
G01 X-64.3660 Y-33.4722
G01 X-64.3366 Y-33.4900
G01 X-64.3103 Y-33.5033
G01 X-64.2785 Y-33.5162
G01 X-64.2504 Y-33.5251
G01 X-64.2218 Y-33.5319
G01 X-64.1976 Y-33.5360
G01 X-64.1732 Y-33.5385
G01 X-64.1437 Y-33.5396
G01 X-29.0823 Y-33.5396
G01 X-29.0528 Y-33.5385
G01 X-29.0236 Y-33.5353
G01 X-28.9899 Y-33.5288
G01 X-28.9568 Y-33.5194
G01 X-28.9247 Y-33.5072
G01 X-28.8937 Y-33.4924
G01 X-28.8641 Y-33.4749
G01 X-28.8362 Y-33.4549
G01 X-28.8100 Y-33.4327
G01 X-28.7859 Y-33.4082
G01 X-28.7639 Y-33.3818
G01 X-28.7443 Y-33.3536
G01 X-28.7272 Y-33.3238
G01 X-28.7127 Y-33.2927
G01 X-28.7010 Y-33.2604
G01 X-28.6920 Y-33.2272
G01 X-28.6859 Y-33.1934
G01 X-28.6828 Y-33.1592
G01 X-28.6823 Y-22.0070
G01 X-28.4503 Y-20.5762
G01 X-28.0264 Y-19.2276
G01 X-27.3359 Y-17.9617
G01 X-26.0547 Y-16.4476
G01 X-25.1396 Y-15.6469
G01 X-23.3236 Y-14.7195
G01 X-21.9706 Y-14.3330
G01 X-20.4174 Y-14.0611
G01 X-0.0743 Y-14.0611
G01 X-0.0498 Y-14.0600
G01 X-0.0302 Y-14.0581
G01 X0.0084 Y-14.0514
G01 X0.0463 Y-14.0409
G01 X0.0648 Y-14.0343
G01 X0.0874 Y-14.0248
G01 X0.1050 Y-14.0162
G01 X0.1264 Y-14.0042
G01 X0.1591 Y-13.9824
G01 X0.1783 Y-13.9672
G01 X0.1930 Y-13.9542
G01 X0.2205 Y-13.9261
G01 X0.2421 Y-13.8994
G01 X0.2613 Y-13.8710
G01 X0.2803 Y-13.8366
G01 X0.2940 Y-13.8051
G01 X0.3050 Y-13.7725
G01 X0.3140 Y-13.7343
G01 X0.3189 Y-13.7003
G01 X0.3208 Y-13.6660
G01 X0.3208 Y-0.0396
G01 X0.3197 Y-0.0102
G01 X0.3165 Y0.0191
G01 X0.3100 Y0.0528
G01 X0.2990 Y0.0905
G01 X0.2865 Y0.1225
G01 X0.2712 Y0.1533
G01 X0.2534 Y0.1826
G01 X0.2331 Y0.2103
G01 X0.2105 Y0.2362
G01 X0.1821 Y0.2633
G01 X0.1551 Y0.2846
G01 X0.1264 Y0.3035
G01 X0.0918 Y0.3220
G01 X0.0602 Y0.3353
G01 X0.0275 Y0.3459
G01 X-0.0060 Y0.3536
G01 X-0.0400 Y0.3585
G01 X-0.0792 Y0.3604
G01 X-98.2792 Y0.3604
G01 X-98.3086 Y0.3593
G01 X-98.3379 Y0.3561
G01 X-98.3716 Y0.3496
G01 X-98.4047 Y0.3402
G01 X-98.4368 Y0.3280
G01 X-98.4678 Y0.3132
G01 X-98.4973 Y0.2957
G01 X-98.5291 Y0.2727
G01 X-98.5550 Y0.2501
G01 X-98.5789 Y0.2254
G01 X-98.6005 Y0.1987
G01 X-98.6197 Y0.1702
G01 X-98.6365 Y0.1402
G01 X-98.6506 Y0.1089
G01 X-98.6620 Y0.0765
G01 X-98.6705 Y0.0432
G01 X-98.6768 Y0.0045
G01 X-98.6791 Y-0.0298
G01 X-98.6792 Y-13.6611
G01 X-98.6773 Y-13.7003
G01 X-98.6715 Y-13.7392
G01 X-98.6620 Y-13.7772
G01 X-98.6488 Y-13.8142
G01 X-98.6320 Y-13.8497
G01 X-98.6118 Y-13.8834
G01 X-98.5884 Y-13.9149
G01 X-98.5620 Y-13.9440
G01 X-98.5330 Y-13.9703
G01 X-98.5014 Y-13.9937
G01 X-98.4678 Y-14.0139
G01 X-98.4323 Y-14.0307
G01 X-98.3953 Y-14.0439
G01 X-98.3572 Y-14.0534
G01 X-98.3184 Y-14.0592
G01 X-98.2792 Y-14.0611
G00 X-98.2792 Y-14.0611
G01 F70.00
G01 Z-0.6500
G01 F120.00
G01 X-72.8086 Y-14.0611
G01 X-71.2554 Y-14.3330
G01 X-69.9023 Y-14.7195
G01 X-68.0863 Y-15.6469
G01 X-67.1712 Y-16.4476
G01 X-65.8900 Y-17.9617
G01 X-65.1995 Y-19.2276
G01 X-64.7757 Y-20.5762
G01 X-64.5437 Y-22.0070
G01 X-64.5435 Y-33.1543
G01 X-64.5413 Y-33.1837
G01 X-64.5360 Y-33.2176
G01 X-64.5292 Y-33.2463
G01 X-64.5187 Y-33.2790
G01 X-64.5074 Y-33.3062
G01 X-64.4942 Y-33.3325
G01 X-64.4790 Y-33.3577
G01 X-64.4591 Y-33.3857
G01 X-64.4401 Y-33.4082
G01 X-64.4160 Y-33.4327
G01 X-64.3937 Y-33.4519
G01 X-64.3660 Y-33.4722
G01 X-64.3366 Y-33.4900
G01 X-64.3103 Y-33.5033
G01 X-64.2785 Y-33.5162
G01 X-64.2504 Y-33.5251
G01 X-64.2218 Y-33.5319
G01 X-64.1976 Y-33.5360
G01 X-64.1732 Y-33.5385
G01 X-64.1437 Y-33.5396
G01 X-29.0823 Y-33.5396
G01 X-29.0528 Y-33.5385
G01 X-29.0236 Y-33.5353
G01 X-28.9899 Y-33.5288
G01 X-28.9568 Y-33.5194
G01 X-28.9247 Y-33.5072
G01 X-28.8937 Y-33.4924
G01 X-28.8641 Y-33.4749
G01 X-28.8362 Y-33.4549
G01 X-28.8100 Y-33.4327
G01 X-28.7859 Y-33.4082
G01 X-28.7639 Y-33.3818
G01 X-28.7443 Y-33.3536
G01 X-28.7272 Y-33.3238
G01 X-28.7127 Y-33.2927
G01 X-28.7010 Y-33.2604
G01 X-28.6920 Y-33.2272
G01 X-28.6859 Y-33.1934
G01 X-28.6828 Y-33.1592
G01 X-28.6823 Y-22.0070
G01 X-28.4503 Y-20.5762
G01 X-28.0264 Y-19.2276
G01 X-27.3359 Y-17.9617
G01 X-26.0547 Y-16.4476
G01 X-25.1396 Y-15.6469
G01 X-23.3236 Y-14.7195
G01 X-21.9706 Y-14.3330
G01 X-20.4174 Y-14.0611
G01 X-0.0743 Y-14.0611
G01 X-0.0498 Y-14.0600
G01 X-0.0302 Y-14.0581
G01 X0.0084 Y-14.0514
G01 X0.0463 Y-14.0409
G01 X0.0648 Y-14.0343
G01 X0.0874 Y-14.0248
G01 X0.1050 Y-14.0162
G01 X0.1264 Y-14.0042
G01 X0.1591 Y-13.9824
G01 X0.1783 Y-13.9672
G01 X0.1930 Y-13.9542
G01 X0.2205 Y-13.9261
G01 X0.2421 Y-13.8994
G01 X0.2613 Y-13.8710
G01 X0.2803 Y-13.8366
G01 X0.2940 Y-13.8051
G01 X0.3050 Y-13.7725
G01 X0.3140 Y-13.7343
G01 X0.3189 Y-13.7003
G01 X0.3208 Y-13.6660
G01 X0.3208 Y-0.0396
G01 X0.3197 Y-0.0102
G01 X0.3165 Y0.0191
G01 X0.3100 Y0.0528
G01 X0.2990 Y0.0905
G01 X0.2865 Y0.1225
G01 X0.2712 Y0.1533
G01 X0.2534 Y0.1826
G01 X0.2331 Y0.2103
G01 X0.2105 Y0.2362
G01 X0.1821 Y0.2633
G01 X0.1551 Y0.2846
G01 X0.1264 Y0.3035
G01 X0.0918 Y0.3220
G01 X0.0602 Y0.3353
G01 X0.0275 Y0.3459
G01 X-0.0060 Y0.3536
G01 X-0.0400 Y0.3585
G01 X-0.0792 Y0.3604
G01 X-98.2792 Y0.3604
G01 X-98.3086 Y0.3593
G01 X-98.3379 Y0.3561
G01 X-98.3716 Y0.3496
G01 X-98.4047 Y0.3402
G01 X-98.4368 Y0.3280
G01 X-98.4678 Y0.3132
G01 X-98.4973 Y0.2957
G01 X-98.5291 Y0.2727
G01 X-98.5550 Y0.2501
G01 X-98.5789 Y0.2254
G01 X-98.6005 Y0.1987
G01 X-98.6197 Y0.1702
G01 X-98.6365 Y0.1402
G01 X-98.6506 Y0.1089
G01 X-98.6620 Y0.0765
G01 X-98.6705 Y0.0432
G01 X-98.6768 Y0.0045
G01 X-98.6791 Y-0.0298
G01 X-98.6792 Y-13.6611
G01 X-98.6773 Y-13.7003
G01 X-98.6715 Y-13.7392
G01 X-98.6620 Y-13.7772
G01 X-98.6488 Y-13.8142
G01 X-98.6320 Y-13.8497
G01 X-98.6118 Y-13.8834
G01 X-98.5884 Y-13.9149
G01 X-98.5620 Y-13.9440
G01 X-98.5330 Y-13.9703
G01 X-98.5014 Y-13.9937
G01 X-98.4678 Y-14.0139
G01 X-98.4323 Y-14.0307
G01 X-98.3953 Y-14.0439
G01 X-98.3572 Y-14.0534
G01 X-98.3184 Y-14.0592
G01 X-98.2792 Y-14.0611
G00 X-98.2792 Y-14.0611
G01 F70.00
G01 Z-0.7000
G01 F120.00
G01 X-72.8086 Y-14.0611
G01 X-71.2554 Y-14.3330
G01 X-69.9023 Y-14.7195
G01 X-68.0863 Y-15.6469
G01 X-67.1712 Y-16.4476
G01 X-65.8900 Y-17.9617
G01 X-65.1995 Y-19.2276
G01 X-64.7757 Y-20.5762
G01 X-64.5437 Y-22.0070
G01 X-64.5435 Y-33.1543
G01 X-64.5413 Y-33.1837
G01 X-64.5360 Y-33.2176
G01 X-64.5292 Y-33.2463
G01 X-64.5187 Y-33.2790
G01 X-64.5074 Y-33.3062
G01 X-64.4942 Y-33.3325
G01 X-64.4790 Y-33.3577
G01 X-64.4591 Y-33.3857
G01 X-64.4401 Y-33.4082
G01 X-64.4160 Y-33.4327
G01 X-64.3937 Y-33.4519
G01 X-64.3660 Y-33.4722
G01 X-64.3366 Y-33.4900
G01 X-64.3103 Y-33.5033
G01 X-64.2785 Y-33.5162
G01 X-64.2504 Y-33.5251
G01 X-64.2218 Y-33.5319
G01 X-64.1976 Y-33.5360
G01 X-64.1732 Y-33.5385
G01 X-64.1437 Y-33.5396
G01 X-29.0823 Y-33.5396
G01 X-29.0528 Y-33.5385
G01 X-29.0236 Y-33.5353
G01 X-28.9899 Y-33.5288
G01 X-28.9568 Y-33.5194
G01 X-28.9247 Y-33.5072
G01 X-28.8937 Y-33.4924
G01 X-28.8641 Y-33.4749
G01 X-28.8362 Y-33.4549
G01 X-28.8100 Y-33.4327
G01 X-28.7859 Y-33.4082
G01 X-28.7639 Y-33.3818
G01 X-28.7443 Y-33.3536
G01 X-28.7272 Y-33.3238
G01 X-28.7127 Y-33.2927
G01 X-28.7010 Y-33.2604
G01 X-28.6920 Y-33.2272
G01 X-28.6859 Y-33.1934
G01 X-28.6828 Y-33.1592
G01 X-28.6823 Y-22.0070
G01 X-28.4503 Y-20.5762
G01 X-28.0264 Y-19.2276
G01 X-27.3359 Y-17.9617
G01 X-26.0547 Y-16.4476
G01 X-25.1396 Y-15.6469
G01 X-23.3236 Y-14.7195
G01 X-21.9706 Y-14.3330
G01 X-20.4174 Y-14.0611
G01 X-0.0743 Y-14.0611
G01 X-0.0498 Y-14.0600
G01 X-0.0302 Y-14.0581
G01 X0.0084 Y-14.0514
G01 X0.0463 Y-14.0409
G01 X0.0648 Y-14.0343
G01 X0.0874 Y-14.0248
G01 X0.1050 Y-14.0162
G01 X0.1264 Y-14.0042
G01 X0.1591 Y-13.9824
G01 X0.1783 Y-13.9672
G01 X0.1930 Y-13.9542
G01 X0.2205 Y-13.9261
G01 X0.2421 Y-13.8994
G01 X0.2613 Y-13.8710
G01 X0.2803 Y-13.8366
G01 X0.2940 Y-13.8051
G01 X0.3050 Y-13.7725
G01 X0.3140 Y-13.7343
G01 X0.3189 Y-13.7003
G01 X0.3208 Y-13.6660
G01 X0.3208 Y-0.0396
G01 X0.3197 Y-0.0102
G01 X0.3165 Y0.0191
G01 X0.3100 Y0.0528
G01 X0.2990 Y0.0905
G01 X0.2865 Y0.1225
G01 X0.2712 Y0.1533
G01 X0.2534 Y0.1826
G01 X0.2331 Y0.2103
G01 X0.2105 Y0.2362
G01 X0.1821 Y0.2633
G01 X0.1551 Y0.2846
G01 X0.1264 Y0.3035
G01 X0.0918 Y0.3220
G01 X0.0602 Y0.3353
G01 X0.0275 Y0.3459
G01 X-0.0060 Y0.3536
G01 X-0.0400 Y0.3585
G01 X-0.0792 Y0.3604
G01 X-98.2792 Y0.3604
G01 X-98.3086 Y0.3593
G01 X-98.3379 Y0.3561
G01 X-98.3716 Y0.3496
G01 X-98.4047 Y0.3402
G01 X-98.4368 Y0.3280
G01 X-98.4678 Y0.3132
G01 X-98.4973 Y0.2957
G01 X-98.5291 Y0.2727
G01 X-98.5550 Y0.2501
G01 X-98.5789 Y0.2254
G01 X-98.6005 Y0.1987
G01 X-98.6197 Y0.1702
G01 X-98.6365 Y0.1402
G01 X-98.6506 Y0.1089
G01 X-98.6620 Y0.0765
G01 X-98.6705 Y0.0432
G01 X-98.6768 Y0.0045
G01 X-98.6791 Y-0.0298
G01 X-98.6792 Y-13.6611
G01 X-98.6773 Y-13.7003
G01 X-98.6715 Y-13.7392
G01 X-98.6620 Y-13.7772
G01 X-98.6488 Y-13.8142
G01 X-98.6320 Y-13.8497
G01 X-98.6118 Y-13.8834
G01 X-98.5884 Y-13.9149
G01 X-98.5620 Y-13.9440
G01 X-98.5330 Y-13.9703
G01 X-98.5014 Y-13.9937
G01 X-98.4678 Y-14.0139
G01 X-98.4323 Y-14.0307
G01 X-98.3953 Y-14.0439
G01 X-98.3572 Y-14.0534
G01 X-98.3184 Y-14.0592
G01 X-98.2792 Y-14.0611
G00 X-98.2792 Y-14.0611
G01 F70.00
G01 Z-0.7500
G01 F120.00
G01 X-72.8086 Y-14.0611
G01 X-71.2554 Y-14.3330
G01 X-69.9023 Y-14.7195
G01 X-68.0863 Y-15.6469
G01 X-67.1712 Y-16.4476
G01 X-65.8900 Y-17.9617
G01 X-65.1995 Y-19.2276
G01 X-64.7757 Y-20.5762
G01 X-64.5437 Y-22.0070
G01 X-64.5435 Y-33.1543
G01 X-64.5413 Y-33.1837
G01 X-64.5360 Y-33.2176
G01 X-64.5292 Y-33.2463
G01 X-64.5187 Y-33.2790
G01 X-64.5074 Y-33.3062
G01 X-64.4942 Y-33.3325
G01 X-64.4790 Y-33.3577
G01 X-64.4591 Y-33.3857
G01 X-64.4401 Y-33.4082
G01 X-64.4160 Y-33.4327
G01 X-64.3937 Y-33.4519
G01 X-64.3660 Y-33.4722
G01 X-64.3366 Y-33.4900
G01 X-64.3103 Y-33.5033
G01 X-64.2785 Y-33.5162
G01 X-64.2504 Y-33.5251
G01 X-64.2218 Y-33.5319
G01 X-64.1976 Y-33.5360
G01 X-64.1732 Y-33.5385
G01 X-64.1437 Y-33.5396
G01 X-29.0823 Y-33.5396
G01 X-29.0528 Y-33.5385
G01 X-29.0236 Y-33.5353
G01 X-28.9899 Y-33.5288
G01 X-28.9568 Y-33.5194
G01 X-28.9247 Y-33.5072
G01 X-28.8937 Y-33.4924
G01 X-28.8641 Y-33.4749
G01 X-28.8362 Y-33.4549
G01 X-28.8100 Y-33.4327
G01 X-28.7859 Y-33.4082
G01 X-28.7639 Y-33.3818
G01 X-28.7443 Y-33.3536
G01 X-28.7272 Y-33.3238
G01 X-28.7127 Y-33.2927
G01 X-28.7010 Y-33.2604
G01 X-28.6920 Y-33.2272
G01 X-28.6859 Y-33.1934
G01 X-28.6828 Y-33.1592
G01 X-28.6823 Y-22.0070
G01 X-28.4503 Y-20.5762
G01 X-28.0264 Y-19.2276
G01 X-27.3359 Y-17.9617
G01 X-26.0547 Y-16.4476
G01 X-25.1396 Y-15.6469
G01 X-23.3236 Y-14.7195
G01 X-21.9706 Y-14.3330
G01 X-20.4174 Y-14.0611
G01 X-0.0743 Y-14.0611
G01 X-0.0498 Y-14.0600
G01 X-0.0302 Y-14.0581
G01 X0.0084 Y-14.0514
G01 X0.0463 Y-14.0409
G01 X0.0648 Y-14.0343
G01 X0.0874 Y-14.0248
G01 X0.1050 Y-14.0162
G01 X0.1264 Y-14.0042
G01 X0.1591 Y-13.9824
G01 X0.1783 Y-13.9672
G01 X0.1930 Y-13.9542
G01 X0.2205 Y-13.9261
G01 X0.2421 Y-13.8994
G01 X0.2613 Y-13.8710
G01 X0.2803 Y-13.8366
G01 X0.2940 Y-13.8051
G01 X0.3050 Y-13.7725
G01 X0.3140 Y-13.7343
G01 X0.3189 Y-13.7003
G01 X0.3208 Y-13.6660
G01 X0.3208 Y-0.0396
G01 X0.3197 Y-0.0102
G01 X0.3165 Y0.0191
G01 X0.3100 Y0.0528
G01 X0.2990 Y0.0905
G01 X0.2865 Y0.1225
G01 X0.2712 Y0.1533
G01 X0.2534 Y0.1826
G01 X0.2331 Y0.2103
G01 X0.2105 Y0.2362
G01 X0.1821 Y0.2633
G01 X0.1551 Y0.2846
G01 X0.1264 Y0.3035
G01 X0.0918 Y0.3220
G01 X0.0602 Y0.3353
G01 X0.0275 Y0.3459
G01 X-0.0060 Y0.3536
G01 X-0.0400 Y0.3585
G01 X-0.0792 Y0.3604
G01 X-98.2792 Y0.3604
G01 X-98.3086 Y0.3593
G01 X-98.3379 Y0.3561
G01 X-98.3716 Y0.3496
G01 X-98.4047 Y0.3402
G01 X-98.4368 Y0.3280
G01 X-98.4678 Y0.3132
G01 X-98.4973 Y0.2957
G01 X-98.5291 Y0.2727
G01 X-98.5550 Y0.2501
G01 X-98.5789 Y0.2254
G01 X-98.6005 Y0.1987
G01 X-98.6197 Y0.1702
G01 X-98.6365 Y0.1402
G01 X-98.6506 Y0.1089
G01 X-98.6620 Y0.0765
G01 X-98.6705 Y0.0432
G01 X-98.6768 Y0.0045
G01 X-98.6791 Y-0.0298
G01 X-98.6792 Y-13.6611
G01 X-98.6773 Y-13.7003
G01 X-98.6715 Y-13.7392
G01 X-98.6620 Y-13.7772
G01 X-98.6488 Y-13.8142
G01 X-98.6320 Y-13.8497
G01 X-98.6118 Y-13.8834
G01 X-98.5884 Y-13.9149
G01 X-98.5620 Y-13.9440
G01 X-98.5330 Y-13.9703
G01 X-98.5014 Y-13.9937
G01 X-98.4678 Y-14.0139
G01 X-98.4323 Y-14.0307
G01 X-98.3953 Y-14.0439
G01 X-98.3572 Y-14.0534
G01 X-98.3184 Y-14.0592
G01 X-98.2792 Y-14.0611
G00 X-98.2792 Y-14.0611
G01 F70.00
G01 Z-0.8000
G01 F120.00
G01 X-72.8086 Y-14.0611
G01 X-71.2554 Y-14.3330
G01 X-69.9023 Y-14.7195
G01 X-68.0863 Y-15.6469
G01 X-67.1712 Y-16.4476
G01 X-65.8900 Y-17.9617
G01 X-65.1995 Y-19.2276
G01 X-64.7757 Y-20.5762
G01 X-64.5437 Y-22.0070
G01 X-64.5435 Y-33.1543
G01 X-64.5413 Y-33.1837
G01 X-64.5360 Y-33.2176
G01 X-64.5292 Y-33.2463
G01 X-64.5187 Y-33.2790
G01 X-64.5074 Y-33.3062
G01 X-64.4942 Y-33.3325
G01 X-64.4790 Y-33.3577
G01 X-64.4591 Y-33.3857
G01 X-64.4401 Y-33.4082
G01 X-64.4160 Y-33.4327
G01 X-64.3937 Y-33.4519
G01 X-64.3660 Y-33.4722
G01 X-64.3366 Y-33.4900
G01 X-64.3103 Y-33.5033
G01 X-64.2785 Y-33.5162
G01 X-64.2504 Y-33.5251
G01 X-64.2218 Y-33.5319
G01 X-64.1976 Y-33.5360
G01 X-64.1732 Y-33.5385
G01 X-64.1437 Y-33.5396
G01 X-29.0823 Y-33.5396
G01 X-29.0528 Y-33.5385
G01 X-29.0236 Y-33.5353
G01 X-28.9899 Y-33.5288
G01 X-28.9568 Y-33.5194
G01 X-28.9247 Y-33.5072
G01 X-28.8937 Y-33.4924
G01 X-28.8641 Y-33.4749
G01 X-28.8362 Y-33.4549
G01 X-28.8100 Y-33.4327
G01 X-28.7859 Y-33.4082
G01 X-28.7639 Y-33.3818
G01 X-28.7443 Y-33.3536
G01 X-28.7272 Y-33.3238
G01 X-28.7127 Y-33.2927
G01 X-28.7010 Y-33.2604
G01 X-28.6920 Y-33.2272
G01 X-28.6859 Y-33.1934
G01 X-28.6828 Y-33.1592
G01 X-28.6823 Y-22.0070
G01 X-28.4503 Y-20.5762
G01 X-28.0264 Y-19.2276
G01 X-27.3359 Y-17.9617
G01 X-26.0547 Y-16.4476
G01 X-25.1396 Y-15.6469
G01 X-23.3236 Y-14.7195
G01 X-21.9706 Y-14.3330
G01 X-20.4174 Y-14.0611
G01 X-0.0743 Y-14.0611
G01 X-0.0498 Y-14.0600
G01 X-0.0302 Y-14.0581
G01 X0.0084 Y-14.0514
G01 X0.0463 Y-14.0409
G01 X0.0648 Y-14.0343
G01 X0.0874 Y-14.0248
G01 X0.1050 Y-14.0162
G01 X0.1264 Y-14.0042
G01 X0.1591 Y-13.9824
G01 X0.1783 Y-13.9672
G01 X0.1930 Y-13.9542
G01 X0.2205 Y-13.9261
G01 X0.2421 Y-13.8994
G01 X0.2613 Y-13.8710
G01 X0.2803 Y-13.8366
G01 X0.2940 Y-13.8051
G01 X0.3050 Y-13.7725
G01 X0.3140 Y-13.7343
G01 X0.3189 Y-13.7003
G01 X0.3208 Y-13.6660
G01 X0.3208 Y-0.0396
G01 X0.3197 Y-0.0102
G01 X0.3165 Y0.0191
G01 X0.3100 Y0.0528
G01 X0.2990 Y0.0905
G01 X0.2865 Y0.1225
G01 X0.2712 Y0.1533
G01 X0.2534 Y0.1826
G01 X0.2331 Y0.2103
G01 X0.2105 Y0.2362
G01 X0.1821 Y0.2633
G01 X0.1551 Y0.2846
G01 X0.1264 Y0.3035
G01 X0.0918 Y0.3220
G01 X0.0602 Y0.3353
G01 X0.0275 Y0.3459
G01 X-0.0060 Y0.3536
G01 X-0.0400 Y0.3585
G01 X-0.0792 Y0.3604
G01 X-98.2792 Y0.3604
G01 X-98.3086 Y0.3593
G01 X-98.3379 Y0.3561
G01 X-98.3716 Y0.3496
G01 X-98.4047 Y0.3402
G01 X-98.4368 Y0.3280
G01 X-98.4678 Y0.3132
G01 X-98.4973 Y0.2957
G01 X-98.5291 Y0.2727
G01 X-98.5550 Y0.2501
G01 X-98.5789 Y0.2254
G01 X-98.6005 Y0.1987
G01 X-98.6197 Y0.1702
G01 X-98.6365 Y0.1402
G01 X-98.6506 Y0.1089
G01 X-98.6620 Y0.0765
G01 X-98.6705 Y0.0432
G01 X-98.6768 Y0.0045
G01 X-98.6791 Y-0.0298
G01 X-98.6792 Y-13.6611
G01 X-98.6773 Y-13.7003
G01 X-98.6715 Y-13.7392
G01 X-98.6620 Y-13.7772
G01 X-98.6488 Y-13.8142
G01 X-98.6320 Y-13.8497
G01 X-98.6118 Y-13.8834
G01 X-98.5884 Y-13.9149
G01 X-98.5620 Y-13.9440
G01 X-98.5330 Y-13.9703
G01 X-98.5014 Y-13.9937
G01 X-98.4678 Y-14.0139
G01 X-98.4323 Y-14.0307
G01 X-98.3953 Y-14.0439
G01 X-98.3572 Y-14.0534
G01 X-98.3184 Y-14.0592
G01 X-98.2792 Y-14.0611
G00 X-98.2792 Y-14.0611
G01 F70.00
G01 Z-0.8500
G01 F120.00
G01 X-72.8086 Y-14.0611
G01 X-71.2554 Y-14.3330
G01 X-69.9023 Y-14.7195
G01 X-68.0863 Y-15.6469
G01 X-67.1712 Y-16.4476
G01 X-65.8900 Y-17.9617
G01 X-65.1995 Y-19.2276
G01 X-64.7757 Y-20.5762
G01 X-64.5437 Y-22.0070
G01 X-64.5435 Y-33.1543
G01 X-64.5413 Y-33.1837
G01 X-64.5360 Y-33.2176
G01 X-64.5292 Y-33.2463
G01 X-64.5187 Y-33.2790
G01 X-64.5074 Y-33.3062
G01 X-64.4942 Y-33.3325
G01 X-64.4790 Y-33.3577
G01 X-64.4591 Y-33.3857
G01 X-64.4401 Y-33.4082
G01 X-64.4160 Y-33.4327
G01 X-64.3937 Y-33.4519
G01 X-64.3660 Y-33.4722
G01 X-64.3366 Y-33.4900
G01 X-64.3103 Y-33.5033
G01 X-64.2785 Y-33.5162
G01 X-64.2504 Y-33.5251
G01 X-64.2218 Y-33.5319
G01 X-64.1976 Y-33.5360
G01 X-64.1732 Y-33.5385
G01 X-64.1437 Y-33.5396
G01 X-29.0823 Y-33.5396
G01 X-29.0528 Y-33.5385
G01 X-29.0236 Y-33.5353
G01 X-28.9899 Y-33.5288
G01 X-28.9568 Y-33.5194
G01 X-28.9247 Y-33.5072
G01 X-28.8937 Y-33.4924
G01 X-28.8641 Y-33.4749
G01 X-28.8362 Y-33.4549
G01 X-28.8100 Y-33.4327
G01 X-28.7859 Y-33.4082
G01 X-28.7639 Y-33.3818
G01 X-28.7443 Y-33.3536
G01 X-28.7272 Y-33.3238
G01 X-28.7127 Y-33.2927
G01 X-28.7010 Y-33.2604
G01 X-28.6920 Y-33.2272
G01 X-28.6859 Y-33.1934
G01 X-28.6828 Y-33.1592
G01 X-28.6823 Y-22.0070
G01 X-28.4503 Y-20.5762
G01 X-28.0264 Y-19.2276
G01 X-27.3359 Y-17.9617
G01 X-26.0547 Y-16.4476
G01 X-25.1396 Y-15.6469
G01 X-23.3236 Y-14.7195
G01 X-21.9706 Y-14.3330
G01 X-20.4174 Y-14.0611
G01 X-0.0743 Y-14.0611
G01 X-0.0498 Y-14.0600
G01 X-0.0302 Y-14.0581
G01 X0.0084 Y-14.0514
G01 X0.0463 Y-14.0409
G01 X0.0648 Y-14.0343
G01 X0.0874 Y-14.0248
G01 X0.1050 Y-14.0162
G01 X0.1264 Y-14.0042
G01 X0.1591 Y-13.9824
G01 X0.1783 Y-13.9672
G01 X0.1930 Y-13.9542
G01 X0.2205 Y-13.9261
G01 X0.2421 Y-13.8994
G01 X0.2613 Y-13.8710
G01 X0.2803 Y-13.8366
G01 X0.2940 Y-13.8051
G01 X0.3050 Y-13.7725
G01 X0.3140 Y-13.7343
G01 X0.3189 Y-13.7003
G01 X0.3208 Y-13.6660
G01 X0.3208 Y-0.0396
G01 X0.3197 Y-0.0102
G01 X0.3165 Y0.0191
G01 X0.3100 Y0.0528
G01 X0.2990 Y0.0905
G01 X0.2865 Y0.1225
G01 X0.2712 Y0.1533
G01 X0.2534 Y0.1826
G01 X0.2331 Y0.2103
G01 X0.2105 Y0.2362
G01 X0.1821 Y0.2633
G01 X0.1551 Y0.2846
G01 X0.1264 Y0.3035
G01 X0.0918 Y0.3220
G01 X0.0602 Y0.3353
G01 X0.0275 Y0.3459
G01 X-0.0060 Y0.3536
G01 X-0.0400 Y0.3585
G01 X-0.0792 Y0.3604
G01 X-98.2792 Y0.3604
G01 X-98.3086 Y0.3593
G01 X-98.3379 Y0.3561
G01 X-98.3716 Y0.3496
G01 X-98.4047 Y0.3402
G01 X-98.4368 Y0.3280
G01 X-98.4678 Y0.3132
G01 X-98.4973 Y0.2957
G01 X-98.5291 Y0.2727
G01 X-98.5550 Y0.2501
G01 X-98.5789 Y0.2254
G01 X-98.6005 Y0.1987
G01 X-98.6197 Y0.1702
G01 X-98.6365 Y0.1402
G01 X-98.6506 Y0.1089
G01 X-98.6620 Y0.0765
G01 X-98.6705 Y0.0432
G01 X-98.6768 Y0.0045
G01 X-98.6791 Y-0.0298
G01 X-98.6792 Y-13.6611
G01 X-98.6773 Y-13.7003
G01 X-98.6715 Y-13.7392
G01 X-98.6620 Y-13.7772
G01 X-98.6488 Y-13.8142
G01 X-98.6320 Y-13.8497
G01 X-98.6118 Y-13.8834
G01 X-98.5884 Y-13.9149
G01 X-98.5620 Y-13.9440
G01 X-98.5330 Y-13.9703
G01 X-98.5014 Y-13.9937
G01 X-98.4678 Y-14.0139
G01 X-98.4323 Y-14.0307
G01 X-98.3953 Y-14.0439
G01 X-98.3572 Y-14.0534
G01 X-98.3184 Y-14.0592
G01 X-98.2792 Y-14.0611
G00 X-98.2792 Y-14.0611
G01 F70.00
G01 Z-0.9000
G01 F120.00
G01 X-72.8086 Y-14.0611
G01 X-71.2554 Y-14.3330
G01 X-69.9023 Y-14.7195
G01 X-68.0863 Y-15.6469
G01 X-67.1712 Y-16.4476
G01 X-65.8900 Y-17.9617
G01 X-65.1995 Y-19.2276
G01 X-64.7757 Y-20.5762
G01 X-64.5437 Y-22.0070
G01 X-64.5435 Y-33.1543
G01 X-64.5413 Y-33.1837
G01 X-64.5360 Y-33.2176
G01 X-64.5292 Y-33.2463
G01 X-64.5187 Y-33.2790
G01 X-64.5074 Y-33.3062
G01 X-64.4942 Y-33.3325
G01 X-64.4790 Y-33.3577
G01 X-64.4591 Y-33.3857
G01 X-64.4401 Y-33.4082
G01 X-64.4160 Y-33.4327
G01 X-64.3937 Y-33.4519
G01 X-64.3660 Y-33.4722
G01 X-64.3366 Y-33.4900
G01 X-64.3103 Y-33.5033
G01 X-64.2785 Y-33.5162
G01 X-64.2504 Y-33.5251
G01 X-64.2218 Y-33.5319
G01 X-64.1976 Y-33.5360
G01 X-64.1732 Y-33.5385
G01 X-64.1437 Y-33.5396
G01 X-29.0823 Y-33.5396
G01 X-29.0528 Y-33.5385
G01 X-29.0236 Y-33.5353
G01 X-28.9899 Y-33.5288
G01 X-28.9568 Y-33.5194
G01 X-28.9247 Y-33.5072
G01 X-28.8937 Y-33.4924
G01 X-28.8641 Y-33.4749
G01 X-28.8362 Y-33.4549
G01 X-28.8100 Y-33.4327
G01 X-28.7859 Y-33.4082
G01 X-28.7639 Y-33.3818
G01 X-28.7443 Y-33.3536
G01 X-28.7272 Y-33.3238
G01 X-28.7127 Y-33.2927
G01 X-28.7010 Y-33.2604
G01 X-28.6920 Y-33.2272
G01 X-28.6859 Y-33.1934
G01 X-28.6828 Y-33.1592
G01 X-28.6823 Y-22.0070
G01 X-28.4503 Y-20.5762
G01 X-28.0264 Y-19.2276
G01 X-27.3359 Y-17.9617
G01 X-26.0547 Y-16.4476
G01 X-25.1396 Y-15.6469
G01 X-23.3236 Y-14.7195
G01 X-21.9706 Y-14.3330
G01 X-20.4174 Y-14.0611
G01 X-0.0743 Y-14.0611
G01 X-0.0498 Y-14.0600
G01 X-0.0302 Y-14.0581
G01 X0.0084 Y-14.0514
G01 X0.0463 Y-14.0409
G01 X0.0648 Y-14.0343
G01 X0.0874 Y-14.0248
G01 X0.1050 Y-14.0162
G01 X0.1264 Y-14.0042
G01 X0.1591 Y-13.9824
G01 X0.1783 Y-13.9672
G01 X0.1930 Y-13.9542
G01 X0.2205 Y-13.9261
G01 X0.2421 Y-13.8994
G01 X0.2613 Y-13.8710
G01 X0.2803 Y-13.8366
G01 X0.2940 Y-13.8051
G01 X0.3050 Y-13.7725
G01 X0.3140 Y-13.7343
G01 X0.3189 Y-13.7003
G01 X0.3208 Y-13.6660
G01 X0.3208 Y-0.0396
G01 X0.3197 Y-0.0102
G01 X0.3165 Y0.0191
G01 X0.3100 Y0.0528
G01 X0.2990 Y0.0905
G01 X0.2865 Y0.1225
G01 X0.2712 Y0.1533
G01 X0.2534 Y0.1826
G01 X0.2331 Y0.2103
G01 X0.2105 Y0.2362
G01 X0.1821 Y0.2633
G01 X0.1551 Y0.2846
G01 X0.1264 Y0.3035
G01 X0.0918 Y0.3220
G01 X0.0602 Y0.3353
G01 X0.0275 Y0.3459
G01 X-0.0060 Y0.3536
G01 X-0.0400 Y0.3585
G01 X-0.0792 Y0.3604
G01 X-98.2792 Y0.3604
G01 X-98.3086 Y0.3593
G01 X-98.3379 Y0.3561
G01 X-98.3716 Y0.3496
G01 X-98.4047 Y0.3402
G01 X-98.4368 Y0.3280
G01 X-98.4678 Y0.3132
G01 X-98.4973 Y0.2957
G01 X-98.5291 Y0.2727
G01 X-98.5550 Y0.2501
G01 X-98.5789 Y0.2254
G01 X-98.6005 Y0.1987
G01 X-98.6197 Y0.1702
G01 X-98.6365 Y0.1402
G01 X-98.6506 Y0.1089
G01 X-98.6620 Y0.0765
G01 X-98.6705 Y0.0432
G01 X-98.6768 Y0.0045
G01 X-98.6791 Y-0.0298
G01 X-98.6792 Y-13.6611
G01 X-98.6773 Y-13.7003
G01 X-98.6715 Y-13.7392
G01 X-98.6620 Y-13.7772
G01 X-98.6488 Y-13.8142
G01 X-98.6320 Y-13.8497
G01 X-98.6118 Y-13.8834
G01 X-98.5884 Y-13.9149
G01 X-98.5620 Y-13.9440
G01 X-98.5330 Y-13.9703
G01 X-98.5014 Y-13.9937
G01 X-98.4678 Y-14.0139
G01 X-98.4323 Y-14.0307
G01 X-98.3953 Y-14.0439
G01 X-98.3572 Y-14.0534
G01 X-98.3184 Y-14.0592
G01 X-98.2792 Y-14.0611
G00 X-98.2792 Y-14.0611
G01 F70.00
G01 Z-0.9500
G01 F120.00
G01 X-72.8086 Y-14.0611
G01 X-71.2554 Y-14.3330
G01 X-69.9023 Y-14.7195
G01 X-68.0863 Y-15.6469
G01 X-67.1712 Y-16.4476
G01 X-65.8900 Y-17.9617
G01 X-65.1995 Y-19.2276
G01 X-64.7757 Y-20.5762
G01 X-64.5437 Y-22.0070
G01 X-64.5435 Y-33.1543
G01 X-64.5413 Y-33.1837
G01 X-64.5360 Y-33.2176
G01 X-64.5292 Y-33.2463
G01 X-64.5187 Y-33.2790
G01 X-64.5074 Y-33.3062
G01 X-64.4942 Y-33.3325
G01 X-64.4790 Y-33.3577
G01 X-64.4591 Y-33.3857
G01 X-64.4401 Y-33.4082
G01 X-64.4160 Y-33.4327
G01 X-64.3937 Y-33.4519
G01 X-64.3660 Y-33.4722
G01 X-64.3366 Y-33.4900
G01 X-64.3103 Y-33.5033
G01 X-64.2785 Y-33.5162
G01 X-64.2504 Y-33.5251
G01 X-64.2218 Y-33.5319
G01 X-64.1976 Y-33.5360
G01 X-64.1732 Y-33.5385
G01 X-64.1437 Y-33.5396
G01 X-29.0823 Y-33.5396
G01 X-29.0528 Y-33.5385
G01 X-29.0236 Y-33.5353
G01 X-28.9899 Y-33.5288
G01 X-28.9568 Y-33.5194
G01 X-28.9247 Y-33.5072
G01 X-28.8937 Y-33.4924
G01 X-28.8641 Y-33.4749
G01 X-28.8362 Y-33.4549
G01 X-28.8100 Y-33.4327
G01 X-28.7859 Y-33.4082
G01 X-28.7639 Y-33.3818
G01 X-28.7443 Y-33.3536
G01 X-28.7272 Y-33.3238
G01 X-28.7127 Y-33.2927
G01 X-28.7010 Y-33.2604
G01 X-28.6920 Y-33.2272
G01 X-28.6859 Y-33.1934
G01 X-28.6828 Y-33.1592
G01 X-28.6823 Y-22.0070
G01 X-28.4503 Y-20.5762
G01 X-28.0264 Y-19.2276
G01 X-27.3359 Y-17.9617
G01 X-26.0547 Y-16.4476
G01 X-25.1396 Y-15.6469
G01 X-23.3236 Y-14.7195
G01 X-21.9706 Y-14.3330
G01 X-20.4174 Y-14.0611
G01 X-0.0743 Y-14.0611
G01 X-0.0498 Y-14.0600
G01 X-0.0302 Y-14.0581
G01 X0.0084 Y-14.0514
G01 X0.0463 Y-14.0409
G01 X0.0648 Y-14.0343
G01 X0.0874 Y-14.0248
G01 X0.1050 Y-14.0162
G01 X0.1264 Y-14.0042
G01 X0.1591 Y-13.9824
G01 X0.1783 Y-13.9672
G01 X0.1930 Y-13.9542
G01 X0.2205 Y-13.9261
G01 X0.2421 Y-13.8994
G01 X0.2613 Y-13.8710
G01 X0.2803 Y-13.8366
G01 X0.2940 Y-13.8051
G01 X0.3050 Y-13.7725
G01 X0.3140 Y-13.7343
G01 X0.3189 Y-13.7003
G01 X0.3208 Y-13.6660
G01 X0.3208 Y-0.0396
G01 X0.3197 Y-0.0102
G01 X0.3165 Y0.0191
G01 X0.3100 Y0.0528
G01 X0.2990 Y0.0905
G01 X0.2865 Y0.1225
G01 X0.2712 Y0.1533
G01 X0.2534 Y0.1826
G01 X0.2331 Y0.2103
G01 X0.2105 Y0.2362
G01 X0.1821 Y0.2633
G01 X0.1551 Y0.2846
G01 X0.1264 Y0.3035
G01 X0.0918 Y0.3220
G01 X0.0602 Y0.3353
G01 X0.0275 Y0.3459
G01 X-0.0060 Y0.3536
G01 X-0.0400 Y0.3585
G01 X-0.0792 Y0.3604
G01 X-98.2792 Y0.3604
G01 X-98.3086 Y0.3593
G01 X-98.3379 Y0.3561
G01 X-98.3716 Y0.3496
G01 X-98.4047 Y0.3402
G01 X-98.4368 Y0.3280
G01 X-98.4678 Y0.3132
G01 X-98.4973 Y0.2957
G01 X-98.5291 Y0.2727
G01 X-98.5550 Y0.2501
G01 X-98.5789 Y0.2254
G01 X-98.6005 Y0.1987
G01 X-98.6197 Y0.1702
G01 X-98.6365 Y0.1402
G01 X-98.6506 Y0.1089
G01 X-98.6620 Y0.0765
G01 X-98.6705 Y0.0432
G01 X-98.6768 Y0.0045
G01 X-98.6791 Y-0.0298
G01 X-98.6792 Y-13.6611
G01 X-98.6773 Y-13.7003
G01 X-98.6715 Y-13.7392
G01 X-98.6620 Y-13.7772
G01 X-98.6488 Y-13.8142
G01 X-98.6320 Y-13.8497
G01 X-98.6118 Y-13.8834
G01 X-98.5884 Y-13.9149
G01 X-98.5620 Y-13.9440
G01 X-98.5330 Y-13.9703
G01 X-98.5014 Y-13.9937
G01 X-98.4678 Y-14.0139
G01 X-98.4323 Y-14.0307
G01 X-98.3953 Y-14.0439
G01 X-98.3572 Y-14.0534
G01 X-98.3184 Y-14.0592
G01 X-98.2792 Y-14.0611
G00 X-98.2792 Y-14.0611
G01 F70.00
G01 Z-1.0000
G01 F120.00
G01 X-72.8086 Y-14.0611
G01 X-71.2554 Y-14.3330
G01 X-69.9023 Y-14.7195
G01 X-68.0863 Y-15.6469
G01 X-67.1712 Y-16.4476
G01 X-65.8900 Y-17.9617
G01 X-65.1995 Y-19.2276
G01 X-64.7757 Y-20.5762
G01 X-64.5437 Y-22.0070
G01 X-64.5435 Y-33.1543
G01 X-64.5413 Y-33.1837
G01 X-64.5360 Y-33.2176
G01 X-64.5292 Y-33.2463
G01 X-64.5187 Y-33.2790
G01 X-64.5074 Y-33.3062
G01 X-64.4942 Y-33.3325
G01 X-64.4790 Y-33.3577
G01 X-64.4591 Y-33.3857
G01 X-64.4401 Y-33.4082
G01 X-64.4160 Y-33.4327
G01 X-64.3937 Y-33.4519
G01 X-64.3660 Y-33.4722
G01 X-64.3366 Y-33.4900
G01 X-64.3103 Y-33.5033
G01 X-64.2785 Y-33.5162
G01 X-64.2504 Y-33.5251
G01 X-64.2218 Y-33.5319
G01 X-64.1976 Y-33.5360
G01 X-64.1732 Y-33.5385
G01 X-64.1437 Y-33.5396
G01 X-29.0823 Y-33.5396
G01 X-29.0528 Y-33.5385
G01 X-29.0236 Y-33.5353
G01 X-28.9899 Y-33.5288
G01 X-28.9568 Y-33.5194
G01 X-28.9247 Y-33.5072
G01 X-28.8937 Y-33.4924
G01 X-28.8641 Y-33.4749
G01 X-28.8362 Y-33.4549
G01 X-28.8100 Y-33.4327
G01 X-28.7859 Y-33.4082
G01 X-28.7639 Y-33.3818
G01 X-28.7443 Y-33.3536
G01 X-28.7272 Y-33.3238
G01 X-28.7127 Y-33.2927
G01 X-28.7010 Y-33.2604
G01 X-28.6920 Y-33.2272
G01 X-28.6859 Y-33.1934
G01 X-28.6828 Y-33.1592
G01 X-28.6823 Y-22.0070
G01 X-28.4503 Y-20.5762
G01 X-28.0264 Y-19.2276
G01 X-27.3359 Y-17.9617
G01 X-26.0547 Y-16.4476
G01 X-25.1396 Y-15.6469
G01 X-23.3236 Y-14.7195
G01 X-21.9706 Y-14.3330
G01 X-20.4174 Y-14.0611
G01 X-0.0743 Y-14.0611
G01 X-0.0498 Y-14.0600
G01 X-0.0302 Y-14.0581
G01 X0.0084 Y-14.0514
G01 X0.0463 Y-14.0409
G01 X0.0648 Y-14.0343
G01 X0.0874 Y-14.0248
G01 X0.1050 Y-14.0162
G01 X0.1264 Y-14.0042
G01 X0.1591 Y-13.9824
G01 X0.1783 Y-13.9672
G01 X0.1930 Y-13.9542
G01 X0.2205 Y-13.9261
G01 X0.2421 Y-13.8994
G01 X0.2613 Y-13.8710
G01 X0.2803 Y-13.8366
G01 X0.2940 Y-13.8051
G01 X0.3050 Y-13.7725
G01 X0.3140 Y-13.7343
G01 X0.3189 Y-13.7003
G01 X0.3208 Y-13.6660
G01 X0.3208 Y-0.0396
G01 X0.3197 Y-0.0102
G01 X0.3165 Y0.0191
G01 X0.3100 Y0.0528
G01 X0.2990 Y0.0905
G01 X0.2865 Y0.1225
G01 X0.2712 Y0.1533
G01 X0.2534 Y0.1826
G01 X0.2331 Y0.2103
G01 X0.2105 Y0.2362
G01 X0.1821 Y0.2633
G01 X0.1551 Y0.2846
G01 X0.1264 Y0.3035
G01 X0.0918 Y0.3220
G01 X0.0602 Y0.3353
G01 X0.0275 Y0.3459
G01 X-0.0060 Y0.3536
G01 X-0.0400 Y0.3585
G01 X-0.0792 Y0.3604
G01 X-98.2792 Y0.3604
G01 X-98.3086 Y0.3593
G01 X-98.3379 Y0.3561
G01 X-98.3716 Y0.3496
G01 X-98.4047 Y0.3402
G01 X-98.4368 Y0.3280
G01 X-98.4678 Y0.3132
G01 X-98.4973 Y0.2957
G01 X-98.5291 Y0.2727
G01 X-98.5550 Y0.2501
G01 X-98.5789 Y0.2254
G01 X-98.6005 Y0.1987
G01 X-98.6197 Y0.1702
G01 X-98.6365 Y0.1402
G01 X-98.6506 Y0.1089
G01 X-98.6620 Y0.0765
G01 X-98.6705 Y0.0432
G01 X-98.6768 Y0.0045
G01 X-98.6791 Y-0.0298
G01 X-98.6792 Y-13.6611
G01 X-98.6773 Y-13.7003
G01 X-98.6715 Y-13.7392
G01 X-98.6620 Y-13.7772
G01 X-98.6488 Y-13.8142
G01 X-98.6320 Y-13.8497
G01 X-98.6118 Y-13.8834
G01 X-98.5884 Y-13.9149
G01 X-98.5620 Y-13.9440
G01 X-98.5330 Y-13.9703
G01 X-98.5014 Y-13.9937
G01 X-98.4678 Y-14.0139
G01 X-98.4323 Y-14.0307
G01 X-98.3953 Y-14.0439
G01 X-98.3572 Y-14.0534
G01 X-98.3184 Y-14.0592
G01 X-98.2792 Y-14.0611
G00 X-98.2792 Y-14.0611
G01 F70.00
G01 Z-1.0500
G01 F120.00
G01 X-72.8086 Y-14.0611
G01 X-71.2554 Y-14.3330
G01 X-69.9023 Y-14.7195
G01 X-68.0863 Y-15.6469
G01 X-67.1712 Y-16.4476
G01 X-65.8900 Y-17.9617
G01 X-65.1995 Y-19.2276
G01 X-64.7757 Y-20.5762
G01 X-64.5437 Y-22.0070
G01 X-64.5435 Y-33.1543
G01 X-64.5413 Y-33.1837
G01 X-64.5360 Y-33.2176
G01 X-64.5292 Y-33.2463
G01 X-64.5187 Y-33.2790
G01 X-64.5074 Y-33.3062
G01 X-64.4942 Y-33.3325
G01 X-64.4790 Y-33.3577
G01 X-64.4591 Y-33.3857
G01 X-64.4401 Y-33.4082
G01 X-64.4160 Y-33.4327
G01 X-64.3937 Y-33.4519
G01 X-64.3660 Y-33.4722
G01 X-64.3366 Y-33.4900
G01 X-64.3103 Y-33.5033
G01 X-64.2785 Y-33.5162
G01 X-64.2504 Y-33.5251
G01 X-64.2218 Y-33.5319
G01 X-64.1976 Y-33.5360
G01 X-64.1732 Y-33.5385
G01 X-64.1437 Y-33.5396
G01 X-29.0823 Y-33.5396
G01 X-29.0528 Y-33.5385
G01 X-29.0236 Y-33.5353
G01 X-28.9899 Y-33.5288
G01 X-28.9568 Y-33.5194
G01 X-28.9247 Y-33.5072
G01 X-28.8937 Y-33.4924
G01 X-28.8641 Y-33.4749
G01 X-28.8362 Y-33.4549
G01 X-28.8100 Y-33.4327
G01 X-28.7859 Y-33.4082
G01 X-28.7639 Y-33.3818
G01 X-28.7443 Y-33.3536
G01 X-28.7272 Y-33.3238
G01 X-28.7127 Y-33.2927
G01 X-28.7010 Y-33.2604
G01 X-28.6920 Y-33.2272
G01 X-28.6859 Y-33.1934
G01 X-28.6828 Y-33.1592
G01 X-28.6823 Y-22.0070
G01 X-28.4503 Y-20.5762
G01 X-28.0264 Y-19.2276
G01 X-27.3359 Y-17.9617
G01 X-26.0547 Y-16.4476
G01 X-25.1396 Y-15.6469
G01 X-23.3236 Y-14.7195
G01 X-21.9706 Y-14.3330
G01 X-20.4174 Y-14.0611
G01 X-0.0743 Y-14.0611
G01 X-0.0498 Y-14.0600
G01 X-0.0302 Y-14.0581
G01 X0.0084 Y-14.0514
G01 X0.0463 Y-14.0409
G01 X0.0648 Y-14.0343
G01 X0.0874 Y-14.0248
G01 X0.1050 Y-14.0162
G01 X0.1264 Y-14.0042
G01 X0.1591 Y-13.9824
G01 X0.1783 Y-13.9672
G01 X0.1930 Y-13.9542
G01 X0.2205 Y-13.9261
G01 X0.2421 Y-13.8994
G01 X0.2613 Y-13.8710
G01 X0.2803 Y-13.8366
G01 X0.2940 Y-13.8051
G01 X0.3050 Y-13.7725
G01 X0.3140 Y-13.7343
G01 X0.3189 Y-13.7003
G01 X0.3208 Y-13.6660
G01 X0.3208 Y-0.0396
G01 X0.3197 Y-0.0102
G01 X0.3165 Y0.0191
G01 X0.3100 Y0.0528
G01 X0.2990 Y0.0905
G01 X0.2865 Y0.1225
G01 X0.2712 Y0.1533
G01 X0.2534 Y0.1826
G01 X0.2331 Y0.2103
G01 X0.2105 Y0.2362
G01 X0.1821 Y0.2633
G01 X0.1551 Y0.2846
G01 X0.1264 Y0.3035
G01 X0.0918 Y0.3220
G01 X0.0602 Y0.3353
G01 X0.0275 Y0.3459
G01 X-0.0060 Y0.3536
G01 X-0.0400 Y0.3585
G01 X-0.0792 Y0.3604
G01 X-98.2792 Y0.3604
G01 X-98.3086 Y0.3593
G01 X-98.3379 Y0.3561
G01 X-98.3716 Y0.3496
G01 X-98.4047 Y0.3402
G01 X-98.4368 Y0.3280
G01 X-98.4678 Y0.3132
G01 X-98.4973 Y0.2957
G01 X-98.5291 Y0.2727
G01 X-98.5550 Y0.2501
G01 X-98.5789 Y0.2254
G01 X-98.6005 Y0.1987
G01 X-98.6197 Y0.1702
G01 X-98.6365 Y0.1402
G01 X-98.6506 Y0.1089
G01 X-98.6620 Y0.0765
G01 X-98.6705 Y0.0432
G01 X-98.6768 Y0.0045
G01 X-98.6791 Y-0.0298
G01 X-98.6792 Y-13.6611
G01 X-98.6773 Y-13.7003
G01 X-98.6715 Y-13.7392
G01 X-98.6620 Y-13.7772
G01 X-98.6488 Y-13.8142
G01 X-98.6320 Y-13.8497
G01 X-98.6118 Y-13.8834
G01 X-98.5884 Y-13.9149
G01 X-98.5620 Y-13.9440
G01 X-98.5330 Y-13.9703
G01 X-98.5014 Y-13.9937
G01 X-98.4678 Y-14.0139
G01 X-98.4323 Y-14.0307
G01 X-98.3953 Y-14.0439
G01 X-98.3572 Y-14.0534
G01 X-98.3184 Y-14.0592
G01 X-98.2792 Y-14.0611
G00 X-98.2792 Y-14.0611
G01 F70.00
G01 Z-1.1000
G01 F120.00
G01 X-72.8086 Y-14.0611
G01 X-71.2554 Y-14.3330
G01 X-69.9023 Y-14.7195
G01 X-68.0863 Y-15.6469
G01 X-67.1712 Y-16.4476
G01 X-65.8900 Y-17.9617
G01 X-65.1995 Y-19.2276
G01 X-64.7757 Y-20.5762
G01 X-64.5437 Y-22.0070
G01 X-64.5435 Y-33.1543
G01 X-64.5413 Y-33.1837
G01 X-64.5360 Y-33.2176
G01 X-64.5292 Y-33.2463
G01 X-64.5187 Y-33.2790
G01 X-64.5074 Y-33.3062
G01 X-64.4942 Y-33.3325
G01 X-64.4790 Y-33.3577
G01 X-64.4591 Y-33.3857
G01 X-64.4401 Y-33.4082
G01 X-64.4160 Y-33.4327
G01 X-64.3937 Y-33.4519
G01 X-64.3660 Y-33.4722
G01 X-64.3366 Y-33.4900
G01 X-64.3103 Y-33.5033
G01 X-64.2785 Y-33.5162
G01 X-64.2504 Y-33.5251
G01 X-64.2218 Y-33.5319
G01 X-64.1976 Y-33.5360
G01 X-64.1732 Y-33.5385
G01 X-64.1437 Y-33.5396
G01 X-29.0823 Y-33.5396
G01 X-29.0528 Y-33.5385
G01 X-29.0236 Y-33.5353
G01 X-28.9899 Y-33.5288
G01 X-28.9568 Y-33.5194
G01 X-28.9247 Y-33.5072
G01 X-28.8937 Y-33.4924
G01 X-28.8641 Y-33.4749
G01 X-28.8362 Y-33.4549
G01 X-28.8100 Y-33.4327
G01 X-28.7859 Y-33.4082
G01 X-28.7639 Y-33.3818
G01 X-28.7443 Y-33.3536
G01 X-28.7272 Y-33.3238
G01 X-28.7127 Y-33.2927
G01 X-28.7010 Y-33.2604
G01 X-28.6920 Y-33.2272
G01 X-28.6859 Y-33.1934
G01 X-28.6828 Y-33.1592
G01 X-28.6823 Y-22.0070
G01 X-28.4503 Y-20.5762
G01 X-28.0264 Y-19.2276
G01 X-27.3359 Y-17.9617
G01 X-26.0547 Y-16.4476
G01 X-25.1396 Y-15.6469
G01 X-23.3236 Y-14.7195
G01 X-21.9706 Y-14.3330
G01 X-20.4174 Y-14.0611
G01 X-0.0743 Y-14.0611
G01 X-0.0498 Y-14.0600
G01 X-0.0302 Y-14.0581
G01 X0.0084 Y-14.0514
G01 X0.0463 Y-14.0409
G01 X0.0648 Y-14.0343
G01 X0.0874 Y-14.0248
G01 X0.1050 Y-14.0162
G01 X0.1264 Y-14.0042
G01 X0.1591 Y-13.9824
G01 X0.1783 Y-13.9672
G01 X0.1930 Y-13.9542
G01 X0.2205 Y-13.9261
G01 X0.2421 Y-13.8994
G01 X0.2613 Y-13.8710
G01 X0.2803 Y-13.8366
G01 X0.2940 Y-13.8051
G01 X0.3050 Y-13.7725
G01 X0.3140 Y-13.7343
G01 X0.3189 Y-13.7003
G01 X0.3208 Y-13.6660
G01 X0.3208 Y-0.0396
G01 X0.3197 Y-0.0102
G01 X0.3165 Y0.0191
G01 X0.3100 Y0.0528
G01 X0.2990 Y0.0905
G01 X0.2865 Y0.1225
G01 X0.2712 Y0.1533
G01 X0.2534 Y0.1826
G01 X0.2331 Y0.2103
G01 X0.2105 Y0.2362
G01 X0.1821 Y0.2633
G01 X0.1551 Y0.2846
G01 X0.1264 Y0.3035
G01 X0.0918 Y0.3220
G01 X0.0602 Y0.3353
G01 X0.0275 Y0.3459
G01 X-0.0060 Y0.3536
G01 X-0.0400 Y0.3585
G01 X-0.0792 Y0.3604
G01 X-98.2792 Y0.3604
G01 X-98.3086 Y0.3593
G01 X-98.3379 Y0.3561
G01 X-98.3716 Y0.3496
G01 X-98.4047 Y0.3402
G01 X-98.4368 Y0.3280
G01 X-98.4678 Y0.3132
G01 X-98.4973 Y0.2957
G01 X-98.5291 Y0.2727
G01 X-98.5550 Y0.2501
G01 X-98.5789 Y0.2254
G01 X-98.6005 Y0.1987
G01 X-98.6197 Y0.1702
G01 X-98.6365 Y0.1402
G01 X-98.6506 Y0.1089
G01 X-98.6620 Y0.0765
G01 X-98.6705 Y0.0432
G01 X-98.6768 Y0.0045
G01 X-98.6791 Y-0.0298
G01 X-98.6792 Y-13.6611
G01 X-98.6773 Y-13.7003
G01 X-98.6715 Y-13.7392
G01 X-98.6620 Y-13.7772
G01 X-98.6488 Y-13.8142
G01 X-98.6320 Y-13.8497
G01 X-98.6118 Y-13.8834
G01 X-98.5884 Y-13.9149
G01 X-98.5620 Y-13.9440
G01 X-98.5330 Y-13.9703
G01 X-98.5014 Y-13.9937
G01 X-98.4678 Y-14.0139
G01 X-98.4323 Y-14.0307
G01 X-98.3953 Y-14.0439
G01 X-98.3572 Y-14.0534
G01 X-98.3184 Y-14.0592
G01 X-98.2792 Y-14.0611
G00 X-98.2792 Y-14.0611
G01 F70.00
G01 Z-1.1500
G01 F120.00
G01 X-72.8086 Y-14.0611
G01 X-71.2554 Y-14.3330
G01 X-69.9023 Y-14.7195
G01 X-68.0863 Y-15.6469
G01 X-67.1712 Y-16.4476
G01 X-65.8900 Y-17.9617
G01 X-65.1995 Y-19.2276
G01 X-64.7757 Y-20.5762
G01 X-64.5437 Y-22.0070
G01 X-64.5435 Y-33.1543
G01 X-64.5413 Y-33.1837
G01 X-64.5360 Y-33.2176
G01 X-64.5292 Y-33.2463
G01 X-64.5187 Y-33.2790
G01 X-64.5074 Y-33.3062
G01 X-64.4942 Y-33.3325
G01 X-64.4790 Y-33.3577
G01 X-64.4591 Y-33.3857
G01 X-64.4401 Y-33.4082
G01 X-64.4160 Y-33.4327
G01 X-64.3937 Y-33.4519
G01 X-64.3660 Y-33.4722
G01 X-64.3366 Y-33.4900
G01 X-64.3103 Y-33.5033
G01 X-64.2785 Y-33.5162
G01 X-64.2504 Y-33.5251
G01 X-64.2218 Y-33.5319
G01 X-64.1976 Y-33.5360
G01 X-64.1732 Y-33.5385
G01 X-64.1437 Y-33.5396
G01 X-29.0823 Y-33.5396
G01 X-29.0528 Y-33.5385
G01 X-29.0236 Y-33.5353
G01 X-28.9899 Y-33.5288
G01 X-28.9568 Y-33.5194
G01 X-28.9247 Y-33.5072
G01 X-28.8937 Y-33.4924
G01 X-28.8641 Y-33.4749
G01 X-28.8362 Y-33.4549
G01 X-28.8100 Y-33.4327
G01 X-28.7859 Y-33.4082
G01 X-28.7639 Y-33.3818
G01 X-28.7443 Y-33.3536
G01 X-28.7272 Y-33.3238
G01 X-28.7127 Y-33.2927
G01 X-28.7010 Y-33.2604
G01 X-28.6920 Y-33.2272
G01 X-28.6859 Y-33.1934
G01 X-28.6828 Y-33.1592
G01 X-28.6823 Y-22.0070
G01 X-28.4503 Y-20.5762
G01 X-28.0264 Y-19.2276
G01 X-27.3359 Y-17.9617
G01 X-26.0547 Y-16.4476
G01 X-25.1396 Y-15.6469
G01 X-23.3236 Y-14.7195
G01 X-21.9706 Y-14.3330
G01 X-20.4174 Y-14.0611
G01 X-0.0743 Y-14.0611
G01 X-0.0498 Y-14.0600
G01 X-0.0302 Y-14.0581
G01 X0.0084 Y-14.0514
G01 X0.0463 Y-14.0409
G01 X0.0648 Y-14.0343
G01 X0.0874 Y-14.0248
G01 X0.1050 Y-14.0162
G01 X0.1264 Y-14.0042
G01 X0.1591 Y-13.9824
G01 X0.1783 Y-13.9672
G01 X0.1930 Y-13.9542
G01 X0.2205 Y-13.9261
G01 X0.2421 Y-13.8994
G01 X0.2613 Y-13.8710
G01 X0.2803 Y-13.8366
G01 X0.2940 Y-13.8051
G01 X0.3050 Y-13.7725
G01 X0.3140 Y-13.7343
G01 X0.3189 Y-13.7003
G01 X0.3208 Y-13.6660
G01 X0.3208 Y-0.0396
G01 X0.3197 Y-0.0102
G01 X0.3165 Y0.0191
G01 X0.3100 Y0.0528
G01 X0.2990 Y0.0905
G01 X0.2865 Y0.1225
G01 X0.2712 Y0.1533
G01 X0.2534 Y0.1826
G01 X0.2331 Y0.2103
G01 X0.2105 Y0.2362
G01 X0.1821 Y0.2633
G01 X0.1551 Y0.2846
G01 X0.1264 Y0.3035
G01 X0.0918 Y0.3220
G01 X0.0602 Y0.3353
G01 X0.0275 Y0.3459
G01 X-0.0060 Y0.3536
G01 X-0.0400 Y0.3585
G01 X-0.0792 Y0.3604
G01 X-98.2792 Y0.3604
G01 X-98.3086 Y0.3593
G01 X-98.3379 Y0.3561
G01 X-98.3716 Y0.3496
G01 X-98.4047 Y0.3402
G01 X-98.4368 Y0.3280
G01 X-98.4678 Y0.3132
G01 X-98.4973 Y0.2957
G01 X-98.5291 Y0.2727
G01 X-98.5550 Y0.2501
G01 X-98.5789 Y0.2254
G01 X-98.6005 Y0.1987
G01 X-98.6197 Y0.1702
G01 X-98.6365 Y0.1402
G01 X-98.6506 Y0.1089
G01 X-98.6620 Y0.0765
G01 X-98.6705 Y0.0432
G01 X-98.6768 Y0.0045
G01 X-98.6791 Y-0.0298
G01 X-98.6792 Y-13.6611
G01 X-98.6773 Y-13.7003
G01 X-98.6715 Y-13.7392
G01 X-98.6620 Y-13.7772
G01 X-98.6488 Y-13.8142
G01 X-98.6320 Y-13.8497
G01 X-98.6118 Y-13.8834
G01 X-98.5884 Y-13.9149
G01 X-98.5620 Y-13.9440
G01 X-98.5330 Y-13.9703
G01 X-98.5014 Y-13.9937
G01 X-98.4678 Y-14.0139
G01 X-98.4323 Y-14.0307
G01 X-98.3953 Y-14.0439
G01 X-98.3572 Y-14.0534
G01 X-98.3184 Y-14.0592
G01 X-98.2792 Y-14.0611
G00 X-98.2792 Y-14.0611
G01 F70.00
G01 Z-1.2000
G01 F120.00
G01 X-72.8086 Y-14.0611
G01 X-71.2554 Y-14.3330
G01 X-69.9023 Y-14.7195
G01 X-68.0863 Y-15.6469
G01 X-67.1712 Y-16.4476
G01 X-65.8900 Y-17.9617
G01 X-65.1995 Y-19.2276
G01 X-64.7757 Y-20.5762
G01 X-64.5437 Y-22.0070
G01 X-64.5435 Y-33.1543
G01 X-64.5413 Y-33.1837
G01 X-64.5360 Y-33.2176
G01 X-64.5292 Y-33.2463
G01 X-64.5187 Y-33.2790
G01 X-64.5074 Y-33.3062
G01 X-64.4942 Y-33.3325
G01 X-64.4790 Y-33.3577
G01 X-64.4591 Y-33.3857
G01 X-64.4401 Y-33.4082
G01 X-64.4160 Y-33.4327
G01 X-64.3937 Y-33.4519
G01 X-64.3660 Y-33.4722
G01 X-64.3366 Y-33.4900
G01 X-64.3103 Y-33.5033
G01 X-64.2785 Y-33.5162
G01 X-64.2504 Y-33.5251
G01 X-64.2218 Y-33.5319
G01 X-64.1976 Y-33.5360
G01 X-64.1732 Y-33.5385
G01 X-64.1437 Y-33.5396
G01 X-29.0823 Y-33.5396
G01 X-29.0528 Y-33.5385
G01 X-29.0236 Y-33.5353
G01 X-28.9899 Y-33.5288
G01 X-28.9568 Y-33.5194
G01 X-28.9247 Y-33.5072
G01 X-28.8937 Y-33.4924
G01 X-28.8641 Y-33.4749
G01 X-28.8362 Y-33.4549
G01 X-28.8100 Y-33.4327
G01 X-28.7859 Y-33.4082
G01 X-28.7639 Y-33.3818
G01 X-28.7443 Y-33.3536
G01 X-28.7272 Y-33.3238
G01 X-28.7127 Y-33.2927
G01 X-28.7010 Y-33.2604
G01 X-28.6920 Y-33.2272
G01 X-28.6859 Y-33.1934
G01 X-28.6828 Y-33.1592
G01 X-28.6823 Y-22.0070
G01 X-28.4503 Y-20.5762
G01 X-28.0264 Y-19.2276
G01 X-27.3359 Y-17.9617
G01 X-26.0547 Y-16.4476
G01 X-25.1396 Y-15.6469
G01 X-23.3236 Y-14.7195
G01 X-21.9706 Y-14.3330
G01 X-20.4174 Y-14.0611
G01 X-0.0743 Y-14.0611
G01 X-0.0498 Y-14.0600
G01 X-0.0302 Y-14.0581
G01 X0.0084 Y-14.0514
G01 X0.0463 Y-14.0409
G01 X0.0648 Y-14.0343
G01 X0.0874 Y-14.0248
G01 X0.1050 Y-14.0162
G01 X0.1264 Y-14.0042
G01 X0.1591 Y-13.9824
G01 X0.1783 Y-13.9672
G01 X0.1930 Y-13.9542
G01 X0.2205 Y-13.9261
G01 X0.2421 Y-13.8994
G01 X0.2613 Y-13.8710
G01 X0.2803 Y-13.8366
G01 X0.2940 Y-13.8051
G01 X0.3050 Y-13.7725
G01 X0.3140 Y-13.7343
G01 X0.3189 Y-13.7003
G01 X0.3208 Y-13.6660
G01 X0.3208 Y-0.0396
G01 X0.3197 Y-0.0102
G01 X0.3165 Y0.0191
G01 X0.3100 Y0.0528
G01 X0.2990 Y0.0905
G01 X0.2865 Y0.1225
G01 X0.2712 Y0.1533
G01 X0.2534 Y0.1826
G01 X0.2331 Y0.2103
G01 X0.2105 Y0.2362
G01 X0.1821 Y0.2633
G01 X0.1551 Y0.2846
G01 X0.1264 Y0.3035
G01 X0.0918 Y0.3220
G01 X0.0602 Y0.3353
G01 X0.0275 Y0.3459
G01 X-0.0060 Y0.3536
G01 X-0.0400 Y0.3585
G01 X-0.0792 Y0.3604
G01 X-98.2792 Y0.3604
G01 X-98.3086 Y0.3593
G01 X-98.3379 Y0.3561
G01 X-98.3716 Y0.3496
G01 X-98.4047 Y0.3402
G01 X-98.4368 Y0.3280
G01 X-98.4678 Y0.3132
G01 X-98.4973 Y0.2957
G01 X-98.5291 Y0.2727
G01 X-98.5550 Y0.2501
G01 X-98.5789 Y0.2254
G01 X-98.6005 Y0.1987
G01 X-98.6197 Y0.1702
G01 X-98.6365 Y0.1402
G01 X-98.6506 Y0.1089
G01 X-98.6620 Y0.0765
G01 X-98.6705 Y0.0432
G01 X-98.6768 Y0.0045
G01 X-98.6791 Y-0.0298
G01 X-98.6792 Y-13.6611
G01 X-98.6773 Y-13.7003
G01 X-98.6715 Y-13.7392
G01 X-98.6620 Y-13.7772
G01 X-98.6488 Y-13.8142
G01 X-98.6320 Y-13.8497
G01 X-98.6118 Y-13.8834
G01 X-98.5884 Y-13.9149
G01 X-98.5620 Y-13.9440
G01 X-98.5330 Y-13.9703
G01 X-98.5014 Y-13.9937
G01 X-98.4678 Y-14.0139
G01 X-98.4323 Y-14.0307
G01 X-98.3953 Y-14.0439
G01 X-98.3572 Y-14.0534
G01 X-98.3184 Y-14.0592
G01 X-98.2792 Y-14.0611
G00 X-98.2792 Y-14.0611
G01 F70.00
G01 Z-1.2500
G01 F120.00
G01 X-72.8086 Y-14.0611
G01 X-71.2554 Y-14.3330
G01 X-69.9023 Y-14.7195
G01 X-68.0863 Y-15.6469
G01 X-67.1712 Y-16.4476
G01 X-65.8900 Y-17.9617
G01 X-65.1995 Y-19.2276
G01 X-64.7757 Y-20.5762
G01 X-64.5437 Y-22.0070
G01 X-64.5435 Y-33.1543
G01 X-64.5413 Y-33.1837
G01 X-64.5360 Y-33.2176
G01 X-64.5292 Y-33.2463
G01 X-64.5187 Y-33.2790
G01 X-64.5074 Y-33.3062
G01 X-64.4942 Y-33.3325
G01 X-64.4790 Y-33.3577
G01 X-64.4591 Y-33.3857
G01 X-64.4401 Y-33.4082
G01 X-64.4160 Y-33.4327
G01 X-64.3937 Y-33.4519
G01 X-64.3660 Y-33.4722
G01 X-64.3366 Y-33.4900
G01 X-64.3103 Y-33.5033
G01 X-64.2785 Y-33.5162
G01 X-64.2504 Y-33.5251
G01 X-64.2218 Y-33.5319
G01 X-64.1976 Y-33.5360
G01 X-64.1732 Y-33.5385
G01 X-64.1437 Y-33.5396
G01 X-29.0823 Y-33.5396
G01 X-29.0528 Y-33.5385
G01 X-29.0236 Y-33.5353
G01 X-28.9899 Y-33.5288
G01 X-28.9568 Y-33.5194
G01 X-28.9247 Y-33.5072
G01 X-28.8937 Y-33.4924
G01 X-28.8641 Y-33.4749
G01 X-28.8362 Y-33.4549
G01 X-28.8100 Y-33.4327
G01 X-28.7859 Y-33.4082
G01 X-28.7639 Y-33.3818
G01 X-28.7443 Y-33.3536
G01 X-28.7272 Y-33.3238
G01 X-28.7127 Y-33.2927
G01 X-28.7010 Y-33.2604
G01 X-28.6920 Y-33.2272
G01 X-28.6859 Y-33.1934
G01 X-28.6828 Y-33.1592
G01 X-28.6823 Y-22.0070
G01 X-28.4503 Y-20.5762
G01 X-28.0264 Y-19.2276
G01 X-27.3359 Y-17.9617
G01 X-26.0547 Y-16.4476
G01 X-25.1396 Y-15.6469
G01 X-23.3236 Y-14.7195
G01 X-21.9706 Y-14.3330
G01 X-20.4174 Y-14.0611
G01 X-0.0743 Y-14.0611
G01 X-0.0498 Y-14.0600
G01 X-0.0302 Y-14.0581
G01 X0.0084 Y-14.0514
G01 X0.0463 Y-14.0409
G01 X0.0648 Y-14.0343
G01 X0.0874 Y-14.0248
G01 X0.1050 Y-14.0162
G01 X0.1264 Y-14.0042
G01 X0.1591 Y-13.9824
G01 X0.1783 Y-13.9672
G01 X0.1930 Y-13.9542
G01 X0.2205 Y-13.9261
G01 X0.2421 Y-13.8994
G01 X0.2613 Y-13.8710
G01 X0.2803 Y-13.8366
G01 X0.2940 Y-13.8051
G01 X0.3050 Y-13.7725
G01 X0.3140 Y-13.7343
G01 X0.3189 Y-13.7003
G01 X0.3208 Y-13.6660
G01 X0.3208 Y-0.0396
G01 X0.3197 Y-0.0102
G01 X0.3165 Y0.0191
G01 X0.3100 Y0.0528
G01 X0.2990 Y0.0905
G01 X0.2865 Y0.1225
G01 X0.2712 Y0.1533
G01 X0.2534 Y0.1826
G01 X0.2331 Y0.2103
G01 X0.2105 Y0.2362
G01 X0.1821 Y0.2633
G01 X0.1551 Y0.2846
G01 X0.1264 Y0.3035
G01 X0.0918 Y0.3220
G01 X0.0602 Y0.3353
G01 X0.0275 Y0.3459
G01 X-0.0060 Y0.3536
G01 X-0.0400 Y0.3585
G01 X-0.0792 Y0.3604
G01 X-98.2792 Y0.3604
G01 X-98.3086 Y0.3593
G01 X-98.3379 Y0.3561
G01 X-98.3716 Y0.3496
G01 X-98.4047 Y0.3402
G01 X-98.4368 Y0.3280
G01 X-98.4678 Y0.3132
G01 X-98.4973 Y0.2957
G01 X-98.5291 Y0.2727
G01 X-98.5550 Y0.2501
G01 X-98.5789 Y0.2254
G01 X-98.6005 Y0.1987
G01 X-98.6197 Y0.1702
G01 X-98.6365 Y0.1402
G01 X-98.6506 Y0.1089
G01 X-98.6620 Y0.0765
G01 X-98.6705 Y0.0432
G01 X-98.6768 Y0.0045
G01 X-98.6791 Y-0.0298
G01 X-98.6792 Y-13.6611
G01 X-98.6773 Y-13.7003
G01 X-98.6715 Y-13.7392
G01 X-98.6620 Y-13.7772
G01 X-98.6488 Y-13.8142
G01 X-98.6320 Y-13.8497
G01 X-98.6118 Y-13.8834
G01 X-98.5884 Y-13.9149
G01 X-98.5620 Y-13.9440
G01 X-98.5330 Y-13.9703
G01 X-98.5014 Y-13.9937
G01 X-98.4678 Y-14.0139
G01 X-98.4323 Y-14.0307
G01 X-98.3953 Y-14.0439
G01 X-98.3572 Y-14.0534
G01 X-98.3184 Y-14.0592
G01 X-98.2792 Y-14.0611
G00 X-98.2792 Y-14.0611
G01 F70.00
G01 Z-1.3000
G01 F120.00
G01 X-72.8086 Y-14.0611
G01 X-71.2554 Y-14.3330
G01 X-69.9023 Y-14.7195
G01 X-68.0863 Y-15.6469
G01 X-67.1712 Y-16.4476
G01 X-65.8900 Y-17.9617
G01 X-65.1995 Y-19.2276
G01 X-64.7757 Y-20.5762
G01 X-64.5437 Y-22.0070
G01 X-64.5435 Y-33.1543
G01 X-64.5413 Y-33.1837
G01 X-64.5360 Y-33.2176
G01 X-64.5292 Y-33.2463
G01 X-64.5187 Y-33.2790
G01 X-64.5074 Y-33.3062
G01 X-64.4942 Y-33.3325
G01 X-64.4790 Y-33.3577
G01 X-64.4591 Y-33.3857
G01 X-64.4401 Y-33.4082
G01 X-64.4160 Y-33.4327
G01 X-64.3937 Y-33.4519
G01 X-64.3660 Y-33.4722
G01 X-64.3366 Y-33.4900
G01 X-64.3103 Y-33.5033
G01 X-64.2785 Y-33.5162
G01 X-64.2504 Y-33.5251
G01 X-64.2218 Y-33.5319
G01 X-64.1976 Y-33.5360
G01 X-64.1732 Y-33.5385
G01 X-64.1437 Y-33.5396
G01 X-29.0823 Y-33.5396
G01 X-29.0528 Y-33.5385
G01 X-29.0236 Y-33.5353
G01 X-28.9899 Y-33.5288
G01 X-28.9568 Y-33.5194
G01 X-28.9247 Y-33.5072
G01 X-28.8937 Y-33.4924
G01 X-28.8641 Y-33.4749
G01 X-28.8362 Y-33.4549
G01 X-28.8100 Y-33.4327
G01 X-28.7859 Y-33.4082
G01 X-28.7639 Y-33.3818
G01 X-28.7443 Y-33.3536
G01 X-28.7272 Y-33.3238
G01 X-28.7127 Y-33.2927
G01 X-28.7010 Y-33.2604
G01 X-28.6920 Y-33.2272
G01 X-28.6859 Y-33.1934
G01 X-28.6828 Y-33.1592
G01 X-28.6823 Y-22.0070
G01 X-28.4503 Y-20.5762
G01 X-28.0264 Y-19.2276
G01 X-27.3359 Y-17.9617
G01 X-26.0547 Y-16.4476
G01 X-25.1396 Y-15.6469
G01 X-23.3236 Y-14.7195
G01 X-21.9706 Y-14.3330
G01 X-20.4174 Y-14.0611
G01 X-0.0743 Y-14.0611
G01 X-0.0498 Y-14.0600
G01 X-0.0302 Y-14.0581
G01 X0.0084 Y-14.0514
G01 X0.0463 Y-14.0409
G01 X0.0648 Y-14.0343
G01 X0.0874 Y-14.0248
G01 X0.1050 Y-14.0162
G01 X0.1264 Y-14.0042
G01 X0.1591 Y-13.9824
G01 X0.1783 Y-13.9672
G01 X0.1930 Y-13.9542
G01 X0.2205 Y-13.9261
G01 X0.2421 Y-13.8994
G01 X0.2613 Y-13.8710
G01 X0.2803 Y-13.8366
G01 X0.2940 Y-13.8051
G01 X0.3050 Y-13.7725
G01 X0.3140 Y-13.7343
G01 X0.3189 Y-13.7003
G01 X0.3208 Y-13.6660
G01 X0.3208 Y-0.0396
G01 X0.3197 Y-0.0102
G01 X0.3165 Y0.0191
G01 X0.3100 Y0.0528
G01 X0.2990 Y0.0905
G01 X0.2865 Y0.1225
G01 X0.2712 Y0.1533
G01 X0.2534 Y0.1826
G01 X0.2331 Y0.2103
G01 X0.2105 Y0.2362
G01 X0.1821 Y0.2633
G01 X0.1551 Y0.2846
G01 X0.1264 Y0.3035
G01 X0.0918 Y0.3220
G01 X0.0602 Y0.3353
G01 X0.0275 Y0.3459
G01 X-0.0060 Y0.3536
G01 X-0.0400 Y0.3585
G01 X-0.0792 Y0.3604
G01 X-98.2792 Y0.3604
G01 X-98.3086 Y0.3593
G01 X-98.3379 Y0.3561
G01 X-98.3716 Y0.3496
G01 X-98.4047 Y0.3402
G01 X-98.4368 Y0.3280
G01 X-98.4678 Y0.3132
G01 X-98.4973 Y0.2957
G01 X-98.5291 Y0.2727
G01 X-98.5550 Y0.2501
G01 X-98.5789 Y0.2254
G01 X-98.6005 Y0.1987
G01 X-98.6197 Y0.1702
G01 X-98.6365 Y0.1402
G01 X-98.6506 Y0.1089
G01 X-98.6620 Y0.0765
G01 X-98.6705 Y0.0432
G01 X-98.6768 Y0.0045
G01 X-98.6791 Y-0.0298
G01 X-98.6792 Y-13.6611
G01 X-98.6773 Y-13.7003
G01 X-98.6715 Y-13.7392
G01 X-98.6620 Y-13.7772
G01 X-98.6488 Y-13.8142
G01 X-98.6320 Y-13.8497
G01 X-98.6118 Y-13.8834
G01 X-98.5884 Y-13.9149
G01 X-98.5620 Y-13.9440
G01 X-98.5330 Y-13.9703
G01 X-98.5014 Y-13.9937
G01 X-98.4678 Y-14.0139
G01 X-98.4323 Y-14.0307
G01 X-98.3953 Y-14.0439
G01 X-98.3572 Y-14.0534
G01 X-98.3184 Y-14.0592
G01 X-98.2792 Y-14.0611
G00 X-98.2792 Y-14.0611
G01 F70.00
G01 Z-1.3500
G01 F120.00
G01 X-72.8086 Y-14.0611
G01 X-71.2554 Y-14.3330
G01 X-69.9023 Y-14.7195
G01 X-68.0863 Y-15.6469
G01 X-67.1712 Y-16.4476
G01 X-65.8900 Y-17.9617
G01 X-65.1995 Y-19.2276
G01 X-64.7757 Y-20.5762
G01 X-64.5437 Y-22.0070
G01 X-64.5435 Y-33.1543
G01 X-64.5413 Y-33.1837
G01 X-64.5360 Y-33.2176
G01 X-64.5292 Y-33.2463
G01 X-64.5187 Y-33.2790
G01 X-64.5074 Y-33.3062
G01 X-64.4942 Y-33.3325
G01 X-64.4790 Y-33.3577
G01 X-64.4591 Y-33.3857
G01 X-64.4401 Y-33.4082
G01 X-64.4160 Y-33.4327
G01 X-64.3937 Y-33.4519
G01 X-64.3660 Y-33.4722
G01 X-64.3366 Y-33.4900
G01 X-64.3103 Y-33.5033
G01 X-64.2785 Y-33.5162
G01 X-64.2504 Y-33.5251
G01 X-64.2218 Y-33.5319
G01 X-64.1976 Y-33.5360
G01 X-64.1732 Y-33.5385
G01 X-64.1437 Y-33.5396
G01 X-29.0823 Y-33.5396
G01 X-29.0528 Y-33.5385
G01 X-29.0236 Y-33.5353
G01 X-28.9899 Y-33.5288
G01 X-28.9568 Y-33.5194
G01 X-28.9247 Y-33.5072
G01 X-28.8937 Y-33.4924
G01 X-28.8641 Y-33.4749
G01 X-28.8362 Y-33.4549
G01 X-28.8100 Y-33.4327
G01 X-28.7859 Y-33.4082
G01 X-28.7639 Y-33.3818
G01 X-28.7443 Y-33.3536
G01 X-28.7272 Y-33.3238
G01 X-28.7127 Y-33.2927
G01 X-28.7010 Y-33.2604
G01 X-28.6920 Y-33.2272
G01 X-28.6859 Y-33.1934
G01 X-28.6828 Y-33.1592
G01 X-28.6823 Y-22.0070
G01 X-28.4503 Y-20.5762
G01 X-28.0264 Y-19.2276
G01 X-27.3359 Y-17.9617
G01 X-26.0547 Y-16.4476
G01 X-25.1396 Y-15.6469
G01 X-23.3236 Y-14.7195
G01 X-21.9706 Y-14.3330
G01 X-20.4174 Y-14.0611
G01 X-0.0743 Y-14.0611
G01 X-0.0498 Y-14.0600
G01 X-0.0302 Y-14.0581
G01 X0.0084 Y-14.0514
G01 X0.0463 Y-14.0409
G01 X0.0648 Y-14.0343
G01 X0.0874 Y-14.0248
G01 X0.1050 Y-14.0162
G01 X0.1264 Y-14.0042
G01 X0.1591 Y-13.9824
G01 X0.1783 Y-13.9672
G01 X0.1930 Y-13.9542
G01 X0.2205 Y-13.9261
G01 X0.2421 Y-13.8994
G01 X0.2613 Y-13.8710
G01 X0.2803 Y-13.8366
G01 X0.2940 Y-13.8051
G01 X0.3050 Y-13.7725
G01 X0.3140 Y-13.7343
G01 X0.3189 Y-13.7003
G01 X0.3208 Y-13.6660
G01 X0.3208 Y-0.0396
G01 X0.3197 Y-0.0102
G01 X0.3165 Y0.0191
G01 X0.3100 Y0.0528
G01 X0.2990 Y0.0905
G01 X0.2865 Y0.1225
G01 X0.2712 Y0.1533
G01 X0.2534 Y0.1826
G01 X0.2331 Y0.2103
G01 X0.2105 Y0.2362
G01 X0.1821 Y0.2633
G01 X0.1551 Y0.2846
G01 X0.1264 Y0.3035
G01 X0.0918 Y0.3220
G01 X0.0602 Y0.3353
G01 X0.0275 Y0.3459
G01 X-0.0060 Y0.3536
G01 X-0.0400 Y0.3585
G01 X-0.0792 Y0.3604
G01 X-98.2792 Y0.3604
G01 X-98.3086 Y0.3593
G01 X-98.3379 Y0.3561
G01 X-98.3716 Y0.3496
G01 X-98.4047 Y0.3402
G01 X-98.4368 Y0.3280
G01 X-98.4678 Y0.3132
G01 X-98.4973 Y0.2957
G01 X-98.5291 Y0.2727
G01 X-98.5550 Y0.2501
G01 X-98.5789 Y0.2254
G01 X-98.6005 Y0.1987
G01 X-98.6197 Y0.1702
G01 X-98.6365 Y0.1402
G01 X-98.6506 Y0.1089
G01 X-98.6620 Y0.0765
G01 X-98.6705 Y0.0432
G01 X-98.6768 Y0.0045
G01 X-98.6791 Y-0.0298
G01 X-98.6792 Y-13.6611
G01 X-98.6773 Y-13.7003
G01 X-98.6715 Y-13.7392
G01 X-98.6620 Y-13.7772
G01 X-98.6488 Y-13.8142
G01 X-98.6320 Y-13.8497
G01 X-98.6118 Y-13.8834
G01 X-98.5884 Y-13.9149
G01 X-98.5620 Y-13.9440
G01 X-98.5330 Y-13.9703
G01 X-98.5014 Y-13.9937
G01 X-98.4678 Y-14.0139
G01 X-98.4323 Y-14.0307
G01 X-98.3953 Y-14.0439
G01 X-98.3572 Y-14.0534
G01 X-98.3184 Y-14.0592
G01 X-98.2792 Y-14.0611
G00 X-98.2792 Y-14.0611
G01 F70.00
G01 Z-1.4000
G01 F120.00
G01 X-72.8086 Y-14.0611
G01 X-71.2554 Y-14.3330
G01 X-69.9023 Y-14.7195
G01 X-68.0863 Y-15.6469
G01 X-67.1712 Y-16.4476
G01 X-65.8900 Y-17.9617
G01 X-65.1995 Y-19.2276
G01 X-64.7757 Y-20.5762
G01 X-64.5437 Y-22.0070
G01 X-64.5435 Y-33.1543
G01 X-64.5413 Y-33.1837
G01 X-64.5360 Y-33.2176
G01 X-64.5292 Y-33.2463
G01 X-64.5187 Y-33.2790
G01 X-64.5074 Y-33.3062
G01 X-64.4942 Y-33.3325
G01 X-64.4790 Y-33.3577
G01 X-64.4591 Y-33.3857
G01 X-64.4401 Y-33.4082
G01 X-64.4160 Y-33.4327
G01 X-64.3937 Y-33.4519
G01 X-64.3660 Y-33.4722
G01 X-64.3366 Y-33.4900
G01 X-64.3103 Y-33.5033
G01 X-64.2785 Y-33.5162
G01 X-64.2504 Y-33.5251
G01 X-64.2218 Y-33.5319
G01 X-64.1976 Y-33.5360
G01 X-64.1732 Y-33.5385
G01 X-64.1437 Y-33.5396
G01 X-29.0823 Y-33.5396
G01 X-29.0528 Y-33.5385
G01 X-29.0236 Y-33.5353
G01 X-28.9899 Y-33.5288
G01 X-28.9568 Y-33.5194
G01 X-28.9247 Y-33.5072
G01 X-28.8937 Y-33.4924
G01 X-28.8641 Y-33.4749
G01 X-28.8362 Y-33.4549
G01 X-28.8100 Y-33.4327
G01 X-28.7859 Y-33.4082
G01 X-28.7639 Y-33.3818
G01 X-28.7443 Y-33.3536
G01 X-28.7272 Y-33.3238
G01 X-28.7127 Y-33.2927
G01 X-28.7010 Y-33.2604
G01 X-28.6920 Y-33.2272
G01 X-28.6859 Y-33.1934
G01 X-28.6828 Y-33.1592
G01 X-28.6823 Y-22.0070
G01 X-28.4503 Y-20.5762
G01 X-28.0264 Y-19.2276
G01 X-27.3359 Y-17.9617
G01 X-26.0547 Y-16.4476
G01 X-25.1396 Y-15.6469
G01 X-23.3236 Y-14.7195
G01 X-21.9706 Y-14.3330
G01 X-20.4174 Y-14.0611
G01 X-0.0743 Y-14.0611
G01 X-0.0498 Y-14.0600
G01 X-0.0302 Y-14.0581
G01 X0.0084 Y-14.0514
G01 X0.0463 Y-14.0409
G01 X0.0648 Y-14.0343
G01 X0.0874 Y-14.0248
G01 X0.1050 Y-14.0162
G01 X0.1264 Y-14.0042
G01 X0.1591 Y-13.9824
G01 X0.1783 Y-13.9672
G01 X0.1930 Y-13.9542
G01 X0.2205 Y-13.9261
G01 X0.2421 Y-13.8994
G01 X0.2613 Y-13.8710
G01 X0.2803 Y-13.8366
G01 X0.2940 Y-13.8051
G01 X0.3050 Y-13.7725
G01 X0.3140 Y-13.7343
G01 X0.3189 Y-13.7003
G01 X0.3208 Y-13.6660
G01 X0.3208 Y-0.0396
G01 X0.3197 Y-0.0102
G01 X0.3165 Y0.0191
G01 X0.3100 Y0.0528
G01 X0.2990 Y0.0905
G01 X0.2865 Y0.1225
G01 X0.2712 Y0.1533
G01 X0.2534 Y0.1826
G01 X0.2331 Y0.2103
G01 X0.2105 Y0.2362
G01 X0.1821 Y0.2633
G01 X0.1551 Y0.2846
G01 X0.1264 Y0.3035
G01 X0.0918 Y0.3220
G01 X0.0602 Y0.3353
G01 X0.0275 Y0.3459
G01 X-0.0060 Y0.3536
G01 X-0.0400 Y0.3585
G01 X-0.0792 Y0.3604
G01 X-98.2792 Y0.3604
G01 X-98.3086 Y0.3593
G01 X-98.3379 Y0.3561
G01 X-98.3716 Y0.3496
G01 X-98.4047 Y0.3402
G01 X-98.4368 Y0.3280
G01 X-98.4678 Y0.3132
G01 X-98.4973 Y0.2957
G01 X-98.5291 Y0.2727
G01 X-98.5550 Y0.2501
G01 X-98.5789 Y0.2254
G01 X-98.6005 Y0.1987
G01 X-98.6197 Y0.1702
G01 X-98.6365 Y0.1402
G01 X-98.6506 Y0.1089
G01 X-98.6620 Y0.0765
G01 X-98.6705 Y0.0432
G01 X-98.6768 Y0.0045
G01 X-98.6791 Y-0.0298
G01 X-98.6792 Y-13.6611
G01 X-98.6773 Y-13.7003
G01 X-98.6715 Y-13.7392
G01 X-98.6620 Y-13.7772
G01 X-98.6488 Y-13.8142
G01 X-98.6320 Y-13.8497
G01 X-98.6118 Y-13.8834
G01 X-98.5884 Y-13.9149
G01 X-98.5620 Y-13.9440
G01 X-98.5330 Y-13.9703
G01 X-98.5014 Y-13.9937
G01 X-98.4678 Y-14.0139
G01 X-98.4323 Y-14.0307
G01 X-98.3953 Y-14.0439
G01 X-98.3572 Y-14.0534
G01 X-98.3184 Y-14.0592
G01 X-98.2792 Y-14.0611
G00 X-98.2792 Y-14.0611
G01 F70.00
G01 Z-1.4500
G01 F120.00
G01 X-72.8086 Y-14.0611
G01 X-71.2554 Y-14.3330
G01 X-69.9023 Y-14.7195
G01 X-68.0863 Y-15.6469
G01 X-67.1712 Y-16.4476
G01 X-65.8900 Y-17.9617
G01 X-65.1995 Y-19.2276
G01 X-64.7757 Y-20.5762
G01 X-64.5437 Y-22.0070
G01 X-64.5435 Y-33.1543
G01 X-64.5413 Y-33.1837
G01 X-64.5360 Y-33.2176
G01 X-64.5292 Y-33.2463
G01 X-64.5187 Y-33.2790
G01 X-64.5074 Y-33.3062
G01 X-64.4942 Y-33.3325
G01 X-64.4790 Y-33.3577
G01 X-64.4591 Y-33.3857
G01 X-64.4401 Y-33.4082
G01 X-64.4160 Y-33.4327
G01 X-64.3937 Y-33.4519
G01 X-64.3660 Y-33.4722
G01 X-64.3366 Y-33.4900
G01 X-64.3103 Y-33.5033
G01 X-64.2785 Y-33.5162
G01 X-64.2504 Y-33.5251
G01 X-64.2218 Y-33.5319
G01 X-64.1976 Y-33.5360
G01 X-64.1732 Y-33.5385
G01 X-64.1437 Y-33.5396
G01 X-29.0823 Y-33.5396
G01 X-29.0528 Y-33.5385
G01 X-29.0236 Y-33.5353
G01 X-28.9899 Y-33.5288
G01 X-28.9568 Y-33.5194
G01 X-28.9247 Y-33.5072
G01 X-28.8937 Y-33.4924
G01 X-28.8641 Y-33.4749
G01 X-28.8362 Y-33.4549
G01 X-28.8100 Y-33.4327
G01 X-28.7859 Y-33.4082
G01 X-28.7639 Y-33.3818
G01 X-28.7443 Y-33.3536
G01 X-28.7272 Y-33.3238
G01 X-28.7127 Y-33.2927
G01 X-28.7010 Y-33.2604
G01 X-28.6920 Y-33.2272
G01 X-28.6859 Y-33.1934
G01 X-28.6828 Y-33.1592
G01 X-28.6823 Y-22.0070
G01 X-28.4503 Y-20.5762
G01 X-28.0264 Y-19.2276
G01 X-27.3359 Y-17.9617
G01 X-26.0547 Y-16.4476
G01 X-25.1396 Y-15.6469
G01 X-23.3236 Y-14.7195
G01 X-21.9706 Y-14.3330
G01 X-20.4174 Y-14.0611
G01 X-0.0743 Y-14.0611
G01 X-0.0498 Y-14.0600
G01 X-0.0302 Y-14.0581
G01 X0.0084 Y-14.0514
G01 X0.0463 Y-14.0409
G01 X0.0648 Y-14.0343
G01 X0.0874 Y-14.0248
G01 X0.1050 Y-14.0162
G01 X0.1264 Y-14.0042
G01 X0.1591 Y-13.9824
G01 X0.1783 Y-13.9672
G01 X0.1930 Y-13.9542
G01 X0.2205 Y-13.9261
G01 X0.2421 Y-13.8994
G01 X0.2613 Y-13.8710
G01 X0.2803 Y-13.8366
G01 X0.2940 Y-13.8051
G01 X0.3050 Y-13.7725
G01 X0.3140 Y-13.7343
G01 X0.3189 Y-13.7003
G01 X0.3208 Y-13.6660
G01 X0.3208 Y-0.0396
G01 X0.3197 Y-0.0102
G01 X0.3165 Y0.0191
G01 X0.3100 Y0.0528
G01 X0.2990 Y0.0905
G01 X0.2865 Y0.1225
G01 X0.2712 Y0.1533
G01 X0.2534 Y0.1826
G01 X0.2331 Y0.2103
G01 X0.2105 Y0.2362
G01 X0.1821 Y0.2633
G01 X0.1551 Y0.2846
G01 X0.1264 Y0.3035
G01 X0.0918 Y0.3220
G01 X0.0602 Y0.3353
G01 X0.0275 Y0.3459
G01 X-0.0060 Y0.3536
G01 X-0.0400 Y0.3585
G01 X-0.0792 Y0.3604
G01 X-98.2792 Y0.3604
G01 X-98.3086 Y0.3593
G01 X-98.3379 Y0.3561
G01 X-98.3716 Y0.3496
G01 X-98.4047 Y0.3402
G01 X-98.4368 Y0.3280
G01 X-98.4678 Y0.3132
G01 X-98.4973 Y0.2957
G01 X-98.5291 Y0.2727
G01 X-98.5550 Y0.2501
G01 X-98.5789 Y0.2254
G01 X-98.6005 Y0.1987
G01 X-98.6197 Y0.1702
G01 X-98.6365 Y0.1402
G01 X-98.6506 Y0.1089
G01 X-98.6620 Y0.0765
G01 X-98.6705 Y0.0432
G01 X-98.6768 Y0.0045
G01 X-98.6791 Y-0.0298
G01 X-98.6792 Y-13.6611
G01 X-98.6773 Y-13.7003
G01 X-98.6715 Y-13.7392
G01 X-98.6620 Y-13.7772
G01 X-98.6488 Y-13.8142
G01 X-98.6320 Y-13.8497
G01 X-98.6118 Y-13.8834
G01 X-98.5884 Y-13.9149
G01 X-98.5620 Y-13.9440
G01 X-98.5330 Y-13.9703
G01 X-98.5014 Y-13.9937
G01 X-98.4678 Y-14.0139
G01 X-98.4323 Y-14.0307
G01 X-98.3953 Y-14.0439
G01 X-98.3572 Y-14.0534
G01 X-98.3184 Y-14.0592
G01 X-98.2792 Y-14.0611
G00 X-98.2792 Y-14.0611
G01 F70.00
G01 Z-1.5000
G01 F120.00
G01 X-72.8086 Y-14.0611
G01 X-71.2554 Y-14.3330
G01 X-69.9023 Y-14.7195
G01 X-68.0863 Y-15.6469
G01 X-67.1712 Y-16.4476
G01 X-65.8900 Y-17.9617
G01 X-65.1995 Y-19.2276
G01 X-64.7757 Y-20.5762
G01 X-64.5437 Y-22.0070
G01 X-64.5435 Y-33.1543
G01 X-64.5413 Y-33.1837
G01 X-64.5360 Y-33.2176
G01 X-64.5292 Y-33.2463
G01 X-64.5187 Y-33.2790
G01 X-64.5074 Y-33.3062
G01 X-64.4942 Y-33.3325
G01 X-64.4790 Y-33.3577
G01 X-64.4591 Y-33.3857
G01 X-64.4401 Y-33.4082
G01 X-64.4160 Y-33.4327
G01 X-64.3937 Y-33.4519
G01 X-64.3660 Y-33.4722
G01 X-64.3366 Y-33.4900
G01 X-64.3103 Y-33.5033
G01 X-64.2785 Y-33.5162
G01 X-64.2504 Y-33.5251
G01 X-64.2218 Y-33.5319
G01 X-64.1976 Y-33.5360
G01 X-64.1732 Y-33.5385
G01 X-64.1437 Y-33.5396
G01 X-29.0823 Y-33.5396
G01 X-29.0528 Y-33.5385
G01 X-29.0236 Y-33.5353
G01 X-28.9899 Y-33.5288
G01 X-28.9568 Y-33.5194
G01 X-28.9247 Y-33.5072
G01 X-28.8937 Y-33.4924
G01 X-28.8641 Y-33.4749
G01 X-28.8362 Y-33.4549
G01 X-28.8100 Y-33.4327
G01 X-28.7859 Y-33.4082
G01 X-28.7639 Y-33.3818
G01 X-28.7443 Y-33.3536
G01 X-28.7272 Y-33.3238
G01 X-28.7127 Y-33.2927
G01 X-28.7010 Y-33.2604
G01 X-28.6920 Y-33.2272
G01 X-28.6859 Y-33.1934
G01 X-28.6828 Y-33.1592
G01 X-28.6823 Y-22.0070
G01 X-28.4503 Y-20.5762
G01 X-28.0264 Y-19.2276
G01 X-27.3359 Y-17.9617
G01 X-26.0547 Y-16.4476
G01 X-25.1396 Y-15.6469
G01 X-23.3236 Y-14.7195
G01 X-21.9706 Y-14.3330
G01 X-20.4174 Y-14.0611
G01 X-0.0743 Y-14.0611
G01 X-0.0498 Y-14.0600
G01 X-0.0302 Y-14.0581
G01 X0.0084 Y-14.0514
G01 X0.0463 Y-14.0409
G01 X0.0648 Y-14.0343
G01 X0.0874 Y-14.0248
G01 X0.1050 Y-14.0162
G01 X0.1264 Y-14.0042
G01 X0.1591 Y-13.9824
G01 X0.1783 Y-13.9672
G01 X0.1930 Y-13.9542
G01 X0.2205 Y-13.9261
G01 X0.2421 Y-13.8994
G01 X0.2613 Y-13.8710
G01 X0.2803 Y-13.8366
G01 X0.2940 Y-13.8051
G01 X0.3050 Y-13.7725
G01 X0.3140 Y-13.7343
G01 X0.3189 Y-13.7003
G01 X0.3208 Y-13.6660
G01 X0.3208 Y-0.0396
G01 X0.3197 Y-0.0102
G01 X0.3165 Y0.0191
G01 X0.3100 Y0.0528
G01 X0.2990 Y0.0905
G01 X0.2865 Y0.1225
G01 X0.2712 Y0.1533
G01 X0.2534 Y0.1826
G01 X0.2331 Y0.2103
G01 X0.2105 Y0.2362
G01 X0.1821 Y0.2633
G01 X0.1551 Y0.2846
G01 X0.1264 Y0.3035
G01 X0.0918 Y0.3220
G01 X0.0602 Y0.3353
G01 X0.0275 Y0.3459
G01 X-0.0060 Y0.3536
G01 X-0.0400 Y0.3585
G01 X-0.0792 Y0.3604
G01 X-98.2792 Y0.3604
G01 X-98.3086 Y0.3593
G01 X-98.3379 Y0.3561
G01 X-98.3716 Y0.3496
G01 X-98.4047 Y0.3402
G01 X-98.4368 Y0.3280
G01 X-98.4678 Y0.3132
G01 X-98.4973 Y0.2957
G01 X-98.5291 Y0.2727
G01 X-98.5550 Y0.2501
G01 X-98.5789 Y0.2254
G01 X-98.6005 Y0.1987
G01 X-98.6197 Y0.1702
G01 X-98.6365 Y0.1402
G01 X-98.6506 Y0.1089
G01 X-98.6620 Y0.0765
G01 X-98.6705 Y0.0432
G01 X-98.6768 Y0.0045
G01 X-98.6791 Y-0.0298
G01 X-98.6792 Y-13.6611
G01 X-98.6773 Y-13.7003
G01 X-98.6715 Y-13.7392
G01 X-98.6620 Y-13.7772
G01 X-98.6488 Y-13.8142
G01 X-98.6320 Y-13.8497
G01 X-98.6118 Y-13.8834
G01 X-98.5884 Y-13.9149
G01 X-98.5620 Y-13.9440
G01 X-98.5330 Y-13.9703
G01 X-98.5014 Y-13.9937
G01 X-98.4678 Y-14.0139
G01 X-98.4323 Y-14.0307
G01 X-98.3953 Y-14.0439
G01 X-98.3572 Y-14.0534
G01 X-98.3184 Y-14.0592
G01 X-98.2792 Y-14.0611
G00 X-98.2792 Y-14.0611
G01 F70.00
G01 Z-1.5500
G01 F120.00
G01 X-72.8086 Y-14.0611
G01 X-71.2554 Y-14.3330
G01 X-69.9023 Y-14.7195
G01 X-68.0863 Y-15.6469
G01 X-67.1712 Y-16.4476
G01 X-65.8900 Y-17.9617
G01 X-65.1995 Y-19.2276
G01 X-64.7757 Y-20.5762
G01 X-64.5437 Y-22.0070
G01 X-64.5435 Y-33.1543
G01 X-64.5413 Y-33.1837
G01 X-64.5360 Y-33.2176
G01 X-64.5292 Y-33.2463
G01 X-64.5187 Y-33.2790
G01 X-64.5074 Y-33.3062
G01 X-64.4942 Y-33.3325
G01 X-64.4790 Y-33.3577
G01 X-64.4591 Y-33.3857
G01 X-64.4401 Y-33.4082
G01 X-64.4160 Y-33.4327
G01 X-64.3937 Y-33.4519
G01 X-64.3660 Y-33.4722
G01 X-64.3366 Y-33.4900
G01 X-64.3103 Y-33.5033
G01 X-64.2785 Y-33.5162
G01 X-64.2504 Y-33.5251
G01 X-64.2218 Y-33.5319
G01 X-64.1976 Y-33.5360
G01 X-64.1732 Y-33.5385
G01 X-64.1437 Y-33.5396
G01 X-29.0823 Y-33.5396
G01 X-29.0528 Y-33.5385
G01 X-29.0236 Y-33.5353
G01 X-28.9899 Y-33.5288
G01 X-28.9568 Y-33.5194
G01 X-28.9247 Y-33.5072
G01 X-28.8937 Y-33.4924
G01 X-28.8641 Y-33.4749
G01 X-28.8362 Y-33.4549
G01 X-28.8100 Y-33.4327
G01 X-28.7859 Y-33.4082
G01 X-28.7639 Y-33.3818
G01 X-28.7443 Y-33.3536
G01 X-28.7272 Y-33.3238
G01 X-28.7127 Y-33.2927
G01 X-28.7010 Y-33.2604
G01 X-28.6920 Y-33.2272
G01 X-28.6859 Y-33.1934
G01 X-28.6828 Y-33.1592
G01 X-28.6823 Y-22.0070
G01 X-28.4503 Y-20.5762
G01 X-28.0264 Y-19.2276
G01 X-27.3359 Y-17.9617
G01 X-26.0547 Y-16.4476
G01 X-25.1396 Y-15.6469
G01 X-23.3236 Y-14.7195
G01 X-21.9706 Y-14.3330
G01 X-20.4174 Y-14.0611
G01 X-0.0743 Y-14.0611
G01 X-0.0498 Y-14.0600
G01 X-0.0302 Y-14.0581
G01 X0.0084 Y-14.0514
G01 X0.0463 Y-14.0409
G01 X0.0648 Y-14.0343
G01 X0.0874 Y-14.0248
G01 X0.1050 Y-14.0162
G01 X0.1264 Y-14.0042
G01 X0.1591 Y-13.9824
G01 X0.1783 Y-13.9672
G01 X0.1930 Y-13.9542
G01 X0.2205 Y-13.9261
G01 X0.2421 Y-13.8994
G01 X0.2613 Y-13.8710
G01 X0.2803 Y-13.8366
G01 X0.2940 Y-13.8051
G01 X0.3050 Y-13.7725
G01 X0.3140 Y-13.7343
G01 X0.3189 Y-13.7003
G01 X0.3208 Y-13.6660
G01 X0.3208 Y-0.0396
G01 X0.3197 Y-0.0102
G01 X0.3165 Y0.0191
G01 X0.3100 Y0.0528
G01 X0.2990 Y0.0905
G01 X0.2865 Y0.1225
G01 X0.2712 Y0.1533
G01 X0.2534 Y0.1826
G01 X0.2331 Y0.2103
G01 X0.2105 Y0.2362
G01 X0.1821 Y0.2633
G01 X0.1551 Y0.2846
G01 X0.1264 Y0.3035
G01 X0.0918 Y0.3220
G01 X0.0602 Y0.3353
G01 X0.0275 Y0.3459
G01 X-0.0060 Y0.3536
G01 X-0.0400 Y0.3585
G01 X-0.0792 Y0.3604
G01 X-98.2792 Y0.3604
G01 X-98.3086 Y0.3593
G01 X-98.3379 Y0.3561
G01 X-98.3716 Y0.3496
G01 X-98.4047 Y0.3402
G01 X-98.4368 Y0.3280
G01 X-98.4678 Y0.3132
G01 X-98.4973 Y0.2957
G01 X-98.5291 Y0.2727
G01 X-98.5550 Y0.2501
G01 X-98.5789 Y0.2254
G01 X-98.6005 Y0.1987
G01 X-98.6197 Y0.1702
G01 X-98.6365 Y0.1402
G01 X-98.6506 Y0.1089
G01 X-98.6620 Y0.0765
G01 X-98.6705 Y0.0432
G01 X-98.6768 Y0.0045
G01 X-98.6791 Y-0.0298
G01 X-98.6792 Y-13.6611
G01 X-98.6773 Y-13.7003
G01 X-98.6715 Y-13.7392
G01 X-98.6620 Y-13.7772
G01 X-98.6488 Y-13.8142
G01 X-98.6320 Y-13.8497
G01 X-98.6118 Y-13.8834
G01 X-98.5884 Y-13.9149
G01 X-98.5620 Y-13.9440
G01 X-98.5330 Y-13.9703
G01 X-98.5014 Y-13.9937
G01 X-98.4678 Y-14.0139
G01 X-98.4323 Y-14.0307
G01 X-98.3953 Y-14.0439
G01 X-98.3572 Y-14.0534
G01 X-98.3184 Y-14.0592
G01 X-98.2792 Y-14.0611
G00 X-98.2792 Y-14.0611
G01 F70.00
G01 Z-1.6000
G01 F120.00
G01 X-72.8086 Y-14.0611
G01 X-71.2554 Y-14.3330
G01 X-69.9023 Y-14.7195
G01 X-68.0863 Y-15.6469
G01 X-67.1712 Y-16.4476
G01 X-65.8900 Y-17.9617
G01 X-65.1995 Y-19.2276
G01 X-64.7757 Y-20.5762
G01 X-64.5437 Y-22.0070
G01 X-64.5435 Y-33.1543
G01 X-64.5413 Y-33.1837
G01 X-64.5360 Y-33.2176
G01 X-64.5292 Y-33.2463
G01 X-64.5187 Y-33.2790
G01 X-64.5074 Y-33.3062
G01 X-64.4942 Y-33.3325
G01 X-64.4790 Y-33.3577
G01 X-64.4591 Y-33.3857
G01 X-64.4401 Y-33.4082
G01 X-64.4160 Y-33.4327
G01 X-64.3937 Y-33.4519
G01 X-64.3660 Y-33.4722
G01 X-64.3366 Y-33.4900
G01 X-64.3103 Y-33.5033
G01 X-64.2785 Y-33.5162
G01 X-64.2504 Y-33.5251
G01 X-64.2218 Y-33.5319
G01 X-64.1976 Y-33.5360
G01 X-64.1732 Y-33.5385
G01 X-64.1437 Y-33.5396
G01 X-29.0823 Y-33.5396
G01 X-29.0528 Y-33.5385
G01 X-29.0236 Y-33.5353
G01 X-28.9899 Y-33.5288
G01 X-28.9568 Y-33.5194
G01 X-28.9247 Y-33.5072
G01 X-28.8937 Y-33.4924
G01 X-28.8641 Y-33.4749
G01 X-28.8362 Y-33.4549
G01 X-28.8100 Y-33.4327
G01 X-28.7859 Y-33.4082
G01 X-28.7639 Y-33.3818
G01 X-28.7443 Y-33.3536
G01 X-28.7272 Y-33.3238
G01 X-28.7127 Y-33.2927
G01 X-28.7010 Y-33.2604
G01 X-28.6920 Y-33.2272
G01 X-28.6859 Y-33.1934
G01 X-28.6828 Y-33.1592
G01 X-28.6823 Y-22.0070
G01 X-28.4503 Y-20.5762
G01 X-28.0264 Y-19.2276
G01 X-27.3359 Y-17.9617
G01 X-26.0547 Y-16.4476
G01 X-25.1396 Y-15.6469
G01 X-23.3236 Y-14.7195
G01 X-21.9706 Y-14.3330
G01 X-20.4174 Y-14.0611
G01 X-0.0743 Y-14.0611
G01 X-0.0498 Y-14.0600
G01 X-0.0302 Y-14.0581
G01 X0.0084 Y-14.0514
G01 X0.0463 Y-14.0409
G01 X0.0648 Y-14.0343
G01 X0.0874 Y-14.0248
G01 X0.1050 Y-14.0162
G01 X0.1264 Y-14.0042
G01 X0.1591 Y-13.9824
G01 X0.1783 Y-13.9672
G01 X0.1930 Y-13.9542
G01 X0.2205 Y-13.9261
G01 X0.2421 Y-13.8994
G01 X0.2613 Y-13.8710
G01 X0.2803 Y-13.8366
G01 X0.2940 Y-13.8051
G01 X0.3050 Y-13.7725
G01 X0.3140 Y-13.7343
G01 X0.3189 Y-13.7003
G01 X0.3208 Y-13.6660
G01 X0.3208 Y-0.0396
G01 X0.3197 Y-0.0102
G01 X0.3165 Y0.0191
G01 X0.3100 Y0.0528
G01 X0.2990 Y0.0905
G01 X0.2865 Y0.1225
G01 X0.2712 Y0.1533
G01 X0.2534 Y0.1826
G01 X0.2331 Y0.2103
G01 X0.2105 Y0.2362
G01 X0.1821 Y0.2633
G01 X0.1551 Y0.2846
G01 X0.1264 Y0.3035
G01 X0.0918 Y0.3220
G01 X0.0602 Y0.3353
