(G-CODE GENERATED BY FLATCAM v8.993 - www.flatcam.org - Version Date: 2020/06/05)

(Name: 132u02_Ф1_верх.gbr_iso_combined_cnc)
(Type: G-code from Geometry)
(Units: MM)

(Created on Wednesday, 28 October 2020 at 02:06)

(This preprocessor is the default preprocessor used by FlatCAM.)
(It is made to work with MACH3 compatible motion controllers.)

(TOOL DIAMETER: 0.14 mm)
(Feedrate_XY: 120.0 mm/min)
(Feedrate_Z: 70.0 mm/min)
(Feedrate rapids 1500.0 mm/min)

(Z_Cut: -0.06 mm)
(Z_Move: 2.0 mm)
(Z Start: None mm)
(Z End: 25.0 mm)
(Steps per circle: 128)
(Preprocessor Geometry: default)

(X range:    0.2711 ...   96.4800  mm)
(Y range:  -32.8403 ...   -0.1547  mm)

(Spindle Speed: 10000 RPM)
G21
G90
G94



G01 F120.00
G00 Z2.0000

M03 S10000
G00 X1.0402 Y-0.8114
G01 F70.00
G01 Z-0.0600
G01 F120.00
G01 X1.0453 Y-0.8083
G01 X1.0512 Y-0.8087
G01 X1.0558 Y-0.8126
G01 X1.0571 Y-0.8184
G01 X1.0571 Y-1.7055
G01 X1.0566 Y-1.7096
G01 X1.0547 Y-1.7128
G01 X1.0512 Y-1.7152
G01 X1.0476 Y-1.7159
G01 X1.0440 Y-1.7152
G01 X1.0409 Y-1.7131
G01 X1.0390 Y-1.7105
G01 X1.0381 Y-1.7069
G01 X1.0381 Y-1.0086
G01 X1.0373 Y-0.9992
G01 X1.0353 Y-0.9900
G01 X1.0321 Y-0.9811
G01 X1.0281 Y-0.9735
G01 X1.0205 Y-0.9631
G01 X1.0104 Y-0.9538
G01 X0.9995 Y-0.9470
G01 X0.9867 Y-0.9420
G01 X0.9732 Y-0.9397
G01 X0.9604 Y-0.9399
G01 X0.9469 Y-0.9428
G01 X0.9343 Y-0.9482
G01 X0.9264 Y-0.9533
G01 X0.9192 Y-0.9594
G01 X0.7206 Y-1.1579
G01 X0.7156 Y-1.1602
G01 X0.7106 Y-1.1596
G01 X0.7063 Y-1.1561
G01 X0.7047 Y-1.1508
G01 X0.7056 Y-1.1467
G01 X0.7081 Y-1.1434
G01 X1.0402 Y-0.8114
G00 Z2.0000
G00 X1.4167 Y-0.8689
G01 F70.00
G01 Z-0.0600
G01 F120.00
G01 X1.4189 Y-0.8661
G01 X1.4224 Y-0.8640
G01 X1.5567 Y-0.8082
G01 X1.6943 Y-0.8083
G01 X1.8313 Y-0.8657
G01 X1.8339 Y-0.8689
G01 X1.9004 Y-0.9797
G01 X1.9015 Y-0.9851
G01 X1.9011 Y-1.0981
G01 X1.8339 Y-1.2106
G01 X1.8260 Y-1.2203
G01 X1.8209 Y-1.2282
G01 X1.8172 Y-1.2360
G01 X1.8145 Y-1.2441
G01 X1.8128 Y-1.2525
G01 X1.8122 Y-1.2620
G01 X1.8128 Y-1.2714
G01 X1.8145 Y-1.2798
G01 X1.8172 Y-1.2879
G01 X1.8209 Y-1.2957
G01 X1.8260 Y-1.3036
G01 X1.8339 Y-1.3133
G01 X1.9011 Y-1.4258
G01 X1.9015 Y-1.5406
G01 X1.8997 Y-1.5453
G01 X1.8339 Y-1.6550
G01 X1.8298 Y-1.6592
G01 X1.6939 Y-1.7157
G01 X1.5563 Y-1.7156
G01 X1.4193 Y-1.6582
G01 X1.4167 Y-1.6550
G01 X1.3502 Y-1.5442
G01 X1.3492 Y-1.5411
G01 X1.3494 Y-1.5374
G01 X1.3507 Y-1.5344
G01 X1.3533 Y-1.5318
G01 X1.3563 Y-1.5305
G01 X1.3595 Y-1.5302
G01 X1.3631 Y-1.5313
G01 X1.3656 Y-1.5333
G01 X1.4233 Y-1.6285
G01 X1.4287 Y-1.6351
G01 X1.4356 Y-1.6415
G01 X1.4425 Y-1.6465
G01 X1.4507 Y-1.6510
G01 X1.5484 Y-1.6918
G01 X1.5608 Y-1.6955
G01 X1.5737 Y-1.6969
G01 X1.6787 Y-1.6968
G01 X1.6907 Y-1.6953
G01 X1.7022 Y-1.6918
G01 X1.7991 Y-1.6514
G01 X1.8081 Y-1.6465
G01 X1.8157 Y-1.6410
G01 X1.8230 Y-1.6338
G01 X1.8292 Y-1.6257
G01 X1.8733 Y-1.5522
G01 X1.8792 Y-1.5388
G01 X1.8821 Y-1.5245
G01 X1.8824 Y-1.4489
G01 X1.8816 Y-1.4395
G01 X1.8794 Y-1.4303
G01 X1.8729 Y-1.4154
G01 X1.8263 Y-1.3385
G01 X1.8157 Y-1.3273
G01 X1.8029 Y-1.3188
G01 X1.6879 Y-1.2706
G01 X1.6841 Y-1.2673
G01 X1.6825 Y-1.2629
G01 X1.6836 Y-1.2575
G01 X1.6879 Y-1.2534
G01 X1.7991 Y-1.2070
G01 X1.8081 Y-1.2021
G01 X1.8157 Y-1.1966
G01 X1.8230 Y-1.1894
G01 X1.8297 Y-1.1805
G01 X1.8729 Y-1.1085
G01 X1.8774 Y-1.0993
G01 X1.8811 Y-1.0869
G01 X1.8824 Y-1.0750
G01 X1.8824 Y-1.0045
G01 X1.8804 Y-0.9892
G01 X1.8774 Y-0.9802
G01 X1.8733 Y-0.9717
G01 X1.8278 Y-0.8961
G01 X1.8224 Y-0.8895
G01 X1.8163 Y-0.8835
G01 X1.8095 Y-0.8783
G01 X1.8014 Y-0.8736
G01 X1.7030 Y-0.8324
G01 X1.6932 Y-0.8292
G01 X1.6847 Y-0.8276
G01 X1.6761 Y-0.8270
G01 X1.5737 Y-0.8270
G01 X1.5608 Y-0.8284
G01 X1.5484 Y-0.8321
G01 X1.4523 Y-0.8722
G01 X1.4440 Y-0.8765
G01 X1.4362 Y-0.8818
G01 X1.4282 Y-0.8895
G01 X1.4214 Y-0.8982
G01 X1.3662 Y-0.9899
G01 X1.3639 Y-0.9921
G01 X1.3609 Y-0.9934
G01 X1.3577 Y-0.9937
G01 X1.3545 Y-0.9928
G01 X1.3515 Y-0.9906
G01 X1.3496 Y-0.9874
G01 X1.3491 Y-0.9837
G01 X1.3500 Y-0.9801
G01 X1.4167 Y-0.8689
G00 Z2.0000
G00 X2.2039 Y-1.7159
G01 F70.00
G01 Z-0.0600
G01 F120.00
G01 X2.2002 Y-1.7155
G01 X2.1970 Y-1.7138
G01 X2.1946 Y-1.7109
G01 X2.1936 Y-1.7078
G01 X2.1939 Y-1.6480
G01 X2.2626 Y-1.5333
G01 X2.6532 Y-1.2077
G01 X2.6646 Y-1.1957
G01 X2.7173 Y-1.1085
G01 X2.7233 Y-1.0952
G01 X2.7258 Y-1.0852
G01 X2.7268 Y-1.0758
G01 X2.7269 Y-1.0054
G01 X2.7248 Y-0.9892
G01 X2.7222 Y-0.9810
G01 X2.7186 Y-0.9732
G01 X2.6741 Y-0.8990
G01 X2.6680 Y-0.8907
G01 X2.6614 Y-0.8840
G01 X2.6525 Y-0.8774
G01 X2.6435 Y-0.8725
G01 X2.5474 Y-0.8324
G01 X2.5359 Y-0.8288
G01 X2.5239 Y-0.8271
G01 X2.4181 Y-0.8270
G01 X2.4052 Y-0.8284
G01 X2.3928 Y-0.8321
G01 X2.2951 Y-0.8729
G01 X2.2876 Y-0.8769
G01 X2.2800 Y-0.8824
G01 X2.2731 Y-0.8888
G01 X2.2677 Y-0.8954
G01 X2.2100 Y-0.9906
G01 X2.2075 Y-0.9926
G01 X2.2044 Y-0.9936
G01 X2.2011 Y-0.9935
G01 X2.1977 Y-0.9921
G01 X2.1954 Y-0.9899
G01 X2.1938 Y-0.9865
G01 X2.1935 Y-0.9833
G01 X2.1946 Y-0.9797
G01 X2.2611 Y-0.8689
G01 X2.2637 Y-0.8657
G01 X2.4007 Y-0.8083
G01 X2.5383 Y-0.8082
G01 X2.6742 Y-0.8647
G01 X2.6783 Y-0.8689
G01 X2.7455 Y-0.9814
G01 X2.7459 Y-1.0944
G01 X2.7448 Y-1.0998
G01 X2.6761 Y-1.2134
G01 X2.2862 Y-1.5384
G01 X2.2798 Y-1.5444
G01 X2.2714 Y-1.5554
G01 X2.2462 Y-1.5984
G01 X2.2432 Y-1.6065
G01 X2.2412 Y-1.6149
G01 X2.2402 Y-1.6234
G01 X2.2404 Y-1.6328
G01 X2.2422 Y-1.6438
G01 X2.2461 Y-1.6552
G01 X2.2515 Y-1.6650
G01 X2.2588 Y-1.6745
G01 X2.2677 Y-1.6826
G01 X2.2771 Y-1.6886
G01 X2.2882 Y-1.6933
G01 X2.2990 Y-1.6960
G01 X2.3101 Y-1.6969
G01 X2.7369 Y-1.6969
G01 X2.7417 Y-1.6985
G01 X2.7448 Y-1.7019
G01 X2.7459 Y-1.7064
G01 X2.7448 Y-1.7109
G01 X2.7409 Y-1.7148
G01 X2.7355 Y-1.7159
G01 X2.2039 Y-1.7159
G00 Z2.0000
G00 X3.4569 Y-1.7055
G01 F70.00
G01 Z-0.0600
G01 F120.00
G01 X3.4562 Y-1.7100
G01 X3.4538 Y-1.7135
G01 X3.4502 Y-1.7155
G01 X3.4455 Y-1.7157
G01 X3.4417 Y-1.7140
G01 X3.4290 Y-1.7039
G01 X3.4174 Y-1.6980
G01 X3.4033 Y-1.6940
G01 X3.3878 Y-1.6931
G01 X3.2472 Y-1.7159
G01 X3.1134 Y-1.6937
G01 X3.1095 Y-1.6926
G01 X3.1068 Y-1.6903
G01 X3.0403 Y-1.6017
G01 X3.0380 Y-1.5967
G01 X3.0379 Y-1.2073
G01 X3.0386 Y-1.2028
G01 X3.0414 Y-1.1990
G01 X3.0460 Y-1.1970
G01 X3.0510 Y-1.1976
G01 X3.0553 Y-1.2011
G01 X3.0569 Y-1.2059
G01 X3.0569 Y-1.5696
G01 X3.0585 Y-1.5834
G01 X3.0624 Y-1.5958
G01 X3.0699 Y-1.6094
G01 X3.1042 Y-1.6550
G01 X3.1138 Y-1.6648
G01 X3.1252 Y-1.6725
G01 X3.1354 Y-1.6770
G01 X3.1454 Y-1.6797
G01 X3.2367 Y-1.6949
G01 X3.2470 Y-1.6958
G01 X3.2581 Y-1.6950
G01 X3.3495 Y-1.6797
G01 X3.3602 Y-1.6767
G01 X3.3697 Y-1.6725
G01 X3.3810 Y-1.6648
G01 X3.3907 Y-1.6550
G01 X3.4249 Y-1.6094
G01 X3.4325 Y-1.5958
G01 X3.4363 Y-1.5834
G01 X3.4379 Y-1.5697
G01 X3.4379 Y-1.2059
G01 X3.4400 Y-1.2004
G01 X3.4446 Y-1.1973
G01 X3.4502 Y-1.1973
G01 X3.4548 Y-1.2004
G01 X3.4565 Y-1.2036
G01 X3.4569 Y-1.2073
G01 X3.4569 Y-1.7055
G00 Z2.0000
G00 X4.2724 Y-0.9702
G01 F70.00
G01 Z-0.0600
G01 F120.00
G01 X4.2286 Y-0.8975
G01 X4.2212 Y-0.8882
G01 X4.2129 Y-0.8808
G01 X4.2058 Y-0.8760
G01 X4.1974 Y-0.8718
G01 X4.1021 Y-0.8321
G01 X4.0872 Y-0.8279
G01 X4.0768 Y-0.8270
G01 X3.9736 Y-0.8270
G01 X3.9649 Y-0.8277
G01 X3.9565 Y-0.8294
G01 X3.9475 Y-0.8324
G01 X3.8483 Y-0.8740
G01 X3.8403 Y-0.8788
G01 X3.8329 Y-0.8846
G01 X3.8264 Y-0.8914
G01 X3.8208 Y-0.8990
G01 X3.7759 Y-0.9740
G01 X3.7708 Y-0.9867
G01 X3.7683 Y-1.0002
G01 X3.7681 Y-1.5194
G01 X3.7688 Y-1.5279
G01 X3.7706 Y-1.5364
G01 X3.7737 Y-1.5453
G01 X3.7776 Y-1.5529
G01 X3.8222 Y-1.6271
G01 X3.8316 Y-1.6381
G01 X3.8424 Y-1.6465
G01 X3.8522 Y-1.6517
G01 X3.9475 Y-1.6915
G01 X3.9598 Y-1.6953
G01 X3.9736 Y-1.6969
G01 X4.0803 Y-1.6967
G01 X4.0906 Y-1.6953
G01 X4.1013 Y-1.6921
G01 X4.2005 Y-1.6507
G01 X4.2087 Y-1.6461
G01 X4.2169 Y-1.6399
G01 X4.2240 Y-1.6325
G01 X4.2296 Y-1.6249
G01 X4.2749 Y-1.5492
G01 X4.2798 Y-1.5364
G01 X4.2822 Y-1.5220
G01 X4.2824 Y-1.0054
G01 X4.2816 Y-0.9960
G01 X4.2798 Y-0.9875
G01 X4.2767 Y-0.9786
G01 X4.2724 Y-0.9702
G00 Z2.0000
G00 X4.2997 Y-0.9786
G01 F70.00
G01 Z-0.0600
G01 F120.00
G01 X4.3011 Y-0.9819
G01 X4.3014 Y-0.9850
G01 X4.3014 Y-1.5406
G01 X4.2996 Y-1.5453
G01 X4.2328 Y-1.6565
G01 X4.2281 Y-1.6599
G01 X4.0964 Y-1.7149
G01 X4.0910 Y-1.7159
G01 X3.9566 Y-1.7157
G01 X3.8199 Y-1.6587
G01 X3.8166 Y-1.6550
G01 X3.7508 Y-1.5453
G01 X3.7493 Y-1.5420
G01 X3.7490 Y-1.5388
G01 X3.7490 Y-0.9833
G01 X3.7508 Y-0.9786
G01 X3.8176 Y-0.8674
G01 X3.8223 Y-0.8640
G01 X3.9566 Y-0.8082
G01 X4.0942 Y-0.8083
G01 X4.2312 Y-0.8657
G01 X4.2338 Y-0.8689
G01 X4.2997 Y-0.9786
G00 Z2.0000
G00 X4.6038 Y-1.7159
G01 F70.00
G01 Z-0.0600
G01 F120.00
G01 X4.6001 Y-1.7155
G01 X4.5969 Y-1.7138
G01 X4.5945 Y-1.7109
G01 X4.5935 Y-1.7078
G01 X4.5938 Y-1.6480
G01 X4.6625 Y-1.5333
G01 X5.0531 Y-1.2077
G01 X5.0645 Y-1.1957
G01 X5.1172 Y-1.1085
G01 X5.1232 Y-1.0952
G01 X5.1256 Y-1.0861
G01 X5.1267 Y-1.0758
G01 X5.1268 Y-1.0054
G01 X5.1247 Y-0.9892
G01 X5.1221 Y-0.9810
G01 X5.1185 Y-0.9732
G01 X5.0740 Y-0.8990
G01 X5.0684 Y-0.8914
G01 X5.0613 Y-0.8840
G01 X5.0531 Y-0.8778
G01 X5.0434 Y-0.8725
G01 X4.9473 Y-0.8324
G01 X4.9358 Y-0.8288
G01 X4.9238 Y-0.8271
G01 X4.8180 Y-0.8270
G01 X4.8051 Y-0.8284
G01 X4.7927 Y-0.8321
G01 X4.6950 Y-0.8729
G01 X4.6868 Y-0.8774
G01 X4.6799 Y-0.8824
G01 X4.6736 Y-0.8882
G01 X4.6676 Y-0.8954
G01 X4.6099 Y-0.9906
G01 X4.6070 Y-0.9928
G01 X4.6038 Y-0.9937
G01 X4.6006 Y-0.9934
G01 X4.5972 Y-0.9918
G01 X4.5950 Y-0.9895
G01 X4.5937 Y-0.9865
G01 X4.5934 Y-0.9833
G01 X4.5945 Y-0.9797
G01 X4.6610 Y-0.8689
G01 X4.6636 Y-0.8657
G01 X4.8006 Y-0.8083
G01 X4.9382 Y-0.8082
G01 X5.0741 Y-0.8647
G01 X5.0782 Y-0.8689
G01 X5.1454 Y-0.9814
G01 X5.1458 Y-1.0944
G01 X5.1447 Y-1.0998
G01 X5.0760 Y-1.2134
G01 X4.6861 Y-1.5384
G01 X4.6797 Y-1.5444
G01 X4.6713 Y-1.5554
G01 X4.6461 Y-1.5984
G01 X4.6431 Y-1.6065
G01 X4.6409 Y-1.6157
G01 X4.6401 Y-1.6242
G01 X4.6403 Y-1.6328
G01 X4.6421 Y-1.6438
G01 X4.6460 Y-1.6552
G01 X4.6514 Y-1.6650
G01 X4.6587 Y-1.6745
G01 X4.6676 Y-1.6826
G01 X4.6770 Y-1.6886
G01 X4.6873 Y-1.6931
G01 X4.6989 Y-1.6960
G01 X4.7100 Y-1.6969
G01 X5.1368 Y-1.6969
G01 X5.1412 Y-1.6982
G01 X5.1445 Y-1.7015
G01 X5.1458 Y-1.7059
G01 X5.1447 Y-1.7109
G01 X5.1408 Y-1.7148
G01 X5.1354 Y-1.7159
G01 X4.6038 Y-1.7159
G00 Z2.0000
G00 X6.5693 Y-0.9161
G01 F70.00
G01 Z-0.0600
G01 F120.00
G01 X6.5214 Y-0.8365
G01 X6.5146 Y-0.8278
G01 X6.5057 Y-0.8198
G01 X6.4978 Y-0.8146
G01 X6.4902 Y-0.8108
G01 X6.3854 Y-0.7672
G01 X6.3705 Y-0.7630
G01 X6.3602 Y-0.7621
G01 X6.2467 Y-0.7621
G01 X6.2381 Y-0.7628
G01 X6.2297 Y-0.7645
G01 X6.2207 Y-0.7675
G01 X6.1121 Y-0.8130
G01 X6.1041 Y-0.8178
G01 X6.0967 Y-0.8236
G01 X6.0902 Y-0.8304
G01 X6.0846 Y-0.8379
G01 X6.0355 Y-0.9199
G01 X6.0304 Y-0.9326
G01 X6.0279 Y-0.9462
G01 X6.0277 Y-1.5164
G01 X6.0284 Y-1.5250
G01 X6.0302 Y-1.5334
G01 X6.0333 Y-1.5424
G01 X6.0372 Y-1.5500
G01 X6.0860 Y-1.6311
G01 X6.0948 Y-1.6416
G01 X6.1062 Y-1.6506
G01 X6.1160 Y-1.6557
G01 X6.2207 Y-1.6995
G01 X6.2330 Y-1.7033
G01 X6.2468 Y-1.7049
G01 X6.3627 Y-1.7048
G01 X6.3739 Y-1.7033
G01 X6.3846 Y-1.7001
G01 X6.4933 Y-1.6547
G01 X6.5022 Y-1.6496
G01 X6.5097 Y-1.6439
G01 X6.5163 Y-1.6372
G01 X6.5224 Y-1.6289
G01 X6.5714 Y-1.5470
G01 X6.5767 Y-1.5334
G01 X6.5791 Y-1.5191
G01 X6.5793 Y-0.9513
G01 X6.5786 Y-0.9427
G01 X6.5767 Y-0.9335
G01 X6.5736 Y-0.9245
G01 X6.5693 Y-0.9161
G00 Z2.0000
G00 X6.6114 Y-0.9182
G01 F70.00
G01 Z-0.0600
G01 F120.00
G01 X6.6138 Y-0.9236
G01 X6.6143 Y-0.9287
G01 X6.6142 Y-1.5407
G01 X6.6133 Y-1.5449
G01 X6.6114 Y-1.5488
G01 X6.5376 Y-1.6716
G01 X6.5340 Y-1.6753
G01 X6.5295 Y-1.6777
G01 X6.3844 Y-1.7383
G01 X6.3759 Y-1.7399
G01 X6.2267 Y-1.7396
G01 X6.0775 Y-1.6777
G01 X6.0730 Y-1.6753
G01 X6.0680 Y-1.6695
G01 X5.9955 Y-1.5488
G01 X5.9931 Y-1.5433
G01 X5.9926 Y-1.5381
G01 X5.9927 Y-0.9262
G01 X5.9936 Y-0.9220
G01 X5.9955 Y-0.9181
G01 X6.0694 Y-0.7953
G01 X6.0730 Y-0.7916
G01 X6.0775 Y-0.7892
G01 X6.2267 Y-0.7274
G01 X6.3759 Y-0.7271
G01 X6.3811 Y-0.7276
G01 X6.5295 Y-0.7892
G01 X6.5346 Y-0.7922
G01 X6.5390 Y-0.7974
G01 X6.6114 Y-0.9182
G00 Z2.0000
G00 X7.3965 Y-1.7215
G01 F70.00
G01 Z-0.0600
G01 F120.00
G01 X7.3955 Y-1.7283
G01 X7.3920 Y-1.7342
G01 X7.3873 Y-1.7379
G01 X7.3807 Y-1.7398
G01 X7.3756 Y-1.7396
G01 X7.3707 Y-1.7379
G01 X7.3563 Y-1.7264
G01 X7.3433 Y-1.7196
G01 X7.3301 Y-1.7158
G01 X7.3172 Y-1.7147
G01 X7.3068 Y-1.7155
G01 X7.1586 Y-1.7399
G01 X7.0087 Y-1.7150
G01 X7.0033 Y-1.7129
G01 X6.9989 Y-1.7091
G01 X6.9255 Y-1.6113
G01 X6.9228 Y-1.6069
G01 X6.9217 Y-1.6027
G01 X6.9215 Y-1.1733
G01 X6.9218 Y-1.1690
G01 X6.9232 Y-1.1649
G01 X6.9279 Y-1.1589
G01 X6.9315 Y-1.1566
G01 X6.9364 Y-1.1551
G01 X6.9416 Y-1.1551
G01 X6.9457 Y-1.1562
G01 X6.9494 Y-1.1583
G01 X6.9531 Y-1.1620
G01 X6.9555 Y-1.1665
G01 X6.9564 Y-1.1707
G01 X6.9565 Y-1.5718
G01 X6.9581 Y-1.5855
G01 X6.9620 Y-1.5979
G01 X6.9695 Y-1.6115
G01 X7.0070 Y-1.6614
G01 X7.0166 Y-1.6712
G01 X7.0280 Y-1.6789
G01 X7.0382 Y-1.6834
G01 X7.0482 Y-1.6861
G01 X7.1483 Y-1.7028
G01 X7.1586 Y-1.7036
G01 X7.1697 Y-1.7028
G01 X7.2699 Y-1.6861
G01 X7.2799 Y-1.6834
G01 X7.2893 Y-1.6793
G01 X7.3008 Y-1.6717
G01 X7.3106 Y-1.6620
G01 X7.3485 Y-1.6115
G01 X7.3557 Y-1.5987
G01 X7.3599 Y-1.5855
G01 X7.3615 Y-1.5718
G01 X7.3616 Y-1.1707
G01 X7.3628 Y-1.1657
G01 X7.3655 Y-1.1613
G01 X7.3693 Y-1.1578
G01 X7.3739 Y-1.1556
G01 X7.3790 Y-1.1549
G01 X7.3841 Y-1.1556
G01 X7.3887 Y-1.1578
G01 X7.3925 Y-1.1613
G01 X7.3955 Y-1.1665
G01 X7.3965 Y-1.1733
G01 X7.3965 Y-1.7215
G00 Z2.0000
G00 X7.9106 Y-1.6740
G01 F70.00
G01 Z-0.0600
G01 F120.00
G01 X7.9211 Y-1.6822
G01 X7.9317 Y-1.6880
G01 X7.9439 Y-1.6921
G01 X7.9558 Y-1.6938
G01 X7.9643 Y-1.6937
G01 X7.9737 Y-1.6925
G01 X8.0099 Y-1.6810
G01 X8.0141 Y-1.6804
G01 X8.0184 Y-1.6808
G01 X8.0246 Y-1.6835
G01 X8.0294 Y-1.6885
G01 X8.0319 Y-1.6949
G01 X8.0317 Y-1.7017
G01 X8.0303 Y-1.7057
G01 X8.0279 Y-1.7093
G01 X8.0247 Y-1.7122
G01 X8.0210 Y-1.7142
G01 X7.9476 Y-1.7388
G01 X7.9426 Y-1.7399
G01 X7.9384 Y-1.7397
G01 X7.9335 Y-1.7382
G01 X7.9293 Y-1.7353
G01 X7.8573 Y-1.6752
G01 X7.8528 Y-1.6701
G01 X7.8509 Y-1.6654
G01 X7.8504 Y-1.6603
G01 X7.8504 Y-1.2591
G01 X7.8495 Y-1.2488
G01 X7.8473 Y-1.2396
G01 X7.8417 Y-1.2262
G01 X7.8334 Y-1.2142
G01 X7.8227 Y-1.2042
G01 X7.8095 Y-1.1963
G01 X7.7974 Y-1.1920
G01 X7.7855 Y-1.1901
G01 X7.7178 Y-1.1896
G01 X7.7129 Y-1.1879
G01 X7.7082 Y-1.1842
G01 X7.7050 Y-1.1791
G01 X7.7037 Y-1.1733
G01 X7.7044 Y-1.1673
G01 X7.7071 Y-1.1620
G01 X7.7115 Y-1.1578
G01 X7.7169 Y-1.1554
G01 X7.7855 Y-1.1547
G01 X7.7974 Y-1.1528
G01 X7.8087 Y-1.1489
G01 X7.8207 Y-1.1421
G01 X7.8316 Y-1.1325
G01 X7.8400 Y-1.1216
G01 X7.8460 Y-1.1092
G01 X7.8492 Y-1.0977
G01 X7.8504 Y-1.0857
G01 X7.8504 Y-0.7437
G01 X7.8521 Y-0.7371
G01 X7.8555 Y-0.7322
G01 X7.8612 Y-0.7284
G01 X7.8670 Y-0.7271
G01 X7.8738 Y-0.7281
G01 X7.8797 Y-0.7316
G01 X7.8837 Y-0.7371
G01 X7.8854 Y-0.7437
G01 X7.8854 Y-1.0857
G01 X7.8866 Y-1.0977
G01 X7.8898 Y-1.1092
G01 X7.8958 Y-1.1216
G01 X7.9042 Y-1.1325
G01 X7.9151 Y-1.1421
G01 X7.9271 Y-1.1489
G01 X7.9384 Y-1.1528
G01 X7.9503 Y-1.1547
G01 X8.0180 Y-1.1552
G01 X8.0236 Y-1.1574
G01 X8.0281 Y-1.1613
G01 X8.0311 Y-1.1665
G01 X8.0321 Y-1.1715
G01 X8.0314 Y-1.1775
G01 X8.0287 Y-1.1828
G01 X8.0243 Y-1.1870
G01 X8.0189 Y-1.1894
G01 X7.9494 Y-1.1902
G01 X7.9368 Y-1.1925
G01 X7.9240 Y-1.1974
G01 X7.9117 Y-1.2053
G01 X7.9008 Y-1.2162
G01 X7.8925 Y-1.2292
G01 X7.8873 Y-1.2438
G01 X7.8854 Y-1.2599
G01 X7.8855 Y-1.6237
G01 X7.8878 Y-1.6382
G01 X7.8930 Y-1.6518
G01 X7.9009 Y-1.6641
G01 X7.9106 Y-1.6740
G00 Z2.0000
G00 X8.6961 Y-1.7215
G01 F70.00
G01 Z-0.0600
G01 F120.00
G01 X8.6961 Y-0.7455
G01 X8.6966 Y-0.7403
G01 X8.6986 Y-0.7356
G01 X8.7018 Y-0.7316
G01 X8.7053 Y-0.7291
G01 X8.7093 Y-0.7276
G01 X8.7145 Y-0.7271
G01 X9.0820 Y-0.7272
G01 X9.0878 Y-0.7287
G01 X9.2360 Y-0.7907
G01 X9.2394 Y-0.7933
G01 X9.2425 Y-0.7974
G01 X9.3149 Y-0.9181
G01 X9.3171 Y-0.9228
G01 X9.3178 Y-0.9288
G01 X9.3178 Y-1.0492
G01 X9.3171 Y-1.0552
G01 X9.3149 Y-1.0599
G01 X9.2425 Y-1.1807
G01 X9.2381 Y-1.1859
G01 X9.2330 Y-1.1889
G01 X9.0862 Y-1.2500
G01 X9.0794 Y-1.2510
G01 X8.7960 Y-1.2512
G01 X8.7833 Y-1.2534
G01 X8.7704 Y-1.2581
G01 X8.7594 Y-1.2648
G01 X8.7499 Y-1.2734
G01 X8.7420 Y-1.2836
G01 X8.7365 Y-1.2943
G01 X8.7327 Y-1.3065
G01 X8.7312 Y-1.3185
G01 X8.7310 Y-1.7241
G01 X8.7291 Y-1.7307
G01 X8.7254 Y-1.7354
G01 X8.7195 Y-1.7389
G01 X8.7127 Y-1.7399
G01 X8.7061 Y-1.7382
G01 X8.7006 Y-1.7342
G01 X8.6971 Y-1.7283
G01 X8.6961 Y-1.7215
G00 Z2.0000
G00 X8.8011 Y-1.2160
G01 F70.00
G01 Z-0.0600
G01 F120.00
G01 X9.0628 Y-1.2160
G01 X9.0731 Y-1.2152
G01 X9.0889 Y-1.2109
G01 X9.1944 Y-1.1670
G01 X9.2050 Y-1.1613
G01 X9.2144 Y-1.1539
G01 X9.2203 Y-1.1477
G01 X9.2259 Y-1.1401
G01 X9.2745 Y-1.0589
G01 X9.2781 Y-1.0511
G01 X9.2807 Y-1.0429
G01 X9.2828 Y-1.0267
G01 X9.2827 Y-0.9496
G01 X9.2817 Y-0.9402
G01 X9.2792 Y-0.9302
G01 X9.2728 Y-0.9161
G01 X9.2263 Y-0.8387
G01 X9.2181 Y-0.8278
G01 X9.2078 Y-0.8188
G01 X9.1952 Y-0.8115
G01 X9.0881 Y-0.7669
G01 X9.0791 Y-0.7641
G01 X9.0697 Y-0.7625
G01 X8.7969 Y-0.7623
G01 X8.7850 Y-0.7640
G01 X8.7736 Y-0.7678
G01 X8.7630 Y-0.7735
G01 X8.7535 Y-0.7809
G01 X8.7449 Y-0.7904
G01 X8.7379 Y-0.8022
G01 X8.7335 Y-0.8143
G01 X8.7313 Y-0.8279
G01 X8.7316 Y-1.1537
G01 X8.7342 Y-1.1663
G01 X8.7390 Y-1.1782
G01 X8.7460 Y-1.1890
G01 X8.7548 Y-1.1984
G01 X8.7652 Y-1.2060
G01 X8.7768 Y-1.2116
G01 X8.7892 Y-1.2149
G01 X8.8011 Y-1.2160
G00 Z2.0000
G00 X10.0650 Y-1.5515
G01 F70.00
G01 Z-0.0600
G01 F120.00
G01 X10.0650 Y-1.3546
G01 X10.0636 Y-1.3418
G01 X10.0603 Y-1.3302
G01 X10.0554 Y-1.3202
G01 X10.0119 Y-1.2477
G01 X10.0063 Y-1.2401
G01 X9.9998 Y-1.2333
G01 X9.9873 Y-1.2242
G01 X9.9722 Y-1.2179
G01 X9.8778 Y-1.1943
G01 X9.8616 Y-1.1926
G01 X9.8464 Y-1.1945
G01 X9.7512 Y-1.2184
G01 X9.7424 Y-1.2219
G01 X9.7342 Y-1.2264
G01 X9.7266 Y-1.2321
G01 X9.7205 Y-1.2381
G01 X9.7127 Y-1.2484
G01 X9.6692 Y-1.3209
G01 X9.6644 Y-1.3310
G01 X9.6612 Y-1.3426
G01 X9.6600 Y-1.3555
G01 X9.6600 Y-1.5523
G01 X9.6621 Y-1.5685
G01 X9.6648 Y-1.5767
G01 X9.6683 Y-1.5845
G01 X9.7111 Y-1.6557
G01 X9.7167 Y-1.6634
G01 X9.7233 Y-1.6702
G01 X9.7300 Y-1.6756
G01 X9.7374 Y-1.6801
G01 X9.7453 Y-1.6836
G01 X9.7535 Y-1.6862
G01 X9.8586 Y-1.7035
G01 X9.8740 Y-1.7027
G01 X9.9673 Y-1.6871
G01 X9.9782 Y-1.6842
G01 X9.9884 Y-1.6797
G01 X9.9978 Y-1.6735
G01 X10.0067 Y-1.6653
G01 X10.0136 Y-1.6564
G01 X10.0579 Y-1.5822
G01 X10.0631 Y-1.5676
G01 X10.0650 Y-1.5515
G00 Z2.0000
G00 X10.0971 Y-1.5854
G01 F70.00
G01 Z-0.0600
G01 F120.00
G01 X10.0238 Y-1.7076
G01 X10.0197 Y-1.7119
G01 X10.0145 Y-1.7146
G01 X9.8621 Y-1.7399
G01 X9.7138 Y-1.7153
G01 X9.7082 Y-1.7137
G01 X9.7035 Y-1.7102
G01 X9.7004 Y-1.7062
G01 X9.6279 Y-1.5855
G01 X9.6253 Y-1.5791
G01 X9.6250 Y-1.3321
G01 X9.6255 Y-1.3269
G01 X9.6279 Y-1.3214
G01 X9.7004 Y-1.2007
G01 X9.7035 Y-1.1966
G01 X9.7077 Y-1.1935
G01 X9.7125 Y-1.1918
G01 X9.8574 Y-1.1556
G01 X9.8625 Y-1.1549
G01 X9.8676 Y-1.1556
G01 X10.0126 Y-1.1918
G01 X10.0174 Y-1.1935
G01 X10.0216 Y-1.1966
G01 X10.0247 Y-1.2007
G01 X10.0971 Y-1.3214
G01 X10.0997 Y-1.3278
G01 X10.1000 Y-1.5749
G01 X10.0993 Y-1.5808
G01 X10.0971 Y-1.5854
G00 Z2.0000
G00 X10.7097 Y-1.5127
G01 F70.00
G01 Z-0.0600
G01 F120.00
G01 X10.8481 Y-1.1667
G01 X10.8511 Y-1.1614
G01 X10.8549 Y-1.1579
G01 X10.8621 Y-1.1551
G01 X10.8690 Y-1.1554
G01 X10.8759 Y-1.1589
G01 X10.8806 Y-1.1651
G01 X11.0031 Y-1.4711
G01 X11.0080 Y-1.4811
G01 X11.0134 Y-1.4888
G01 X11.0192 Y-1.4952
G01 X11.0263 Y-1.5013
G01 X11.0335 Y-1.5060
G01 X11.0412 Y-1.5097
G01 X11.0493 Y-1.5125
G01 X11.0586 Y-1.5144
G01 X11.0671 Y-1.5151
G01 X11.0765 Y-1.5146
G01 X11.0866 Y-1.5126
G01 X11.0955 Y-1.5095
G01 X11.1047 Y-1.5048
G01 X11.1130 Y-1.4987
G01 X11.1198 Y-1.4922
G01 X11.1257 Y-1.4848
G01 X11.1305 Y-1.4767
G01 X11.1357 Y-1.4631
G01 X11.2150 Y-1.1662
G01 X11.2170 Y-1.1624
G01 X11.2205 Y-1.1587
G01 X11.2242 Y-1.1564
G01 X11.2291 Y-1.1550
G01 X11.2342 Y-1.1551
G01 X11.2384 Y-1.1563
G01 X11.2427 Y-1.1590
G01 X11.2461 Y-1.1629
G01 X11.2488 Y-1.1701
G01 X11.2481 Y-1.1778
G01 X11.1019 Y-1.7261
G01 X11.1000 Y-1.7309
G01 X11.0969 Y-1.7350
G01 X11.0935 Y-1.7376
G01 X11.0896 Y-1.7392
G01 X11.0853 Y-1.7399
G01 X11.0811 Y-1.7395
G01 X11.0770 Y-1.7381
G01 X11.0734 Y-1.7358
G01 X11.0688 Y-1.7297
G01 X10.9297 Y-1.3821
G01 X10.9252 Y-1.3729
G01 X10.9199 Y-1.3650
G01 X10.9136 Y-1.3580
G01 X10.9071 Y-1.3524
G01 X10.8992 Y-1.3472
G01 X10.8907 Y-1.3431
G01 X10.8817 Y-1.3402
G01 X10.8724 Y-1.3385
G01 X10.8638 Y-1.3381
G01 X10.8544 Y-1.3389
G01 X10.8452 Y-1.3409
G01 X10.8371 Y-1.3438
G01 X10.8287 Y-1.3481
G01 X10.8210 Y-1.3535
G01 X10.8140 Y-1.3598
G01 X10.8085 Y-1.3664
G01 X10.8034 Y-1.3744
G01 X10.7997 Y-1.3821
G01 X10.6606 Y-1.7297
G01 X10.6578 Y-1.7341
G01 X10.6538 Y-1.7374
G01 X10.6498 Y-1.7392
G01 X10.6447 Y-1.7399
G01 X10.6396 Y-1.7392
G01 X10.6349 Y-1.7369
G01 X10.6311 Y-1.7334
G01 X10.6281 Y-1.7281
G01 X10.4087 Y-1.1797
G01 X10.4072 Y-1.1739
G01 X10.4078 Y-1.1679
G01 X10.4098 Y-1.1632
G01 X10.4137 Y-1.1587
G01 X10.4174 Y-1.1565
G01 X10.4215 Y-1.1552
G01 X10.4292 Y-1.1555
G01 X10.4360 Y-1.1590
G01 X10.4406 Y-1.1651
G01 X10.5800 Y-1.5135
G01 X10.5851 Y-1.5234
G01 X10.5911 Y-1.5318
G01 X10.5971 Y-1.5380
G01 X10.6044 Y-1.5439
G01 X10.6125 Y-1.5488
G01 X10.6203 Y-1.5523
G01 X10.6285 Y-1.5548
G01 X10.6378 Y-1.5563
G01 X10.6473 Y-1.5566
G01 X10.6558 Y-1.5558
G01 X10.6642 Y-1.5539
G01 X10.6731 Y-1.5507
G01 X10.6814 Y-1.5463
G01 X10.6884 Y-1.5413
G01 X10.6954 Y-1.5350
G01 X10.7009 Y-1.5284
G01 X10.7060 Y-1.5204
G01 X10.7097 Y-1.5127
G00 Z2.0000
G00 X11.5561 Y-1.5382
G01 F70.00
G01 Z-0.0600
G01 F120.00
G01 X11.5561 Y-1.3321
G01 X11.5566 Y-1.3269
G01 X11.5590 Y-1.3214
G01 X11.6315 Y-1.2007
G01 X11.6346 Y-1.1966
G01 X11.6388 Y-1.1935
G01 X11.6436 Y-1.1918
G01 X11.7885 Y-1.1556
G01 X11.7936 Y-1.1549
G01 X11.7987 Y-1.1556
G01 X11.9437 Y-1.1918
G01 X11.9492 Y-1.1939
G01 X11.9542 Y-1.1982
G01 X12.0289 Y-1.2861
G01 X12.0306 Y-1.2902
G01 X12.0311 Y-1.2955
G01 X12.0311 Y-1.4177
G01 X12.0301 Y-1.4227
G01 X12.0282 Y-1.4265
G01 X12.0247 Y-1.4303
G01 X12.0211 Y-1.4326
G01 X12.0170 Y-1.4340
G01 X12.0127 Y-1.4343
G01 X11.6611 Y-1.4343
G01 X11.6500 Y-1.4352
G01 X11.6384 Y-1.4382
G01 X11.6266 Y-1.4434
G01 X11.6167 Y-1.4502
G01 X11.6081 Y-1.4586
G01 X11.6011 Y-1.4684
G01 X11.5958 Y-1.4792
G01 X11.5925 Y-1.4907
G01 X11.5912 Y-1.5026
G01 X11.5912 Y-1.5312
G01 X11.5929 Y-1.5441
G01 X11.6108 Y-1.6180
G01 X11.6152 Y-1.6291
G01 X11.6220 Y-1.6399
G01 X11.6333 Y-1.6516
G01 X11.6461 Y-1.6600
G01 X11.7410 Y-1.6998
G01 X11.7534 Y-1.7035
G01 X11.7654 Y-1.7048
G01 X11.8757 Y-1.7049
G01 X11.8894 Y-1.7033
G01 X11.8977 Y-1.7010
G01 X11.9057 Y-1.6977
G01 X12.0047 Y-1.6460
G01 X12.0121 Y-1.6437
G01 X12.0180 Y-1.6442
G01 X12.0235 Y-1.6467
G01 X12.0278 Y-1.6509
G01 X12.0304 Y-1.6563
G01 X12.0311 Y-1.6622
G01 X12.0297 Y-1.6681
G01 X12.0265 Y-1.6731
G01 X12.0210 Y-1.6772
G01 X11.9052 Y-1.7376
G01 X11.9005 Y-1.7394
G01 X11.8955 Y-1.7399
G01 X11.7505 Y-1.7399
G01 X11.7445 Y-1.7392
G01 X11.5970 Y-1.6777
G01 X11.5932 Y-1.6757
G01 X11.5899 Y-1.6729
G01 X11.5875 Y-1.6693
G01 X11.5857 Y-1.6645
G01 X11.5567 Y-1.5439
G01 X11.5561 Y-1.5382
G00 Z2.0000
G00 X11.6769 Y-1.3993
G01 F70.00
G01 Z-0.0600
G01 F120.00
G01 X11.9269 Y-1.3993
G01 X11.9363 Y-1.3985
G01 X11.9456 Y-1.3965
G01 X11.9583 Y-1.3914
G01 X11.9698 Y-1.3839
G01 X11.9802 Y-1.3737
G01 X11.9878 Y-1.3623
G01 X11.9930 Y-1.3496
G01 X11.9957 Y-1.3361
G01 X11.9958 Y-1.3210
G01 X11.9933 Y-1.3076
G01 X11.9887 Y-1.2956
G01 X11.9824 Y-1.2854
G01 X11.9428 Y-1.2391
G01 X11.9365 Y-1.2332
G01 X11.9288 Y-1.2276
G01 X11.9204 Y-1.2232
G01 X11.9114 Y-1.2199
G01 X11.8097 Y-1.1945
G01 X11.7945 Y-1.1926
G01 X11.7783 Y-1.1943
G01 X11.6839 Y-1.2179
G01 X11.6735 Y-1.2219
G01 X11.6631 Y-1.2279
G01 X11.6539 Y-1.2356
G01 X11.6462 Y-1.2448
G01 X11.6136 Y-1.2993
G01 X11.6088 Y-1.3130
G01 X11.6069 Y-1.3266
G01 X11.6078 Y-1.3403
G01 X11.6113 Y-1.3536
G01 X11.6177 Y-1.3667
G01 X11.6262 Y-1.3775
G01 X11.6373 Y-1.3870
G01 X11.6493 Y-1.3936
G01 X11.6632 Y-1.3979
G01 X11.6769 Y-1.3993
G00 Z2.0000
G00 X12.3383 Y-1.1733
G01 F70.00
G01 Z-0.0600
G01 F120.00
G01 X12.3386 Y-1.1690
G01 X12.3400 Y-1.1649
G01 X12.3447 Y-1.1589
G01 X12.3515 Y-1.1554
G01 X12.3592 Y-1.1552
G01 X12.3633 Y-1.1566
G01 X12.3669 Y-1.1589
G01 X12.3799 Y-1.1732
G01 X12.3866 Y-1.1786
G01 X12.3938 Y-1.1831
G01 X12.4016 Y-1.1867
G01 X12.4098 Y-1.1893
G01 X12.4190 Y-1.1910
G01 X12.4276 Y-1.1914
G01 X12.4437 Y-1.1894
G01 X12.4581 Y-1.1841
G01 X12.4690 Y-1.1773
G01 X12.4927 Y-1.1579
G01 X12.4965 Y-1.1559
G01 X12.5008 Y-1.1550
G01 X12.6509 Y-1.1550
G01 X12.6567 Y-1.1566
G01 X12.6616 Y-1.1600
G01 X12.6650 Y-1.1649
G01 X12.6667 Y-1.1715
G01 X12.6660 Y-1.1775
G01 X12.6627 Y-1.1835
G01 X12.6582 Y-1.1874
G01 X12.6518 Y-1.1897
G01 X12.5308 Y-1.1900
G01 X12.5181 Y-1.1918
G01 X12.5052 Y-1.1962
G01 X12.4977 Y-1.2002
G01 X12.4900 Y-1.2056
G01 X12.3979 Y-1.2824
G01 X12.3889 Y-1.2917
G01 X12.3817 Y-1.3024
G01 X12.3757 Y-1.3177
G01 X12.3734 Y-1.3339
G01 X12.3733 Y-1.7233
G01 X12.3720 Y-1.7291
G01 X12.3682 Y-1.7348
G01 X12.3625 Y-1.7386
G01 X12.3567 Y-1.7399
G01 X12.3499 Y-1.7389
G01 X12.3440 Y-1.7354
G01 X12.3400 Y-1.7299
G01 X12.3383 Y-1.7233
G01 X12.3383 Y-1.1733
G00 Z2.0000
G00 X13.6121 Y-1.3382
G01 F70.00
G01 Z-0.0600
G01 F120.00
G01 X13.8177 Y-1.3382
G01 X13.8306 Y-1.3370
G01 X13.8397 Y-1.3346
G01 X13.8485 Y-1.3310
G01 X13.8567 Y-1.3263
G01 X13.8642 Y-1.3205
G01 X13.8708 Y-1.3138
G01 X13.8765 Y-1.3062
G01 X13.8811 Y-1.2980
G01 X13.8848 Y-1.2883
G01 X13.8871 Y-1.2774
G01 X13.8877 Y-1.2671
G01 X13.8868 Y-1.2569
G01 X13.8842 Y-1.2460
G01 X13.7795 Y-0.9669
G01 X13.7720 Y-0.9535
G01 X13.7618 Y-0.9420
G01 X13.7493 Y-0.9330
G01 X13.7352 Y-0.9269
G01 X13.7234 Y-0.9244
G01 X13.7123 Y-0.9240
G01 X13.7004 Y-0.9254
G01 X13.6898 Y-0.9286
G01 X13.6790 Y-0.9338
G01 X13.6693 Y-0.9408
G01 X13.6614 Y-0.9487
G01 X13.6545 Y-0.9585
G01 X13.6494 Y-0.9693
G01 X13.5449 Y-1.2485
G01 X13.5421 Y-1.2646
G01 X13.5432 Y-1.2808
G01 X13.5480 Y-1.2964
G01 X13.5563 Y-1.3105
G01 X13.5676 Y-1.3222
G01 X13.5813 Y-1.3310
G01 X13.5959 Y-1.3363
G01 X13.6121 Y-1.3382
G00 Z2.0000
G00 X13.8834 Y-1.3732
G01 F70.00
G01 Z-0.0600
G01 F120.00
G01 X13.5447 Y-1.3733
G01 X13.5344 Y-1.3743
G01 X13.5253 Y-1.3765
G01 X13.5165 Y-1.3799
G01 X13.5083 Y-1.3845
G01 X13.5001 Y-1.3907
G01 X13.4929 Y-1.3981
G01 X13.4869 Y-1.4064
G01 X13.4818 Y-1.4163
G01 X13.3639 Y-1.7301
G01 X13.3616 Y-1.7337
G01 X13.3584 Y-1.7366
G01 X13.3539 Y-1.7390
G01 X13.3497 Y-1.7399
G01 X13.3454 Y-1.7397
G01 X13.3405 Y-1.7381
G01 X13.3369 Y-1.7358
G01 X13.3335 Y-1.7319
G01 X13.3316 Y-1.7281
G01 X13.3307 Y-1.7239
G01 X13.3309 Y-1.7196
G01 X13.3321 Y-1.7154
G01 X13.6982 Y-0.7393
G01 X13.7000 Y-0.7353
G01 X13.7027 Y-0.7320
G01 X13.7062 Y-0.7294
G01 X13.7102 Y-0.7277
G01 X13.7171 Y-0.7272
G01 X13.7228 Y-0.7290
G01 X13.7282 Y-0.7332
G01 X13.7316 Y-0.7393
G01 X14.0977 Y-1.7154
G01 X14.0991 Y-1.7221
G01 X14.0982 Y-1.7281
G01 X14.0948 Y-1.7340
G01 X14.0901 Y-1.7377
G01 X14.0827 Y-1.7399
G01 X14.0759 Y-1.7390
G01 X14.0694 Y-1.7350
G01 X14.0655 Y-1.7294
G01 X13.9490 Y-1.4187
G01 X13.9442 Y-1.4086
G01 X13.9390 Y-1.4007
G01 X13.9328 Y-1.3937
G01 X13.9257 Y-1.3875
G01 X13.9186 Y-1.3827
G01 X13.9109 Y-1.3789
G01 X13.9020 Y-1.3758
G01 X13.8928 Y-1.3739
G01 X13.8834 Y-1.3732
G00 Z2.0000
G00 X14.5093 Y-1.9212
G01 F70.00
G01 Z-0.0600
G01 F120.00
G01 X14.5436 Y-1.8746
G01 X14.5495 Y-1.8611
G01 X14.5526 Y-1.8459
G01 X14.5529 Y-1.1715
G01 X14.5549 Y-1.1641
G01 X14.5593 Y-1.1589
G01 X14.5653 Y-1.1556
G01 X14.5721 Y-1.1550
G01 X14.5787 Y-1.1569
G01 X14.5834 Y-1.1606
G01 X14.5869 Y-1.1665
G01 X14.5879 Y-1.1733
G01 X14.5876 Y-1.8724
G01 X14.5862 Y-1.8765
G01 X14.5839 Y-1.8802
G01 X14.5117 Y-1.9766
G01 X14.5061 Y-1.9819
G01 X14.5022 Y-1.9836
G01 X14.4980 Y-1.9843
G01 X14.4228 Y-1.9843
G01 X14.4186 Y-1.9836
G01 X14.4147 Y-1.9818
G01 X14.4113 Y-1.9792
G01 X14.4082 Y-1.9751
G01 X14.4063 Y-1.9685
G01 X14.4069 Y-1.9617
G01 X14.4102 Y-1.9557
G01 X14.4154 Y-1.9513
G01 X14.4228 Y-1.9493
G01 X14.4593 Y-1.9490
G01 X14.4743 Y-1.9460
G01 X14.4846 Y-1.9419
G01 X14.4934 Y-1.9366
G01 X14.5020 Y-1.9296
G01 X14.5093 Y-1.9212
G00 Z2.0000
G00 X10.9288 Y-7.3753
G01 F70.00
G01 Z-0.0600
G01 F120.00
G01 X10.8688 Y-7.3753
G01 X10.8687 Y-7.0077
G01 X10.8660 Y-6.9925
G01 X10.8605 Y-6.9790
G01 X10.8518 Y-6.9663
G01 X10.8412 Y-6.9563
G01 X10.8326 Y-6.9507
G01 X10.8224 Y-6.9461
G01 X10.8116 Y-6.9432
G01 X10.8005 Y-6.9420
G01 X10.2854 Y-6.9420
G01 X10.2854 Y-6.8820
G01 X10.9288 Y-6.8820
G01 X10.9288 Y-7.3753
G00 Z2.0000
G00 X10.9288 Y-8.4420
G01 F70.00
G01 Z-0.0600
G01 F120.00
G01 X9.0688 Y-8.4420
G01 X9.0688 Y-7.9487
G01 X9.1288 Y-7.9487
G01 X9.1288 Y-8.3120
G01 X9.1293 Y-8.3206
G01 X9.1313 Y-8.3307
G01 X9.1348 Y-8.3404
G01 X9.1397 Y-8.3494
G01 X9.1464 Y-8.3584
G01 X9.1544 Y-8.3661
G01 X9.1628 Y-8.3720
G01 X9.1720 Y-8.3767
G01 X9.1818 Y-8.3799
G01 X9.1902 Y-8.3815
G01 X9.1988 Y-8.3820
G01 X10.7988 Y-8.3820
G01 X10.8116 Y-8.3808
G01 X10.8232 Y-8.3776
G01 X10.8348 Y-8.3720
G01 X10.8445 Y-8.3650
G01 X10.8529 Y-8.3564
G01 X10.8597 Y-8.3465
G01 X10.8650 Y-8.3348
G01 X10.8679 Y-8.3231
G01 X10.8688 Y-8.3120
G01 X10.8688 Y-7.9486
G01 X10.9288 Y-7.9486
G01 X10.9288 Y-8.4420
G00 Z2.0000
G00 X9.7121 Y-6.8820
G01 F70.00
G01 Z-0.0600
G01 F120.00
G01 X9.7121 Y-6.9420
G01 X9.1971 Y-6.9420
G01 X9.1868 Y-6.9430
G01 X9.1760 Y-6.9458
G01 X9.1658 Y-6.9503
G01 X9.1564 Y-6.9563
G01 X9.1458 Y-6.9663
G01 X9.1371 Y-6.9790
G01 X9.1316 Y-6.9925
G01 X9.1289 Y-7.0077
G01 X9.1288 Y-7.3754
G01 X9.0688 Y-7.3754
G01 X9.0688 Y-6.8820
G01 X9.7121 Y-6.8820
G00 Z2.0000
G00 X9.1288 Y-10.1641
G01 F70.00
G01 Z-0.0600
G01 F120.00
G01 X9.0659 Y-10.2085
G01 X9.0064 Y-10.2548
G01 X8.9468 Y-10.3062
G01 X8.8897 Y-10.3606
G01 X8.8378 Y-10.4152
G01 X8.7875 Y-10.4735
G01 X8.7391 Y-10.5356
G01 X8.6957 Y-10.5973
G01 X8.6545 Y-10.6624
G01 X8.6157 Y-10.7309
G01 X8.5818 Y-10.7982
G01 X8.5513 Y-10.8671
G01 X8.5229 Y-10.9406
G01 X8.4982 Y-11.0154
G01 X8.4782 Y-11.0880
G01 X8.4616 Y-11.1615
G01 X8.4479 Y-11.2408
G01 X8.4387 Y-11.3156
G01 X8.4331 Y-11.3907
G01 X8.4311 Y-11.4695
G01 X8.4331 Y-11.5483
G01 X8.4387 Y-11.6234
G01 X8.4481 Y-11.6999
G01 X8.4613 Y-11.7758
G01 X8.4778 Y-11.8493
G01 X8.4987 Y-11.9252
G01 X8.5235 Y-12.0000
G01 X8.5506 Y-12.0703
G01 X8.5818 Y-12.1408
G01 X8.6173 Y-12.2111
G01 X8.6545 Y-12.2766
G01 X8.6957 Y-12.3417
G01 X8.7411 Y-12.4061
G01 X8.7875 Y-12.4655
G01 X8.8367 Y-12.5226
G01 X8.8922 Y-12.5809
G01 X8.9468 Y-12.6328
G01 X9.0038 Y-12.6820
G01 X9.0659 Y-12.7305
G01 X9.1303 Y-12.7758
G01 X9.1940 Y-12.8161
G01 X9.2595 Y-12.8533
G01 X9.3298 Y-12.8888
G01 X9.4003 Y-12.9200
G01 X9.4706 Y-12.9471
G01 X9.5454 Y-12.9719
G01 X9.6196 Y-12.9924
G01 X9.6948 Y-13.0093
G01 X9.7707 Y-13.0225
G01 X9.8472 Y-13.0319
G01 X9.9241 Y-13.0376
G01 X10.0011 Y-13.0395
G01 X10.0781 Y-13.0376
G01 X10.1567 Y-13.0318
G01 X10.2332 Y-13.0222
G01 X10.3074 Y-13.0093
G01 X10.3809 Y-12.9928
G01 X10.4568 Y-12.9719
G01 X10.5284 Y-12.9483
G01 X10.6019 Y-12.9200
G01 X10.6724 Y-12.8888
G01 X10.7412 Y-12.8541
G01 X10.8082 Y-12.8161
G01 X10.8733 Y-12.7749
G01 X10.9363 Y-12.7305
G01 X10.9971 Y-12.6831
G01 X11.0554 Y-12.6328
G01 X11.1113 Y-12.5797
G01 X11.1644 Y-12.5238
G01 X11.2147 Y-12.4655
G01 X11.2631 Y-12.4034
G01 X11.3065 Y-12.3417
G01 X11.3477 Y-12.2766
G01 X11.3857 Y-12.2096
G01 X11.4211 Y-12.1392
G01 X11.4516 Y-12.0703
G01 X11.4799 Y-11.9968
G01 X11.5040 Y-11.9236
G01 X11.5240 Y-11.8510
G01 X11.5378 Y-11.7896
G01 X12.7291 Y-11.7896
G01 X12.7337 Y-11.8097
G01 X12.7477 Y-11.8603
G01 X12.7639 Y-11.9094
G01 X12.7825 Y-11.9576
G01 X12.8049 Y-12.0079
G01 X12.8277 Y-12.0533
G01 X12.8541 Y-12.0997
G01 X12.8817 Y-12.1434
G01 X12.9120 Y-12.1863
G01 X12.9443 Y-12.2277
G01 X12.9774 Y-12.2662
G01 X13.0160 Y-12.3067
G01 X13.0528 Y-12.3417
G01 X13.0933 Y-12.3766
G01 X13.1340 Y-12.4083
G01 X13.1769 Y-12.4386
G01 X13.2213 Y-12.4667
G01 X13.2655 Y-12.4917
G01 X13.3155 Y-12.5169
G01 X13.3619 Y-12.5375
G01 X13.4109 Y-12.5564
G01 X13.4608 Y-12.5728
G01 X13.5097 Y-12.5864
G01 X13.5643 Y-12.5987
G01 X13.6144 Y-12.6073
G01 X13.6665 Y-12.6137
G01 X13.7189 Y-12.6176
G01 X13.7697 Y-12.6189
G01 X13.8256 Y-12.6175
G01 X13.8763 Y-12.6137
G01 X13.9284 Y-12.6073
G01 X13.9801 Y-12.5983
G01 X14.0297 Y-12.5872
G01 X14.0836 Y-12.5723
G01 X14.1319 Y-12.5564
G01 X14.1809 Y-12.5375
G01 X14.2289 Y-12.5162
G01 X14.2743 Y-12.4933
G01 X14.3230 Y-12.4658
G01 X14.3659 Y-12.4386
G01 X14.4088 Y-12.4083
G01 X14.4502 Y-12.3760
G01 X14.4887 Y-12.3429
G01 X14.5280 Y-12.3055
G01 X14.5642 Y-12.2675
G01 X14.5974 Y-12.2290
G01 X14.6318 Y-12.1849
G01 X14.6611 Y-12.1434
G01 X14.6892 Y-12.0990
G01 X14.7151 Y-12.0533
G01 X14.7379 Y-12.0079
G01 X14.7606 Y-11.9568
G01 X14.7789 Y-11.9094
G01 X14.7953 Y-11.8595
G01 X14.8093 Y-11.8089
G01 X14.8208 Y-11.7576
G01 X14.8298 Y-11.7059
G01 X14.8362 Y-11.6538
G01 X14.8401 Y-11.6014
G01 X14.8414 Y-11.5489
G01 X14.8401 Y-11.4964
G01 X14.8361 Y-11.4423
G01 X14.8298 Y-11.3919
G01 X14.8205 Y-11.3385
G01 X14.8089 Y-11.2872
G01 X14.7953 Y-11.2383
G01 X14.7794 Y-11.1901
G01 X14.7600 Y-11.1394
G01 X14.7387 Y-11.0914
G01 X14.7151 Y-11.0445
G01 X14.6892 Y-10.9988
G01 X14.6611 Y-10.9544
G01 X14.6308 Y-10.9115
G01 X14.5985 Y-10.8701
G01 X14.5642 Y-10.8303
G01 X14.5280 Y-10.7923
G01 X14.4900 Y-10.7561
G01 X14.4502 Y-10.7218
G01 X14.4074 Y-10.6885
G01 X14.3659 Y-10.6592
G01 X14.3200 Y-10.6303
G01 X14.2758 Y-10.6052
G01 X14.2304 Y-10.5824
G01 X14.1825 Y-10.5610
G01 X14.1319 Y-10.5414
G01 X14.0820 Y-10.5250
G01 X14.0314 Y-10.5110
G01 X13.9810 Y-10.4996
G01 X13.9284 Y-10.4905
G01 X13.8780 Y-10.4842
G01 X13.8222 Y-10.4801
G01 X13.7714 Y-10.4789
G01 X13.7189 Y-10.4802
G01 X13.6665 Y-10.4841
G01 X13.6144 Y-10.4905
G01 X13.5627 Y-10.4995
G01 X13.5114 Y-10.5110
G01 X13.4608 Y-10.5250
G01 X13.4126 Y-10.5409
G01 X13.3603 Y-10.5610
G01 X13.3139 Y-10.5816
G01 X13.2670 Y-10.6052
G01 X13.2213 Y-10.6311
G01 X13.1769 Y-10.6592
G01 X13.1340 Y-10.6895
G01 X13.0939 Y-10.7207
G01 X13.0516 Y-10.7573
G01 X13.0148 Y-10.7923
G01 X12.9786 Y-10.8303
G01 X12.9443 Y-10.8701
G01 X12.9120 Y-10.9115
G01 X12.8817 Y-10.9544
G01 X12.8545 Y-10.9973
G01 X12.8277 Y-11.0445
G01 X12.8049 Y-11.0899
G01 X12.7790 Y-11.1494
G01 X11.5378 Y-11.1494
G01 X11.5240 Y-11.0880
G01 X11.5035 Y-11.0138
G01 X11.4793 Y-10.9406
G01 X11.4516 Y-10.8687
G01 X11.4204 Y-10.7982
G01 X11.3857 Y-10.7294
G01 X11.3477 Y-10.6624
G01 X11.3065 Y-10.5973
G01 X11.2621 Y-10.5343
G01 X11.2147 Y-10.4735
G01 X11.1644 Y-10.4152
G01 X11.1113 Y-10.3593
G01 X11.0554 Y-10.3062
G01 X10.9971 Y-10.2559
G01 X10.9363 Y-10.2085
G01 X10.8688 Y-10.1612
G01 X10.8688 Y-8.9094
G01 X10.8676 Y-8.8992
G01 X10.8647 Y-8.8884
G01 X10.8605 Y-8.8790
G01 X10.8545 Y-8.8696
G01 X10.8471 Y-8.8613
G01 X10.8384 Y-8.8543
G01 X10.8295 Y-8.8491
G01 X10.8191 Y-8.8450
G01 X10.8091 Y-8.8428
G01 X10.7988 Y-8.8420
G01 X9.1979 Y-8.8420
G01 X9.1868 Y-8.8430
G01 X9.1760 Y-8.8458
G01 X9.1658 Y-8.8503
G01 X9.1557 Y-8.8568
G01 X9.1447 Y-8.8676
G01 X9.1363 Y-8.8805
G01 X9.1309 Y-8.8950
G01 X9.1288 Y-8.9103
G01 X9.1288 Y-10.1641
G00 Z2.0000
G00 X6.4997 Y-11.9446
G01 F70.00
G01 Z-0.0600
G01 F120.00
G01 X6.4997 Y-12.8339
G01 X6.4984 Y-12.8415
G01 X6.4946 Y-12.8472
G01 X6.4889 Y-12.8510
G01 X6.4822 Y-12.8523
G01 X6.4755 Y-12.8510
G01 X6.4698 Y-12.8472
G01 X6.4660 Y-12.8415
G01 X6.4647 Y-12.8339
G01 X6.4647 Y-11.9446
G01 X6.4639 Y-11.9344
G01 X6.4616 Y-11.9243
G01 X6.4583 Y-11.9155
G01 X6.4543 Y-11.9079
G01 X6.4488 Y-11.9002
G01 X6.4429 Y-11.8939
G01 X6.4357 Y-11.8879
G01 X6.4284 Y-11.8833
G01 X6.4206 Y-11.8796
G01 X6.4117 Y-11.8767
G01 X6.3955 Y-11.8746
G01 X6.1872 Y-11.8745
G01 X6.1799 Y-11.8721
G01 X6.1743 Y-11.8668
G01 X6.1716 Y-11.8597
G01 X6.1721 Y-11.8520
G01 X6.1748 Y-11.8467
G01 X6.1785 Y-11.8430
G01 X6.1838 Y-11.8403
G01 X6.1898 Y-11.8396
G01 X6.7747 Y-11.8396
G01 X6.7807 Y-11.8403
G01 X6.7860 Y-11.8430
G01 X6.7897 Y-11.8467
G01 X6.7924 Y-11.8520
G01 X6.7929 Y-11.8597
G01 X6.7902 Y-11.8668
G01 X6.7846 Y-11.8721
G01 X6.7773 Y-11.8745
G01 X6.5689 Y-11.8746
G01 X6.5586 Y-11.8755
G01 X6.5486 Y-11.8779
G01 X6.5383 Y-11.8821
G01 X6.5287 Y-11.8879
G01 X6.5202 Y-11.8951
G01 X6.5135 Y-11.9029
G01 X6.5076 Y-11.9124
G01 X6.5033 Y-11.9227
G01 X6.5006 Y-11.9335
G01 X6.4997 Y-11.9446
G00 Z2.0000
G00 X5.2425 Y-11.8580
G01 F70.00
G01 Z-0.0600
G01 F120.00
G01 X5.2432 Y-11.8520
G01 X5.2454 Y-11.8474
G01 X5.2489 Y-11.8436
G01 X5.2541 Y-11.8406
G01 X5.2591 Y-11.8396
G01 X5.2651 Y-11.8403
G01 X5.2697 Y-11.8425
G01 X5.2741 Y-11.8467
G01 X5.7005 Y-12.5570
G01 X5.7056 Y-12.5639
G01 X5.7115 Y-12.5701
G01 X5.7189 Y-12.5760
G01 X5.7262 Y-12.5805
G01 X5.7348 Y-12.5844
G01 X5.7430 Y-12.5869
G01 X5.7515 Y-12.5884
G01 X5.7600 Y-12.5888
G01 X5.7728 Y-12.5874
G01 X5.7844 Y-12.5841
G01 X5.7952 Y-12.5788
G01 X5.8055 Y-12.5712
G01 X5.8143 Y-12.5618
G01 X5.8209 Y-12.5518
G01 X5.8259 Y-12.5399
G01 X5.8285 Y-12.5282
G01 X5.8292 Y-12.5188
G01 X5.8292 Y-11.8562
G01 X5.8302 Y-11.8512
G01 X5.8332 Y-11.8460
G01 X5.8377 Y-11.8421
G01 X5.8424 Y-11.8401
G01 X5.8484 Y-11.8397
G01 X5.8534 Y-11.8409
G01 X5.8585 Y-11.8441
G01 X5.8617 Y-11.8481
G01 X5.8637 Y-11.8528
G01 X5.8642 Y-11.8580
G01 X5.8642 Y-12.8339
G01 X5.8637 Y-12.8391
G01 X5.8622 Y-12.8431
G01 X5.8591 Y-12.8472
G01 X5.8557 Y-12.8498
G01 X5.8493 Y-12.8521
G01 X5.8424 Y-12.8518
G01 X5.8363 Y-12.8489
G01 X5.8312 Y-12.8431
G01 X5.4052 Y-12.1335
G01 X5.4000 Y-12.1267
G01 X5.3939 Y-12.1207
G01 X5.3805 Y-12.1114
G01 X5.3654 Y-12.1054
G01 X5.3569 Y-12.1038
G01 X5.3484 Y-12.1031
G01 X5.3356 Y-12.1042
G01 X5.3239 Y-12.1072
G01 X5.3123 Y-12.1127
G01 X5.3018 Y-12.1201
G01 X5.2929 Y-12.1294
G01 X5.2858 Y-12.1401
G01 X5.2808 Y-12.1520
G01 X5.2782 Y-12.1637
G01 X5.2775 Y-12.1731
G01 X5.2775 Y-12.8357
G01 X5.2762 Y-12.8415
G01 X5.2735 Y-12.8459
G01 X5.2690 Y-12.8498
G01 X5.2643 Y-12.8518
G01 X5.2583 Y-12.8522
G01 X5.2533 Y-12.8510
G01 X5.2482 Y-12.8478
G01 X5.2450 Y-12.8438
G01 X5.2430 Y-12.8391
G01 X5.2425 Y-12.8339
G01 X5.2425 Y-11.8580
G00 Z2.0000
G00 X4.7197 Y-12.4857
G01 F70.00
G01 Z-0.0600
G01 F120.00
G01 X4.3809 Y-12.4858
G01 X4.3716 Y-12.4866
G01 X4.3624 Y-12.4887
G01 X4.3536 Y-12.4921
G01 X4.3446 Y-12.4970
G01 X4.3364 Y-12.5032
G01 X4.3286 Y-12.5112
G01 X4.3227 Y-12.5196
G01 X4.3181 Y-12.5288
G01 X4.2002 Y-12.8425
G01 X4.1973 Y-12.8468
G01 X4.1940 Y-12.8495
G01 X4.1902 Y-12.8514
G01 X4.1851 Y-12.8523
G01 X4.1808 Y-12.8519
G01 X4.1760 Y-12.8501
G01 X4.1725 Y-12.8476
G01 X4.1698 Y-12.8443
G01 X4.1679 Y-12.8405
G01 X4.1670 Y-12.8363
G01 X4.1672 Y-12.8320
G01 X4.1684 Y-12.8278
G01 X4.5345 Y-11.8517
G01 X4.5363 Y-11.8478
G01 X4.5390 Y-11.8445
G01 X4.5425 Y-11.8419
G01 X4.5465 Y-11.8402
G01 X4.5534 Y-11.8397
G01 X4.5591 Y-11.8415
G01 X4.5645 Y-11.8457
G01 X4.5679 Y-11.8518
G01 X4.9339 Y-12.8278
G01 X4.9353 Y-12.8345
G01 X4.9344 Y-12.8405
G01 X4.9315 Y-12.8457
G01 X4.9263 Y-12.8501
G01 X4.9198 Y-12.8522
G01 X4.9121 Y-12.8514
G01 X4.9062 Y-12.8480
G01 X4.9017 Y-12.8417
G01 X4.7852 Y-12.5312
G01 X4.7805 Y-12.5211
G01 X4.7758 Y-12.5139
G01 X4.7697 Y-12.5068
G01 X4.7626 Y-12.5005
G01 X4.7548 Y-12.4952
G01 X4.7464 Y-12.4910
G01 X4.7375 Y-12.4880
G01 X4.7282 Y-12.4863
G01 X4.7197 Y-12.4857
G00 Z2.0000
G00 X4.4483 Y-12.4507
G01 F70.00
G01 Z-0.0600
G01 F120.00
G01 X4.6540 Y-12.4507
G01 X4.6668 Y-12.4495
G01 X4.6760 Y-12.4471
G01 X4.6848 Y-12.4435
G01 X4.6937 Y-12.4383
G01 X4.7011 Y-12.4325
G01 X4.7076 Y-12.4257
G01 X4.7132 Y-12.4180
G01 X4.7177 Y-12.4097
G01 X4.7210 Y-12.4008
G01 X4.7233 Y-12.3908
G01 X4.7240 Y-12.3796
G01 X4.7230 Y-12.3685
G01 X4.7204 Y-12.3585
G01 X4.6158 Y-12.0795
G01 X4.6083 Y-12.0660
G01 X4.5981 Y-12.0545
G01 X4.5856 Y-12.0455
G01 X4.5715 Y-12.0394
G01 X4.5597 Y-12.0369
G01 X4.5478 Y-12.0365
G01 X4.5367 Y-12.0379
G01 X4.5253 Y-12.0414
G01 X4.5145 Y-12.0468
G01 X4.5056 Y-12.0533
G01 X4.4977 Y-12.0612
G01 X4.4908 Y-12.0710
G01 X4.4856 Y-12.0818
G01 X4.3812 Y-12.3610
G01 X4.3784 Y-12.3770
G01 X4.3795 Y-12.3933
G01 X4.3843 Y-12.4089
G01 X4.3926 Y-12.4230
G01 X4.4039 Y-12.4347
G01 X4.4176 Y-12.4435
G01 X4.4330 Y-12.4490
G01 X4.4483 Y-12.4507
G00 Z2.0000
G00 X3.7311 Y-11.4695
G01 F70.00
G01 Z-0.0600
G01 F120.00
G01 X3.7290 Y-11.5544
G01 X3.7227 Y-11.6391
G01 X3.7124 Y-11.7233
G01 X3.6978 Y-11.8070
G01 X3.6792 Y-11.8899
G01 X3.6566 Y-11.9717
G01 X3.6300 Y-12.0523
G01 X3.5994 Y-12.1315
G01 X3.5650 Y-12.2092
G01 X3.5268 Y-12.2850
G01 X3.4850 Y-12.3589
G01 X3.4395 Y-12.4306
G01 X3.3906 Y-12.5000
G01 X3.3384 Y-12.5670
G01 X3.2829 Y-12.6313
G01 X3.2244 Y-12.6928
G01 X3.1629 Y-12.7513
G01 X3.0986 Y-12.8068
G01 X3.0316 Y-12.8590
G01 X2.9622 Y-12.9079
G01 X2.8905 Y-12.9534
G01 X2.8166 Y-12.9952
G01 X2.7408 Y-13.0334
G01 X2.6631 Y-13.0678
G01 X2.5839 Y-13.0984
G01 X2.5033 Y-13.1250
G01 X2.4215 Y-13.1476
G01 X2.3386 Y-13.1662
G01 X2.2549 Y-13.1808
G01 X2.1707 Y-13.1911
G01 X2.0860 Y-13.1974
G01 X2.0011 Y-13.1995
G01 X1.9162 Y-13.1974
G01 X1.8315 Y-13.1911
G01 X1.7473 Y-13.1808
G01 X1.6636 Y-13.1662
G01 X1.5807 Y-13.1476
G01 X1.4989 Y-13.1250
G01 X1.4183 Y-13.0984
G01 X1.3391 Y-13.0678
G01 X1.2614 Y-13.0334
G01 X1.1856 Y-12.9952
G01 X1.1117 Y-12.9534
G01 X1.0400 Y-12.9079
G01 X0.9706 Y-12.8590
G01 X0.9036 Y-12.8068
G01 X0.8393 Y-12.7513
G01 X0.7778 Y-12.6928
G01 X0.7193 Y-12.6313
G01 X0.6638 Y-12.5670
G01 X0.6116 Y-12.5000
G01 X0.5627 Y-12.4306
G01 X0.5172 Y-12.3589
G01 X0.4754 Y-12.2850
G01 X0.4372 Y-12.2092
G01 X0.4028 Y-12.1315
G01 X0.3722 Y-12.0523
G01 X0.3456 Y-11.9717
G01 X0.3230 Y-11.8899
G01 X0.3044 Y-11.8070
G01 X0.2898 Y-11.7233
G01 X0.2795 Y-11.6391
G01 X0.2732 Y-11.5544
G01 X0.2711 Y-11.4695
G01 X0.2732 Y-11.3846
G01 X0.2795 Y-11.2999
G01 X0.2898 Y-11.2157
G01 X0.3044 Y-11.1320
G01 X0.3230 Y-11.0491
G01 X0.3456 Y-10.9673
G01 X0.3722 Y-10.8867
G01 X0.4028 Y-10.8075
G01 X0.4372 Y-10.7298
G01 X0.4754 Y-10.6540
G01 X0.5172 Y-10.5801
G01 X0.5627 Y-10.5084
G01 X0.6116 Y-10.4390
G01 X0.6638 Y-10.3720
G01 X0.7193 Y-10.3077
G01 X0.7778 Y-10.2462
G01 X0.8393 Y-10.1877
G01 X0.9036 Y-10.1322
G01 X0.9706 Y-10.0800
G01 X1.0288 Y-10.0383
G01 X1.0354 Y-10.0315
G01 X1.0414 Y-10.0231
G01 X1.0458 Y-10.0148
G01 X1.0490 Y-10.0059
G01 X1.0510 Y-9.9967
G01 X1.0518 Y-9.9864
G01 X1.0518 Y-8.7217
G01 X2.9118 Y-8.7217
G01 X2.9118 Y-9.9606
G01 X2.9126 Y-9.9709
G01 X2.9148 Y-9.9809
G01 X2.9185 Y-9.9905
G01 X2.9231 Y-9.9988
G01 X2.9288 Y-10.0063
G01 X2.9354 Y-10.0131
G01 X2.9429 Y-10.0188
G01 X2.9622 Y-10.0311
G01 X3.0316 Y-10.0800
G01 X3.0986 Y-10.1322
G01 X3.1629 Y-10.1877
G01 X3.2244 Y-10.2462
G01 X3.2829 Y-10.3077
G01 X3.3384 Y-10.3720
G01 X3.3906 Y-10.4390
G01 X3.4395 Y-10.5084
G01 X3.4850 Y-10.5801
G01 X3.5268 Y-10.6540
G01 X3.5650 Y-10.7298
G01 X3.5994 Y-10.8075
G01 X3.6300 Y-10.8867
G01 X3.6566 Y-10.9673
G01 X3.6792 Y-11.0491
G01 X3.6978 Y-11.1320
G01 X3.7124 Y-11.2157
G01 X3.7227 Y-11.2999
G01 X3.7290 Y-11.3846
G01 X3.7311 Y-11.4695
G00 Z2.0000
G00 X3.6611 Y-11.4695
G01 F70.00
G01 Z-0.0600
G01 F120.00
G01 X3.6591 Y-11.5510
G01 X3.6531 Y-11.6322
G01 X3.6431 Y-11.7131
G01 X3.6292 Y-11.7933
G01 X3.6113 Y-11.8728
G01 X3.5896 Y-11.9514
G01 X3.5640 Y-12.0287
G01 X3.5347 Y-12.1047
G01 X3.5017 Y-12.1792
G01 X3.4651 Y-12.2520
G01 X3.4249 Y-12.3229
G01 X3.3813 Y-12.3917
G01 X3.3344 Y-12.4583
G01 X3.2843 Y-12.5226
G01 X3.2310 Y-12.5843
G01 X3.1749 Y-12.6433
G01 X3.1159 Y-12.6994
G01 X3.0542 Y-12.7527
G01 X2.9899 Y-12.8028
G01 X2.9233 Y-12.8497
G01 X2.8545 Y-12.8933
G01 X2.7836 Y-12.9335
G01 X2.7108 Y-12.9701
G01 X2.6363 Y-13.0031
G01 X2.5603 Y-13.0324
G01 X2.4830 Y-13.0580
G01 X2.4044 Y-13.0797
G01 X2.3249 Y-13.0976
G01 X2.2447 Y-13.1115
G01 X2.1638 Y-13.1215
G01 X2.0826 Y-13.1275
G01 X2.0011 Y-13.1295
G01 X1.9196 Y-13.1275
G01 X1.8384 Y-13.1215
G01 X1.7575 Y-13.1115
G01 X1.6773 Y-13.0976
G01 X1.5978 Y-13.0797
G01 X1.5192 Y-13.0580
G01 X1.4419 Y-13.0324
G01 X1.3659 Y-13.0031
G01 X1.2914 Y-12.9701
G01 X1.2186 Y-12.9335
G01 X1.1477 Y-12.8933
G01 X1.0789 Y-12.8497
G01 X1.0123 Y-12.8028
G01 X0.9480 Y-12.7527
G01 X0.8863 Y-12.6994
G01 X0.8273 Y-12.6433
G01 X0.7712 Y-12.5843
G01 X0.7179 Y-12.5226
G01 X0.6678 Y-12.4583
G01 X0.6209 Y-12.3917
G01 X0.5773 Y-12.3229
G01 X0.5371 Y-12.2520
G01 X0.5005 Y-12.1792
G01 X0.4675 Y-12.1047
G01 X0.4382 Y-12.0287
G01 X0.4126 Y-11.9514
G01 X0.3909 Y-11.8728
G01 X0.3730 Y-11.7933
G01 X0.3591 Y-11.7131
G01 X0.3491 Y-11.6322
G01 X0.3431 Y-11.5510
G01 X0.3411 Y-11.4695
G01 X0.3431 Y-11.3880
G01 X0.3491 Y-11.3068
G01 X0.3591 Y-11.2259
G01 X0.3730 Y-11.1457
G01 X0.3909 Y-11.0662
G01 X0.4126 Y-10.9876
G01 X0.4382 Y-10.9103
G01 X0.4675 Y-10.8343
G01 X0.5005 Y-10.7598
G01 X0.5371 Y-10.6870
G01 X0.5773 Y-10.6161
G01 X0.6209 Y-10.5473
G01 X0.6678 Y-10.4807
G01 X0.7179 Y-10.4164
G01 X0.7712 Y-10.3547
G01 X0.8273 Y-10.2957
G01 X0.8863 Y-10.2396
G01 X0.9480 Y-10.1863
G01 X1.0123 Y-10.1362
G01 X1.0652 Y-10.0989
G01 X1.0783 Y-10.0878
G01 X1.0911 Y-10.0739
G01 X1.1010 Y-10.0599
G01 X1.1098 Y-10.0432
G01 X1.1158 Y-10.0271
G01 X1.1203 Y-10.0070
G01 X1.1218 Y-9.9864
G01 X1.1218 Y-8.7917
G01 X2.8418 Y-8.7917
G01 X2.8418 Y-9.9606
G01 X2.8433 Y-9.9812
G01 X2.8478 Y-10.0013
G01 X2.8545 Y-10.0189
G01 X2.8626 Y-10.0341
G01 X2.8736 Y-10.0494
G01 X2.8865 Y-10.0632
G01 X2.9012 Y-10.0751
G01 X2.9233 Y-10.0893
G01 X2.9899 Y-10.1362
G01 X3.0542 Y-10.1863
G01 X3.1159 Y-10.2396
G01 X3.1749 Y-10.2957
G01 X3.2310 Y-10.3547
G01 X3.2843 Y-10.4164
G01 X3.3344 Y-10.4807
G01 X3.3813 Y-10.5473
G01 X3.4249 Y-10.6161
G01 X3.4651 Y-10.6870
G01 X3.5017 Y-10.7598
G01 X3.5347 Y-10.8343
G01 X3.5640 Y-10.9103
G01 X3.5896 Y-10.9876
G01 X3.6113 Y-11.0662
G01 X3.6292 Y-11.1457
G01 X3.6431 Y-11.2259
G01 X3.6531 Y-11.3068
G01 X3.6591 Y-11.3880
G01 X3.6611 Y-11.4695
G00 Z2.0000
G00 X2.7518 Y-10.0909
G01 F70.00
G01 Z-0.0600
G01 F120.00
G01 X2.7518 Y-8.9500
G01 X2.7497 Y-8.9347
G01 X2.7443 Y-8.9202
G01 X2.7359 Y-8.9073
G01 X2.7249 Y-8.8965
G01 X2.7148 Y-8.8900
G01 X2.7046 Y-8.8855
G01 X2.6938 Y-8.8827
G01 X2.6827 Y-8.8817
G01 X1.2809 Y-8.8817
G01 X1.2656 Y-8.8836
G01 X1.2511 Y-8.8888
G01 X1.2374 Y-8.8976
G01 X1.2266 Y-8.9086
G01 X1.2205 Y-8.9179
G01 X1.2159 Y-8.9281
G01 X1.2128 Y-8.9397
G01 X1.2118 Y-8.9508
G01 X1.2118 Y-10.1127
G01 X1.1932 Y-10.1233
G01 X1.1296 Y-10.1636
G01 X1.0652 Y-10.2090
G01 X1.0051 Y-10.2559
G01 X0.9480 Y-10.3051
G01 X0.8916 Y-10.3587
G01 X0.8367 Y-10.4164
G01 X0.7875 Y-10.4735
G01 X0.7411 Y-10.5329
G01 X0.6957 Y-10.5973
G01 X0.6540 Y-10.6631
G01 X0.6165 Y-10.7294
G01 X0.5826 Y-10.7967
G01 X0.5506 Y-10.8687
G01 X0.5223 Y-10.9422
G01 X0.4987 Y-11.0138
G01 X0.4786 Y-11.0864
G01 X0.4613 Y-11.1632
G01 X0.4479 Y-11.2408
G01 X0.4387 Y-11.3156
G01 X0.4331 Y-11.3907
G01 X0.4311 Y-11.4704
G01 X0.4330 Y-11.5465
G01 X0.4385 Y-11.6217
G01 X0.4481 Y-11.6999
G01 X0.4616 Y-11.7775
G01 X0.4782 Y-11.8510
G01 X0.4982 Y-11.9236
G01 X0.5229 Y-11.9984
G01 X0.5513 Y-12.0719
G01 X0.5818 Y-12.1408
G01 X0.6157 Y-12.2081
G01 X0.6545 Y-12.2766
G01 X0.6967 Y-12.3432
G01 X0.7401 Y-12.4047
G01 X0.7864 Y-12.4642
G01 X0.8378 Y-12.5238
G01 X0.8922 Y-12.5809
G01 X0.9468 Y-12.6328
G01 X1.0038 Y-12.6820
G01 X1.0659 Y-12.7305
G01 X1.1303 Y-12.7758
G01 X1.1940 Y-12.8161
G01 X1.2610 Y-12.8541
G01 X1.3298 Y-12.8888
G01 X1.4003 Y-12.9200
G01 X1.4722 Y-12.9477
G01 X1.5454 Y-12.9719
G01 X1.6196 Y-12.9924
G01 X1.6948 Y-13.0093
G01 X1.7707 Y-13.0225
G01 X1.8472 Y-13.0319
G01 X1.9241 Y-13.0376
G01 X2.0011 Y-13.0395
G01 X2.0781 Y-13.0376
G01 X2.1550 Y-13.0319
G01 X2.2315 Y-13.0225
G01 X2.3074 Y-13.0093
G01 X2.3826 Y-12.9924
G01 X2.4568 Y-12.9719
G01 X2.5300 Y-12.9477
G01 X2.6019 Y-12.9200
G01 X2.6724 Y-12.8888
G01 X2.7412 Y-12.8541
G01 X2.8082 Y-12.8161
G01 X2.8733 Y-12.7749
G01 X2.9363 Y-12.7305
G01 X2.9971 Y-12.6831
G01 X3.0554 Y-12.6328
G01 X3.1113 Y-12.5797
G01 X3.1644 Y-12.5238
G01 X3.2147 Y-12.4655
G01 X3.2621 Y-12.4047
G01 X3.3065 Y-12.3417
G01 X3.3477 Y-12.2766
G01 X3.3857 Y-12.2096
G01 X3.4204 Y-12.1408
G01 X3.4516 Y-12.0703
G01 X3.4793 Y-11.9984
G01 X3.5035 Y-11.9252
G01 X3.5240 Y-11.8510
G01 X3.5409 Y-11.7758
G01 X3.5541 Y-11.6999
G01 X3.5635 Y-11.6234
G01 X3.5692 Y-11.5465
G01 X3.5711 Y-11.4695
G01 X3.5692 Y-11.3925
G01 X3.5635 Y-11.3156
G01 X3.5541 Y-11.2391
G01 X3.5409 Y-11.1632
G01 X3.5240 Y-11.0880
G01 X3.5035 Y-11.0138
G01 X3.4793 Y-10.9406
G01 X3.4516 Y-10.8687
G01 X3.4204 Y-10.7982
G01 X3.3857 Y-10.7294
G01 X3.3477 Y-10.6624
G01 X3.3065 Y-10.5973
G01 X3.2621 Y-10.5343
G01 X3.2147 Y-10.4735
G01 X3.1644 Y-10.4152
G01 X3.1113 Y-10.3593
G01 X3.0554 Y-10.3062
G01 X2.9971 Y-10.2559
G01 X2.9363 Y-10.2085
G01 X2.8733 Y-10.1641
G01 X2.8082 Y-10.1229
G01 X2.7518 Y-10.0909
G00 Z2.0000
G00 X2.9118 Y-8.5817
G01 F70.00
G01 Z-0.0600
G01 F120.00
G01 X1.0518 Y-8.5817
G01 X1.0518 Y-7.9884
G01 X1.2118 Y-7.9884
G01 X1.2118 Y-8.3517
G01 X1.2127 Y-8.3628
G01 X1.2159 Y-8.3753
G01 X1.2209 Y-8.3862
G01 X1.2277 Y-8.3961
G01 X1.2361 Y-8.4047
G01 X1.2466 Y-8.4122
G01 X1.2574 Y-8.4173
G01 X1.2690 Y-8.4205
G01 X1.2818 Y-8.4217
G01 X2.6818 Y-8.4217
G01 X2.6912 Y-8.4211
G01 X2.6996 Y-8.4194
G01 X2.7094 Y-8.4160
G01 X2.7185 Y-8.4113
G01 X2.7269 Y-8.4053
G01 X2.7342 Y-8.3981
G01 X2.7405 Y-8.3899
G01 X2.7454 Y-8.3809
G01 X2.7493 Y-8.3704
G01 X2.7513 Y-8.3603
G01 X2.7518 Y-8.3517
G01 X2.7518 Y-7.9884
G01 X2.9118 Y-7.9884
G01 X2.9118 Y-8.5817
G00 Z2.0000
G00 X2.8418 Y-8.5117
G01 F70.00
G01 Z-0.0600
G01 F120.00
G01 X1.1218 Y-8.5117
G01 X1.1218 Y-8.0584
G01 X1.1418 Y-8.0584
G01 X1.1418 Y-8.3551
G01 X1.1427 Y-8.3671
G01 X1.1445 Y-8.3790
G01 X1.1506 Y-8.4005
G01 X1.1592 Y-8.4192
G01 X1.1714 Y-8.4378
G01 X1.1865 Y-8.4543
G01 X1.2026 Y-8.4671
G01 X1.2204 Y-8.4775
G01 X1.2412 Y-8.4857
G01 X1.2613 Y-8.4902
G01 X1.2818 Y-8.4917
G01 X2.6818 Y-8.4917
G01 X2.7006 Y-8.4904
G01 X2.7191 Y-8.4866
G01 X2.7370 Y-8.4804
G01 X2.7523 Y-8.4727
G01 X2.7666 Y-8.4631
G01 X2.7808 Y-8.4507
G01 X2.7922 Y-8.4378
G01 X2.8028 Y-8.4222
G01 X2.8105 Y-8.4069
G01 X2.8163 Y-8.3907
G01 X2.8203 Y-8.3722
G01 X2.8218 Y-8.3534
G01 X2.8218 Y-8.0584
G01 X2.8418 Y-8.0584
G01 X2.8418 Y-8.5117
G00 Z2.0000
G00 X2.8041 Y-6.8917
G01 F70.00
G01 Z-0.0600
G01 F120.00
G01 X2.8418 Y-6.9266
G01 X2.8418 Y-7.3451
G01 X2.8218 Y-7.3451
G01 X2.8218 Y-7.0500
G01 X2.8197 Y-7.0278
G01 X2.8172 Y-7.0160
G01 X2.8136 Y-7.0045
G01 X2.8091 Y-6.9934
G01 X2.8036 Y-6.9827
G01 X2.7972 Y-6.9725
G01 X2.7900 Y-6.9629
G01 X2.7820 Y-6.9539
G01 X2.7732 Y-6.9457
G01 X2.7552 Y-6.9325
G01 X2.7354 Y-6.9224
G01 X2.7141 Y-6.9155
G01 X2.6921 Y-6.9121
G01 X2.3384 Y-6.9117
G01 X2.3384 Y-6.8917
G01 X2.8041 Y-6.8917
G00 Z2.0000
G00 X2.8321 Y-6.8217
G01 F70.00
G01 Z-0.0600
G01 F120.00
G01 X2.8777 Y-6.8650
G01 X2.9118 Y-6.8945
G01 X2.9118 Y-7.4151
G01 X2.7518 Y-7.4151
G01 X2.7518 Y-7.0491
G01 X2.7505 Y-7.0380
G01 X2.7471 Y-7.0265
G01 X2.7423 Y-7.0165
G01 X2.7359 Y-7.0073
G01 X2.7255 Y-6.9970
G01 X2.7133 Y-6.9892
G01 X2.6996 Y-6.9840
G01 X2.6852 Y-6.9818
G01 X2.2684 Y-6.9817
G01 X2.2684 Y-6.8217
G01 X2.8321 Y-6.8217
G00 Z2.0000
G00 X1.6951 Y-6.8217
G01 F70.00
G01 Z-0.0600
G01 F120.00
G01 X1.6951 Y-6.9817
G01 X1.2792 Y-6.9817
G01 X1.2673 Y-6.9832
G01 X1.2550 Y-6.9870
G01 X1.2436 Y-6.9930
G01 X1.2342 Y-7.0004
G01 X1.2251 Y-7.0107
G01 X1.2182 Y-7.0225
G01 X1.2137 Y-7.0355
G01 X1.2119 Y-7.0483
G01 X1.2118 Y-7.4151
G01 X1.0518 Y-7.4151
G01 X1.0518 Y-6.8217
G01 X1.6951 Y-6.8217
G00 Z2.0000
G00 X1.6251 Y-6.8917
G01 F70.00
G01 Z-0.0600
G01 F120.00
G01 X1.6251 Y-6.9117
G01 X1.2818 Y-6.9117
G01 X1.2647 Y-6.9128
G01 X1.2428 Y-6.9172
G01 X1.2235 Y-6.9244
G01 X1.2055 Y-6.9343
G01 X1.1878 Y-6.9480
G01 X1.1792 Y-6.9564
G01 X1.1714 Y-6.9656
G01 X1.1592 Y-6.9842
G01 X1.1538 Y-6.9950
G01 X1.1494 Y-7.0062
G01 X1.1460 Y-7.0177
G01 X1.1436 Y-7.0295
G01 X1.1418 Y-7.0517
G01 X1.1418 Y-7.3451
G01 X1.1218 Y-7.3451
G01 X1.1218 Y-6.8917
G01 X1.6251 Y-6.8917
G00 Z2.0000
G00 X1.1418 Y-10.0730
G01 F70.00
G01 Z-0.0600
G01 F120.00
G01 X1.0900 Y-10.1059
G01 X1.0242 Y-10.1522
G01 X0.9607 Y-10.2018
G01 X0.8997 Y-10.2543
G01 X0.8414 Y-10.3098
G01 X0.7859 Y-10.3681
G01 X0.7334 Y-10.4291
G01 X0.6838 Y-10.4926
G01 X0.6375 Y-10.5584
G01 X0.5944 Y-10.6264
G01 X0.5547 Y-10.6964
G01 X0.5186 Y-10.7683
G01 X0.4859 Y-10.8419
G01 X0.4570 Y-10.9170
G01 X0.4317 Y-10.9934
G01 X0.4102 Y-11.0710
G01 X0.3926 Y-11.1496
G01 X0.3789 Y-11.2289
G01 X0.3690 Y-11.3088
G01 X0.3631 Y-11.3890
G01 X0.3611 Y-11.4695
G01 X0.3631 Y-11.5500
G01 X0.3690 Y-11.6302
G01 X0.3789 Y-11.7101
G01 X0.3926 Y-11.7894
G01 X0.4102 Y-11.8680
G01 X0.4317 Y-11.9456
G01 X0.4570 Y-12.0220
G01 X0.4859 Y-12.0971
G01 X0.5186 Y-12.1707
G01 X0.5547 Y-12.2426
G01 X0.5944 Y-12.3126
G01 X0.6375 Y-12.3806
G01 X0.6838 Y-12.4464
G01 X0.7334 Y-12.5099
G01 X0.7859 Y-12.5709
G01 X0.8414 Y-12.6292
G01 X0.8997 Y-12.6847
G01 X0.9607 Y-12.7372
G01 X1.0242 Y-12.7868
G01 X1.0900 Y-12.8331
G01 X1.1580 Y-12.8762
G01 X1.2280 Y-12.9159
G01 X1.2999 Y-12.9520
G01 X1.3735 Y-12.9847
G01 X1.4486 Y-13.0136
G01 X1.5250 Y-13.0389
G01 X1.6026 Y-13.0604
G01 X1.6812 Y-13.0780
G01 X1.7605 Y-13.0917
G01 X1.8404 Y-13.1016
G01 X1.9206 Y-13.1075
G01 X2.0011 Y-13.1095
G01 X2.0816 Y-13.1075
G01 X2.1618 Y-13.1016
G01 X2.2417 Y-13.0917
G01 X2.3210 Y-13.0780
G01 X2.3996 Y-13.0604
G01 X2.4772 Y-13.0389
G01 X2.5536 Y-13.0136
G01 X2.6287 Y-12.9847
G01 X2.7023 Y-12.9520
G01 X2.7742 Y-12.9159
G01 X2.8442 Y-12.8762
G01 X2.9151 Y-12.8312
G01 X2.9780 Y-12.7868
G01 X3.0388 Y-12.7394
G01 X3.1025 Y-12.6847
G01 X3.1632 Y-12.6267
G01 X3.2163 Y-12.5709
G01 X3.2666 Y-12.5125
G01 X3.3184 Y-12.4464
G01 X3.3666 Y-12.3778
G01 X3.4078 Y-12.3126
G01 X3.4458 Y-12.2456
G01 X3.4836 Y-12.1707
G01 X3.5175 Y-12.0939
G01 X3.5452 Y-12.0220
G01 X3.5694 Y-11.9488
G01 X3.5920 Y-11.8680
G01 X3.6102 Y-11.7861
G01 X3.6233 Y-11.7101
G01 X3.6328 Y-11.6337
G01 X3.6391 Y-11.5500
G01 X3.6411 Y-11.4678
G01 X3.6389 Y-11.3856
G01 X3.6332 Y-11.3088
G01 X3.6238 Y-11.2323
G01 X3.6096 Y-11.1496
G01 X3.5911 Y-11.0677
G01 X3.5705 Y-10.9934
G01 X3.5464 Y-10.9202
G01 X3.5163 Y-10.8419
G01 X3.4821 Y-10.7652
G01 X3.4475 Y-10.6964
G01 X3.4086 Y-10.6279
G01 X3.3647 Y-10.5584
G01 X3.3163 Y-10.4898
G01 X3.2688 Y-10.4291
G01 X3.2185 Y-10.3707
G01 X3.1595 Y-10.3086
G01 X3.0999 Y-10.2521
G01 X3.0415 Y-10.2018
G01 X2.9794 Y-10.1533
G01 X2.9108 Y-10.1049
G01 X2.8457 Y-10.0637
G01 X2.8218 Y-10.0501
G01 X2.8218 Y-8.9483
G01 X2.8194 Y-8.9261
G01 X2.8142 Y-8.9062
G01 X2.8061 Y-8.8872
G01 X2.7953 Y-8.8697
G01 X2.7855 Y-8.8577
G01 X2.7732 Y-8.8457
G01 X2.7610 Y-8.8363
G01 X2.7463 Y-8.8274
G01 X2.7322 Y-8.8211
G01 X2.7175 Y-8.8163
G01 X2.7023 Y-8.8132
G01 X2.6852 Y-8.8117
G01 X1.2801 Y-8.8117
G01 X1.2579 Y-8.8138
G01 X1.2379 Y-8.8188
G01 X1.2173 Y-8.8274
G01 X1.1998 Y-8.8382
G01 X1.1878 Y-8.8480
G01 X1.1769 Y-8.8590
G01 X1.1673 Y-8.8711
G01 X1.1583 Y-8.8857
G01 X1.1518 Y-8.8997
G01 X1.1469 Y-8.9144
G01 X1.1436 Y-8.9295
G01 X1.1420 Y-8.9448
G01 X1.1418 Y-10.0730
G00 Z2.0000
G00 X5.8235 Y-4.9608
G01 F70.00
G01 Z-0.0600
G01 F120.00
G01 X5.8220 Y-5.0207
G01 X5.8176 Y-5.0804
G01 X5.8103 Y-5.1398
G01 X5.8001 Y-5.1988
G01 X5.7870 Y-5.2572
G01 X5.7710 Y-5.3149
G01 X5.7522 Y-5.3718
G01 X5.7307 Y-5.4276
G01 X5.7064 Y-5.4824
G01 X5.6795 Y-5.5359
G01 X5.6500 Y-5.5880
G01 X5.6179 Y-5.6385
G01 X5.5834 Y-5.6875
G01 X5.5466 Y-5.7347
G01 X5.5075 Y-5.7800
G01 X5.4662 Y-5.8234
G01 X5.4228 Y-5.8647
G01 X5.3775 Y-5.9038
G01 X5.3303 Y-5.9406
G01 X5.2813 Y-5.9751
G01 X5.2308 Y-6.0072
G01 X5.1787 Y-6.0367
G01 X5.1252 Y-6.0636
G01 X5.0704 Y-6.0879
G01 X5.0146 Y-6.1094
G01 X4.9577 Y-6.1282
G01 X4.9000 Y-6.1442
G01 X4.8416 Y-6.1573
G01 X4.7826 Y-6.1675
G01 X4.7232 Y-6.1748
G01 X4.6635 Y-6.1792
G01 X4.6036 Y-6.1807
G01 X4.5437 Y-6.1792
G01 X4.4840 Y-6.1748
G01 X4.4246 Y-6.1675
G01 X4.3656 Y-6.1573
G01 X4.3072 Y-6.1442
G01 X4.2495 Y-6.1282
G01 X4.1926 Y-6.1094
G01 X4.1368 Y-6.0879
G01 X4.0820 Y-6.0636
G01 X4.0285 Y-6.0367
G01 X3.9764 Y-6.0072
G01 X3.9259 Y-5.9751
G01 X3.8769 Y-5.9406
G01 X3.8297 Y-5.9038
G01 X3.7844 Y-5.8647
G01 X3.7410 Y-5.8234
G01 X3.6997 Y-5.7800
G01 X3.6606 Y-5.7347
G01 X3.6238 Y-5.6875
G01 X3.5893 Y-5.6385
G01 X3.5572 Y-5.5880
G01 X3.5277 Y-5.5359
G01 X3.5008 Y-5.4824
G01 X3.4765 Y-5.4276
G01 X3.4550 Y-5.3718
G01 X3.4362 Y-5.3149
G01 X3.4202 Y-5.2572
G01 X3.4071 Y-5.1988
G01 X3.3969 Y-5.1398
G01 X3.3896 Y-5.0804
G01 X3.3852 Y-5.0207
G01 X3.3837 Y-4.9608
G01 X3.3852 Y-4.9009
G01 X3.3896 Y-4.8412
G01 X3.3969 Y-4.7818
G01 X3.4071 Y-4.7228
G01 X3.4202 Y-4.6644
G01 X3.4362 Y-4.6067
G01 X3.4550 Y-4.5498
G01 X3.4765 Y-4.4940
G01 X3.5008 Y-4.4392
G01 X3.5277 Y-4.3857
G01 X3.5572 Y-4.3336
G01 X3.5893 Y-4.2831
G01 X3.6238 Y-4.2341
G01 X3.6606 Y-4.1869
G01 X3.6997 Y-4.1416
G01 X3.7410 Y-4.0982
G01 X3.7844 Y-4.0569
G01 X3.8297 Y-4.0178
G01 X3.8769 Y-3.9810
G01 X3.9259 Y-3.9465
G01 X3.9764 Y-3.9144
G01 X4.0285 Y-3.8849
G01 X4.0820 Y-3.8580
G01 X4.1368 Y-3.8337
G01 X4.1926 Y-3.8122
G01 X4.2495 Y-3.7934
G01 X4.3072 Y-3.7774
G01 X4.3656 Y-3.7643
G01 X4.4246 Y-3.7541
G01 X4.4840 Y-3.7468
G01 X4.5437 Y-3.7424
G01 X4.6036 Y-3.7409
G01 X4.6635 Y-3.7424
G01 X4.7232 Y-3.7468
G01 X4.7826 Y-3.7541
G01 X4.8416 Y-3.7643
G01 X4.9000 Y-3.7774
G01 X4.9577 Y-3.7934
G01 X5.0146 Y-3.8122
G01 X5.0704 Y-3.8337
G01 X5.1252 Y-3.8580
G01 X5.1787 Y-3.8849
G01 X5.2308 Y-3.9144
G01 X5.2813 Y-3.9465
G01 X5.3303 Y-3.9810
G01 X5.3775 Y-4.0178
G01 X5.4228 Y-4.0569
G01 X5.4662 Y-4.0982
G01 X5.5075 Y-4.1416
G01 X5.5466 Y-4.1869
G01 X5.5834 Y-4.2341
G01 X5.6179 Y-4.2831
G01 X5.6500 Y-4.3336
G01 X5.6795 Y-4.3857
G01 X5.7064 Y-4.4392
G01 X5.7307 Y-4.4940
G01 X5.7522 Y-4.5498
G01 X5.7710 Y-4.6067
G01 X5.7870 Y-4.6644
G01 X5.8001 Y-4.7228
G01 X5.8103 Y-4.7818
G01 X5.8176 Y-4.8412
G01 X5.8220 Y-4.9009
G01 X5.8235 Y-4.9608
G00 Z2.0000
G00 X5.8935 Y-4.9608
G01 F70.00
G01 Z-0.0600
G01 F120.00
G01 X5.8920 Y-5.0241
G01 X5.8873 Y-5.0872
G01 X5.8796 Y-5.1501
G01 X5.8688 Y-5.2125
G01 X5.8549 Y-5.2742
G01 X5.8380 Y-5.3352
G01 X5.8181 Y-5.3954
G01 X5.7953 Y-5.4544
G01 X5.7697 Y-5.5123
G01 X5.7412 Y-5.5689
G01 X5.7100 Y-5.6240
G01 X5.6761 Y-5.6775
G01 X5.6397 Y-5.7292
G01 X5.6007 Y-5.7791
G01 X5.5594 Y-5.8271
G01 X5.5157 Y-5.8729
G01 X5.4699 Y-5.9166
G01 X5.4219 Y-5.9579
G01 X5.3720 Y-5.9969
G01 X5.3203 Y-6.0333
G01 X5.2668 Y-6.0672
G01 X5.2117 Y-6.0984
G01 X5.1551 Y-6.1269
G01 X5.0972 Y-6.1525
G01 X5.0382 Y-6.1753
G01 X4.9780 Y-6.1952
G01 X4.9170 Y-6.2121
G01 X4.8553 Y-6.2260
G01 X4.7929 Y-6.2368
G01 X4.7300 Y-6.2445
G01 X4.6669 Y-6.2492
G01 X4.6036 Y-6.2507
G01 X4.5403 Y-6.2492
G01 X4.4772 Y-6.2445
G01 X4.4143 Y-6.2368
G01 X4.3519 Y-6.2260
G01 X4.2902 Y-6.2121
G01 X4.2292 Y-6.1952
G01 X4.1690 Y-6.1753
G01 X4.1100 Y-6.1525
G01 X4.0521 Y-6.1269
G01 X3.9955 Y-6.0984
G01 X3.9404 Y-6.0672
G01 X3.8869 Y-6.0333
G01 X3.8352 Y-5.9969
G01 X3.7853 Y-5.9579
G01 X3.7373 Y-5.9166
G01 X3.6915 Y-5.8729
G01 X3.6478 Y-5.8271
G01 X3.6065 Y-5.7791
G01 X3.5675 Y-5.7292
G01 X3.5311 Y-5.6775
G01 X3.4972 Y-5.6240
G01 X3.4660 Y-5.5689
G01 X3.4375 Y-5.5123
G01 X3.4119 Y-5.4544
G01 X3.3891 Y-5.3954
G01 X3.3692 Y-5.3352
G01 X3.3523 Y-5.2742
G01 X3.3384 Y-5.2125
G01 X3.3276 Y-5.1501
G01 X3.3199 Y-5.0872
G01 X3.3152 Y-5.0241
G01 X3.3137 Y-4.9608
G01 X3.3152 Y-4.8975
G01 X3.3199 Y-4.8344
G01 X3.3276 Y-4.7715
G01 X3.3384 Y-4.7091
G01 X3.3523 Y-4.6474
G01 X3.3692 Y-4.5864
G01 X3.3891 Y-4.5262
G01 X3.4119 Y-4.4672
G01 X3.4375 Y-4.4093
G01 X3.4660 Y-4.3527
G01 X3.4972 Y-4.2976
G01 X3.5311 Y-4.2441
G01 X3.5675 Y-4.1924
G01 X3.6065 Y-4.1425
G01 X3.6478 Y-4.0945
G01 X3.6915 Y-4.0487
G01 X3.7373 Y-4.0050
G01 X3.7853 Y-3.9637
G01 X3.8352 Y-3.9247
G01 X3.8869 Y-3.8883
G01 X3.9404 Y-3.8544
G01 X3.9955 Y-3.8232
G01 X4.0521 Y-3.7947
G01 X4.1100 Y-3.7691
G01 X4.1690 Y-3.7463
G01 X4.2292 Y-3.7264
G01 X4.2902 Y-3.7095
G01 X4.3519 Y-3.6956
G01 X4.4143 Y-3.6848
G01 X4.4772 Y-3.6771
G01 X4.5403 Y-3.6724
G01 X4.6036 Y-3.6709
G01 X4.6669 Y-3.6724
G01 X4.7300 Y-3.6771
G01 X4.7929 Y-3.6848
G01 X4.8553 Y-3.6956
G01 X4.9170 Y-3.7095
G01 X4.9780 Y-3.7264
G01 X5.0382 Y-3.7463
G01 X5.0972 Y-3.7691
G01 X5.1551 Y-3.7947
G01 X5.2117 Y-3.8232
G01 X5.2668 Y-3.8544
G01 X5.3203 Y-3.8883
G01 X5.3720 Y-3.9247
G01 X5.4219 Y-3.9637
G01 X5.4699 Y-4.0050
G01 X5.5157 Y-4.0487
G01 X5.5594 Y-4.0945
G01 X5.6007 Y-4.1425
G01 X5.6397 Y-4.1924
G01 X5.6761 Y-4.2441
G01 X5.7100 Y-4.2976
G01 X5.7412 Y-4.3527
G01 X5.7697 Y-4.4093
G01 X5.7953 Y-4.4672
G01 X5.8181 Y-4.5262
G01 X5.8380 Y-4.5864
G01 X5.8549 Y-4.6474
G01 X5.8688 Y-4.7091
G01 X5.8796 Y-4.7715
G01 X5.8873 Y-4.8344
G01 X5.8920 Y-4.8975
G01 X5.8935 Y-4.9608
G00 Z2.0000
G00 X5.9636 Y-4.9608
G01 F70.00
G01 Z-0.0600
G01 F120.00
G01 X5.9619 Y-5.0275
G01 X5.9570 Y-5.0941
G01 X5.9488 Y-5.1603
G01 X5.9374 Y-5.2261
G01 X5.9228 Y-5.2912
G01 X5.9050 Y-5.3556
G01 X5.8841 Y-5.4190
G01 X5.8600 Y-5.4812
G01 X5.8330 Y-5.5423
G01 X5.8030 Y-5.6019
G01 X5.7701 Y-5.6600
G01 X5.7344 Y-5.7164
G01 X5.6959 Y-5.7709
G01 X5.6549 Y-5.8235
G01 X5.6113 Y-5.8741
G01 X5.5652 Y-5.9224
G01 X5.5169 Y-5.9685
G01 X5.4663 Y-6.0121
G01 X5.4137 Y-6.0531
G01 X5.3592 Y-6.0916
G01 X5.3028 Y-6.1273
G01 X5.2447 Y-6.1602
G01 X5.1851 Y-6.1902
G01 X5.1240 Y-6.2172
G01 X5.0618 Y-6.2413
G01 X4.9984 Y-6.2622
G01 X4.9340 Y-6.2800
G01 X4.8689 Y-6.2946
G01 X4.8031 Y-6.3060
G01 X4.7369 Y-6.3142
G01 X4.6703 Y-6.3191
G01 X4.6036 Y-6.3208
G01 X4.5369 Y-6.3191
G01 X4.4703 Y-6.3142
G01 X4.4041 Y-6.3060
G01 X4.3383 Y-6.2946
G01 X4.2732 Y-6.2800
G01 X4.2088 Y-6.2622
G01 X4.1454 Y-6.2413
G01 X4.0832 Y-6.2172
G01 X4.0221 Y-6.1902
G01 X3.9625 Y-6.1602
G01 X3.9044 Y-6.1273
G01 X3.8480 Y-6.0916
G01 X3.7935 Y-6.0531
G01 X3.7409 Y-6.0121
G01 X3.6903 Y-5.9685
G01 X3.6420 Y-5.9224
G01 X3.5959 Y-5.8741
G01 X3.5523 Y-5.8235
G01 X3.5113 Y-5.7709
G01 X3.4728 Y-5.7164
G01 X3.4371 Y-5.6600
G01 X3.4042 Y-5.6019
G01 X3.3742 Y-5.5423
G01 X3.3472 Y-5.4812
G01 X3.3231 Y-5.4190
G01 X3.3022 Y-5.3556
G01 X3.2844 Y-5.2912
G01 X3.2698 Y-5.2261
G01 X3.2584 Y-5.1603
G01 X3.2502 Y-5.0941
G01 X3.2453 Y-5.0275
G01 X3.2436 Y-4.9608
G01 X3.2453 Y-4.8941
G01 X3.2502 Y-4.8275
G01 X3.2584 Y-4.7613
G01 X3.2698 Y-4.6955
G01 X3.2844 Y-4.6304
G01 X3.3022 Y-4.5660
G01 X3.3231 Y-4.5026
G01 X3.3472 Y-4.4404
G01 X3.3742 Y-4.3793
G01 X3.4042 Y-4.3197
G01 X3.4371 Y-4.2616
G01 X3.4728 Y-4.2052
G01 X3.5113 Y-4.1507
G01 X3.5523 Y-4.0981
G01 X3.5959 Y-4.0475
G01 X3.6420 Y-3.9992
G01 X3.6903 Y-3.9531
G01 X3.7409 Y-3.9095
G01 X3.7935 Y-3.8685
G01 X3.8480 Y-3.8300
G01 X3.9044 Y-3.7943
G01 X3.9625 Y-3.7614
G01 X4.0221 Y-3.7314
G01 X4.0832 Y-3.7044
G01 X4.1454 Y-3.6803
G01 X4.2088 Y-3.6594
G01 X4.2732 Y-3.6416
G01 X4.3383 Y-3.6270
G01 X4.4041 Y-3.6156
G01 X4.4703 Y-3.6074
G01 X4.5369 Y-3.6025
G01 X4.6036 Y-3.6008
G01 X4.6703 Y-3.6025
G01 X4.7369 Y-3.6074
G01 X4.8031 Y-3.6156
G01 X4.8689 Y-3.6270
G01 X4.9340 Y-3.6416
G01 X4.9984 Y-3.6594
G01 X5.0618 Y-3.6803
G01 X5.1240 Y-3.7044
G01 X5.1851 Y-3.7314
G01 X5.2447 Y-3.7614
G01 X5.3028 Y-3.7943
G01 X5.3592 Y-3.8300
G01 X5.4137 Y-3.8685
G01 X5.4663 Y-3.9095
G01 X5.5169 Y-3.9531
G01 X5.5652 Y-3.9992
G01 X5.6113 Y-4.0475
G01 X5.6549 Y-4.0981
G01 X5.6959 Y-4.1507
G01 X5.7344 Y-4.2052
G01 X5.7701 Y-4.2616
G01 X5.8030 Y-4.3197
G01 X5.8330 Y-4.3793
G01 X5.8600 Y-4.4404
G01 X5.8841 Y-4.5026
G01 X5.9050 Y-4.5660
G01 X5.9228 Y-4.6304
G01 X5.9374 Y-4.6955
G01 X5.9488 Y-4.7613
G01 X5.9570 Y-4.8275
G01 X5.9619 Y-4.8941
G01 X5.9636 Y-4.9608
G00 Z2.0000
G00 X6.0336 Y-4.9608
G01 F70.00
G01 Z-0.0600
G01 F120.00
G01 X6.0319 Y-5.0310
G01 X6.0267 Y-5.1010
G01 X6.0181 Y-5.1706
G01 X6.0061 Y-5.2398
G01 X5.9907 Y-5.3083
G01 X5.9720 Y-5.3759
G01 X5.9500 Y-5.4425
G01 X5.9247 Y-5.5080
G01 X5.8963 Y-5.5722
G01 X5.8647 Y-5.6349
G01 X5.8301 Y-5.6960
G01 X5.7926 Y-5.7553
G01 X5.7522 Y-5.8126
G01 X5.7090 Y-5.8680
G01 X5.6631 Y-5.9211
G01 X5.6147 Y-5.9719
G01 X5.5639 Y-6.0203
G01 X5.5108 Y-6.0662
G01 X5.4554 Y-6.1094
G01 X5.3981 Y-6.1498
G01 X5.3388 Y-6.1873
G01 X5.2777 Y-6.2219
G01 X5.2150 Y-6.2535
G01 X5.1508 Y-6.2819
G01 X5.0853 Y-6.3072
G01 X5.0187 Y-6.3292
G01 X4.9511 Y-6.3479
G01 X4.8826 Y-6.3633
G01 X4.8134 Y-6.3753
G01 X4.7438 Y-6.3839
G01 X4.6738 Y-6.3891
G01 X4.6036 Y-6.3908
G01 X4.5334 Y-6.3891
G01 X4.4634 Y-6.3839
G01 X4.3938 Y-6.3753
G01 X4.3246 Y-6.3633
G01 X4.2561 Y-6.3479
G01 X4.1885 Y-6.3292
G01 X4.1219 Y-6.3072
G01 X4.0564 Y-6.2819
G01 X3.9922 Y-6.2535
G01 X3.9295 Y-6.2219
G01 X3.8684 Y-6.1873
G01 X3.8091 Y-6.1498
G01 X3.7518 Y-6.1094
G01 X3.6964 Y-6.0662
G01 X3.6433 Y-6.0203
G01 X3.5925 Y-5.9719
G01 X3.5441 Y-5.9211
G01 X3.4982 Y-5.8680
G01 X3.4550 Y-5.8126
G01 X3.4146 Y-5.7553
G01 X3.3771 Y-5.6960
G01 X3.3425 Y-5.6349
G01 X3.3109 Y-5.5722
G01 X3.2825 Y-5.5080
G01 X3.2572 Y-5.4425
G01 X3.2352 Y-5.3759
G01 X3.2165 Y-5.3083
G01 X3.2011 Y-5.2398
G01 X3.1891 Y-5.1706
G01 X3.1805 Y-5.1010
G01 X3.1753 Y-5.0310
G01 X3.1736 Y-4.9608
G01 X3.1753 Y-4.8906
G01 X3.1805 Y-4.8206
G01 X3.1891 Y-4.7510
G01 X3.2011 Y-4.6818
G01 X3.2165 Y-4.6133
G01 X3.2352 Y-4.5457
G01 X3.2572 Y-4.4791
G01 X3.2825 Y-4.4136
G01 X3.3109 Y-4.3494
G01 X3.3425 Y-4.2867
G01 X3.3771 Y-4.2256
G01 X3.4146 Y-4.1663
G01 X3.4550 Y-4.1090
G01 X3.4982 Y-4.0536
G01 X3.5441 Y-4.0005
G01 X3.5925 Y-3.9497
G01 X3.6433 Y-3.9013
G01 X3.6964 Y-3.8554
G01 X3.7518 Y-3.8122
G01 X3.8091 Y-3.7718
G01 X3.8684 Y-3.7343
G01 X3.9295 Y-3.6997
G01 X3.9922 Y-3.6681
G01 X4.0564 Y-3.6397
G01 X4.1219 Y-3.6144
G01 X4.1885 Y-3.5924
G01 X4.2561 Y-3.5737
G01 X4.3246 Y-3.5583
G01 X4.3938 Y-3.5463
G01 X4.4634 Y-3.5377
G01 X4.5334 Y-3.5325
G01 X4.6036 Y-3.5308
G01 X4.6738 Y-3.5325
G01 X4.7438 Y-3.5377
G01 X4.8134 Y-3.5463
G01 X4.8826 Y-3.5583
G01 X4.9511 Y-3.5737
G01 X5.0187 Y-3.5924
G01 X5.0853 Y-3.6144
G01 X5.1508 Y-3.6397
G01 X5.2150 Y-3.6681
G01 X5.2777 Y-3.6997
G01 X5.3388 Y-3.7343
G01 X5.3981 Y-3.7718
G01 X5.4554 Y-3.8122
G01 X5.5108 Y-3.8554
G01 X5.5639 Y-3.9013
G01 X5.6147 Y-3.9497
G01 X5.6631 Y-4.0005
G01 X5.7090 Y-4.0536
G01 X5.7522 Y-4.1090
G01 X5.7926 Y-4.1663
G01 X5.8301 Y-4.2256
G01 X5.8647 Y-4.2867
G01 X5.8963 Y-4.3494
G01 X5.9247 Y-4.4136
G01 X5.9500 Y-4.4791
G01 X5.9720 Y-4.5457
G01 X5.9907 Y-4.6133
G01 X6.0061 Y-4.6818
G01 X6.0181 Y-4.7510
G01 X6.0267 Y-4.8206
G01 X6.0319 Y-4.8906
G01 X6.0336 Y-4.9608
G00 Z2.0000
G00 X13.7913 Y-11.5489
G01 F70.00
G01 Z-0.0600
G01 F120.00
G01 X13.7898 Y-11.5565
G01 X13.7855 Y-11.5630
G01 X13.7790 Y-11.5673
G01 X13.7714 Y-11.5688
G01 X13.7638 Y-11.5673
G01 X13.7573 Y-11.5630
G01 X13.7530 Y-11.5565
G01 X13.7515 Y-11.5489
G01 X13.7530 Y-11.5413
G01 X13.7573 Y-11.5348
G01 X13.7638 Y-11.5305
G01 X13.7714 Y-11.5290
G01 X13.7790 Y-11.5305
G01 X13.7855 Y-11.5348
G01 X13.7898 Y-11.5413
G01 X13.7913 Y-11.5489
G00 Z2.0000
G00 X13.8613 Y-11.5489
G01 F70.00
G01 Z-0.0600
G01 F120.00
G01 X13.8596 Y-11.5664
G01 X13.8545 Y-11.5833
G01 X13.8462 Y-11.5989
G01 X13.8350 Y-11.6125
G01 X13.8214 Y-11.6237
G01 X13.8058 Y-11.6320
G01 X13.7889 Y-11.6371
G01 X13.7714 Y-11.6388
G01 X13.7539 Y-11.6371
G01 X13.7370 Y-11.6320
G01 X13.7214 Y-11.6237
G01 X13.7078 Y-11.6125
G01 X13.6966 Y-11.5989
G01 X13.6883 Y-11.5833
G01 X13.6832 Y-11.5664
G01 X13.6815 Y-11.5489
G01 X13.6832 Y-11.5314
G01 X13.6883 Y-11.5145
G01 X13.6966 Y-11.4989
G01 X13.7078 Y-11.4853
G01 X13.7214 Y-11.4741
G01 X13.7370 Y-11.4658
G01 X13.7539 Y-11.4607
G01 X13.7714 Y-11.4590
G01 X13.7889 Y-11.4607
G01 X13.8058 Y-11.4658
G01 X13.8214 Y-11.4741
G01 X13.8350 Y-11.4853
G01 X13.8462 Y-11.4989
G01 X13.8545 Y-11.5145
G01 X13.8596 Y-11.5314
G01 X13.8613 Y-11.5489
G00 Z2.0000
G00 X13.9314 Y-11.5489
G01 F70.00
G01 Z-0.0600
G01 F120.00
G01 X13.9306 Y-11.5646
G01 X13.9283 Y-11.5801
G01 X13.9245 Y-11.5953
G01 X13.9192 Y-11.6101
G01 X13.9125 Y-11.6243
G01 X13.9044 Y-11.6378
G01 X13.8950 Y-11.6504
G01 X13.8845 Y-11.6620
G01 X13.8729 Y-11.6725
G01 X13.8603 Y-11.6819
G01 X13.8468 Y-11.6900
G01 X13.8326 Y-11.6967
G01 X13.8178 Y-11.7020
G01 X13.8026 Y-11.7058
G01 X13.7871 Y-11.7081
G01 X13.7714 Y-11.7089
G01 X13.7557 Y-11.7081
G01 X13.7402 Y-11.7058
G01 X13.7250 Y-11.7020
G01 X13.7102 Y-11.6967
G01 X13.6960 Y-11.6900
G01 X13.6825 Y-11.6819
G01 X13.6699 Y-11.6725
G01 X13.6583 Y-11.6620
G01 X13.6478 Y-11.6504
G01 X13.6384 Y-11.6378
G01 X13.6303 Y-11.6243
G01 X13.6236 Y-11.6101
G01 X13.6183 Y-11.5953
G01 X13.6145 Y-11.5801
G01 X13.6122 Y-11.5646
G01 X13.6114 Y-11.5489
G01 X13.6122 Y-11.5332
G01 X13.6145 Y-11.5177
G01 X13.6183 Y-11.5025
G01 X13.6236 Y-11.4877
G01 X13.6303 Y-11.4735
G01 X13.6384 Y-11.4600
G01 X13.6478 Y-11.4474
G01 X13.6583 Y-11.4358
G01 X13.6699 Y-11.4253
G01 X13.6825 Y-11.4159
G01 X13.6960 Y-11.4078
G01 X13.7102 Y-11.4011
G01 X13.7250 Y-11.3958
G01 X13.7402 Y-11.3920
G01 X13.7557 Y-11.3897
G01 X13.7714 Y-11.3889
G01 X13.7871 Y-11.3897
G01 X13.8026 Y-11.3920
G01 X13.8178 Y-11.3958
G01 X13.8326 Y-11.4011
G01 X13.8468 Y-11.4078
G01 X13.8603 Y-11.4159
G01 X13.8729 Y-11.4253
G01 X13.8845 Y-11.4358
G01 X13.8950 Y-11.4474
G01 X13.9044 Y-11.4600
G01 X13.9125 Y-11.4735
G01 X13.9192 Y-11.4877
G01 X13.9245 Y-11.5025
G01 X13.9283 Y-11.5177
G01 X13.9306 Y-11.5332
G01 X13.9314 Y-11.5489
G00 Z2.0000
G00 X14.0014 Y-11.5489
G01 F70.00
G01 Z-0.0600
G01 F120.00
G01 X14.0003 Y-11.5714
G01 X13.9970 Y-11.5938
G01 X13.9915 Y-11.6157
G01 X13.9839 Y-11.6369
G01 X13.9742 Y-11.6573
G01 X13.9626 Y-11.6767
G01 X13.9492 Y-11.6948
G01 X13.9340 Y-11.7115
G01 X13.9173 Y-11.7267
G01 X13.8992 Y-11.7401
G01 X13.8798 Y-11.7517
G01 X13.8594 Y-11.7614
G01 X13.8382 Y-11.7690
G01 X13.8163 Y-11.7745
G01 X13.7939 Y-11.7778
G01 X13.7714 Y-11.7789
G01 X13.7489 Y-11.7778
G01 X13.7265 Y-11.7745
G01 X13.7046 Y-11.7690
G01 X13.6834 Y-11.7614
G01 X13.6630 Y-11.7517
G01 X13.6436 Y-11.7401
G01 X13.6255 Y-11.7267
G01 X13.6088 Y-11.7115
G01 X13.5936 Y-11.6948
G01 X13.5802 Y-11.6767
G01 X13.5686 Y-11.6573
G01 X13.5589 Y-11.6369
G01 X13.5513 Y-11.6157
G01 X13.5458 Y-11.5938
G01 X13.5425 Y-11.5714
G01 X13.5414 Y-11.5489
G01 X13.5425 Y-11.5264
G01 X13.5458 Y-11.5040
G01 X13.5513 Y-11.4821
G01 X13.5589 Y-11.4609
G01 X13.5686 Y-11.4405
G01 X13.5802 Y-11.4211
G01 X13.5936 Y-11.4030
G01 X13.6088 Y-11.3863
G01 X13.6255 Y-11.3711
G01 X13.6436 Y-11.3577
G01 X13.6630 Y-11.3461
G01 X13.6834 Y-11.3364
G01 X13.7046 Y-11.3288
G01 X13.7265 Y-11.3233
G01 X13.7489 Y-11.3200
G01 X13.7714 Y-11.3189
G01 X13.7939 Y-11.3200
G01 X13.8163 Y-11.3233
G01 X13.8382 Y-11.3288
G01 X13.8594 Y-11.3364
G01 X13.8798 Y-11.3461
G01 X13.8992 Y-11.3577
G01 X13.9173 Y-11.3711
G01 X13.9340 Y-11.3863
G01 X13.9492 Y-11.4030
G01 X13.9626 Y-11.4211
G01 X13.9742 Y-11.4405
G01 X13.9839 Y-11.4609
G01 X13.9915 Y-11.4821
G01 X13.9970 Y-11.5040
G01 X14.0003 Y-11.5264
G01 X14.0014 Y-11.5489
G00 Z2.0000
G00 X15.1040 Y-11.4734
G01 F70.00
G01 Z-0.0600
G01 F120.00
G01 X15.1027 Y-11.4921
G01 X15.1014 Y-11.5489
G01 X15.1027 Y-11.6057
G01 X15.1040 Y-11.6244
G01 X15.0874 Y-11.6200
G01 X15.0722 Y-11.6171
G01 X15.0568 Y-11.6154
G01 X15.0414 Y-11.6149
G01 X15.0260 Y-11.6154
G01 X15.0106 Y-11.6171
G01 X14.9954 Y-11.6200
G01 X14.9788 Y-11.6244
G01 X14.9801 Y-11.6057
G01 X14.9814 Y-11.5489
G01 X14.9801 Y-11.4921
G01 X14.9788 Y-11.4734
G01 X14.9954 Y-11.4778
G01 X15.0106 Y-11.4807
G01 X15.0260 Y-11.4824
G01 X15.0414 Y-11.4829
G01 X15.0568 Y-11.4824
G01 X15.0722 Y-11.4807
G01 X15.0874 Y-11.4778
G01 X15.1040 Y-11.4734
G00 Z2.0000
G00 X16.3313 Y-11.5489
G01 F70.00
G01 Z-0.0600
G01 F120.00
G01 X16.3298 Y-11.5565
G01 X16.3255 Y-11.5630
G01 X16.3190 Y-11.5673
G01 X16.3114 Y-11.5688
G01 X16.3038 Y-11.5673
G01 X16.2973 Y-11.5630
G01 X16.2930 Y-11.5565
G01 X16.2915 Y-11.5489
G01 X16.2930 Y-11.5413
G01 X16.2973 Y-11.5348
G01 X16.3038 Y-11.5305
G01 X16.3114 Y-11.5290
G01 X16.3190 Y-11.5305
G01 X16.3255 Y-11.5348
G01 X16.3298 Y-11.5413
G01 X16.3313 Y-11.5489
G00 Z2.0000
G00 X16.4013 Y-11.5489
G01 F70.00
G01 Z-0.0600
G01 F120.00
G01 X16.3996 Y-11.5664
G01 X16.3945 Y-11.5833
G01 X16.3862 Y-11.5989
G01 X16.3750 Y-11.6125
G01 X16.3614 Y-11.6237
G01 X16.3458 Y-11.6320
G01 X16.3289 Y-11.6371
G01 X16.3114 Y-11.6388
G01 X16.2939 Y-11.6371
G01 X16.2770 Y-11.6320
G01 X16.2614 Y-11.6237
G01 X16.2478 Y-11.6125
G01 X16.2366 Y-11.5989
G01 X16.2283 Y-11.5833
G01 X16.2232 Y-11.5664
G01 X16.2215 Y-11.5489
G01 X16.2232 Y-11.5314
G01 X16.2283 Y-11.5145
G01 X16.2366 Y-11.4989
G01 X16.2478 Y-11.4853
G01 X16.2614 Y-11.4741
G01 X16.2770 Y-11.4658
G01 X16.2939 Y-11.4607
G01 X16.3114 Y-11.4590
G01 X16.3289 Y-11.4607
G01 X16.3458 Y-11.4658
G01 X16.3614 Y-11.4741
G01 X16.3750 Y-11.4853
G01 X16.3862 Y-11.4989
G01 X16.3945 Y-11.5145
G01 X16.3996 Y-11.5314
G01 X16.4013 Y-11.5489
G00 Z2.0000
G00 X16.4714 Y-11.5489
G01 F70.00
G01 Z-0.0600
G01 F120.00
G01 X16.4706 Y-11.5646
G01 X16.4683 Y-11.5801
G01 X16.4645 Y-11.5953
G01 X16.4592 Y-11.6101
G01 X16.4525 Y-11.6243
G01 X16.4444 Y-11.6378
G01 X16.4350 Y-11.6504
G01 X16.4245 Y-11.6620
G01 X16.4129 Y-11.6725
G01 X16.4003 Y-11.6819
G01 X16.3868 Y-11.6900
G01 X16.3726 Y-11.6967
G01 X16.3578 Y-11.7020
G01 X16.3426 Y-11.7058
G01 X16.3271 Y-11.7081
G01 X16.3114 Y-11.7089
G01 X16.2957 Y-11.7081
G01 X16.2802 Y-11.7058
G01 X16.2650 Y-11.7020
G01 X16.2502 Y-11.6967
G01 X16.2360 Y-11.6900
G01 X16.2225 Y-11.6819
G01 X16.2099 Y-11.6725
G01 X16.1983 Y-11.6620
G01 X16.1878 Y-11.6504
G01 X16.1784 Y-11.6378
G01 X16.1703 Y-11.6243
G01 X16.1636 Y-11.6101
G01 X16.1583 Y-11.5953
G01 X16.1545 Y-11.5801
G01 X16.1522 Y-11.5646
G01 X16.1514 Y-11.5489
G01 X16.1522 Y-11.5332
G01 X16.1545 Y-11.5177
G01 X16.1583 Y-11.5025
G01 X16.1636 Y-11.4877
G01 X16.1703 Y-11.4735
G01 X16.1784 Y-11.4600
G01 X16.1878 Y-11.4474
G01 X16.1983 Y-11.4358
G01 X16.2099 Y-11.4253
G01 X16.2225 Y-11.4159
G01 X16.2360 Y-11.4078
G01 X16.2502 Y-11.4011
G01 X16.2650 Y-11.3958
G01 X16.2802 Y-11.3920
G01 X16.2957 Y-11.3897
G01 X16.3114 Y-11.3889
G01 X16.3271 Y-11.3897
G01 X16.3426 Y-11.3920
G01 X16.3578 Y-11.3958
G01 X16.3726 Y-11.4011
G01 X16.3868 Y-11.4078
G01 X16.4003 Y-11.4159
G01 X16.4129 Y-11.4253
G01 X16.4245 Y-11.4358
G01 X16.4350 Y-11.4474
G01 X16.4444 Y-11.4600
G01 X16.4525 Y-11.4735
G01 X16.4592 Y-11.4877
G01 X16.4645 Y-11.5025
G01 X16.4683 Y-11.5177
G01 X16.4706 Y-11.5332
G01 X16.4714 Y-11.5489
G00 Z2.0000
G00 X16.5414 Y-11.5489
G01 F70.00
G01 Z-0.0600
G01 F120.00
G01 X16.5403 Y-11.5714
G01 X16.5370 Y-11.5938
G01 X16.5315 Y-11.6157
G01 X16.5239 Y-11.6369
G01 X16.5142 Y-11.6573
G01 X16.5026 Y-11.6767
G01 X16.4892 Y-11.6948
G01 X16.4740 Y-11.7115
G01 X16.4573 Y-11.7267
G01 X16.4392 Y-11.7401
G01 X16.4198 Y-11.7517
G01 X16.3994 Y-11.7614
G01 X16.3782 Y-11.7690
G01 X16.3563 Y-11.7745
G01 X16.3339 Y-11.7778
G01 X16.3114 Y-11.7789
G01 X16.2889 Y-11.7778
G01 X16.2665 Y-11.7745
G01 X16.2446 Y-11.7690
G01 X16.2234 Y-11.7614
G01 X16.2030 Y-11.7517
G01 X16.1836 Y-11.7401
G01 X16.1655 Y-11.7267
G01 X16.1488 Y-11.7115
G01 X16.1336 Y-11.6948
G01 X16.1202 Y-11.6767
G01 X16.1086 Y-11.6573
G01 X16.0989 Y-11.6369
G01 X16.0913 Y-11.6157
G01 X16.0858 Y-11.5938
G01 X16.0825 Y-11.5714
G01 X16.0814 Y-11.5489
G01 X16.0825 Y-11.5264
G01 X16.0858 Y-11.5040
G01 X16.0913 Y-11.4821
G01 X16.0989 Y-11.4609
G01 X16.1086 Y-11.4405
G01 X16.1202 Y-11.4211
G01 X16.1336 Y-11.4030
G01 X16.1488 Y-11.3863
G01 X16.1655 Y-11.3711
G01 X16.1836 Y-11.3577
G01 X16.2030 Y-11.3461
G01 X16.2234 Y-11.3364
G01 X16.2446 Y-11.3288
G01 X16.2665 Y-11.3233
G01 X16.2889 Y-11.3200
G01 X16.3114 Y-11.3189
G01 X16.3339 Y-11.3200
G01 X16.3563 Y-11.3233
G01 X16.3782 Y-11.3288
G01 X16.3994 Y-11.3364
G01 X16.4198 Y-11.3461
G01 X16.4392 Y-11.3577
G01 X16.4573 Y-11.3711
G01 X16.4740 Y-11.3863
G01 X16.4892 Y-11.4030
G01 X16.5026 Y-11.4211
G01 X16.5142 Y-11.4405
G01 X16.5239 Y-11.4609
G01 X16.5315 Y-11.4821
G01 X16.5370 Y-11.5040
G01 X16.5403 Y-11.5264
G01 X16.5414 Y-11.5489
G00 Z2.0000
G00 X17.6441 Y-11.6242
G01 F70.00
G01 Z-0.0600
G01 F120.00
G01 X17.6275 Y-11.6198
G01 X17.6123 Y-11.6169
G01 X17.5969 Y-11.6152
G01 X17.5814 Y-11.6147
G01 X17.5660 Y-11.6152
G01 X17.5506 Y-11.6169
G01 X17.5354 Y-11.6198
G01 X17.5188 Y-11.6242
G01 X17.5201 Y-11.6057
G01 X17.5214 Y-11.5489
G01 X17.5201 Y-11.4921
G01 X17.5188 Y-11.4736
G01 X17.5354 Y-11.4780
G01 X17.5506 Y-11.4809
G01 X17.5660 Y-11.4826
G01 X17.5815 Y-11.4831
G01 X17.5969 Y-11.4826
G01 X17.6123 Y-11.4809
G01 X17.6275 Y-11.4780
G01 X17.6441 Y-11.4736
G01 X17.6428 Y-11.4921
G01 X17.6415 Y-11.5489
G01 X17.6428 Y-11.6057
G01 X17.6441 Y-11.6242
G00 Z2.0000
G00 X17.7683 Y-11.9628
G01 F70.00
G01 Z-0.0600
G01 F120.00
G01 X17.7593 Y-11.9397
G01 X17.7415 Y-11.8856
G01 X17.7263 Y-11.8307
G01 X17.7173 Y-11.7906
G01 X17.7133 Y-11.7775
G01 X17.7080 Y-11.7648
G01 X17.7015 Y-11.7527
G01 X17.6929 Y-11.7399
G01 X17.6840 Y-11.7294
G01 X17.6676 Y-11.7143
G01 X17.6490 Y-11.7020
G01 X17.6286 Y-11.6928
G01 X17.6071 Y-11.6870
G01 X17.5849 Y-11.6847
G01 X17.5643 Y-11.6857
G01 X17.5425 Y-11.6902
G01 X17.5216 Y-11.6981
G01 X17.5022 Y-11.7092
G01 X17.4926 Y-11.7164
G01 X17.4837 Y-11.7245
G01 X17.4754 Y-11.7332
G01 X17.4680 Y-11.7426
G01 X17.4564 Y-11.7617
G01 X17.4508 Y-11.7743
G01 X17.4465 Y-11.7873
G01 X17.4366 Y-11.8307
G01 X17.4214 Y-11.8856
G01 X17.4036 Y-11.9397
G01 X17.3831 Y-11.9928
G01 X17.3600 Y-12.0448
G01 X17.3344 Y-12.0957
G01 X17.3063 Y-12.1452
G01 X17.2759 Y-12.1933
G01 X17.2431 Y-12.2399
G01 X17.2081 Y-12.2848
G01 X17.1709 Y-12.3279
G01 X17.1316 Y-12.3691
G01 X17.0904 Y-12.4084
G01 X17.0473 Y-12.4456
G01 X17.0024 Y-12.4806
G01 X16.9558 Y-12.5134
G01 X16.9077 Y-12.5438
G01 X16.8582 Y-12.5719
G01 X16.8073 Y-12.5975
G01 X16.7553 Y-12.6206
G01 X16.7022 Y-12.6411
G01 X16.6481 Y-12.6589
G01 X16.5932 Y-12.6741
G01 X16.5377 Y-12.6866
G01 X16.4816 Y-12.6963
G01 X16.4251 Y-12.7033
G01 X16.3683 Y-12.7075
G01 X16.3114 Y-12.7089
G01 X16.2545 Y-12.7075
G01 X16.1977 Y-12.7033
G01 X16.1412 Y-12.6963
G01 X16.0851 Y-12.6866
G01 X16.0296 Y-12.6741
G01 X15.9747 Y-12.6589
G01 X15.9206 Y-12.6411
G01 X15.8675 Y-12.6206
G01 X15.8155 Y-12.5975
G01 X15.7646 Y-12.5719
G01 X15.7151 Y-12.5438
G01 X15.6670 Y-12.5134
G01 X15.6204 Y-12.4806
G01 X15.5755 Y-12.4456
G01 X15.5324 Y-12.4084
G01 X15.4912 Y-12.3691
G01 X15.4519 Y-12.3279
G01 X15.4147 Y-12.2848
G01 X15.3797 Y-12.2399
G01 X15.3469 Y-12.1933
G01 X15.3165 Y-12.1452
G01 X15.2884 Y-12.0957
G01 X15.2628 Y-12.0448
G01 X15.2397 Y-11.9928
G01 X15.2192 Y-11.9397
G01 X15.2014 Y-11.8856
G01 X15.1862 Y-11.8307
G01 X15.1776 Y-11.7925
G01 X15.1738 Y-11.7793
G01 X15.1649 Y-11.7589
G01 X15.1538 Y-11.7415
G01 X15.1404 Y-11.7259
G01 X15.1262 Y-11.7135
G01 X15.1104 Y-11.7031
G01 X15.0934 Y-11.6949
G01 X15.0754 Y-11.6891
G01 X15.0568 Y-11.6857
G01 X15.0380 Y-11.6849
G01 X15.0175 Y-11.6869
G01 X15.0024 Y-11.6904
G01 X14.9878 Y-11.6955
G01 X14.9739 Y-11.7022
G01 X14.9608 Y-11.7104
G01 X14.9487 Y-11.7200
G01 X14.9377 Y-11.7309
G01 X14.9279 Y-11.7429
G01 X14.9196 Y-11.7559
G01 X14.9127 Y-11.7697
G01 X14.9074 Y-11.7842
G01 X14.8966 Y-11.8307
G01 X14.8814 Y-11.8856
G01 X14.8636 Y-11.9397
G01 X14.8431 Y-11.9928
G01 X14.8200 Y-12.0448
G01 X14.7944 Y-12.0957
G01 X14.7663 Y-12.1452
G01 X14.7359 Y-12.1933
G01 X14.7031 Y-12.2399
G01 X14.6681 Y-12.2848
G01 X14.6309 Y-12.3279
G01 X14.5916 Y-12.3691
G01 X14.5504 Y-12.4084
G01 X14.5073 Y-12.4456
G01 X14.4624 Y-12.4806
G01 X14.4158 Y-12.5134
G01 X14.3677 Y-12.5438
G01 X14.3182 Y-12.5719
G01 X14.2673 Y-12.5975
G01 X14.2153 Y-12.6206
G01 X14.1622 Y-12.6411
G01 X14.1081 Y-12.6589
G01 X14.0532 Y-12.6741
G01 X13.9977 Y-12.6866
G01 X13.9416 Y-12.6963
G01 X13.8851 Y-12.7033
G01 X13.8283 Y-12.7075
G01 X13.7714 Y-12.7089
G01 X13.7145 Y-12.7075
G01 X13.6577 Y-12.7033
G01 X13.6012 Y-12.6963
G01 X13.5451 Y-12.6866
G01 X13.4896 Y-12.6741
G01 X13.4347 Y-12.6589
G01 X13.3806 Y-12.6411
G01 X13.3275 Y-12.6206
G01 X13.2755 Y-12.5975
G01 X13.2246 Y-12.5719
G01 X13.1751 Y-12.5438
G01 X13.1270 Y-12.5134
G01 X13.0804 Y-12.4806
G01 X13.0355 Y-12.4456
G01 X12.9924 Y-12.4084
G01 X12.9512 Y-12.3691
G01 X12.9119 Y-12.3279
G01 X12.8747 Y-12.2848
G01 X12.8397 Y-12.2399
G01 X12.8069 Y-12.1933
G01 X12.7765 Y-12.1452
G01 X12.7484 Y-12.0957
G01 X12.7228 Y-12.0448
G01 X12.6997 Y-11.9928
G01 X12.6792 Y-11.9397
G01 X12.6580 Y-11.8742
G01 X12.6520 Y-11.8596
G01 X12.6749 Y-11.8596
G01 X12.6810 Y-11.8815
G01 X12.6975 Y-11.9313
G01 X12.7188 Y-11.9867
G01 X12.7409 Y-12.0363
G01 X12.7644 Y-12.0832
G01 X12.7936 Y-12.1350
G01 X12.8235 Y-12.1823
G01 X12.8557 Y-12.2280
G01 X12.8902 Y-12.2721
G01 X12.9256 Y-12.3132
G01 X12.9653 Y-12.3550
G01 X13.0058 Y-12.3936
G01 X13.0482 Y-12.4301
G01 X13.0923 Y-12.4646
G01 X13.1380 Y-12.4968
G01 X13.1853 Y-12.5267
G01 X13.2340 Y-12.5543
G01 X13.2840 Y-12.5794
G01 X13.3351 Y-12.6021
G01 X13.3873 Y-12.6223
G01 X13.4405 Y-12.6398
G01 X13.4944 Y-12.6547
G01 X13.5490 Y-12.6670
G01 X13.6041 Y-12.6766
G01 X13.6597 Y-12.6834
G01 X13.7189 Y-12.6877
G01 X13.7714 Y-12.6889
G01 X13.8308 Y-12.6873
G01 X13.8866 Y-12.6830
G01 X13.9387 Y-12.6766
G01 X13.9904 Y-12.6676
G01 X14.0484 Y-12.6547
G01 X14.1023 Y-12.6398
G01 X14.1555 Y-12.6223
G01 X14.2061 Y-12.6028
G01 X14.2588 Y-12.5794
G01 X14.3088 Y-12.5543
G01 X14.3575 Y-12.5267
G01 X14.4048 Y-12.4968
G01 X14.4505 Y-12.4646
G01 X14.4946 Y-12.4301
G01 X14.5370 Y-12.3936
G01 X14.5799 Y-12.3525
G01 X14.6161 Y-12.3145
G01 X14.6548 Y-12.2694
G01 X14.6891 Y-12.2252
G01 X14.7193 Y-12.1823
G01 X14.7474 Y-12.1379
G01 X14.7768 Y-12.0863
G01 X14.8019 Y-12.0363
G01 X14.8246 Y-11.9852
G01 X14.8448 Y-11.9330
G01 X14.8623 Y-11.8798
G01 X14.8772 Y-11.8259
G01 X14.8895 Y-11.7713
G01 X14.8991 Y-11.7162
G01 X14.9059 Y-11.6606
G01 X14.9100 Y-11.6048
G01 X14.9114 Y-11.5489
G01 X14.9098 Y-11.4895
G01 X14.9055 Y-11.4337
G01 X14.8991 Y-11.3816
G01 X14.8901 Y-11.3299
G01 X14.8772 Y-11.2719
G01 X14.8633 Y-11.2213
G01 X14.8448 Y-11.1648
G01 X14.8246 Y-11.1126
G01 X14.8019 Y-11.0615
G01 X14.7776 Y-11.0130
G01 X14.7474 Y-10.9599
G01 X14.7193 Y-10.9155
G01 X14.6871 Y-10.8698
G01 X14.6504 Y-10.8231
G01 X14.6161 Y-10.7833
G01 X14.5799 Y-10.7453
G01 X14.5344 Y-10.7019
G01 X14.4946 Y-10.6677
G01 X14.4532 Y-10.6353
G01 X14.4048 Y-10.6010
G01 X14.3545 Y-10.5694
G01 X14.3088 Y-10.5435
G01 X14.2619 Y-10.5199
G01 X14.2077 Y-10.4957
G01 X14.1555 Y-10.4755
G01 X14.1056 Y-10.4590
G01 X14.0484 Y-10.4431
G01 X13.9904 Y-10.4302
G01 X13.9387 Y-10.4212
G01 X13.8831 Y-10.4144
G01 X13.8239 Y-10.4101
G01 X13.7714 Y-10.4089
G01 X13.7172 Y-10.4102
G01 X13.6562 Y-10.4148
G01 X13.6041 Y-10.4212
G01 X13.5524 Y-10.4302
G01 X13.4944 Y-10.4431
G01 X13.4372 Y-10.4590
G01 X13.3873 Y-10.4755
G01 X13.3383 Y-10.4944
G01 X13.2840 Y-10.5184
G01 X13.2310 Y-10.5452
G01 X13.1853 Y-10.5711
G01 X13.1380 Y-10.6010
G01 X13.0896 Y-10.6353
G01 X13.0482 Y-10.6677
G01 X13.0084 Y-10.7019
G01 X12.9653 Y-10.7428
G01 X12.9256 Y-10.7846
G01 X12.8902 Y-10.8257
G01 X12.8578 Y-10.8671
G01 X12.8226 Y-10.9170
G01 X12.7936 Y-10.9628
G01 X12.7668 Y-11.0100
G01 X12.7416 Y-11.0599
G01 X12.7329 Y-11.0794
G01 X12.7110 Y-11.0794
G01 X12.7228 Y-11.0530
G01 X12.7484 Y-11.0021
G01 X12.7765 Y-10.9526
G01 X12.8069 Y-10.9045
G01 X12.8397 Y-10.8579
G01 X12.8747 Y-10.8130
G01 X12.9119 Y-10.7699
G01 X12.9512 Y-10.7287
G01 X12.9924 Y-10.6894
G01 X13.0355 Y-10.6522
G01 X13.0804 Y-10.6172
G01 X13.1270 Y-10.5844
G01 X13.1751 Y-10.5540
G01 X13.2246 Y-10.5259
G01 X13.2755 Y-10.5003
G01 X13.3275 Y-10.4772
G01 X13.3806 Y-10.4567
G01 X13.4347 Y-10.4389
G01 X13.4896 Y-10.4237
G01 X13.5451 Y-10.4112
G01 X13.6012 Y-10.4015
G01 X13.6577 Y-10.3945
G01 X13.7145 Y-10.3903
G01 X13.7714 Y-10.3889
G01 X13.8283 Y-10.3903
G01 X13.8851 Y-10.3945
G01 X13.9416 Y-10.4015
G01 X13.9977 Y-10.4112
G01 X14.0532 Y-10.4237
G01 X14.1081 Y-10.4389
G01 X14.1622 Y-10.4567
G01 X14.2153 Y-10.4772
G01 X14.2673 Y-10.5003
G01 X14.3182 Y-10.5259
G01 X14.3677 Y-10.5540
G01 X14.4158 Y-10.5844
G01 X14.4624 Y-10.6172
G01 X14.5073 Y-10.6522
G01 X14.5504 Y-10.6894
G01 X14.5916 Y-10.7287
G01 X14.6309 Y-10.7699
G01 X14.6681 Y-10.8130
G01 X14.7031 Y-10.8579
G01 X14.7359 Y-10.9045
G01 X14.7663 Y-10.9526
G01 X14.7944 Y-11.0021
G01 X14.8200 Y-11.0530
G01 X14.8431 Y-11.1050
G01 X14.8636 Y-11.1581
G01 X14.8814 Y-11.2122
G01 X14.8966 Y-11.2671
G01 X14.9052 Y-11.3053
G01 X14.9090 Y-11.3185
G01 X14.9171 Y-11.3374
G01 X14.9279 Y-11.3549
G01 X14.9412 Y-11.3707
G01 X14.9553 Y-11.3833
G01 X14.9724 Y-11.3947
G01 X14.9910 Y-11.4035
G01 X15.0091 Y-11.4091
G01 X15.0294 Y-11.4124
G01 X15.0500 Y-11.4127
G01 X15.0687 Y-11.4102
G01 X15.0820 Y-11.4069
G01 X15.0966 Y-11.4016
G01 X15.1104 Y-11.3947
G01 X15.1220 Y-11.3874
G01 X15.1341 Y-11.3778
G01 X15.1440 Y-11.3682
G01 X15.1528 Y-11.3577
G01 X15.1606 Y-11.3464
G01 X15.1687 Y-11.3312
G01 X15.1749 Y-11.3152
G01 X15.1862 Y-11.2671
G01 X15.2014 Y-11.2122
G01 X15.2192 Y-11.1581
G01 X15.2397 Y-11.1050
G01 X15.2628 Y-11.0530
G01 X15.2884 Y-11.0021
G01 X15.3165 Y-10.9526
G01 X15.3469 Y-10.9045
G01 X15.3797 Y-10.8579
G01 X15.4147 Y-10.8130
G01 X15.4519 Y-10.7699
G01 X15.4912 Y-10.7287
G01 X15.5324 Y-10.6894
G01 X15.5755 Y-10.6522
G01 X15.6204 Y-10.6172
G01 X15.6670 Y-10.5844
G01 X15.7151 Y-10.5540
G01 X15.7646 Y-10.5259
G01 X15.8155 Y-10.5003
G01 X15.8675 Y-10.4772
G01 X15.9206 Y-10.4567
G01 X15.9747 Y-10.4389
G01 X16.0358 Y-10.4223
G01 X16.0099 Y-10.4498
G01 X15.9788 Y-10.4585
G01 X15.9290 Y-10.4750
G01 X15.8767 Y-10.4950
G01 X15.8240 Y-10.5184
G01 X15.7755 Y-10.5427
G01 X15.7253 Y-10.5711
G01 X15.6809 Y-10.5992
G01 X15.6309 Y-10.6343
G01 X15.5882 Y-10.6677
G01 X15.5458 Y-10.7042
G01 X15.5053 Y-10.7428
G01 X15.4667 Y-10.7833
G01 X15.4302 Y-10.8257
G01 X15.3957 Y-10.8698
G01 X15.3635 Y-10.9155
G01 X15.3345 Y-10.9614
G01 X15.3060 Y-11.0115
G01 X15.2809 Y-11.0615
G01 X15.2582 Y-11.1126
G01 X15.2392 Y-11.1616
G01 X15.2205 Y-11.2180
G01 X15.2064 Y-11.2686
G01 X15.1927 Y-11.3299
G01 X15.1837 Y-11.3816
G01 X15.1769 Y-11.4372
G01 X15.1728 Y-11.4930
G01 X15.1714 Y-11.5489
G01 X15.1728 Y-11.6048
G01 X15.1769 Y-11.6606
G01 X15.1837 Y-11.7162
G01 X15.1933 Y-11.7713
G01 X15.2056 Y-11.8259
G01 X15.2205 Y-11.8798
G01 X15.2380 Y-11.9330
G01 X15.2582 Y-11.9852
G01 X15.2809 Y-12.0363
G01 X15.3060 Y-12.0863
G01 X15.3336 Y-12.1350
G01 X15.3617 Y-12.1794
G01 X15.3957 Y-12.2280
G01 X15.4280 Y-12.2694
G01 X15.4691 Y-12.3170
G01 X15.5053 Y-12.3550
G01 X15.5458 Y-12.3936
G01 X15.5882 Y-12.4301
G01 X15.6351 Y-12.4666
G01 X15.6780 Y-12.4968
G01 X15.7253 Y-12.5267
G01 X15.7740 Y-12.5543
G01 X15.8240 Y-12.5794
G01 X15.8751 Y-12.6021
G01 X15.9273 Y-12.6223
G01 X15.9805 Y-12.6398
G01 X16.0344 Y-12.6547
G01 X16.0890 Y-12.6670
G01 X16.1441 Y-12.6766
G01 X16.1997 Y-12.6834
G01 X16.2555 Y-12.6875
G01 X16.3114 Y-12.6889
G01 X16.3673 Y-12.6875
G01 X16.4231 Y-12.6834
G01 X16.4787 Y-12.6766
G01 X16.5338 Y-12.6670
G01 X16.5851 Y-12.6555
G01 X16.6456 Y-12.6388
G01 X16.6955 Y-12.6223
G01 X16.7477 Y-12.6021
G01 X16.7988 Y-12.5794
G01 X16.8457 Y-12.5559
G01 X16.9004 Y-12.5249
G01 X16.9448 Y-12.4968
G01 X16.9905 Y-12.4646
G01 X17.0372 Y-12.4279
G01 X17.0770 Y-12.3936
G01 X17.1175 Y-12.3550
G01 X17.1584 Y-12.3119
G01 X17.1926 Y-12.2721
G01 X17.2271 Y-12.2280
G01 X17.2593 Y-12.1823
G01 X17.2874 Y-12.1379
G01 X17.3184 Y-12.0832
G01 X17.3419 Y-12.0363
G01 X17.3646 Y-11.9852
G01 X17.3848 Y-11.9330
G01 X17.4013 Y-11.8831
G01 X17.4180 Y-11.8226
G01 X17.4295 Y-11.7713
G01 X17.4391 Y-11.7162
G01 X17.4459 Y-11.6606
G01 X17.4498 Y-11.6083
G01 X17.4514 Y-11.5489
G01 X17.4498 Y-11.4895
G01 X17.4459 Y-11.4372
G01 X17.4391 Y-11.3816
G01 X17.4295 Y-11.3265
G01 X17.4180 Y-11.2752
G01 X17.4023 Y-11.2180
G01 X17.3848 Y-11.1648
G01 X17.3659 Y-11.1158
G01 X17.3404 Y-11.0584
G01 X17.3168 Y-11.0115
G01 X17.2892 Y-10.9628
G01 X17.2593 Y-10.9155
G01 X17.2291 Y-10.8726
G01 X17.1904 Y-10.8231
G01 X17.1561 Y-10.7833
G01 X17.1163 Y-10.7416
G01 X17.0770 Y-10.7042
G01 X17.0346 Y-10.6677
G01 X16.9905 Y-10.6332
G01 X16.9462 Y-10.6020
G01 X16.8975 Y-10.5711
G01 X16.8503 Y-10.5443
G01 X16.8004 Y-10.5191
G01 X16.7721 Y-10.5065
G01 X16.8159 Y-10.4627
G01 X16.8235 Y-10.4802
G01 X16.8333 Y-10.4964
G01 X16.8452 Y-10.5110
G01 X16.8590 Y-10.5240
G01 X16.8743 Y-10.5349
G01 X16.9077 Y-10.5540
G01 X16.9558 Y-10.5844
G01 X17.0024 Y-10.6172
G01 X17.0473 Y-10.6522
G01 X17.0904 Y-10.6894
G01 X17.1316 Y-10.7287
G01 X17.1709 Y-10.7699
G01 X17.2081 Y-10.8130
G01 X17.2431 Y-10.8579
G01 X17.2759 Y-10.9045
G01 X17.3063 Y-10.9526
G01 X17.3344 Y-11.0021
G01 X17.3600 Y-11.0530
G01 X17.3831 Y-11.1050
G01 X17.4036 Y-11.1581
G01 X17.4214 Y-11.2122
G01 X17.4366 Y-11.2671
G01 X17.4461 Y-11.3088
G01 X17.4521 Y-11.3267
G01 X17.4614 Y-11.3451
G01 X17.4721 Y-11.3606
G01 X17.4862 Y-11.3757
G01 X17.5008 Y-11.3876
G01 X17.5110 Y-11.3941
G01 X17.5216 Y-11.3997
G01 X17.5425 Y-11.4076
G01 X17.5541 Y-11.4105
G01 X17.5660 Y-11.4123
G01 X17.5883 Y-11.4130
G01 X17.6104 Y-11.4101
G01 X17.6318 Y-11.4038
G01 X17.6429 Y-11.3990
G01 X17.6534 Y-11.3932
G01 X17.6716 Y-11.3803
G01 X17.6840 Y-11.3684
G01 X17.6949 Y-11.3552
G01 X17.7041 Y-11.3407
G01 X17.7114 Y-11.3251
G01 X17.7168 Y-11.3088
G01 X17.7263 Y-11.2671
G01 X17.7415 Y-11.2122
G01 X17.7593 Y-11.1581
G01 X17.7683 Y-11.1350
G01 X17.7837 Y-11.1504
G01 X17.7776 Y-11.1665
G01 X17.7601 Y-11.2196
G01 X17.7457 Y-11.2719
G01 X17.7331 Y-11.3282
G01 X17.7238 Y-11.3816
G01 X17.7170 Y-11.4372
G01 X17.7129 Y-11.4930
G01 X17.7115 Y-11.5455
G01 X17.7129 Y-11.6048
G01 X17.7170 Y-11.6606
G01 X17.7238 Y-11.7162
G01 X17.7328 Y-11.7679
G01 X17.7457 Y-11.8259
G01 X17.7601 Y-11.8782
G01 X17.7776 Y-11.9313
G01 X17.7837 Y-11.9474
G01 X17.7683 Y-11.9628
G00 Z2.0000
G00 X17.7448 Y-12.0852
G01 F70.00
G01 Z-0.0600
G01 F120.00
G01 X17.7151 Y-12.0196
G01 X17.6934 Y-11.9633
G01 X17.6745 Y-11.9059
G01 X17.6584 Y-11.8478
G01 X17.6487 Y-11.8052
G01 X17.6458 Y-11.7971
G01 X17.6419 Y-11.7894
G01 X17.6350 Y-11.7796
G01 X17.6259 Y-11.7705
G01 X17.6152 Y-11.7633
G01 X17.6034 Y-11.7582
G01 X17.5909 Y-11.7553
G01 X17.5780 Y-11.7547
G01 X17.5653 Y-11.7565
G01 X17.5531 Y-11.7607
G01 X17.5418 Y-11.7669
G01 X17.5320 Y-11.7752
G01 X17.5242 Y-11.7843
G01 X17.5178 Y-11.7955
G01 X17.5138 Y-11.8068
G01 X17.5045 Y-11.8478
G01 X17.4884 Y-11.9059
G01 X17.4695 Y-11.9633
G01 X17.4478 Y-12.0196
G01 X17.4233 Y-12.0748
G01 X17.3961 Y-12.1287
G01 X17.3664 Y-12.1812
G01 X17.3341 Y-12.2322
G01 X17.2993 Y-12.2816
G01 X17.2622 Y-12.3292
G01 X17.2228 Y-12.3749
G01 X17.1811 Y-12.4186
G01 X17.1374 Y-12.4603
G01 X17.0917 Y-12.4997
G01 X17.0441 Y-12.5368
G01 X16.9947 Y-12.5716
G01 X16.9437 Y-12.6039
G01 X16.8912 Y-12.6336
G01 X16.8373 Y-12.6608
G01 X16.7821 Y-12.6853
G01 X16.7258 Y-12.7070
G01 X16.6684 Y-12.7259
G01 X16.6103 Y-12.7420
G01 X16.5514 Y-12.7552
G01 X16.4919 Y-12.7656
G01 X16.4320 Y-12.7730
G01 X16.3718 Y-12.7774
G01 X16.3114 Y-12.7789
G01 X16.2510 Y-12.7774
G01 X16.1908 Y-12.7730
G01 X16.1309 Y-12.7656
G01 X16.0714 Y-12.7552
G01 X16.0125 Y-12.7420
G01 X15.9544 Y-12.7259
G01 X15.8970 Y-12.7070
G01 X15.8407 Y-12.6853
G01 X15.7855 Y-12.6608
G01 X15.7316 Y-12.6336
G01 X15.6791 Y-12.6039
G01 X15.6281 Y-12.5716
G01 X15.5787 Y-12.5368
G01 X15.5311 Y-12.4997
G01 X15.4854 Y-12.4603
G01 X15.4417 Y-12.4186
G01 X15.4000 Y-12.3749
G01 X15.3606 Y-12.3292
G01 X15.3235 Y-12.2816
G01 X15.2887 Y-12.2322
G01 X15.2564 Y-12.1812
G01 X15.2267 Y-12.1287
G01 X15.1995 Y-12.0748
G01 X15.1750 Y-12.0196
G01 X15.1533 Y-11.9633
G01 X15.1344 Y-11.9059
G01 X15.1183 Y-11.8478
G01 X15.1086 Y-11.8054
G01 X15.1050 Y-11.7957
G01 X15.1001 Y-11.7867
G01 X15.0938 Y-11.7785
G01 X15.0865 Y-11.7713
G01 X15.0781 Y-11.7653
G01 X15.0690 Y-11.7605
G01 X15.0601 Y-11.7574
G01 X15.0500 Y-11.7554
G01 X15.0397 Y-11.7549
G01 X15.0294 Y-11.7559
G01 X15.0138 Y-11.7605
G01 X14.9997 Y-11.7687
G01 X14.9931 Y-11.7742
G01 X14.9873 Y-11.7805
G01 X14.9785 Y-11.7942
G01 X14.9737 Y-11.8070
G01 X14.9645 Y-11.8478
G01 X14.9484 Y-11.9059
G01 X14.9295 Y-11.9633
G01 X14.9078 Y-12.0196
G01 X14.8833 Y-12.0748
G01 X14.8561 Y-12.1287
G01 X14.8264 Y-12.1812
G01 X14.7941 Y-12.2322
G01 X14.7593 Y-12.2816
G01 X14.7222 Y-12.3292
G01 X14.6828 Y-12.3749
G01 X14.6411 Y-12.4186
G01 X14.5974 Y-12.4603
G01 X14.5517 Y-12.4997
G01 X14.5041 Y-12.5368
G01 X14.4547 Y-12.5716
G01 X14.4037 Y-12.6039
G01 X14.3512 Y-12.6336
G01 X14.2973 Y-12.6608
G01 X14.2421 Y-12.6853
G01 X14.1858 Y-12.7070
G01 X14.1284 Y-12.7259
G01 X14.0703 Y-12.7420
G01 X14.0114 Y-12.7552
G01 X13.9519 Y-12.7656
G01 X13.8920 Y-12.7730
G01 X13.8318 Y-12.7774
G01 X13.7714 Y-12.7789
G01 X13.7110 Y-12.7774
G01 X13.6508 Y-12.7730
G01 X13.5909 Y-12.7656
G01 X13.5314 Y-12.7552
G01 X13.4725 Y-12.7420
G01 X13.4144 Y-12.7259
G01 X13.3570 Y-12.7070
G01 X13.3007 Y-12.6853
G01 X13.2455 Y-12.6608
G01 X13.1916 Y-12.6336
G01 X13.1391 Y-12.6039
G01 X13.0881 Y-12.5716
G01 X13.0387 Y-12.5368
G01 X12.9911 Y-12.4997
G01 X12.9454 Y-12.4603
G01 X12.9017 Y-12.4186
G01 X12.8600 Y-12.3749
G01 X12.8206 Y-12.3292
G01 X12.7835 Y-12.2816
G01 X12.7487 Y-12.2322
G01 X12.7164 Y-12.1812
G01 X12.6867 Y-12.1287
G01 X12.6595 Y-12.0748
G01 X12.6350 Y-12.0196
G01 X12.6133 Y-11.9633
G01 X12.5918 Y-11.8970
G01 X12.5877 Y-11.8875
G01 X12.5813 Y-11.8773
G01 X12.5732 Y-11.8684
G01 X12.5645 Y-11.8615
G01 X12.5539 Y-11.8557
G01 X12.5401 Y-11.8512
G01 X12.5256 Y-11.8497
G01 X11.6399 Y-11.8497
G01 X11.6313 Y-11.8503
G01 X11.6229 Y-11.8518
G01 X11.6147 Y-11.8544
G01 X11.6003 Y-11.8620
G01 X11.5880 Y-11.8727
G01 X11.5785 Y-11.8860
G01 X11.5731 Y-11.8986
G01 X11.5609 Y-11.9427
G01 X11.5358 Y-12.0186
G01 X11.5070 Y-12.0933
G01 X11.4746 Y-12.1664
G01 X11.4386 Y-12.2379
G01 X11.3992 Y-12.3075
G01 X11.3564 Y-12.3751
G01 X11.3103 Y-12.4405
G01 X11.2611 Y-12.5035
G01 X11.2088 Y-12.5641
G01 X11.1537 Y-12.6221
G01 X11.0957 Y-12.6772
G01 X11.0351 Y-12.7295
G01 X10.9721 Y-12.7787
G01 X10.9067 Y-12.8248
G01 X10.8391 Y-12.8676
G01 X10.7695 Y-12.9070
G01 X10.6980 Y-12.9430
G01 X10.6249 Y-12.9754
G01 X10.5502 Y-13.0042
G01 X10.4743 Y-13.0293
G01 X10.3972 Y-13.0506
G01 X10.3191 Y-13.0682
G01 X10.2403 Y-13.0818
G01 X10.1609 Y-13.0916
G01 X10.0811 Y-13.0975
G01 X10.0011 Y-13.0995
G01 X9.9211 Y-13.0975
G01 X9.8413 Y-13.0916
G01 X9.7619 Y-13.0818
G01 X9.6831 Y-13.0682
G01 X9.6050 Y-13.0506
G01 X9.5279 Y-13.0293
G01 X9.4520 Y-13.0042
G01 X9.3773 Y-12.9754
G01 X9.3042 Y-12.9430
G01 X9.2327 Y-12.9070
G01 X9.1631 Y-12.8676
G01 X9.0955 Y-12.8248
G01 X9.0301 Y-12.7787
G01 X8.9671 Y-12.7295
G01 X8.9065 Y-12.6772
G01 X8.8485 Y-12.6221
G01 X8.7934 Y-12.5641
G01 X8.7411 Y-12.5035
G01 X8.6919 Y-12.4405
G01 X8.6458 Y-12.3751
G01 X8.6030 Y-12.3075
G01 X8.5636 Y-12.2379
G01 X8.5276 Y-12.1664
G01 X8.4952 Y-12.0933
G01 X8.4664 Y-12.0186
G01 X8.4413 Y-11.9427
G01 X8.4200 Y-11.8656
G01 X8.4024 Y-11.7875
G01 X8.3888 Y-11.7087
G01 X8.3790 Y-11.6293
G01 X8.3731 Y-11.5495
G01 X8.3711 Y-11.4695
G01 X8.3731 Y-11.3895
G01 X8.3790 Y-11.3097
G01 X8.3888 Y-11.2303
G01 X8.4024 Y-11.1515
G01 X8.4200 Y-11.0734
G01 X8.4413 Y-10.9963
G01 X8.4664 Y-10.9204
G01 X8.4952 Y-10.8457
G01 X8.5276 Y-10.7726
G01 X8.5636 Y-10.7011
G01 X8.6030 Y-10.6315
G01 X8.6458 Y-10.5639
G01 X8.6919 Y-10.4985
G01 X8.7411 Y-10.4355
G01 X8.7934 Y-10.3749
G01 X8.8485 Y-10.3169
G01 X8.9065 Y-10.2618
G01 X8.9671 Y-10.2095
G01 X9.0471 Y-10.1474
G01 X9.0535 Y-10.1405
G01 X9.0588 Y-10.1327
G01 X9.0631 Y-10.1243
G01 X9.0663 Y-10.1154
G01 X9.0682 Y-10.1062
G01 X9.0688 Y-10.0967
G01 X9.0688 Y-8.7820
G01 X10.9288 Y-8.7820
G01 X10.9288 Y-10.0935
G01 X10.9296 Y-10.1038
G01 X10.9318 Y-10.1138
G01 X10.9352 Y-10.1226
G01 X10.9397 Y-10.1309
G01 X10.9452 Y-10.1386
G01 X10.9518 Y-10.1454
G01 X10.9721 Y-10.1603
G01 X11.0351 Y-10.2095
G01 X11.0957 Y-10.2618
G01 X11.1537 Y-10.3169
G01 X11.2088 Y-10.3749
G01 X11.2611 Y-10.4355
G01 X11.3103 Y-10.4985
G01 X11.3564 Y-10.5639
G01 X11.3992 Y-10.6315
G01 X11.4386 Y-10.7011
G01 X11.4746 Y-10.7726
G01 X11.5070 Y-10.8457
G01 X11.5358 Y-10.9204
G01 X11.5609 Y-10.9963
G01 X11.5731 Y-11.0404
G01 X11.5781 Y-11.0523
G01 X11.5874 Y-11.0656
G01 X11.5996 Y-11.0765
G01 X11.6139 Y-11.0843
G01 X11.6296 Y-11.0885
G01 X11.6399 Y-11.0893
G01 X12.5846 Y-11.0893
G01 X12.5957 Y-11.0884
G01 X12.6074 Y-11.0855
G01 X12.6168 Y-11.0814
G01 X12.6263 Y-11.0755
G01 X12.6347 Y-11.0682
G01 X12.6418 Y-11.0596
G01 X12.6475 Y-11.0500
G01 X12.6595 Y-11.0230
G01 X12.6867 Y-10.9691
G01 X12.7164 Y-10.9166
G01 X12.7487 Y-10.8656
G01 X12.7835 Y-10.8162
G01 X12.8206 Y-10.7686
G01 X12.8600 Y-10.7229
G01 X12.9017 Y-10.6792
G01 X12.9454 Y-10.6375
G01 X12.9911 Y-10.5981
G01 X13.0387 Y-10.5610
G01 X13.0881 Y-10.5262
G01 X13.1391 Y-10.4939
G01 X13.1916 Y-10.4642
G01 X13.2455 Y-10.4370
G01 X13.3007 Y-10.4125
G01 X13.3570 Y-10.3908
G01 X13.4144 Y-10.3719
G01 X13.4725 Y-10.3558
G01 X13.5314 Y-10.3426
G01 X13.5909 Y-10.3322
G01 X13.6508 Y-10.3248
G01 X13.7110 Y-10.3204
G01 X13.7714 Y-10.3189
G01 X13.8318 Y-10.3204
G01 X13.8920 Y-10.3248
G01 X13.9519 Y-10.3322
G01 X14.0114 Y-10.3426
G01 X14.0703 Y-10.3558
G01 X14.1284 Y-10.3719
G01 X14.1858 Y-10.3908
G01 X14.2421 Y-10.4125
G01 X14.2973 Y-10.4370
G01 X14.3512 Y-10.4642
G01 X14.4037 Y-10.4939
G01 X14.4547 Y-10.5262
G01 X14.5041 Y-10.5610
G01 X14.5517 Y-10.5981
G01 X14.5974 Y-10.6375
G01 X14.6411 Y-10.6792
G01 X14.6828 Y-10.7229
G01 X14.7222 Y-10.7686
G01 X14.7593 Y-10.8162
G01 X14.7941 Y-10.8656
G01 X14.8264 Y-10.9166
G01 X14.8561 Y-10.9691
G01 X14.8833 Y-11.0230
G01 X14.9078 Y-11.0782
G01 X14.9295 Y-11.1345
G01 X14.9484 Y-11.1919
G01 X14.9645 Y-11.2500
G01 X14.9742 Y-11.2924
G01 X14.9781 Y-11.3029
G01 X14.9837 Y-11.3125
G01 X14.9907 Y-11.3212
G01 X14.9997 Y-11.3291
G01 X15.0092 Y-11.3351
G01 X15.0194 Y-11.3394
G01 X15.0303 Y-11.3420
G01 X15.0414 Y-11.3429
G01 X15.0525 Y-11.3420
G01 X15.0642 Y-11.3391
G01 X15.0766 Y-11.3334
G01 X15.0884 Y-11.3248
G01 X15.0981 Y-11.3139
G01 X15.1050 Y-11.3021
G01 X15.1091 Y-11.2908
G01 X15.1183 Y-11.2500
G01 X15.1344 Y-11.1919
G01 X15.1533 Y-11.1345
G01 X15.1750 Y-11.0782
G01 X15.1995 Y-11.0230
G01 X15.2267 Y-10.9691
G01 X15.2564 Y-10.9166
G01 X15.2887 Y-10.8656
G01 X15.3235 Y-10.8162
G01 X15.3606 Y-10.7686
G01 X15.4000 Y-10.7229
G01 X15.4417 Y-10.6792
G01 X15.4854 Y-10.6375
G01 X15.5311 Y-10.5981
G01 X15.5787 Y-10.5610
G01 X15.6281 Y-10.5262
G01 X15.6791 Y-10.4939
G01 X15.7316 Y-10.4642
G01 X15.7855 Y-10.4370
G01 X15.8407 Y-10.4125
G01 X15.8970 Y-10.3908
G01 X15.9544 Y-10.3719
G01 X16.0125 Y-10.3558
G01 X16.0714 Y-10.3426
G01 X16.1257 Y-10.3329
G01 X16.1386 Y-10.3281
G01 X16.1503 Y-10.3209
G01 X16.1574 Y-10.3147
G01 X17.3140 Y-9.1586
G01 X17.3352 Y-9.1412
G01 X17.3581 Y-9.1259
G01 X17.3823 Y-9.1129
G01 X17.4077 Y-9.1024
G01 X17.4340 Y-9.0944
G01 X17.4610 Y-9.0891
G01 X17.4884 Y-9.0864
G01 X17.5030 Y-9.0860
G01 X19.9221 Y-9.0860
G01 X19.9367 Y-9.0864
G01 X19.9641 Y-9.0891
G01 X19.9911 Y-9.0944
G01 X20.0174 Y-9.1024
G01 X20.0428 Y-9.1129
G01 X20.0670 Y-9.1259
G01 X20.0786 Y-9.1333
G01 X20.1007 Y-9.1496
G01 X20.1217 Y-9.1687
G01 X21.8498 Y-10.8968
G01 X21.8563 Y-10.9025
G01 X21.8633 Y-10.9073
G01 X21.8710 Y-10.9113
G01 X21.8798 Y-10.9145
G01 X21.8891 Y-10.9165
G01 X21.8985 Y-10.9173
G01 X23.0444 Y-10.9173
G01 X23.0444 Y-12.5773
G01 X21.4844 Y-12.5773
G01 X21.4844 Y-11.3520
G01 X21.4836 Y-11.3426
G01 X21.4819 Y-11.3342
G01 X21.4791 Y-11.3260
G01 X21.4753 Y-11.3183
G01 X21.4701 Y-11.3104
G01 X21.4639 Y-11.3033
G01 X19.8275 Y-9.6669
G01 X19.8203 Y-9.6607
G01 X19.8110 Y-9.6546
G01 X19.8007 Y-9.6502
G01 X19.7891 Y-9.6473
G01 X19.7780 Y-9.6464
G01 X17.6471 Y-9.6464
G01 X17.6318 Y-9.6481
G01 X17.6220 Y-9.6511
G01 X17.6134 Y-9.6551
G01 X17.6054 Y-9.6602
G01 X17.5983 Y-9.6663
G01 X16.8977 Y-10.3669
G01 X16.8886 Y-10.3783
G01 X16.8822 Y-10.3914
G01 X16.8785 Y-10.4055
G01 X16.8779 Y-10.4192
G01 X16.8799 Y-10.4328
G01 X16.8841 Y-10.4449
G01 X16.8905 Y-10.4561
G01 X16.8995 Y-10.4664
G01 X16.9103 Y-10.4749
G01 X16.9437 Y-10.4939
G01 X16.9947 Y-10.5262
G01 X17.0441 Y-10.5610
G01 X17.0917 Y-10.5981
G01 X17.1374 Y-10.6375
G01 X17.1811 Y-10.6792
G01 X17.2228 Y-10.7229
G01 X17.2622 Y-10.7686
G01 X17.2993 Y-10.8162
G01 X17.3341 Y-10.8656
G01 X17.3664 Y-10.9166
G01 X17.3961 Y-10.9691
G01 X17.4233 Y-11.0230
G01 X17.4478 Y-11.0782
G01 X17.4695 Y-11.1345
G01 X17.4884 Y-11.1919
G01 X17.5045 Y-11.2500
G01 X17.5133 Y-11.2893
G01 X17.5161 Y-11.2983
G01 X17.5201 Y-11.3069
G01 X17.5257 Y-11.3155
G01 X17.5326 Y-11.3232
G01 X17.5404 Y-11.3299
G01 X17.5531 Y-11.3371
G01 X17.5661 Y-11.3414
G01 X17.5797 Y-11.3431
G01 X17.5943 Y-11.3420
G01 X17.6074 Y-11.3381
G01 X17.6203 Y-11.3313
G01 X17.6309 Y-11.3226
G01 X17.6401 Y-11.3113
G01 X17.6447 Y-11.3031
G01 X17.6484 Y-11.2935
G01 X17.6584 Y-11.2500
G01 X17.6745 Y-11.1919
G01 X17.6934 Y-11.1345
G01 X17.7151 Y-11.0782
G01 X17.7448 Y-11.0126
G01 X17.8656 Y-11.1334
G01 X17.8440 Y-11.1884
G01 X17.8276 Y-11.2383
G01 X17.8136 Y-11.2889
G01 X17.8021 Y-11.3402
G01 X17.7931 Y-11.3919
G01 X17.7867 Y-11.4440
G01 X17.7828 Y-11.4964
G01 X17.7815 Y-11.5489
G01 X17.7828 Y-11.6014
G01 X17.7867 Y-11.6538
G01 X17.7931 Y-11.7059
G01 X17.8021 Y-11.7576
G01 X17.8136 Y-11.8089
G01 X17.8276 Y-11.8595
G01 X17.8440 Y-11.9094
G01 X17.8656 Y-11.9644
G01 X17.7448 Y-12.0852
G00 Z2.0000
G00 X18.3152 Y-12.6556
G01 F70.00
G01 Z-0.0600
G01 F120.00
G01 X18.4360 Y-12.5348
G01 X18.4910 Y-12.5564
G01 X18.5409 Y-12.5728
G01 X18.5915 Y-12.5868
G01 X18.6428 Y-12.5983
G01 X18.6945 Y-12.6073
G01 X18.7466 Y-12.6137
G01 X18.7990 Y-12.6176
G01 X18.8515 Y-12.6189
G01 X18.9040 Y-12.6176
G01 X18.9564 Y-12.6137
G01 X19.0085 Y-12.6073
G01 X19.0602 Y-12.5983
G01 X19.1115 Y-12.5868
G01 X19.1621 Y-12.5728
G01 X19.2120 Y-12.5564
G01 X19.2670 Y-12.5348
G01 X19.3877 Y-12.6556
G01 X19.3222 Y-12.6853
G01 X19.2659 Y-12.7070
G01 X19.2085 Y-12.7259
G01 X19.1504 Y-12.7420
G01 X19.0915 Y-12.7552
G01 X19.0320 Y-12.7656
G01 X18.9721 Y-12.7730
G01 X18.9119 Y-12.7774
G01 X18.8515 Y-12.7789
G01 X18.7911 Y-12.7774
G01 X18.7309 Y-12.7730
G01 X18.6710 Y-12.7656
G01 X18.6115 Y-12.7552
G01 X18.5526 Y-12.7420
G01 X18.4945 Y-12.7259
G01 X18.4371 Y-12.7070
G01 X18.3808 Y-12.6853
G01 X18.3152 Y-12.6556
G00 Z2.0000
G00 X18.4376 Y-12.6321
G01 F70.00
G01 Z-0.0600
G01 F120.00
G01 X18.4530 Y-12.6167
G01 X18.4691 Y-12.6228
G01 X18.5222 Y-12.6403
G01 X18.5745 Y-12.6547
G01 X18.6308 Y-12.6673
G01 X18.6842 Y-12.6766
G01 X18.7398 Y-12.6834
G01 X18.7956 Y-12.6875
