(G-CODE GENERATED BY FLATCAM v8.993 - www.flatcam.org - Version Date: 2020/06/05)

(Name: 132u02_Ф2_низ.gbr_iso_combined_cnc)
(Type: G-code from Geometry)
(Units: MM)

(Created on Wednesday, 28 October 2020 at 04:14)

(This preprocessor is the default preprocessor used by FlatCAM.)
(It is made to work with MACH3 compatible motion controllers.)

(TOOL DIAMETER: 0.14 mm)
(Feedrate_XY: 120.0 mm/min)
(Feedrate_Z: 70.0 mm/min)
(Feedrate rapids 1500.0 mm/min)

(Z_Cut: -0.06 mm)
(Z_Move: 2.0 mm)
(Z Start: None mm)
(Z End: 25.0 mm)
(Steps per circle: 128)
(Preprocessor Geometry: default)

(X range:  -97.7479 ...   -3.1736  mm)
(Y range:  -31.5544 ...   -0.5912  mm)

(Spindle Speed: 10000 RPM)
G21
G90
G94



G01 F120.00
G00 Z2.0000

M03 S10000
G00 X-3.1736 Y-4.9608
G01 F70.00
G01 Z-0.0600
G01 F120.00
G01 X-3.1753 Y-5.0310
G01 X-3.1805 Y-5.1010
G01 X-3.1891 Y-5.1706
G01 X-3.2011 Y-5.2398
G01 X-3.2165 Y-5.3083
G01 X-3.2352 Y-5.3759
G01 X-3.2572 Y-5.4425
G01 X-3.2825 Y-5.5080
G01 X-3.3109 Y-5.5722
G01 X-3.3425 Y-5.6349
G01 X-3.3771 Y-5.6960
G01 X-3.4146 Y-5.7553
G01 X-3.4550 Y-5.8126
G01 X-3.4982 Y-5.8680
G01 X-3.5441 Y-5.9211
G01 X-3.5925 Y-5.9719
G01 X-3.6433 Y-6.0203
G01 X-3.6964 Y-6.0662
G01 X-3.7518 Y-6.1094
G01 X-3.8091 Y-6.1498
G01 X-3.8684 Y-6.1873
G01 X-3.9295 Y-6.2219
G01 X-3.9922 Y-6.2535
G01 X-4.0564 Y-6.2819
G01 X-4.1219 Y-6.3072
G01 X-4.1885 Y-6.3292
G01 X-4.2561 Y-6.3479
G01 X-4.3246 Y-6.3633
G01 X-4.3938 Y-6.3753
G01 X-4.4634 Y-6.3839
G01 X-4.5334 Y-6.3891
G01 X-4.6036 Y-6.3908
G01 X-4.6738 Y-6.3891
G01 X-4.7438 Y-6.3839
G01 X-4.8134 Y-6.3753
G01 X-4.8826 Y-6.3633
G01 X-4.9511 Y-6.3479
G01 X-5.0187 Y-6.3292
G01 X-5.0853 Y-6.3072
G01 X-5.1508 Y-6.2819
G01 X-5.2150 Y-6.2535
G01 X-5.2777 Y-6.2219
G01 X-5.3388 Y-6.1873
G01 X-5.3981 Y-6.1498
G01 X-5.4554 Y-6.1094
G01 X-5.5108 Y-6.0662
G01 X-5.5639 Y-6.0203
G01 X-5.6147 Y-5.9719
G01 X-5.6631 Y-5.9211
G01 X-5.7090 Y-5.8680
G01 X-5.7522 Y-5.8126
G01 X-5.7926 Y-5.7553
G01 X-5.8301 Y-5.6960
G01 X-5.8647 Y-5.6349
G01 X-5.8963 Y-5.5722
G01 X-5.9247 Y-5.5080
G01 X-5.9500 Y-5.4425
G01 X-5.9720 Y-5.3759
G01 X-5.9907 Y-5.3083
G01 X-6.0061 Y-5.2398
G01 X-6.0181 Y-5.1706
G01 X-6.0267 Y-5.1010
G01 X-6.0319 Y-5.0310
G01 X-6.0336 Y-4.9608
G01 X-6.0319 Y-4.8906
G01 X-6.0267 Y-4.8206
G01 X-6.0181 Y-4.7510
G01 X-6.0061 Y-4.6818
G01 X-5.9907 Y-4.6133
G01 X-5.9720 Y-4.5457
G01 X-5.9500 Y-4.4791
G01 X-5.9247 Y-4.4136
G01 X-5.8963 Y-4.3494
G01 X-5.8647 Y-4.2867
G01 X-5.8301 Y-4.2256
G01 X-5.7926 Y-4.1663
G01 X-5.7522 Y-4.1090
G01 X-5.7090 Y-4.0536
G01 X-5.6631 Y-4.0005
G01 X-5.6147 Y-3.9497
G01 X-5.5639 Y-3.9013
G01 X-5.5108 Y-3.8554
G01 X-5.4554 Y-3.8122
G01 X-5.3981 Y-3.7718
G01 X-5.3388 Y-3.7343
G01 X-5.2777 Y-3.6997
G01 X-5.2150 Y-3.6681
G01 X-5.1508 Y-3.6397
G01 X-5.0853 Y-3.6144
G01 X-5.0187 Y-3.5924
G01 X-4.9511 Y-3.5737
G01 X-4.8826 Y-3.5583
G01 X-4.8134 Y-3.5463
G01 X-4.7438 Y-3.5377
G01 X-4.6738 Y-3.5325
G01 X-4.6036 Y-3.5308
G01 X-4.5334 Y-3.5325
G01 X-4.4634 Y-3.5377
G01 X-4.3938 Y-3.5463
G01 X-4.3246 Y-3.5583
G01 X-4.2561 Y-3.5737
G01 X-4.1885 Y-3.5924
G01 X-4.1219 Y-3.6144
G01 X-4.0564 Y-3.6397
G01 X-3.9922 Y-3.6681
G01 X-3.9295 Y-3.6997
G01 X-3.8684 Y-3.7343
G01 X-3.8091 Y-3.7718
G01 X-3.7518 Y-3.8122
G01 X-3.6964 Y-3.8554
G01 X-3.6433 Y-3.9013
G01 X-3.5925 Y-3.9497
G01 X-3.5441 Y-4.0005
G01 X-3.4982 Y-4.0536
G01 X-3.4550 Y-4.1090
G01 X-3.4146 Y-4.1663
G01 X-3.3771 Y-4.2256
G01 X-3.3425 Y-4.2867
G01 X-3.3109 Y-4.3494
G01 X-3.2825 Y-4.4136
G01 X-3.2572 Y-4.4791
G01 X-3.2352 Y-4.5457
G01 X-3.2165 Y-4.6133
G01 X-3.2011 Y-4.6818
G01 X-3.1891 Y-4.7510
G01 X-3.1805 Y-4.8206
G01 X-3.1753 Y-4.8906
G01 X-3.1736 Y-4.9608
G00 Z2.0000
G00 X-3.2436 Y-4.9608
G01 F70.00
G01 Z-0.0600
G01 F120.00
G01 X-3.2453 Y-5.0275
G01 X-3.2502 Y-5.0941
G01 X-3.2584 Y-5.1603
G01 X-3.2698 Y-5.2261
G01 X-3.2844 Y-5.2912
G01 X-3.3022 Y-5.3556
G01 X-3.3231 Y-5.4190
G01 X-3.3472 Y-5.4812
G01 X-3.3742 Y-5.5423
G01 X-3.4042 Y-5.6019
G01 X-3.4371 Y-5.6600
G01 X-3.4728 Y-5.7164
G01 X-3.5113 Y-5.7709
G01 X-3.5523 Y-5.8235
G01 X-3.5959 Y-5.8741
G01 X-3.6420 Y-5.9224
G01 X-3.6903 Y-5.9685
G01 X-3.7409 Y-6.0121
G01 X-3.7935 Y-6.0531
G01 X-3.8480 Y-6.0916
G01 X-3.9044 Y-6.1273
G01 X-3.9625 Y-6.1602
G01 X-4.0221 Y-6.1902
G01 X-4.0832 Y-6.2172
G01 X-4.1454 Y-6.2413
G01 X-4.2088 Y-6.2622
G01 X-4.2732 Y-6.2800
G01 X-4.3383 Y-6.2946
G01 X-4.4041 Y-6.3060
G01 X-4.4703 Y-6.3142
G01 X-4.5369 Y-6.3191
G01 X-4.6036 Y-6.3208
G01 X-4.6703 Y-6.3191
G01 X-4.7369 Y-6.3142
G01 X-4.8031 Y-6.3060
G01 X-4.8689 Y-6.2946
G01 X-4.9340 Y-6.2800
G01 X-4.9984 Y-6.2622
G01 X-5.0618 Y-6.2413
G01 X-5.1240 Y-6.2172
G01 X-5.1851 Y-6.1902
G01 X-5.2447 Y-6.1602
G01 X-5.3028 Y-6.1273
G01 X-5.3592 Y-6.0916
G01 X-5.4137 Y-6.0531
G01 X-5.4663 Y-6.0121
G01 X-5.5169 Y-5.9685
G01 X-5.5652 Y-5.9224
G01 X-5.6113 Y-5.8741
G01 X-5.6549 Y-5.8235
G01 X-5.6959 Y-5.7709
G01 X-5.7344 Y-5.7164
G01 X-5.7701 Y-5.6600
G01 X-5.8030 Y-5.6019
G01 X-5.8330 Y-5.5423
G01 X-5.8600 Y-5.4812
G01 X-5.8841 Y-5.4190
G01 X-5.9050 Y-5.3556
G01 X-5.9228 Y-5.2912
G01 X-5.9374 Y-5.2261
G01 X-5.9488 Y-5.1603
G01 X-5.9570 Y-5.0941
G01 X-5.9619 Y-5.0275
G01 X-5.9636 Y-4.9608
G01 X-5.9619 Y-4.8941
G01 X-5.9570 Y-4.8275
G01 X-5.9488 Y-4.7613
G01 X-5.9374 Y-4.6955
G01 X-5.9228 Y-4.6304
G01 X-5.9050 Y-4.5660
G01 X-5.8841 Y-4.5026
G01 X-5.8600 Y-4.4404
G01 X-5.8330 Y-4.3793
G01 X-5.8030 Y-4.3197
G01 X-5.7701 Y-4.2616
G01 X-5.7344 Y-4.2052
G01 X-5.6959 Y-4.1507
G01 X-5.6549 Y-4.0981
G01 X-5.6113 Y-4.0475
G01 X-5.5652 Y-3.9992
G01 X-5.5169 Y-3.9531
G01 X-5.4663 Y-3.9095
G01 X-5.4137 Y-3.8685
G01 X-5.3592 Y-3.8300
G01 X-5.3028 Y-3.7943
G01 X-5.2447 Y-3.7614
G01 X-5.1851 Y-3.7314
G01 X-5.1240 Y-3.7044
G01 X-5.0618 Y-3.6803
G01 X-4.9984 Y-3.6594
G01 X-4.9340 Y-3.6416
G01 X-4.8689 Y-3.6270
G01 X-4.8031 Y-3.6156
G01 X-4.7369 Y-3.6074
G01 X-4.6703 Y-3.6025
G01 X-4.6036 Y-3.6008
G01 X-4.5369 Y-3.6025
G01 X-4.4703 Y-3.6074
G01 X-4.4041 Y-3.6156
G01 X-4.3383 Y-3.6270
G01 X-4.2732 Y-3.6416
G01 X-4.2088 Y-3.6594
G01 X-4.1454 Y-3.6803
G01 X-4.0832 Y-3.7044
G01 X-4.0221 Y-3.7314
G01 X-3.9625 Y-3.7614
G01 X-3.9044 Y-3.7943
G01 X-3.8480 Y-3.8300
G01 X-3.7935 Y-3.8685
G01 X-3.7409 Y-3.9095
G01 X-3.6903 Y-3.9531
G01 X-3.6420 Y-3.9992
G01 X-3.5959 Y-4.0475
G01 X-3.5523 Y-4.0981
G01 X-3.5113 Y-4.1507
G01 X-3.4728 Y-4.2052
G01 X-3.4371 Y-4.2616
G01 X-3.4042 Y-4.3197
G01 X-3.3742 Y-4.3793
G01 X-3.3472 Y-4.4404
G01 X-3.3231 Y-4.5026
G01 X-3.3022 Y-4.5660
G01 X-3.2844 Y-4.6304
G01 X-3.2698 Y-4.6955
G01 X-3.2584 Y-4.7613
G01 X-3.2502 Y-4.8275
G01 X-3.2453 Y-4.8941
G01 X-3.2436 Y-4.9608
G00 Z2.0000
G00 X-3.3137 Y-4.9608
G01 F70.00
G01 Z-0.0600
G01 F120.00
G01 X-3.3152 Y-5.0241
G01 X-3.3199 Y-5.0872
G01 X-3.3276 Y-5.1501
G01 X-3.3384 Y-5.2125
G01 X-3.3523 Y-5.2742
G01 X-3.3692 Y-5.3352
G01 X-3.3891 Y-5.3954
G01 X-3.4119 Y-5.4544
G01 X-3.4375 Y-5.5123
G01 X-3.4660 Y-5.5689
G01 X-3.4972 Y-5.6240
G01 X-3.5311 Y-5.6775
G01 X-3.5675 Y-5.7292
G01 X-3.6065 Y-5.7791
G01 X-3.6478 Y-5.8271
G01 X-3.6915 Y-5.8729
G01 X-3.7373 Y-5.9166
G01 X-3.7853 Y-5.9579
G01 X-3.8352 Y-5.9969
G01 X-3.8869 Y-6.0333
G01 X-3.9404 Y-6.0672
G01 X-3.9955 Y-6.0984
G01 X-4.0521 Y-6.1269
G01 X-4.1100 Y-6.1525
G01 X-4.1690 Y-6.1753
G01 X-4.2292 Y-6.1952
G01 X-4.2902 Y-6.2121
G01 X-4.3519 Y-6.2260
G01 X-4.4143 Y-6.2368
G01 X-4.4772 Y-6.2445
G01 X-4.5403 Y-6.2492
G01 X-4.6036 Y-6.2507
G01 X-4.6669 Y-6.2492
G01 X-4.7300 Y-6.2445
G01 X-4.7929 Y-6.2368
G01 X-4.8553 Y-6.2260
G01 X-4.9170 Y-6.2121
G01 X-4.9780 Y-6.1952
G01 X-5.0382 Y-6.1753
G01 X-5.0972 Y-6.1525
G01 X-5.1551 Y-6.1269
G01 X-5.2117 Y-6.0984
G01 X-5.2668 Y-6.0672
G01 X-5.3203 Y-6.0333
G01 X-5.3720 Y-5.9969
G01 X-5.4219 Y-5.9579
G01 X-5.4699 Y-5.9166
G01 X-5.5157 Y-5.8729
G01 X-5.5594 Y-5.8271
G01 X-5.6007 Y-5.7791
G01 X-5.6397 Y-5.7292
G01 X-5.6761 Y-5.6775
G01 X-5.7100 Y-5.6240
G01 X-5.7412 Y-5.5689
G01 X-5.7697 Y-5.5123
G01 X-5.7953 Y-5.4544
G01 X-5.8181 Y-5.3954
G01 X-5.8380 Y-5.3352
G01 X-5.8549 Y-5.2742
G01 X-5.8688 Y-5.2125
G01 X-5.8796 Y-5.1501
G01 X-5.8873 Y-5.0872
G01 X-5.8920 Y-5.0241
G01 X-5.8935 Y-4.9608
G01 X-5.8920 Y-4.8975
G01 X-5.8873 Y-4.8344
G01 X-5.8796 Y-4.7715
G01 X-5.8688 Y-4.7091
G01 X-5.8549 Y-4.6474
G01 X-5.8380 Y-4.5864
G01 X-5.8181 Y-4.5262
G01 X-5.7953 Y-4.4672
G01 X-5.7697 Y-4.4093
G01 X-5.7412 Y-4.3527
G01 X-5.7100 Y-4.2976
G01 X-5.6761 Y-4.2441
G01 X-5.6397 Y-4.1924
G01 X-5.6007 Y-4.1425
G01 X-5.5594 Y-4.0945
G01 X-5.5157 Y-4.0487
G01 X-5.4699 Y-4.0050
G01 X-5.4219 Y-3.9637
G01 X-5.3720 Y-3.9247
G01 X-5.3203 Y-3.8883
G01 X-5.2668 Y-3.8544
G01 X-5.2117 Y-3.8232
G01 X-5.1551 Y-3.7947
G01 X-5.0972 Y-3.7691
G01 X-5.0382 Y-3.7463
G01 X-4.9780 Y-3.7264
G01 X-4.9170 Y-3.7095
G01 X-4.8553 Y-3.6956
G01 X-4.7929 Y-3.6848
G01 X-4.7300 Y-3.6771
G01 X-4.6669 Y-3.6724
G01 X-4.6036 Y-3.6709
G01 X-4.5403 Y-3.6724
G01 X-4.4772 Y-3.6771
G01 X-4.4143 Y-3.6848
G01 X-4.3519 Y-3.6956
G01 X-4.2902 Y-3.7095
G01 X-4.2292 Y-3.7264
G01 X-4.1690 Y-3.7463
G01 X-4.1100 Y-3.7691
G01 X-4.0521 Y-3.7947
G01 X-3.9955 Y-3.8232
G01 X-3.9404 Y-3.8544
G01 X-3.8869 Y-3.8883
G01 X-3.8352 Y-3.9247
G01 X-3.7853 Y-3.9637
G01 X-3.7373 Y-4.0050
G01 X-3.6915 Y-4.0487
G01 X-3.6478 Y-4.0945
G01 X-3.6065 Y-4.1425
G01 X-3.5675 Y-4.1924
G01 X-3.5311 Y-4.2441
G01 X-3.4972 Y-4.2976
G01 X-3.4660 Y-4.3527
G01 X-3.4375 Y-4.4093
G01 X-3.4119 Y-4.4672
G01 X-3.3891 Y-4.5262
G01 X-3.3692 Y-4.5864
G01 X-3.3523 Y-4.6474
G01 X-3.3384 Y-4.7091
G01 X-3.3276 Y-4.7715
G01 X-3.3199 Y-4.8344
G01 X-3.3152 Y-4.8975
G01 X-3.3137 Y-4.9608
G00 Z2.0000
G00 X-3.3837 Y-4.9608
G01 F70.00
G01 Z-0.0600
G01 F120.00
G01 X-3.3852 Y-5.0207
G01 X-3.3896 Y-5.0804
G01 X-3.3969 Y-5.1398
G01 X-3.4071 Y-5.1988
G01 X-3.4202 Y-5.2572
G01 X-3.4362 Y-5.3149
G01 X-3.4550 Y-5.3718
G01 X-3.4765 Y-5.4276
G01 X-3.5008 Y-5.4824
G01 X-3.5277 Y-5.5359
G01 X-3.5572 Y-5.5880
G01 X-3.5893 Y-5.6385
G01 X-3.6238 Y-5.6875
G01 X-3.6606 Y-5.7347
G01 X-3.6997 Y-5.7800
G01 X-3.7410 Y-5.8234
G01 X-3.7844 Y-5.8647
G01 X-3.8297 Y-5.9038
G01 X-3.8769 Y-5.9406
G01 X-3.9259 Y-5.9751
G01 X-3.9764 Y-6.0072
G01 X-4.0285 Y-6.0367
G01 X-4.0820 Y-6.0636
G01 X-4.1368 Y-6.0879
G01 X-4.1926 Y-6.1094
G01 X-4.2495 Y-6.1282
G01 X-4.3072 Y-6.1442
G01 X-4.3656 Y-6.1573
G01 X-4.4246 Y-6.1675
G01 X-4.4840 Y-6.1748
G01 X-4.5437 Y-6.1792
G01 X-4.6036 Y-6.1807
G01 X-4.6635 Y-6.1792
G01 X-4.7232 Y-6.1748
G01 X-4.7826 Y-6.1675
G01 X-4.8416 Y-6.1573
G01 X-4.9000 Y-6.1442
G01 X-4.9577 Y-6.1282
G01 X-5.0146 Y-6.1094
G01 X-5.0704 Y-6.0879
G01 X-5.1252 Y-6.0636
G01 X-5.1787 Y-6.0367
G01 X-5.2308 Y-6.0072
G01 X-5.2813 Y-5.9751
G01 X-5.3303 Y-5.9406
G01 X-5.3775 Y-5.9038
G01 X-5.4228 Y-5.8647
G01 X-5.4662 Y-5.8234
G01 X-5.5075 Y-5.7800
G01 X-5.5466 Y-5.7347
G01 X-5.5834 Y-5.6875
G01 X-5.6179 Y-5.6385
G01 X-5.6500 Y-5.5880
G01 X-5.6795 Y-5.5359
G01 X-5.7064 Y-5.4824
G01 X-5.7307 Y-5.4276
G01 X-5.7522 Y-5.3718
G01 X-5.7710 Y-5.3149
G01 X-5.7870 Y-5.2572
G01 X-5.8001 Y-5.1988
G01 X-5.8103 Y-5.1398
G01 X-5.8176 Y-5.0804
G01 X-5.8220 Y-5.0207
G01 X-5.8235 Y-4.9608
G01 X-5.8220 Y-4.9009
G01 X-5.8176 Y-4.8412
G01 X-5.8103 Y-4.7818
G01 X-5.8001 Y-4.7228
G01 X-5.7870 Y-4.6644
G01 X-5.7710 Y-4.6067
G01 X-5.7522 Y-4.5498
G01 X-5.7307 Y-4.4940
G01 X-5.7064 Y-4.4392
G01 X-5.6795 Y-4.3857
G01 X-5.6500 Y-4.3336
G01 X-5.6179 Y-4.2831
G01 X-5.5834 Y-4.2341
G01 X-5.5466 Y-4.1869
G01 X-5.5075 Y-4.1416
G01 X-5.4662 Y-4.0982
G01 X-5.4228 Y-4.0569
G01 X-5.3775 Y-4.0178
G01 X-5.3303 Y-3.9810
G01 X-5.2813 Y-3.9465
G01 X-5.2308 Y-3.9144
G01 X-5.1787 Y-3.8849
G01 X-5.1252 Y-3.8580
G01 X-5.0704 Y-3.8337
G01 X-5.0146 Y-3.8122
G01 X-4.9577 Y-3.7934
G01 X-4.9000 Y-3.7774
G01 X-4.8416 Y-3.7643
G01 X-4.7826 Y-3.7541
G01 X-4.7232 Y-3.7468
G01 X-4.6635 Y-3.7424
G01 X-4.6036 Y-3.7409
G01 X-4.5437 Y-3.7424
G01 X-4.4840 Y-3.7468
G01 X-4.4246 Y-3.7541
G01 X-4.3656 Y-3.7643
G01 X-4.3072 Y-3.7774
G01 X-4.2495 Y-3.7934
G01 X-4.1926 Y-3.8122
G01 X-4.1368 Y-3.8337
G01 X-4.0820 Y-3.8580
G01 X-4.0285 Y-3.8849
G01 X-3.9764 Y-3.9144
G01 X-3.9259 Y-3.9465
G01 X-3.8769 Y-3.9810
G01 X-3.8297 Y-4.0178
G01 X-3.7844 Y-4.0569
G01 X-3.7410 Y-4.0982
G01 X-3.6997 Y-4.1416
G01 X-3.6606 Y-4.1869
G01 X-3.6238 Y-4.2341
G01 X-3.5893 Y-4.2831
G01 X-3.5572 Y-4.3336
G01 X-3.5277 Y-4.3857
G01 X-3.5008 Y-4.4392
G01 X-3.4765 Y-4.4940
G01 X-3.4550 Y-4.5498
G01 X-3.4362 Y-4.6067
G01 X-3.4202 Y-4.6644
G01 X-3.4071 Y-4.7228
G01 X-3.3969 Y-4.7818
G01 X-3.3896 Y-4.8412
G01 X-3.3852 Y-4.9009
G01 X-3.3837 Y-4.9608
G00 Z2.0000
G00 X-12.6314 Y-11.5489
G01 F70.00
G01 Z-0.0600
G01 F120.00
G01 X-12.6328 Y-11.4930
G01 X-12.6369 Y-11.4372
G01 X-12.6437 Y-11.3816
G01 X-12.6533 Y-11.3265
G01 X-12.6656 Y-11.2719
G01 X-12.6805 Y-11.2180
G01 X-12.6980 Y-11.1648
G01 X-12.7182 Y-11.1126
G01 X-12.7409 Y-11.0615
G01 X-12.7660 Y-11.0115
G01 X-12.7936 Y-10.9628
G01 X-12.8235 Y-10.9155
G01 X-12.8557 Y-10.8698
G01 X-12.8902 Y-10.8257
G01 X-12.9267 Y-10.7833
G01 X-12.9653 Y-10.7428
G01 X-13.0058 Y-10.7042
G01 X-13.0482 Y-10.6677
G01 X-13.0923 Y-10.6332
G01 X-13.1380 Y-10.6010
G01 X-13.1853 Y-10.5711
G01 X-13.2340 Y-10.5435
G01 X-13.2840 Y-10.5184
G01 X-13.3351 Y-10.4957
G01 X-13.3873 Y-10.4755
G01 X-13.4405 Y-10.4580
G01 X-13.4944 Y-10.4431
G01 X-13.5490 Y-10.4308
G01 X-13.6041 Y-10.4212
G01 X-13.6597 Y-10.4144
G01 X-13.7155 Y-10.4103
G01 X-13.7714 Y-10.4089
G01 X-13.8273 Y-10.4103
G01 X-13.8831 Y-10.4144
G01 X-13.9387 Y-10.4212
G01 X-13.9938 Y-10.4308
G01 X-14.0484 Y-10.4431
G01 X-14.1023 Y-10.4580
G01 X-14.1555 Y-10.4755
G01 X-14.2077 Y-10.4957
G01 X-14.2588 Y-10.5184
G01 X-14.3088 Y-10.5435
G01 X-14.3575 Y-10.5711
G01 X-14.4048 Y-10.6010
G01 X-14.4505 Y-10.6332
G01 X-14.4946 Y-10.6677
G01 X-14.5370 Y-10.7042
G01 X-14.5775 Y-10.7428
G01 X-14.6161 Y-10.7833
G01 X-14.6526 Y-10.8257
G01 X-14.6871 Y-10.8698
G01 X-14.7193 Y-10.9155
G01 X-14.7492 Y-10.9628
G01 X-14.7768 Y-11.0115
G01 X-14.8019 Y-11.0615
G01 X-14.8246 Y-11.1126
G01 X-14.8448 Y-11.1648
G01 X-14.8623 Y-11.2180
G01 X-14.8772 Y-11.2719
G01 X-14.8895 Y-11.3265
G01 X-14.8991 Y-11.3816
G01 X-14.9059 Y-11.4372
G01 X-14.9100 Y-11.4930
G01 X-14.9114 Y-11.5489
G01 X-14.9100 Y-11.6048
G01 X-14.9059 Y-11.6606
G01 X-14.8991 Y-11.7162
G01 X-14.8895 Y-11.7713
G01 X-14.8772 Y-11.8259
G01 X-14.8623 Y-11.8798
G01 X-14.8448 Y-11.9330
G01 X-14.8246 Y-11.9852
G01 X-14.8019 Y-12.0363
G01 X-14.7768 Y-12.0863
G01 X-14.7492 Y-12.1350
G01 X-14.7193 Y-12.1823
G01 X-14.6871 Y-12.2280
G01 X-14.6526 Y-12.2721
G01 X-14.6161 Y-12.3145
G01 X-14.5775 Y-12.3550
G01 X-14.5370 Y-12.3936
G01 X-14.4946 Y-12.4301
G01 X-14.4505 Y-12.4646
G01 X-14.4048 Y-12.4968
G01 X-14.3575 Y-12.5267
G01 X-14.3088 Y-12.5543
G01 X-14.2588 Y-12.5794
G01 X-14.2077 Y-12.6021
G01 X-14.1555 Y-12.6223
G01 X-14.1023 Y-12.6398
G01 X-14.0484 Y-12.6547
G01 X-13.9938 Y-12.6670
G01 X-13.9387 Y-12.6766
G01 X-13.8831 Y-12.6834
G01 X-13.8273 Y-12.6875
G01 X-13.7714 Y-12.6889
G01 X-13.7155 Y-12.6875
G01 X-13.6597 Y-12.6834
G01 X-13.6041 Y-12.6766
G01 X-13.5490 Y-12.6670
G01 X-13.4944 Y-12.6547
G01 X-13.4405 Y-12.6398
G01 X-13.3873 Y-12.6223
G01 X-13.3351 Y-12.6021
G01 X-13.2840 Y-12.5794
G01 X-13.2340 Y-12.5543
G01 X-13.1853 Y-12.5267
G01 X-13.1380 Y-12.4968
G01 X-13.0923 Y-12.4646
G01 X-13.0482 Y-12.4301
G01 X-13.0058 Y-12.3936
G01 X-12.9653 Y-12.3550
G01 X-12.9267 Y-12.3145
G01 X-12.8902 Y-12.2721
G01 X-12.8557 Y-12.2280
G01 X-12.8235 Y-12.1823
G01 X-12.7936 Y-12.1350
G01 X-12.7660 Y-12.0863
G01 X-12.7409 Y-12.0363
G01 X-12.7182 Y-11.9852
G01 X-12.6980 Y-11.9330
G01 X-12.6805 Y-11.8798
G01 X-12.6656 Y-11.8259
G01 X-12.6533 Y-11.7713
G01 X-12.6437 Y-11.7162
G01 X-12.6369 Y-11.6606
G01 X-12.6328 Y-11.6048
G01 X-12.6314 Y-11.5489
G00 Z2.0000
G00 X-12.7014 Y-11.5489
G01 F70.00
G01 Z-0.0600
G01 F120.00
G01 X-12.7027 Y-11.4964
G01 X-12.7066 Y-11.4440
G01 X-12.7130 Y-11.3919
G01 X-12.7220 Y-11.3402
G01 X-12.7335 Y-11.2889
G01 X-12.7475 Y-11.2383
G01 X-12.7639 Y-11.1884
G01 X-12.7828 Y-11.1394
G01 X-12.8041 Y-11.0914
G01 X-12.8277 Y-11.0445
G01 X-12.8536 Y-10.9988
G01 X-12.8817 Y-10.9544
G01 X-12.9120 Y-10.9115
G01 X-12.9443 Y-10.8701
G01 X-12.9786 Y-10.8303
G01 X-13.0148 Y-10.7923
G01 X-13.0528 Y-10.7561
G01 X-13.0926 Y-10.7218
G01 X-13.1340 Y-10.6895
G01 X-13.1769 Y-10.6592
G01 X-13.2213 Y-10.6311
G01 X-13.2670 Y-10.6052
G01 X-13.3139 Y-10.5816
G01 X-13.3619 Y-10.5603
G01 X-13.4109 Y-10.5414
G01 X-13.4608 Y-10.5250
G01 X-13.5114 Y-10.5110
G01 X-13.5627 Y-10.4995
G01 X-13.6144 Y-10.4905
G01 X-13.6665 Y-10.4841
G01 X-13.7189 Y-10.4802
G01 X-13.7714 Y-10.4789
G01 X-13.8239 Y-10.4802
G01 X-13.8763 Y-10.4841
G01 X-13.9284 Y-10.4905
G01 X-13.9801 Y-10.4995
G01 X-14.0314 Y-10.5110
G01 X-14.0820 Y-10.5250
G01 X-14.1319 Y-10.5414
G01 X-14.1809 Y-10.5603
G01 X-14.2289 Y-10.5816
G01 X-14.2758 Y-10.6052
G01 X-14.3215 Y-10.6311
G01 X-14.3659 Y-10.6592
G01 X-14.4088 Y-10.6895
G01 X-14.4502 Y-10.7218
G01 X-14.4900 Y-10.7561
G01 X-14.5280 Y-10.7923
G01 X-14.5642 Y-10.8303
G01 X-14.5985 Y-10.8701
G01 X-14.6308 Y-10.9115
G01 X-14.6611 Y-10.9544
G01 X-14.6892 Y-10.9988
G01 X-14.7151 Y-11.0445
G01 X-14.7387 Y-11.0914
G01 X-14.7600 Y-11.1394
G01 X-14.7789 Y-11.1884
G01 X-14.7953 Y-11.2383
G01 X-14.8093 Y-11.2889
G01 X-14.8208 Y-11.3402
G01 X-14.8298 Y-11.3919
G01 X-14.8362 Y-11.4440
G01 X-14.8401 Y-11.4964
G01 X-14.8414 Y-11.5489
G01 X-14.8401 Y-11.6014
G01 X-14.8362 Y-11.6538
G01 X-14.8298 Y-11.7059
G01 X-14.8208 Y-11.7576
G01 X-14.8093 Y-11.8089
G01 X-14.7953 Y-11.8595
G01 X-14.7789 Y-11.9094
G01 X-14.7600 Y-11.9584
G01 X-14.7387 Y-12.0064
G01 X-14.7151 Y-12.0533
G01 X-14.6892 Y-12.0990
G01 X-14.6611 Y-12.1434
G01 X-14.6308 Y-12.1863
G01 X-14.5985 Y-12.2277
G01 X-14.5642 Y-12.2675
G01 X-14.5280 Y-12.3055
G01 X-14.4900 Y-12.3417
G01 X-14.4502 Y-12.3760
G01 X-14.4088 Y-12.4083
G01 X-14.3659 Y-12.4386
G01 X-14.3215 Y-12.4667
G01 X-14.2758 Y-12.4926
G01 X-14.2289 Y-12.5162
G01 X-14.1809 Y-12.5375
G01 X-14.1319 Y-12.5564
G01 X-14.0820 Y-12.5728
G01 X-14.0314 Y-12.5868
G01 X-13.9801 Y-12.5983
G01 X-13.9284 Y-12.6073
G01 X-13.8763 Y-12.6137
G01 X-13.8239 Y-12.6176
G01 X-13.7714 Y-12.6189
G01 X-13.7189 Y-12.6176
G01 X-13.6665 Y-12.6137
G01 X-13.6144 Y-12.6073
G01 X-13.5627 Y-12.5983
G01 X-13.5114 Y-12.5868
G01 X-13.4608 Y-12.5728
G01 X-13.4109 Y-12.5564
G01 X-13.3619 Y-12.5375
G01 X-13.3139 Y-12.5162
G01 X-13.2670 Y-12.4926
G01 X-13.2213 Y-12.4667
G01 X-13.1769 Y-12.4386
G01 X-13.1340 Y-12.4083
G01 X-13.0926 Y-12.3760
G01 X-13.0528 Y-12.3417
G01 X-13.0148 Y-12.3055
G01 X-12.9786 Y-12.2675
G01 X-12.9443 Y-12.2277
G01 X-12.9120 Y-12.1863
G01 X-12.8817 Y-12.1434
G01 X-12.8536 Y-12.0990
G01 X-12.8277 Y-12.0533
G01 X-12.8041 Y-12.0064
G01 X-12.7828 Y-11.9584
G01 X-12.7639 Y-11.9094
G01 X-12.7475 Y-11.8595
G01 X-12.7335 Y-11.8089
G01 X-12.7220 Y-11.7576
G01 X-12.7130 Y-11.7059
G01 X-12.7066 Y-11.6538
G01 X-12.7027 Y-11.6014
G01 X-12.7014 Y-11.5489
G00 Z2.0000
G00 X-13.5414 Y-11.5489
G01 F70.00
G01 Z-0.0600
G01 F120.00
G01 X-13.5425 Y-11.5714
G01 X-13.5458 Y-11.5938
G01 X-13.5513 Y-11.6157
G01 X-13.5589 Y-11.6369
G01 X-13.5686 Y-11.6573
G01 X-13.5802 Y-11.6767
G01 X-13.5936 Y-11.6948
G01 X-13.6088 Y-11.7115
G01 X-13.6255 Y-11.7267
G01 X-13.6436 Y-11.7401
G01 X-13.6630 Y-11.7517
G01 X-13.6834 Y-11.7614
G01 X-13.7046 Y-11.7690
G01 X-13.7265 Y-11.7745
G01 X-13.7489 Y-11.7778
G01 X-13.7714 Y-11.7789
G01 X-13.7939 Y-11.7778
G01 X-13.8163 Y-11.7745
G01 X-13.8382 Y-11.7690
G01 X-13.8594 Y-11.7614
G01 X-13.8798 Y-11.7517
G01 X-13.8992 Y-11.7401
G01 X-13.9173 Y-11.7267
G01 X-13.9340 Y-11.7115
G01 X-13.9492 Y-11.6948
G01 X-13.9626 Y-11.6767
G01 X-13.9742 Y-11.6573
G01 X-13.9839 Y-11.6369
G01 X-13.9915 Y-11.6157
G01 X-13.9970 Y-11.5938
G01 X-14.0003 Y-11.5714
G01 X-14.0014 Y-11.5489
G01 X-14.0003 Y-11.5264
G01 X-13.9970 Y-11.5040
G01 X-13.9915 Y-11.4821
G01 X-13.9839 Y-11.4609
G01 X-13.9742 Y-11.4405
G01 X-13.9626 Y-11.4211
G01 X-13.9492 Y-11.4030
G01 X-13.9340 Y-11.3863
G01 X-13.9173 Y-11.3711
G01 X-13.8992 Y-11.3577
G01 X-13.8798 Y-11.3461
G01 X-13.8594 Y-11.3364
G01 X-13.8382 Y-11.3288
G01 X-13.8163 Y-11.3233
G01 X-13.7939 Y-11.3200
G01 X-13.7714 Y-11.3189
G01 X-13.7489 Y-11.3200
G01 X-13.7265 Y-11.3233
G01 X-13.7046 Y-11.3288
G01 X-13.6834 Y-11.3364
G01 X-13.6630 Y-11.3461
G01 X-13.6436 Y-11.3577
G01 X-13.6255 Y-11.3711
G01 X-13.6088 Y-11.3863
G01 X-13.5936 Y-11.4030
G01 X-13.5802 Y-11.4211
G01 X-13.5686 Y-11.4405
G01 X-13.5589 Y-11.4609
G01 X-13.5513 Y-11.4821
G01 X-13.5458 Y-11.5040
G01 X-13.5425 Y-11.5264
G01 X-13.5414 Y-11.5489
G00 Z2.0000
G00 X-13.6114 Y-11.5489
G01 F70.00
G01 Z-0.0600
G01 F120.00
G01 X-13.6122 Y-11.5646
G01 X-13.6145 Y-11.5801
G01 X-13.6183 Y-11.5953
G01 X-13.6236 Y-11.6101
G01 X-13.6303 Y-11.6243
G01 X-13.6384 Y-11.6378
G01 X-13.6478 Y-11.6504
G01 X-13.6583 Y-11.6620
G01 X-13.6699 Y-11.6725
G01 X-13.6825 Y-11.6819
G01 X-13.6960 Y-11.6900
G01 X-13.7102 Y-11.6967
G01 X-13.7250 Y-11.7020
G01 X-13.7402 Y-11.7058
G01 X-13.7557 Y-11.7081
G01 X-13.7714 Y-11.7089
G01 X-13.7871 Y-11.7081
G01 X-13.8026 Y-11.7058
G01 X-13.8178 Y-11.7020
G01 X-13.8326 Y-11.6967
G01 X-13.8468 Y-11.6900
G01 X-13.8603 Y-11.6819
G01 X-13.8729 Y-11.6725
G01 X-13.8845 Y-11.6620
G01 X-13.8950 Y-11.6504
G01 X-13.9044 Y-11.6378
G01 X-13.9125 Y-11.6243
G01 X-13.9192 Y-11.6101
G01 X-13.9245 Y-11.5953
G01 X-13.9283 Y-11.5801
G01 X-13.9306 Y-11.5646
G01 X-13.9314 Y-11.5489
G01 X-13.9306 Y-11.5332
G01 X-13.9283 Y-11.5177
G01 X-13.9245 Y-11.5025
G01 X-13.9192 Y-11.4877
G01 X-13.9125 Y-11.4735
G01 X-13.9044 Y-11.4600
G01 X-13.8950 Y-11.4474
G01 X-13.8845 Y-11.4358
G01 X-13.8729 Y-11.4253
G01 X-13.8603 Y-11.4159
G01 X-13.8468 Y-11.4078
G01 X-13.8326 Y-11.4011
G01 X-13.8178 Y-11.3958
G01 X-13.8026 Y-11.3920
G01 X-13.7871 Y-11.3897
G01 X-13.7714 Y-11.3889
G01 X-13.7557 Y-11.3897
G01 X-13.7402 Y-11.3920
G01 X-13.7250 Y-11.3958
G01 X-13.7102 Y-11.4011
G01 X-13.6960 Y-11.4078
G01 X-13.6825 Y-11.4159
G01 X-13.6699 Y-11.4253
G01 X-13.6583 Y-11.4358
G01 X-13.6478 Y-11.4474
G01 X-13.6384 Y-11.4600
G01 X-13.6303 Y-11.4735
G01 X-13.6236 Y-11.4877
G01 X-13.6183 Y-11.5025
G01 X-13.6145 Y-11.5177
G01 X-13.6122 Y-11.5332
G01 X-13.6114 Y-11.5489
G00 Z2.0000
G00 X-13.6815 Y-11.5489
G01 F70.00
G01 Z-0.0600
G01 F120.00
G01 X-13.6832 Y-11.5664
G01 X-13.6883 Y-11.5833
G01 X-13.6966 Y-11.5989
G01 X-13.7078 Y-11.6125
G01 X-13.7214 Y-11.6237
G01 X-13.7370 Y-11.6320
G01 X-13.7539 Y-11.6371
G01 X-13.7714 Y-11.6388
G01 X-13.7889 Y-11.6371
G01 X-13.8058 Y-11.6320
G01 X-13.8214 Y-11.6237
G01 X-13.8350 Y-11.6125
G01 X-13.8462 Y-11.5989
G01 X-13.8545 Y-11.5833
G01 X-13.8596 Y-11.5664
G01 X-13.8613 Y-11.5489
G01 X-13.8596 Y-11.5314
G01 X-13.8545 Y-11.5145
G01 X-13.8462 Y-11.4989
G01 X-13.8350 Y-11.4853
G01 X-13.8214 Y-11.4741
G01 X-13.8058 Y-11.4658
G01 X-13.7889 Y-11.4607
G01 X-13.7714 Y-11.4590
G01 X-13.7539 Y-11.4607
G01 X-13.7370 Y-11.4658
G01 X-13.7214 Y-11.4741
G01 X-13.7078 Y-11.4853
G01 X-13.6966 Y-11.4989
G01 X-13.6883 Y-11.5145
G01 X-13.6832 Y-11.5314
G01 X-13.6815 Y-11.5489
G00 Z2.0000
G00 X-13.7515 Y-11.5489
G01 F70.00
G01 Z-0.0600
G01 F120.00
G01 X-13.7530 Y-11.5565
G01 X-13.7573 Y-11.5630
G01 X-13.7638 Y-11.5673
G01 X-13.7714 Y-11.5688
G01 X-13.7790 Y-11.5673
G01 X-13.7855 Y-11.5630
G01 X-13.7898 Y-11.5565
G01 X-13.7913 Y-11.5489
G01 X-13.7898 Y-11.5413
G01 X-13.7855 Y-11.5348
G01 X-13.7790 Y-11.5305
G01 X-13.7714 Y-11.5290
G01 X-13.7638 Y-11.5305
G01 X-13.7573 Y-11.5348
G01 X-13.7530 Y-11.5413
G01 X-13.7515 Y-11.5489
G00 Z2.0000
G00 X-15.1040 Y-11.6244
G01 F70.00
G01 Z-0.0600
G01 F120.00
G01 X-15.1027 Y-11.6057
G01 X-15.1014 Y-11.5489
G01 X-15.1027 Y-11.4921
G01 X-15.1040 Y-11.4734
G01 X-15.0874 Y-11.4778
G01 X-15.0722 Y-11.4807
G01 X-15.0568 Y-11.4824
G01 X-15.0414 Y-11.4829
G01 X-15.0260 Y-11.4824
G01 X-15.0106 Y-11.4807
G01 X-14.9954 Y-11.4778
G01 X-14.9788 Y-11.4734
G01 X-14.9801 Y-11.4921
G01 X-14.9814 Y-11.5489
G01 X-14.9801 Y-11.6057
G01 X-14.9788 Y-11.6244
G01 X-14.9954 Y-11.6200
G01 X-15.0106 Y-11.6171
G01 X-15.0260 Y-11.6154
G01 X-15.0414 Y-11.6149
G01 X-15.0568 Y-11.6154
G01 X-15.0722 Y-11.6171
G01 X-15.0874 Y-11.6200
G01 X-15.1040 Y-11.6244
G00 Z2.0000
G00 X-15.1714 Y-11.5489
G01 F70.00
G01 Z-0.0600
G01 F120.00
G01 X-15.1728 Y-11.4930
G01 X-15.1769 Y-11.4372
G01 X-15.1837 Y-11.3816
G01 X-15.1933 Y-11.3265
G01 X-15.2056 Y-11.2719
G01 X-15.2205 Y-11.2180
G01 X-15.2380 Y-11.1648
G01 X-15.2582 Y-11.1126
G01 X-15.2809 Y-11.0615
G01 X-15.3060 Y-11.0115
G01 X-15.3336 Y-10.9628
G01 X-15.3635 Y-10.9155
G01 X-15.3957 Y-10.8698
G01 X-15.4302 Y-10.8257
G01 X-15.4667 Y-10.7833
G01 X-15.5053 Y-10.7428
G01 X-15.5458 Y-10.7042
G01 X-15.5882 Y-10.6677
G01 X-15.6323 Y-10.6332
G01 X-15.6780 Y-10.6010
G01 X-15.7253 Y-10.5711
G01 X-15.7740 Y-10.5435
G01 X-15.8240 Y-10.5184
G01 X-15.8751 Y-10.4957
G01 X-15.9273 Y-10.4755
G01 X-15.9805 Y-10.4580
G01 X-16.0344 Y-10.4431
G01 X-16.0890 Y-10.4308
G01 X-16.1441 Y-10.4212
G01 X-16.1997 Y-10.4144
G01 X-16.2555 Y-10.4103
G01 X-16.3114 Y-10.4089
G01 X-16.3673 Y-10.4103
G01 X-16.4231 Y-10.4144
G01 X-16.4787 Y-10.4212
G01 X-16.5338 Y-10.4308
G01 X-16.5884 Y-10.4431
G01 X-16.6423 Y-10.4580
G01 X-16.6955 Y-10.4755
G01 X-16.7477 Y-10.4957
G01 X-16.7988 Y-10.5184
G01 X-16.8488 Y-10.5435
G01 X-16.8975 Y-10.5711
G01 X-16.9448 Y-10.6010
G01 X-16.9905 Y-10.6332
G01 X-17.0346 Y-10.6677
G01 X-17.0770 Y-10.7042
G01 X-17.1175 Y-10.7428
G01 X-17.1561 Y-10.7833
G01 X-17.1926 Y-10.8257
G01 X-17.2271 Y-10.8698
G01 X-17.2593 Y-10.9155
G01 X-17.2892 Y-10.9628
G01 X-17.3168 Y-11.0115
G01 X-17.3419 Y-11.0615
G01 X-17.3646 Y-11.1126
G01 X-17.3848 Y-11.1648
G01 X-17.4023 Y-11.2180
G01 X-17.4172 Y-11.2719
G01 X-17.4295 Y-11.3265
G01 X-17.4391 Y-11.3816
G01 X-17.4459 Y-11.4372
G01 X-17.4500 Y-11.4930
G01 X-17.4514 Y-11.5489
G01 X-17.4500 Y-11.6048
G01 X-17.4459 Y-11.6606
G01 X-17.4391 Y-11.7162
G01 X-17.4295 Y-11.7713
G01 X-17.4172 Y-11.8259
G01 X-17.4023 Y-11.8798
G01 X-17.3848 Y-11.9330
G01 X-17.3646 Y-11.9852
G01 X-17.3419 Y-12.0363
G01 X-17.3168 Y-12.0863
G01 X-17.2892 Y-12.1350
G01 X-17.2593 Y-12.1823
G01 X-17.2271 Y-12.2280
G01 X-17.1926 Y-12.2721
G01 X-17.1561 Y-12.3145
G01 X-17.1175 Y-12.3550
G01 X-17.0770 Y-12.3936
G01 X-17.0346 Y-12.4301
G01 X-16.9905 Y-12.4646
G01 X-16.9448 Y-12.4968
G01 X-16.8975 Y-12.5267
G01 X-16.8488 Y-12.5543
G01 X-16.7988 Y-12.5794
G01 X-16.7477 Y-12.6021
G01 X-16.6955 Y-12.6223
G01 X-16.6423 Y-12.6398
G01 X-16.5884 Y-12.6547
G01 X-16.5338 Y-12.6670
G01 X-16.4787 Y-12.6766
G01 X-16.4231 Y-12.6834
G01 X-16.3673 Y-12.6875
G01 X-16.3114 Y-12.6889
G01 X-16.2555 Y-12.6875
G01 X-16.1997 Y-12.6834
G01 X-16.1441 Y-12.6766
G01 X-16.0890 Y-12.6670
G01 X-16.0344 Y-12.6547
G01 X-15.9805 Y-12.6398
G01 X-15.9273 Y-12.6223
G01 X-15.8751 Y-12.6021
G01 X-15.8240 Y-12.5794
G01 X-15.7740 Y-12.5543
G01 X-15.7253 Y-12.5267
G01 X-15.6780 Y-12.4968
G01 X-15.6323 Y-12.4646
G01 X-15.5882 Y-12.4301
G01 X-15.5458 Y-12.3936
G01 X-15.5053 Y-12.3550
G01 X-15.4667 Y-12.3145
G01 X-15.4302 Y-12.2721
G01 X-15.3957 Y-12.2280
G01 X-15.3635 Y-12.1823
G01 X-15.3336 Y-12.1350
G01 X-15.3060 Y-12.0863
G01 X-15.2809 Y-12.0363
G01 X-15.2582 Y-11.9852
G01 X-15.2380 Y-11.9330
G01 X-15.2205 Y-11.8798
G01 X-15.2056 Y-11.8259
G01 X-15.1933 Y-11.7713
G01 X-15.1837 Y-11.7162
G01 X-15.1769 Y-11.6606
G01 X-15.1728 Y-11.6048
G01 X-15.1714 Y-11.5489
G00 Z2.0000
G00 X-15.2414 Y-11.5489
G01 F70.00
G01 Z-0.0600
G01 F120.00
G01 X-15.2427 Y-11.4964
G01 X-15.2466 Y-11.4440
G01 X-15.2530 Y-11.3919
G01 X-15.2620 Y-11.3402
G01 X-15.2735 Y-11.2889
G01 X-15.2875 Y-11.2383
G01 X-15.3039 Y-11.1884
G01 X-15.3228 Y-11.1394
G01 X-15.3441 Y-11.0914
G01 X-15.3677 Y-11.0445
G01 X-15.3936 Y-10.9988
G01 X-15.4217 Y-10.9544
G01 X-15.4520 Y-10.9115
G01 X-15.4843 Y-10.8701
G01 X-15.5186 Y-10.8303
G01 X-15.5548 Y-10.7923
G01 X-15.5928 Y-10.7561
G01 X-15.6326 Y-10.7218
G01 X-15.6740 Y-10.6895
G01 X-15.7169 Y-10.6592
G01 X-15.7613 Y-10.6311
G01 X-15.8070 Y-10.6052
G01 X-15.8539 Y-10.5816
G01 X-15.9019 Y-10.5603
G01 X-15.9509 Y-10.5414
G01 X-16.0008 Y-10.5250
G01 X-16.0514 Y-10.5110
G01 X-16.1027 Y-10.4995
G01 X-16.1544 Y-10.4905
G01 X-16.2065 Y-10.4841
G01 X-16.2589 Y-10.4802
G01 X-16.3114 Y-10.4789
G01 X-16.3639 Y-10.4802
G01 X-16.4163 Y-10.4841
G01 X-16.4684 Y-10.4905
G01 X-16.5201 Y-10.4995
G01 X-16.5714 Y-10.5110
G01 X-16.6220 Y-10.5250
G01 X-16.6719 Y-10.5414
G01 X-16.7209 Y-10.5603
G01 X-16.7689 Y-10.5816
G01 X-16.8158 Y-10.6052
G01 X-16.8615 Y-10.6311
G01 X-16.9059 Y-10.6592
G01 X-16.9488 Y-10.6895
G01 X-16.9902 Y-10.7218
G01 X-17.0300 Y-10.7561
G01 X-17.0680 Y-10.7923
G01 X-17.1042 Y-10.8303
G01 X-17.1385 Y-10.8701
G01 X-17.1708 Y-10.9115
G01 X-17.2011 Y-10.9544
G01 X-17.2292 Y-10.9988
G01 X-17.2551 Y-11.0445
G01 X-17.2787 Y-11.0914
G01 X-17.3000 Y-11.1394
G01 X-17.3189 Y-11.1884
G01 X-17.3353 Y-11.2383
G01 X-17.3493 Y-11.2889
G01 X-17.3608 Y-11.3402
G01 X-17.3698 Y-11.3919
G01 X-17.3762 Y-11.4440
G01 X-17.3801 Y-11.4964
G01 X-17.3814 Y-11.5489
G01 X-17.3801 Y-11.6014
G01 X-17.3762 Y-11.6538
G01 X-17.3698 Y-11.7059
G01 X-17.3608 Y-11.7576
G01 X-17.3493 Y-11.8089
G01 X-17.3353 Y-11.8595
G01 X-17.3189 Y-11.9094
G01 X-17.3000 Y-11.9584
G01 X-17.2787 Y-12.0064
G01 X-17.2551 Y-12.0533
G01 X-17.2292 Y-12.0990
G01 X-17.2011 Y-12.1434
G01 X-17.1708 Y-12.1863
G01 X-17.1385 Y-12.2277
G01 X-17.1042 Y-12.2675
G01 X-17.0680 Y-12.3055
G01 X-17.0300 Y-12.3417
G01 X-16.9902 Y-12.3760
G01 X-16.9488 Y-12.4083
G01 X-16.9059 Y-12.4386
G01 X-16.8615 Y-12.4667
G01 X-16.8158 Y-12.4926
G01 X-16.7689 Y-12.5162
G01 X-16.7209 Y-12.5375
G01 X-16.6719 Y-12.5564
G01 X-16.6220 Y-12.5728
G01 X-16.5714 Y-12.5868
G01 X-16.5201 Y-12.5983
G01 X-16.4684 Y-12.6073
G01 X-16.4163 Y-12.6137
G01 X-16.3639 Y-12.6176
G01 X-16.3114 Y-12.6189
G01 X-16.2589 Y-12.6176
G01 X-16.2065 Y-12.6137
G01 X-16.1544 Y-12.6073
G01 X-16.1027 Y-12.5983
G01 X-16.0514 Y-12.5868
G01 X-16.0008 Y-12.5728
G01 X-15.9509 Y-12.5564
G01 X-15.9019 Y-12.5375
G01 X-15.8539 Y-12.5162
G01 X-15.8070 Y-12.4926
G01 X-15.7613 Y-12.4667
G01 X-15.7169 Y-12.4386
G01 X-15.6740 Y-12.4083
G01 X-15.6326 Y-12.3760
G01 X-15.5928 Y-12.3417
G01 X-15.5548 Y-12.3055
G01 X-15.5186 Y-12.2675
G01 X-15.4843 Y-12.2277
G01 X-15.4520 Y-12.1863
G01 X-15.4217 Y-12.1434
G01 X-15.3936 Y-12.0990
G01 X-15.3677 Y-12.0533
G01 X-15.3441 Y-12.0064
G01 X-15.3228 Y-11.9584
G01 X-15.3039 Y-11.9094
G01 X-15.2875 Y-11.8595
G01 X-15.2735 Y-11.8089
G01 X-15.2620 Y-11.7576
G01 X-15.2530 Y-11.7059
G01 X-15.2466 Y-11.6538
G01 X-15.2427 Y-11.6014
G01 X-15.2414 Y-11.5489
G00 Z2.0000
G00 X-16.0814 Y-11.5489
G01 F70.00
G01 Z-0.0600
G01 F120.00
G01 X-16.0825 Y-11.5714
G01 X-16.0858 Y-11.5938
G01 X-16.0913 Y-11.6157
G01 X-16.0989 Y-11.6369
G01 X-16.1086 Y-11.6573
G01 X-16.1202 Y-11.6767
G01 X-16.1336 Y-11.6948
G01 X-16.1488 Y-11.7115
G01 X-16.1655 Y-11.7267
G01 X-16.1836 Y-11.7401
G01 X-16.2030 Y-11.7517
G01 X-16.2234 Y-11.7614
G01 X-16.2446 Y-11.7690
G01 X-16.2665 Y-11.7745
G01 X-16.2889 Y-11.7778
G01 X-16.3114 Y-11.7789
G01 X-16.3339 Y-11.7778
G01 X-16.3563 Y-11.7745
G01 X-16.3782 Y-11.7690
G01 X-16.3994 Y-11.7614
G01 X-16.4198 Y-11.7517
G01 X-16.4392 Y-11.7401
G01 X-16.4573 Y-11.7267
G01 X-16.4740 Y-11.7115
G01 X-16.4892 Y-11.6948
G01 X-16.5026 Y-11.6767
G01 X-16.5142 Y-11.6573
G01 X-16.5239 Y-11.6369
G01 X-16.5315 Y-11.6157
G01 X-16.5370 Y-11.5938
G01 X-16.5403 Y-11.5714
G01 X-16.5414 Y-11.5489
G01 X-16.5403 Y-11.5264
G01 X-16.5370 Y-11.5040
G01 X-16.5315 Y-11.4821
G01 X-16.5239 Y-11.4609
G01 X-16.5142 Y-11.4405
G01 X-16.5026 Y-11.4211
G01 X-16.4892 Y-11.4030
G01 X-16.4740 Y-11.3863
G01 X-16.4573 Y-11.3711
G01 X-16.4392 Y-11.3577
G01 X-16.4198 Y-11.3461
G01 X-16.3994 Y-11.3364
G01 X-16.3782 Y-11.3288
G01 X-16.3563 Y-11.3233
G01 X-16.3339 Y-11.3200
G01 X-16.3114 Y-11.3189
G01 X-16.2889 Y-11.3200
G01 X-16.2665 Y-11.3233
G01 X-16.2446 Y-11.3288
G01 X-16.2234 Y-11.3364
G01 X-16.2030 Y-11.3461
G01 X-16.1836 Y-11.3577
G01 X-16.1655 Y-11.3711
G01 X-16.1488 Y-11.3863
G01 X-16.1336 Y-11.4030
G01 X-16.1202 Y-11.4211
G01 X-16.1086 Y-11.4405
G01 X-16.0989 Y-11.4609
G01 X-16.0913 Y-11.4821
G01 X-16.0858 Y-11.5040
G01 X-16.0825 Y-11.5264
G01 X-16.0814 Y-11.5489
G00 Z2.0000
G00 X-16.1514 Y-11.5489
G01 F70.00
G01 Z-0.0600
G01 F120.00
G01 X-16.1522 Y-11.5646
G01 X-16.1545 Y-11.5801
G01 X-16.1583 Y-11.5953
G01 X-16.1636 Y-11.6101
G01 X-16.1703 Y-11.6243
G01 X-16.1784 Y-11.6378
G01 X-16.1878 Y-11.6504
G01 X-16.1983 Y-11.6620
G01 X-16.2099 Y-11.6725
G01 X-16.2225 Y-11.6819
G01 X-16.2360 Y-11.6900
G01 X-16.2502 Y-11.6967
G01 X-16.2650 Y-11.7020
G01 X-16.2802 Y-11.7058
G01 X-16.2957 Y-11.7081
G01 X-16.3114 Y-11.7089
G01 X-16.3271 Y-11.7081
G01 X-16.3426 Y-11.7058
G01 X-16.3578 Y-11.7020
G01 X-16.3726 Y-11.6967
G01 X-16.3868 Y-11.6900
G01 X-16.4003 Y-11.6819
G01 X-16.4129 Y-11.6725
G01 X-16.4245 Y-11.6620
G01 X-16.4350 Y-11.6504
G01 X-16.4444 Y-11.6378
G01 X-16.4525 Y-11.6243
G01 X-16.4592 Y-11.6101
G01 X-16.4645 Y-11.5953
G01 X-16.4683 Y-11.5801
G01 X-16.4706 Y-11.5646
G01 X-16.4714 Y-11.5489
G01 X-16.4706 Y-11.5332
G01 X-16.4683 Y-11.5177
G01 X-16.4645 Y-11.5025
G01 X-16.4592 Y-11.4877
G01 X-16.4525 Y-11.4735
G01 X-16.4444 Y-11.4600
G01 X-16.4350 Y-11.4474
G01 X-16.4245 Y-11.4358
G01 X-16.4129 Y-11.4253
G01 X-16.4003 Y-11.4159
G01 X-16.3868 Y-11.4078
G01 X-16.3726 Y-11.4011
G01 X-16.3578 Y-11.3958
G01 X-16.3426 Y-11.3920
G01 X-16.3271 Y-11.3897
G01 X-16.3114 Y-11.3889
G01 X-16.2957 Y-11.3897
G01 X-16.2802 Y-11.3920
G01 X-16.2650 Y-11.3958
G01 X-16.2502 Y-11.4011
G01 X-16.2360 Y-11.4078
G01 X-16.2225 Y-11.4159
G01 X-16.2099 Y-11.4253
G01 X-16.1983 Y-11.4358
G01 X-16.1878 Y-11.4474
G01 X-16.1784 Y-11.4600
G01 X-16.1703 Y-11.4735
G01 X-16.1636 Y-11.4877
G01 X-16.1583 Y-11.5025
G01 X-16.1545 Y-11.5177
G01 X-16.1522 Y-11.5332
G01 X-16.1514 Y-11.5489
G00 Z2.0000
G00 X-16.2215 Y-11.5489
G01 F70.00
G01 Z-0.0600
G01 F120.00
G01 X-16.2232 Y-11.5664
G01 X-16.2283 Y-11.5833
G01 X-16.2366 Y-11.5989
G01 X-16.2478 Y-11.6125
G01 X-16.2614 Y-11.6237
G01 X-16.2770 Y-11.6320
G01 X-16.2939 Y-11.6371
G01 X-16.3114 Y-11.6388
G01 X-16.3289 Y-11.6371
G01 X-16.3458 Y-11.6320
G01 X-16.3614 Y-11.6237
G01 X-16.3750 Y-11.6125
G01 X-16.3862 Y-11.5989
G01 X-16.3945 Y-11.5833
G01 X-16.3996 Y-11.5664
G01 X-16.4013 Y-11.5489
G01 X-16.3996 Y-11.5314
G01 X-16.3945 Y-11.5145
G01 X-16.3862 Y-11.4989
G01 X-16.3750 Y-11.4853
G01 X-16.3614 Y-11.4741
G01 X-16.3458 Y-11.4658
G01 X-16.3289 Y-11.4607
G01 X-16.3114 Y-11.4590
G01 X-16.2939 Y-11.4607
G01 X-16.2770 Y-11.4658
G01 X-16.2614 Y-11.4741
G01 X-16.2478 Y-11.4853
G01 X-16.2366 Y-11.4989
G01 X-16.2283 Y-11.5145
G01 X-16.2232 Y-11.5314
G01 X-16.2215 Y-11.5489
G00 Z2.0000
G00 X-16.2915 Y-11.5489
G01 F70.00
G01 Z-0.0600
G01 F120.00
G01 X-16.2930 Y-11.5565
G01 X-16.2973 Y-11.5630
G01 X-16.3038 Y-11.5673
G01 X-16.3114 Y-11.5688
G01 X-16.3190 Y-11.5673
G01 X-16.3255 Y-11.5630
G01 X-16.3298 Y-11.5565
G01 X-16.3313 Y-11.5489
G01 X-16.3298 Y-11.5413
G01 X-16.3255 Y-11.5348
G01 X-16.3190 Y-11.5305
G01 X-16.3114 Y-11.5290
G01 X-16.3038 Y-11.5305
G01 X-16.2973 Y-11.5348
G01 X-16.2930 Y-11.5413
G01 X-16.2915 Y-11.5489
G00 Z2.0000
G00 X-17.6441 Y-11.6242
G01 F70.00
G01 Z-0.0600
G01 F120.00
G01 X-17.6428 Y-11.6057
G01 X-17.6415 Y-11.5489
G01 X-17.6428 Y-11.4921
G01 X-17.6441 Y-11.4736
G01 X-17.6275 Y-11.4780
G01 X-17.6123 Y-11.4809
G01 X-17.5969 Y-11.4826
G01 X-17.5814 Y-11.4831
G01 X-17.5660 Y-11.4826
G01 X-17.5506 Y-11.4809
G01 X-17.5354 Y-11.4780
G01 X-17.5188 Y-11.4736
G01 X-17.5201 Y-11.4921
G01 X-17.5214 Y-11.5489
G01 X-17.5201 Y-11.6057
G01 X-17.5188 Y-11.6242
G01 X-17.5354 Y-11.6198
G01 X-17.5506 Y-11.6169
G01 X-17.5660 Y-11.6152
G01 X-17.5815 Y-11.6147
G01 X-17.5969 Y-11.6152
G01 X-17.6123 Y-11.6169
G01 X-17.6275 Y-11.6198
G01 X-17.6441 Y-11.6242
G00 Z2.0000
G00 X-17.7837 Y-11.9474
G01 F70.00
G01 Z-0.0600
G01 F120.00
G01 X-17.7776 Y-11.9313
G01 X-17.7601 Y-11.8782
G01 X-17.7457 Y-11.8259
G01 X-17.7331 Y-11.7696
G01 X-17.7238 Y-11.7162
G01 X-17.7170 Y-11.6606
G01 X-17.7129 Y-11.6048
G01 X-17.7115 Y-11.5489
G01 X-17.7129 Y-11.4930
G01 X-17.7170 Y-11.4372
G01 X-17.7238 Y-11.3816
G01 X-17.7331 Y-11.3282
G01 X-17.7457 Y-11.2719
G01 X-17.7601 Y-11.2196
G01 X-17.7776 Y-11.1665
G01 X-17.7837 Y-11.1504
G01 X-17.7683 Y-11.1350
G01 X-17.7593 Y-11.1581
G01 X-17.7415 Y-11.2122
G01 X-17.7263 Y-11.2671
G01 X-17.7168 Y-11.3088
G01 X-17.7121 Y-11.3235
G01 X-17.7049 Y-11.3391
G01 X-17.6969 Y-11.3523
G01 X-17.6875 Y-11.3646
G01 X-17.6755 Y-11.3769
G01 X-17.6578 Y-11.3905
G01 X-17.6382 Y-11.4011
G01 X-17.6188 Y-11.4081
G01 X-17.5969 Y-11.4123
G01 X-17.5746 Y-11.4130
G01 X-17.5541 Y-11.4105
G01 X-17.5327 Y-11.4044
G01 X-17.5139 Y-11.3958
G01 X-17.4953 Y-11.3835
G01 X-17.4789 Y-11.3684
G01 X-17.4660 Y-11.3523
G01 X-17.4549 Y-11.3330
G01 X-17.4502 Y-11.3219
G01 X-17.4465 Y-11.3105
G01 X-17.4366 Y-11.2671
G01 X-17.4214 Y-11.2122
G01 X-17.4036 Y-11.1581
G01 X-17.3831 Y-11.1050
G01 X-17.3600 Y-11.0530
G01 X-17.3344 Y-11.0021
G01 X-17.3063 Y-10.9526
G01 X-17.2759 Y-10.9045
G01 X-17.2431 Y-10.8579
G01 X-17.2081 Y-10.8130
G01 X-17.1709 Y-10.7699
G01 X-17.1316 Y-10.7287
G01 X-17.0904 Y-10.6894
G01 X-17.0473 Y-10.6522
G01 X-17.0024 Y-10.6172
G01 X-16.9558 Y-10.5844
G01 X-16.9077 Y-10.5540
G01 X-16.8582 Y-10.5259
G01 X-16.8073 Y-10.5003
G01 X-16.7553 Y-10.4772
G01 X-16.7022 Y-10.4567
G01 X-16.6481 Y-10.4389
G01 X-16.5932 Y-10.4237
G01 X-16.5377 Y-10.4112
G01 X-16.4816 Y-10.4015
G01 X-16.4251 Y-10.3945
G01 X-16.3683 Y-10.3903
G01 X-16.3114 Y-10.3889
G01 X-16.2545 Y-10.3903
G01 X-16.1977 Y-10.3945
G01 X-16.1412 Y-10.4015
G01 X-16.0851 Y-10.4112
G01 X-16.0296 Y-10.4237
G01 X-15.9747 Y-10.4389
G01 X-15.9206 Y-10.4567
G01 X-15.8675 Y-10.4772
G01 X-15.8155 Y-10.5003
G01 X-15.7646 Y-10.5259
G01 X-15.7151 Y-10.5540
G01 X-15.6670 Y-10.5844
G01 X-15.6204 Y-10.6172
G01 X-15.5755 Y-10.6522
G01 X-15.5324 Y-10.6894
G01 X-15.4912 Y-10.7287
G01 X-15.4519 Y-10.7699
G01 X-15.4147 Y-10.8130
G01 X-15.3797 Y-10.8579
G01 X-15.3469 Y-10.9045
G01 X-15.3165 Y-10.9526
G01 X-15.2884 Y-11.0021
G01 X-15.2628 Y-11.0530
G01 X-15.2397 Y-11.1050
G01 X-15.2192 Y-11.1581
G01 X-15.2014 Y-11.2122
G01 X-15.1862 Y-11.2671
G01 X-15.1776 Y-11.3053
G01 X-15.1738 Y-11.3185
G01 X-15.1657 Y-11.3374
G01 X-15.1549 Y-11.3549
G01 X-15.1451 Y-11.3669
G01 X-15.1328 Y-11.3789
G01 X-15.1206 Y-11.3884
G01 X-15.1059 Y-11.3972
G01 X-15.0918 Y-11.4035
G01 X-15.0754 Y-11.4087
G01 X-15.0585 Y-11.4119
G01 X-15.0431 Y-11.4129
G01 X-15.0260 Y-11.4121
G01 X-15.0074 Y-11.4087
G01 X-14.9910 Y-11.4035
G01 X-14.9739 Y-11.3956
G01 X-14.9594 Y-11.3864
G01 X-14.9449 Y-11.3743
G01 X-14.9321 Y-11.3604
G01 X-14.9222 Y-11.3464
G01 X-14.9141 Y-11.3312
G01 X-14.9079 Y-11.3152
G01 X-14.8966 Y-11.2671
G01 X-14.8814 Y-11.2122
G01 X-14.8636 Y-11.1581
G01 X-14.8431 Y-11.1050
G01 X-14.8200 Y-11.0530
G01 X-14.7944 Y-11.0021
G01 X-14.7663 Y-10.9526
G01 X-14.7359 Y-10.9045
G01 X-14.7031 Y-10.8579
G01 X-14.6681 Y-10.8130
G01 X-14.6309 Y-10.7699
G01 X-14.5916 Y-10.7287
G01 X-14.5504 Y-10.6894
G01 X-14.5073 Y-10.6522
G01 X-14.4624 Y-10.6172
G01 X-14.4158 Y-10.5844
G01 X-14.3677 Y-10.5540
G01 X-14.3182 Y-10.5259
G01 X-14.2673 Y-10.5003
G01 X-14.2153 Y-10.4772
G01 X-14.1622 Y-10.4567
G01 X-14.1081 Y-10.4389
G01 X-14.0532 Y-10.4237
G01 X-13.9977 Y-10.4112
G01 X-13.9416 Y-10.4015
G01 X-13.8851 Y-10.3945
G01 X-13.8283 Y-10.3903
G01 X-13.7714 Y-10.3889
G01 X-13.7145 Y-10.3903
G01 X-13.6577 Y-10.3945
G01 X-13.6012 Y-10.4015
G01 X-13.5451 Y-10.4112
G01 X-13.4896 Y-10.4237
G01 X-13.4347 Y-10.4389
G01 X-13.3806 Y-10.4567
G01 X-13.3275 Y-10.4772
G01 X-13.2755 Y-10.5003
G01 X-13.2246 Y-10.5259
G01 X-13.1751 Y-10.5540
G01 X-13.1270 Y-10.5844
G01 X-13.0804 Y-10.6172
G01 X-13.0355 Y-10.6522
G01 X-12.9924 Y-10.6894
G01 X-12.9512 Y-10.7287
G01 X-12.9119 Y-10.7699
G01 X-12.8747 Y-10.8130
G01 X-12.8397 Y-10.8579
G01 X-12.8069 Y-10.9045
G01 X-12.7765 Y-10.9526
G01 X-12.7484 Y-11.0021
G01 X-12.7228 Y-11.0530
G01 X-12.6997 Y-11.1050
G01 X-12.6792 Y-11.1581
G01 X-12.6614 Y-11.2122
G01 X-12.6462 Y-11.2671
G01 X-12.6337 Y-11.3226
G01 X-12.6240 Y-11.3787
G01 X-12.6170 Y-11.4352
G01 X-12.6128 Y-11.4920
G01 X-12.6114 Y-11.5489
G01 X-12.6128 Y-11.6058
G01 X-12.6170 Y-11.6626
G01 X-12.6240 Y-11.7191
G01 X-12.6337 Y-11.7752
G01 X-12.6462 Y-11.8307
G01 X-12.6614 Y-11.8856
G01 X-12.6792 Y-11.9397
G01 X-12.6997 Y-11.9928
G01 X-12.7228 Y-12.0448
G01 X-12.7484 Y-12.0957
G01 X-12.7765 Y-12.1452
G01 X-12.8069 Y-12.1933
G01 X-12.8397 Y-12.2399
G01 X-12.8747 Y-12.2848
G01 X-12.9119 Y-12.3279
G01 X-12.9512 Y-12.3691
G01 X-12.9924 Y-12.4084
G01 X-13.0355 Y-12.4456
G01 X-13.0804 Y-12.4806
G01 X-13.1270 Y-12.5134
G01 X-13.1751 Y-12.5438
G01 X-13.2246 Y-12.5719
G01 X-13.2755 Y-12.5975
G01 X-13.3275 Y-12.6206
G01 X-13.3806 Y-12.6411
G01 X-13.4347 Y-12.6589
G01 X-13.4896 Y-12.6741
G01 X-13.5451 Y-12.6866
G01 X-13.6012 Y-12.6963
G01 X-13.6577 Y-12.7033
G01 X-13.7145 Y-12.7075
G01 X-13.7714 Y-12.7089
G01 X-13.8283 Y-12.7075
G01 X-13.8851 Y-12.7033
G01 X-13.9416 Y-12.6963
G01 X-13.9977 Y-12.6866
G01 X-14.0532 Y-12.6741
G01 X-14.1081 Y-12.6589
G01 X-14.1622 Y-12.6411
G01 X-14.2153 Y-12.6206
G01 X-14.2673 Y-12.5975
G01 X-14.3182 Y-12.5719
G01 X-14.3677 Y-12.5438
G01 X-14.4158 Y-12.5134
G01 X-14.4624 Y-12.4806
G01 X-14.5073 Y-12.4456
G01 X-14.5504 Y-12.4084
G01 X-14.5916 Y-12.3691
G01 X-14.6309 Y-12.3279
G01 X-14.6681 Y-12.2848
G01 X-14.7031 Y-12.2399
G01 X-14.7359 Y-12.1933
G01 X-14.7663 Y-12.1452
G01 X-14.7944 Y-12.0957
G01 X-14.8200 Y-12.0448
G01 X-14.8431 Y-11.9928
G01 X-14.8636 Y-11.9397
G01 X-14.8814 Y-11.8856
G01 X-14.8966 Y-11.8307
G01 X-14.9069 Y-11.7859
G01 X-14.9121 Y-11.7713
G01 X-14.9188 Y-11.7574
G01 X-14.9269 Y-11.7443
G01 X-14.9365 Y-11.7321
G01 X-14.9474 Y-11.7211
G01 X-14.9594 Y-11.7114
G01 X-14.9724 Y-11.7031
G01 X-14.9862 Y-11.6962
G01 X-15.0008 Y-11.6909
G01 X-15.0158 Y-11.6872
G01 X-15.0345 Y-11.6850
G01 X-15.0551 Y-11.6856
G01 X-15.0737 Y-11.6887
G01 X-15.0918 Y-11.6943
G01 X-15.1104 Y-11.7031
G01 X-15.1262 Y-11.7135
G01 X-15.1404 Y-11.7259
G01 X-15.1538 Y-11.7415
G01 X-15.1657 Y-11.7604
G01 X-15.1738 Y-11.7793
G01 X-15.1776 Y-11.7925
G01 X-15.1862 Y-11.8307
G01 X-15.2014 Y-11.8856
G01 X-15.2192 Y-11.9397
G01 X-15.2397 Y-11.9928
G01 X-15.2628 Y-12.0448
G01 X-15.2884 Y-12.0957
G01 X-15.3165 Y-12.1452
G01 X-15.3469 Y-12.1933
G01 X-15.3797 Y-12.2399
G01 X-15.4147 Y-12.2848
G01 X-15.4519 Y-12.3279
G01 X-15.4912 Y-12.3691
G01 X-15.5324 Y-12.4084
G01 X-15.5755 Y-12.4456
G01 X-15.6204 Y-12.4806
G01 X-15.6670 Y-12.5134
G01 X-15.7151 Y-12.5438
G01 X-15.7646 Y-12.5719
G01 X-15.8155 Y-12.5975
G01 X-15.8675 Y-12.6206
G01 X-15.9206 Y-12.6411
G01 X-15.9747 Y-12.6589
G01 X-16.0296 Y-12.6741
G01 X-16.0851 Y-12.6866
G01 X-16.1412 Y-12.6963
G01 X-16.1977 Y-12.7033
G01 X-16.2545 Y-12.7075
G01 X-16.3114 Y-12.7089
G01 X-16.3683 Y-12.7075
G01 X-16.4251 Y-12.7033
G01 X-16.4816 Y-12.6963
G01 X-16.5377 Y-12.6866
G01 X-16.5932 Y-12.6741
G01 X-16.6481 Y-12.6589
G01 X-16.7022 Y-12.6411
G01 X-16.7553 Y-12.6206
G01 X-16.8073 Y-12.5975
G01 X-16.8582 Y-12.5719
G01 X-16.9077 Y-12.5438
G01 X-16.9558 Y-12.5134
G01 X-17.0024 Y-12.4806
G01 X-17.0473 Y-12.4456
G01 X-17.0904 Y-12.4084
G01 X-17.1316 Y-12.3691
G01 X-17.1709 Y-12.3279
G01 X-17.2081 Y-12.2848
G01 X-17.2431 Y-12.2399
G01 X-17.2759 Y-12.1933
G01 X-17.3063 Y-12.1452
G01 X-17.3344 Y-12.0957
G01 X-17.3600 Y-12.0448
G01 X-17.3831 Y-11.9928
G01 X-17.4036 Y-11.9397
G01 X-17.4214 Y-11.8856
G01 X-17.4366 Y-11.8307
G01 X-17.4465 Y-11.7873
G01 X-17.4508 Y-11.7743
G01 X-17.4564 Y-11.7617
G01 X-17.4680 Y-11.7426
G01 X-17.4754 Y-11.7332
G01 X-17.4837 Y-11.7245
G01 X-17.5008 Y-11.7102
G01 X-17.5110 Y-11.7037
G01 X-17.5216 Y-11.6981
G01 X-17.5408 Y-11.6907
G01 X-17.5609 Y-11.6862
G01 X-17.5832 Y-11.6847
G01 X-17.6037 Y-11.6864
G01 X-17.6237 Y-11.6912
G01 X-17.6444 Y-11.6996
G01 X-17.6621 Y-11.7102
G01 X-17.6780 Y-11.7233
G01 X-17.6886 Y-11.7345
G01 X-17.6979 Y-11.7469
G01 X-17.7065 Y-11.7617
G01 X-17.7127 Y-11.7759
G01 X-17.7173 Y-11.7906
G01 X-17.7263 Y-11.8307
G01 X-17.7415 Y-11.8856
G01 X-17.7593 Y-11.9397
G01 X-17.7683 Y-11.9628
G01 X-17.7837 Y-11.9474
G00 Z2.0000
G00 X-17.8656 Y-11.9644
G01 F70.00
G01 Z-0.0600
G01 F120.00
G01 X-17.8440 Y-11.9094
G01 X-17.8276 Y-11.8595
G01 X-17.8136 Y-11.8089
G01 X-17.8021 Y-11.7576
G01 X-17.7931 Y-11.7059
G01 X-17.7867 Y-11.6538
G01 X-17.7828 Y-11.6014
G01 X-17.7815 Y-11.5489
G01 X-17.7828 Y-11.4964
G01 X-17.7867 Y-11.4440
G01 X-17.7931 Y-11.3919
G01 X-17.8021 Y-11.3402
G01 X-17.8136 Y-11.2889
G01 X-17.8276 Y-11.2383
G01 X-17.8440 Y-11.1884
G01 X-17.8656 Y-11.1334
G01 X-17.7448 Y-11.0126
G01 X-17.7151 Y-11.0782
G01 X-17.6934 Y-11.1345
G01 X-17.6745 Y-11.1919
G01 X-17.6584 Y-11.2500
G01 X-17.6484 Y-11.2935
G01 X-17.6454 Y-11.3015
G01 X-17.6410 Y-11.3099
G01 X-17.6327 Y-11.3208
G01 X-17.6225 Y-11.3299
G01 X-17.6114 Y-11.3364
G01 X-17.5985 Y-11.3410
G01 X-17.5857 Y-11.3430
G01 X-17.5720 Y-11.3425
G01 X-17.5595 Y-11.3396
G01 X-17.5469 Y-11.3341
G01 X-17.5370 Y-11.3273
G01 X-17.5290 Y-11.3195
G01 X-17.5223 Y-11.3106
G01 X-17.5171 Y-11.3007
G01 X-17.5138 Y-11.2910
G01 X-17.5045 Y-11.2500
G01 X-17.4884 Y-11.1919
G01 X-17.4695 Y-11.1345
G01 X-17.4478 Y-11.0782
G01 X-17.4233 Y-11.0230
G01 X-17.3961 Y-10.9691
G01 X-17.3664 Y-10.9166
G01 X-17.3341 Y-10.8656
G01 X-17.2993 Y-10.8162
G01 X-17.2622 Y-10.7686
G01 X-17.2228 Y-10.7229
G01 X-17.1811 Y-10.6792
G01 X-17.1374 Y-10.6375
G01 X-17.0917 Y-10.5981
G01 X-17.0441 Y-10.5610
G01 X-16.9947 Y-10.5262
G01 X-16.9437 Y-10.4939
G01 X-16.8912 Y-10.4642
G01 X-16.8373 Y-10.4370
G01 X-16.7821 Y-10.4125
G01 X-16.7258 Y-10.3908
G01 X-16.6684 Y-10.3719
G01 X-16.6103 Y-10.3558
G01 X-16.5514 Y-10.3426
G01 X-16.4919 Y-10.3322
G01 X-16.4320 Y-10.3248
G01 X-16.3718 Y-10.3204
G01 X-16.3114 Y-10.3189
G01 X-16.2510 Y-10.3204
G01 X-16.1908 Y-10.3248
G01 X-16.1309 Y-10.3322
G01 X-16.0714 Y-10.3426
G01 X-16.0125 Y-10.3558
G01 X-15.9544 Y-10.3719
G01 X-15.8970 Y-10.3908
G01 X-15.8407 Y-10.4125
G01 X-15.7855 Y-10.4370
G01 X-15.7316 Y-10.4642
G01 X-15.6791 Y-10.4939
G01 X-15.6281 Y-10.5262
G01 X-15.5787 Y-10.5610
G01 X-15.5311 Y-10.5981
G01 X-15.4854 Y-10.6375
G01 X-15.4417 Y-10.6792
G01 X-15.4000 Y-10.7229
G01 X-15.3606 Y-10.7686
G01 X-15.3235 Y-10.8162
G01 X-15.2887 Y-10.8656
G01 X-15.2564 Y-10.9166
G01 X-15.2267 Y-10.9691
G01 X-15.1995 Y-11.0230
G01 X-15.1750 Y-11.0782
G01 X-15.1533 Y-11.1345
G01 X-15.1344 Y-11.1919
G01 X-15.1183 Y-11.2500
G01 X-15.1089 Y-11.2916
G01 X-15.1035 Y-11.3052
G01 X-15.0986 Y-11.3132
G01 X-15.0927 Y-11.3206
G01 X-15.0858 Y-11.3270
G01 X-15.0781 Y-11.3325
G01 X-15.0698 Y-11.3369
G01 X-15.0609 Y-11.3402
G01 X-15.0517 Y-11.3422
G01 X-15.0423 Y-11.3429
G01 X-15.0328 Y-11.3424
G01 X-15.0236 Y-11.3406
G01 X-15.0146 Y-11.3376
G01 X-15.0062 Y-11.3334
G01 X-14.9983 Y-11.3281
G01 X-14.9907 Y-11.3212
G01 X-14.9847 Y-11.3139
G01 X-14.9797 Y-11.3059
G01 X-14.9739 Y-11.2916
G01 X-14.9645 Y-11.2500
G01 X-14.9484 Y-11.1919
G01 X-14.9295 Y-11.1345
G01 X-14.9078 Y-11.0782
G01 X-14.8833 Y-11.0230
G01 X-14.8561 Y-10.9691
G01 X-14.8264 Y-10.9166
G01 X-14.7941 Y-10.8656
G01 X-14.7593 Y-10.8162
G01 X-14.7222 Y-10.7686
G01 X-14.6828 Y-10.7229
G01 X-14.6411 Y-10.6792
G01 X-14.5974 Y-10.6375
G01 X-14.5517 Y-10.5981
G01 X-14.5041 Y-10.5610
G01 X-14.4547 Y-10.5262
G01 X-14.4037 Y-10.4939
G01 X-14.3512 Y-10.4642
G01 X-14.2973 Y-10.4370
G01 X-14.2421 Y-10.4125
G01 X-14.1858 Y-10.3908
G01 X-14.1284 Y-10.3719
G01 X-14.0703 Y-10.3558
G01 X-14.0114 Y-10.3426
G01 X-13.9519 Y-10.3322
G01 X-13.8920 Y-10.3248
G01 X-13.8318 Y-10.3204
G01 X-13.7714 Y-10.3189
G01 X-13.7110 Y-10.3204
G01 X-13.6508 Y-10.3248
G01 X-13.5909 Y-10.3322
G01 X-13.5314 Y-10.3426
G01 X-13.4725 Y-10.3558
G01 X-13.4144 Y-10.3719
G01 X-13.3570 Y-10.3908
G01 X-13.3007 Y-10.4125
G01 X-13.2455 Y-10.4370
G01 X-13.1916 Y-10.4642
G01 X-13.1391 Y-10.4939
G01 X-13.0881 Y-10.5262
G01 X-13.0387 Y-10.5610
G01 X-12.9911 Y-10.5981
G01 X-12.9454 Y-10.6375
G01 X-12.9017 Y-10.6792
G01 X-12.8600 Y-10.7229
G01 X-12.8206 Y-10.7686
G01 X-12.7835 Y-10.8162
G01 X-12.7487 Y-10.8656
G01 X-12.7164 Y-10.9166
G01 X-12.6867 Y-10.9691
G01 X-12.6595 Y-11.0230
G01 X-12.6350 Y-11.0782
G01 X-12.6133 Y-11.1345
G01 X-12.5944 Y-11.1919
G01 X-12.5783 Y-11.2500
G01 X-12.5651 Y-11.3089
G01 X-12.5547 Y-11.3684
G01 X-12.5473 Y-11.4283
G01 X-12.5429 Y-11.4885
G01 X-12.5414 Y-11.5489
G01 X-12.5429 Y-11.6093
G01 X-12.5473 Y-11.6695
G01 X-12.5547 Y-11.7294
G01 X-12.5651 Y-11.7889
G01 X-12.5783 Y-11.8478
G01 X-12.5944 Y-11.9059
G01 X-12.6133 Y-11.9633
G01 X-12.6350 Y-12.0196
G01 X-12.6595 Y-12.0748
G01 X-12.6867 Y-12.1287
G01 X-12.7164 Y-12.1812
G01 X-12.7487 Y-12.2322
G01 X-12.7835 Y-12.2816
G01 X-12.8206 Y-12.3292
G01 X-12.8600 Y-12.3749
G01 X-12.9017 Y-12.4186
G01 X-12.9454 Y-12.4603
G01 X-12.9911 Y-12.4997
G01 X-13.0387 Y-12.5368
G01 X-13.0881 Y-12.5716
G01 X-13.1391 Y-12.6039
G01 X-13.1916 Y-12.6336
G01 X-13.2455 Y-12.6608
G01 X-13.3007 Y-12.6853
G01 X-13.3570 Y-12.7070
G01 X-13.4144 Y-12.7259
G01 X-13.4725 Y-12.7420
G01 X-13.5314 Y-12.7552
G01 X-13.5909 Y-12.7656
G01 X-13.6508 Y-12.7730
G01 X-13.7110 Y-12.7774
G01 X-13.7714 Y-12.7789
G01 X-13.8318 Y-12.7774
G01 X-13.8920 Y-12.7730
G01 X-13.9519 Y-12.7656
G01 X-14.0114 Y-12.7552
G01 X-14.0703 Y-12.7420
G01 X-14.1284 Y-12.7259
G01 X-14.1858 Y-12.7070
G01 X-14.2421 Y-12.6853
G01 X-14.2973 Y-12.6608
G01 X-14.3512 Y-12.6336
G01 X-14.4037 Y-12.6039
G01 X-14.4547 Y-12.5716
G01 X-14.5041 Y-12.5368
G01 X-14.5517 Y-12.4997
G01 X-14.5974 Y-12.4603
G01 X-14.6411 Y-12.4186
G01 X-14.6828 Y-12.3749
G01 X-14.7222 Y-12.3292
G01 X-14.7593 Y-12.2816
G01 X-14.7941 Y-12.2322
G01 X-14.8264 Y-12.1812
G01 X-14.8561 Y-12.1287
G01 X-14.8833 Y-12.0748
G01 X-14.9078 Y-12.0196
G01 X-14.9295 Y-11.9633
G01 X-14.9484 Y-11.9059
G01 X-14.9645 Y-11.8478
G01 X-14.9737 Y-11.8070
G01 X-14.9785 Y-11.7942
G01 X-14.9873 Y-11.7805
G01 X-14.9990 Y-11.7692
G01 X-15.0130 Y-11.7609
G01 X-15.0286 Y-11.7561
G01 X-15.0397 Y-11.7549
G01 X-15.0508 Y-11.7555
G01 X-15.0609 Y-11.7576
G01 X-15.0713 Y-11.7616
G01 X-15.0810 Y-11.7672
G01 X-15.0897 Y-11.7742
G01 X-15.0971 Y-11.7825
G01 X-15.1027 Y-11.7911
G01 X-15.1089 Y-11.8062
G01 X-15.1183 Y-11.8478
G01 X-15.1344 Y-11.9059
G01 X-15.1533 Y-11.9633
G01 X-15.1750 Y-12.0196
G01 X-15.1995 Y-12.0748
G01 X-15.2267 Y-12.1287
G01 X-15.2564 Y-12.1812
G01 X-15.2887 Y-12.2322
G01 X-15.3235 Y-12.2816
G01 X-15.3606 Y-12.3292
G01 X-15.4000 Y-12.3749
G01 X-15.4417 Y-12.4186
G01 X-15.4854 Y-12.4603
G01 X-15.5311 Y-12.4997
G01 X-15.5787 Y-12.5368
G01 X-15.6281 Y-12.5716
G01 X-15.6791 Y-12.6039
G01 X-15.7316 Y-12.6336
G01 X-15.7855 Y-12.6608
G01 X-15.8407 Y-12.6853
G01 X-15.8970 Y-12.7070
G01 X-15.9544 Y-12.7259
G01 X-16.0125 Y-12.7420
G01 X-16.0714 Y-12.7552
G01 X-16.1309 Y-12.7656
G01 X-16.1908 Y-12.7730
G01 X-16.2510 Y-12.7774
G01 X-16.3114 Y-12.7789
G01 X-16.3718 Y-12.7774
G01 X-16.4320 Y-12.7730
G01 X-16.4919 Y-12.7656
G01 X-16.5514 Y-12.7552
G01 X-16.6103 Y-12.7420
G01 X-16.6684 Y-12.7259
G01 X-16.7258 Y-12.7070
G01 X-16.7821 Y-12.6853
G01 X-16.8373 Y-12.6608
G01 X-16.8912 Y-12.6336
G01 X-16.9437 Y-12.6039
G01 X-16.9947 Y-12.5716
G01 X-17.0441 Y-12.5368
G01 X-17.0917 Y-12.4997
G01 X-17.1374 Y-12.4603
G01 X-17.1811 Y-12.4186
G01 X-17.2228 Y-12.3749
G01 X-17.2622 Y-12.3292
G01 X-17.2993 Y-12.2816
G01 X-17.3341 Y-12.2322
G01 X-17.3664 Y-12.1812
G01 X-17.3961 Y-12.1287
G01 X-17.4233 Y-12.0748
G01 X-17.4478 Y-12.0196
G01 X-17.4695 Y-11.9633
G01 X-17.4884 Y-11.9059
G01 X-17.5045 Y-11.8478
G01 X-17.5138 Y-11.8068
G01 X-17.5175 Y-11.7963
G01 X-17.5232 Y-11.7858
G01 X-17.5308 Y-11.7764
G01 X-17.5398 Y-11.7684
G01 X-17.5500 Y-11.7621
G01 X-17.5628 Y-11.7572
G01 X-17.5754 Y-11.7549
G01 X-17.5883 Y-11.7550
G01 X-17.6009 Y-11.7574
G01 X-17.6137 Y-11.7625
G01 X-17.6245 Y-11.7695
G01 X-17.6339 Y-11.7783
G01 X-17.6415 Y-11.7887
G01 X-17.6454 Y-11.7963
G01 X-17.6484 Y-11.8043
G01 X-17.6584 Y-11.8478
G01 X-17.6745 Y-11.9059
G01 X-17.6934 Y-11.9633
G01 X-17.7151 Y-12.0196
G01 X-17.7448 Y-12.0852
G01 X-17.8656 Y-11.9644
G00 Z2.0000
G00 X-18.6215 Y-11.5489
G01 F70.00
G01 Z-0.0600
G01 F120.00
G01 X-18.6226 Y-11.5714
G01 X-18.6259 Y-11.5938
G01 X-18.6314 Y-11.6157
G01 X-18.6390 Y-11.6369
G01 X-18.6487 Y-11.6573
G01 X-18.6603 Y-11.6767
G01 X-18.6737 Y-11.6948
G01 X-18.6889 Y-11.7115
G01 X-18.7056 Y-11.7267
G01 X-18.7237 Y-11.7401
G01 X-18.7431 Y-11.7517
G01 X-18.7635 Y-11.7614
G01 X-18.7847 Y-11.7690
G01 X-18.8066 Y-11.7745
G01 X-18.8290 Y-11.7778
G01 X-18.8515 Y-11.7789
G01 X-18.8740 Y-11.7778
G01 X-18.8964 Y-11.7745
G01 X-18.9183 Y-11.7690
G01 X-18.9395 Y-11.7614
G01 X-18.9599 Y-11.7517
G01 X-18.9793 Y-11.7401
G01 X-18.9974 Y-11.7267
G01 X-19.0141 Y-11.7115
G01 X-19.0293 Y-11.6948
G01 X-19.0427 Y-11.6767
G01 X-19.0543 Y-11.6573
G01 X-19.0640 Y-11.6369
G01 X-19.0716 Y-11.6157
G01 X-19.0771 Y-11.5938
G01 X-19.0804 Y-11.5714
G01 X-19.0815 Y-11.5489
G01 X-19.0804 Y-11.5264
G01 X-19.0771 Y-11.5040
G01 X-19.0716 Y-11.4821
G01 X-19.0640 Y-11.4609
G01 X-19.0543 Y-11.4405
G01 X-19.0427 Y-11.4211
G01 X-19.0293 Y-11.4030
G01 X-19.0141 Y-11.3863
G01 X-18.9974 Y-11.3711
G01 X-18.9793 Y-11.3577
G01 X-18.9599 Y-11.3461
G01 X-18.9395 Y-11.3364
G01 X-18.9183 Y-11.3288
G01 X-18.8964 Y-11.3233
G01 X-18.8740 Y-11.3200
G01 X-18.8515 Y-11.3189
G01 X-18.8290 Y-11.3200
G01 X-18.8066 Y-11.3233
G01 X-18.7847 Y-11.3288
G01 X-18.7635 Y-11.3364
G01 X-18.7431 Y-11.3461
G01 X-18.7237 Y-11.3577
G01 X-18.7056 Y-11.3711
G01 X-18.6889 Y-11.3863
G01 X-18.6737 Y-11.4030
G01 X-18.6603 Y-11.4211
G01 X-18.6487 Y-11.4405
G01 X-18.6390 Y-11.4609
G01 X-18.6314 Y-11.4821
G01 X-18.6259 Y-11.5040
G01 X-18.6226 Y-11.5264
G01 X-18.6215 Y-11.5489
G00 Z2.0000
G00 X-18.6915 Y-11.5489
G01 F70.00
G01 Z-0.0600
G01 F120.00
G01 X-18.6923 Y-11.5646
G01 X-18.6946 Y-11.5801
G01 X-18.6984 Y-11.5953
G01 X-18.7037 Y-11.6101
G01 X-18.7104 Y-11.6243
G01 X-18.7185 Y-11.6378
G01 X-18.7279 Y-11.6504
G01 X-18.7384 Y-11.6620
G01 X-18.7500 Y-11.6725
G01 X-18.7626 Y-11.6819
G01 X-18.7761 Y-11.6900
G01 X-18.7903 Y-11.6967
G01 X-18.8051 Y-11.7020
G01 X-18.8203 Y-11.7058
G01 X-18.8358 Y-11.7081
G01 X-18.8515 Y-11.7089
G01 X-18.8672 Y-11.7081
G01 X-18.8827 Y-11.7058
G01 X-18.8979 Y-11.7020
G01 X-18.9127 Y-11.6967
G01 X-18.9269 Y-11.6900
G01 X-18.9404 Y-11.6819
G01 X-18.9530 Y-11.6725
G01 X-18.9646 Y-11.6620
G01 X-18.9751 Y-11.6504
G01 X-18.9845 Y-11.6378
G01 X-18.9926 Y-11.6243
G01 X-18.9993 Y-11.6101
G01 X-19.0046 Y-11.5953
G01 X-19.0084 Y-11.5801
G01 X-19.0107 Y-11.5646
G01 X-19.0115 Y-11.5489
G01 X-19.0107 Y-11.5332
G01 X-19.0084 Y-11.5177
G01 X-19.0046 Y-11.5025
G01 X-18.9993 Y-11.4877
G01 X-18.9926 Y-11.4735
G01 X-18.9845 Y-11.4600
G01 X-18.9751 Y-11.4474
G01 X-18.9646 Y-11.4358
G01 X-18.9530 Y-11.4253
G01 X-18.9404 Y-11.4159
G01 X-18.9269 Y-11.4078
G01 X-18.9127 Y-11.4011
G01 X-18.8979 Y-11.3958
G01 X-18.8827 Y-11.3920
G01 X-18.8672 Y-11.3897
G01 X-18.8515 Y-11.3889
G01 X-18.8358 Y-11.3897
G01 X-18.8203 Y-11.3920
G01 X-18.8051 Y-11.3958
G01 X-18.7903 Y-11.4011
G01 X-18.7761 Y-11.4078
G01 X-18.7626 Y-11.4159
G01 X-18.7500 Y-11.4253
G01 X-18.7384 Y-11.4358
G01 X-18.7279 Y-11.4474
G01 X-18.7185 Y-11.4600
G01 X-18.7104 Y-11.4735
G01 X-18.7037 Y-11.4877
G01 X-18.6984 Y-11.5025
G01 X-18.6946 Y-11.5177
G01 X-18.6923 Y-11.5332
G01 X-18.6915 Y-11.5489
G00 Z2.0000
G00 X-18.7616 Y-11.5489
G01 F70.00
G01 Z-0.0600
G01 F120.00
G01 X-18.7633 Y-11.5664
G01 X-18.7684 Y-11.5833
G01 X-18.7767 Y-11.5989
G01 X-18.7879 Y-11.6125
G01 X-18.8015 Y-11.6237
G01 X-18.8171 Y-11.6320
G01 X-18.8340 Y-11.6371
G01 X-18.8515 Y-11.6388
G01 X-18.8690 Y-11.6371
G01 X-18.8859 Y-11.6320
G01 X-18.9015 Y-11.6237
G01 X-18.9151 Y-11.6125
G01 X-18.9263 Y-11.5989
G01 X-18.9346 Y-11.5833
G01 X-18.9397 Y-11.5664
G01 X-18.9414 Y-11.5489
G01 X-18.9397 Y-11.5314
G01 X-18.9346 Y-11.5145
G01 X-18.9263 Y-11.4989
G01 X-18.9151 Y-11.4853
G01 X-18.9015 Y-11.4741
G01 X-18.8859 Y-11.4658
G01 X-18.8690 Y-11.4607
G01 X-18.8515 Y-11.4590
G01 X-18.8340 Y-11.4607
G01 X-18.8171 Y-11.4658
G01 X-18.8015 Y-11.4741
G01 X-18.7879 Y-11.4853
G01 X-18.7767 Y-11.4989
G01 X-18.7684 Y-11.5145
G01 X-18.7633 Y-11.5314
G01 X-18.7616 Y-11.5489
G00 Z2.0000
G00 X-18.8316 Y-11.5489
G01 F70.00
G01 Z-0.0600
G01 F120.00
G01 X-18.8331 Y-11.5565
G01 X-18.8374 Y-11.5630
G01 X-18.8439 Y-11.5673
G01 X-18.8515 Y-11.5688
G01 X-18.8591 Y-11.5673
G01 X-18.8656 Y-11.5630
G01 X-18.8699 Y-11.5565
G01 X-18.8714 Y-11.5489
G01 X-18.8699 Y-11.5413
G01 X-18.8656 Y-11.5348
G01 X-18.8591 Y-11.5305
G01 X-18.8515 Y-11.5290
G01 X-18.8439 Y-11.5305
G01 X-18.8374 Y-11.5348
G01 X-18.8331 Y-11.5413
G01 X-18.8316 Y-11.5489
G00 Z2.0000
G00 X-19.2653 Y-10.4656
G01 F70.00
G01 Z-0.0600
G01 F120.00
G01 X-19.2423 Y-10.4567
G01 X-19.1882 Y-10.4389
G01 X-19.1333 Y-10.4237
G01 X-19.0778 Y-10.4112
G01 X-19.0217 Y-10.4015
G01 X-18.9652 Y-10.3945
G01 X-18.9084 Y-10.3903
G01 X-18.8515 Y-10.3889
G01 X-18.7946 Y-10.3903
G01 X-18.7378 Y-10.3945
G01 X-18.6813 Y-10.4015
G01 X-18.6252 Y-10.4112
G01 X-18.5697 Y-10.4237
G01 X-18.5148 Y-10.4389
G01 X-18.4607 Y-10.4567
G01 X-18.4376 Y-10.4657
G01 X-18.4530 Y-10.4811
G01 X-18.4691 Y-10.4750
G01 X-18.5222 Y-10.4575
G01 X-18.5745 Y-10.4431
G01 X-18.6308 Y-10.4305
G01 X-18.6842 Y-10.4212
G01 X-18.7398 Y-10.4144
G01 X-18.7956 Y-10.4103
G01 X-18.8515 Y-10.4089
G01 X-18.9074 Y-10.4103
G01 X-18.9632 Y-10.4144
G01 X-19.0188 Y-10.4212
G01 X-19.0722 Y-10.4305
G01 X-19.1285 Y-10.4431
G01 X-19.1808 Y-10.4575
G01 X-19.2339 Y-10.4750
G01 X-19.2499 Y-10.4810
G01 X-19.2653 Y-10.4656
G00 Z2.0000
G00 X-19.3877 Y-10.4422
G01 F70.00
G01 Z-0.0600
G01 F120.00
G01 X-19.3222 Y-10.4125
G01 X-19.2659 Y-10.3908
G01 X-19.2085 Y-10.3719
G01 X-19.1504 Y-10.3558
G01 X-19.0915 Y-10.3426
G01 X-19.0320 Y-10.3322
G01 X-18.9721 Y-10.3248
G01 X-18.9119 Y-10.3204
G01 X-18.8515 Y-10.3189
G01 X-18.7911 Y-10.3204
G01 X-18.7309 Y-10.3248
G01 X-18.6710 Y-10.3322
G01 X-18.6115 Y-10.3426
G01 X-18.5526 Y-10.3558
G01 X-18.4945 Y-10.3719
G01 X-18.4371 Y-10.3908
G01 X-18.3808 Y-10.4125
G01 X-18.3152 Y-10.4422
G01 X-18.4360 Y-10.5630
G01 X-18.4910 Y-10.5414
G01 X-18.5409 Y-10.5250
G01 X-18.5915 Y-10.5110
G01 X-18.6428 Y-10.4995
G01 X-18.6945 Y-10.4905
G01 X-18.7466 Y-10.4841
G01 X-18.7990 Y-10.4802
G01 X-18.8515 Y-10.4789
G01 X-18.9040 Y-10.4802
G01 X-18.9564 Y-10.4841
G01 X-19.0085 Y-10.4905
G01 X-19.0602 Y-10.4995
G01 X-19.1115 Y-10.5110
G01 X-19.1621 Y-10.5250
G01 X-19.2120 Y-10.5414
G01 X-19.2670 Y-10.5630
G01 X-19.3877 Y-10.4422
G00 Z2.0000
G00 X-19.9582 Y-11.0126
G01 F70.00
G01 Z-0.0600
G01 F120.00
G01 X-19.8374 Y-11.1334
G01 X-19.8590 Y-11.1884
G01 X-19.8754 Y-11.2383
G01 X-19.8894 Y-11.2889
G01 X-19.9009 Y-11.3402
G01 X-19.9099 Y-11.3919
G01 X-19.9163 Y-11.4440
G01 X-19.9202 Y-11.4964
G01 X-19.9215 Y-11.5489
G01 X-19.9202 Y-11.6014
G01 X-19.9163 Y-11.6538
G01 X-19.9099 Y-11.7059
G01 X-19.9009 Y-11.7576
G01 X-19.8894 Y-11.8089
G01 X-19.8754 Y-11.8595
G01 X-19.8590 Y-11.9094
G01 X-19.8374 Y-11.9644
G01 X-19.9582 Y-12.0852
G01 X-19.9879 Y-12.0196
G01 X-20.0096 Y-11.9633
G01 X-20.0285 Y-11.9059
G01 X-20.0446 Y-11.8478
G01 X-20.0578 Y-11.7889
G01 X-20.0682 Y-11.7294
G01 X-20.0756 Y-11.6695
G01 X-20.0800 Y-11.6093
G01 X-20.0815 Y-11.5489
G01 X-20.0800 Y-11.4885
G01 X-20.0756 Y-11.4283
G01 X-20.0682 Y-11.3684
G01 X-20.0578 Y-11.3089
G01 X-20.0446 Y-11.2500
G01 X-20.0285 Y-11.1919
G01 X-20.0096 Y-11.1345
G01 X-19.9879 Y-11.0782
G01 X-19.9582 Y-11.0126
G00 Z2.0000
G00 X-19.9347 Y-11.1350
G01 F70.00
G01 Z-0.0600
G01 F120.00
G01 X-19.9193 Y-11.1504
G01 X-19.9254 Y-11.1665
G01 X-19.9429 Y-11.2196
G01 X-19.9573 Y-11.2719
G01 X-19.9699 Y-11.3282
G01 X-19.9792 Y-11.3816
G01 X-19.9860 Y-11.4372
G01 X-19.9901 Y-11.4930
G01 X-19.9915 Y-11.5489
G01 X-19.9901 Y-11.6048
G01 X-19.9860 Y-11.6606
G01 X-19.9792 Y-11.7162
G01 X-19.9699 Y-11.7696
G01 X-19.9573 Y-11.8259
G01 X-19.9429 Y-11.8782
G01 X-19.9254 Y-11.9313
G01 X-19.9193 Y-11.9474
G01 X-19.9347 Y-11.9628
G01 X-19.9437 Y-11.9397
G01 X-19.9615 Y-11.8856
G01 X-19.9767 Y-11.8307
G01 X-19.9892 Y-11.7752
G01 X-19.9989 Y-11.7191
G01 X-20.0059 Y-11.6626
G01 X-20.0101 Y-11.6058
G01 X-20.0115 Y-11.5489
G01 X-20.0101 Y-11.4920
G01 X-20.0059 Y-11.4352
G01 X-19.9989 Y-11.3787
G01 X-19.9892 Y-11.3226
G01 X-19.9767 Y-11.2671
G01 X-19.9615 Y-11.2122
G01 X-19.9437 Y-11.1581
G01 X-19.9347 Y-11.1350
G00 Z2.0000
G00 X-19.3877 Y-12.6556
G01 F70.00
G01 Z-0.0600
G01 F120.00
G01 X-19.2670 Y-12.5348
G01 X-19.2120 Y-12.5564
G01 X-19.1621 Y-12.5728
G01 X-19.1115 Y-12.5868
G01 X-19.0602 Y-12.5983
G01 X-19.0085 Y-12.6073
G01 X-18.9564 Y-12.6137
G01 X-18.9040 Y-12.6176
G01 X-18.8515 Y-12.6189
G01 X-18.7990 Y-12.6176
G01 X-18.7466 Y-12.6137
G01 X-18.6945 Y-12.6073
G01 X-18.6428 Y-12.5983
G01 X-18.5915 Y-12.5868
G01 X-18.5409 Y-12.5728
G01 X-18.4910 Y-12.5564
G01 X-18.4360 Y-12.5348
G01 X-18.3152 Y-12.6556
G01 X-18.3808 Y-12.6853
G01 X-18.4371 Y-12.7070
G01 X-18.4945 Y-12.7259
G01 X-18.5526 Y-12.7420
G01 X-18.6115 Y-12.7552
G01 X-18.6710 Y-12.7656
G01 X-18.7309 Y-12.7730
G01 X-18.7911 Y-12.7774
G01 X-18.8515 Y-12.7789
G01 X-18.9119 Y-12.7774
G01 X-18.9721 Y-12.7730
G01 X-19.0320 Y-12.7656
G01 X-19.0915 Y-12.7552
G01 X-19.1504 Y-12.7420
G01 X-19.2085 Y-12.7259
G01 X-19.2659 Y-12.7070
G01 X-19.3222 Y-12.6853
G01 X-19.3877 Y-12.6556
G00 Z2.0000
G00 X-19.2653 Y-12.6322
G01 F70.00
G01 Z-0.0600
G01 F120.00
G01 X-19.2499 Y-12.6168
G01 X-19.2339 Y-12.6228
G01 X-19.1808 Y-12.6403
G01 X-19.1285 Y-12.6547
G01 X-19.0722 Y-12.6673
G01 X-19.0188 Y-12.6766
G01 X-18.9632 Y-12.6834
G01 X-18.9074 Y-12.6875
G01 X-18.8515 Y-12.6889
G01 X-18.7956 Y-12.6875
G01 X-18.7398 Y-12.6834
G01 X-18.6842 Y-12.6766
G01 X-18.6308 Y-12.6673
G01 X-18.5745 Y-12.6547
G01 X-18.5222 Y-12.6403
G01 X-18.4691 Y-12.6228
G01 X-18.4530 Y-12.6167
G01 X-18.4376 Y-12.6321
G01 X-18.4607 Y-12.6411
G01 X-18.5148 Y-12.6589
G01 X-18.5697 Y-12.6741
G01 X-18.6252 Y-12.6866
G01 X-18.6813 Y-12.6963
G01 X-18.7378 Y-12.7033
G01 X-18.7946 Y-12.7075
G01 X-18.8515 Y-12.7089
G01 X-18.9084 Y-12.7075
G01 X-18.9652 Y-12.7033
G01 X-19.0217 Y-12.6963
G01 X-19.0778 Y-12.6866
G01 X-19.1333 Y-12.6741
G01 X-19.1882 Y-12.6589
G01 X-19.2423 Y-12.6411
G01 X-19.2653 Y-12.6322
G00 Z2.0000
G00 X-18.6301 Y-8.4544
G01 F70.00
G01 Z-0.0600
G01 F120.00
G01 X-18.6453 Y-8.4696
G01 X-18.7917 Y-8.4696
G01 X-18.7917 Y-8.4467
G01 X-18.7724 Y-8.4547
G01 X-18.7527 Y-8.4607
G01 X-18.7325 Y-8.4647
G01 X-18.7120 Y-8.4667
G01 X-18.6914 Y-8.4667
G01 X-18.6709 Y-8.4647
G01 X-18.6507 Y-8.4607
G01 X-18.6301 Y-8.4544
G00 Z2.0000
G00 X-18.9117 Y-7.6111
G01 F70.00
G01 Z-0.0600
G01 F120.00
G01 X-18.9310 Y-7.6031
G01 X-18.9532 Y-7.5965
G01 X-18.9760 Y-7.5924
G01 X-18.9991 Y-7.5908
G01 X-20.6017 Y-7.5908
G01 X-20.6248 Y-7.5921
G01 X-20.6477 Y-7.5959
G01 X-20.6700 Y-7.6022
G01 X-20.6917 Y-7.6111
G01 X-20.6917 Y-7.3905
G01 X-20.6700 Y-7.3994
G01 X-20.6477 Y-7.4057
G01 X-20.6248 Y-7.4095
G01 X-20.6017 Y-7.4108
G01 X-18.9991 Y-7.4108
G01 X-18.9760 Y-7.4092
G01 X-18.9532 Y-7.4051
G01 X-18.9310 Y-7.3985
G01 X-18.9117 Y-7.3905
G01 X-18.9117 Y-7.6111
G00 Z2.0000
G00 X-18.9817 Y-7.5215
G01 F70.00
G01 Z-0.0600
G01 F120.00
G01 X-19.0017 Y-7.5208
G01 X-20.6017 Y-7.5208
G01 X-20.6217 Y-7.5215
G01 X-20.6217 Y-7.4801
G01 X-20.6017 Y-7.4808
G01 X-19.0017 Y-7.4808
G01 X-18.9817 Y-7.4801
G01 X-18.9817 Y-7.5215
G00 Z2.0000
G00 X-18.7717 Y-6.2642
G01 F70.00
G01 Z-0.0600
G01 F120.00
G01 X-18.9317 Y-6.2642
G01 X-18.9318 Y-5.8965
G01 X-18.9342 Y-5.8821
G01 X-18.9396 Y-5.8686
G01 X-18.9476 Y-5.8564
G01 X-18.9580 Y-5.8461
G01 X-18.9672 Y-5.8399
G01 X-18.9773 Y-5.8352
G01 X-18.9880 Y-5.8321
G01 X-19.0000 Y-5.8308
G01 X-19.5151 Y-5.8308
G01 X-19.5151 Y-5.6708
G01 X-18.7717 Y-5.6708
G01 X-18.7717 Y-6.2642
G00 Z2.0000
G00 X-18.8417 Y-6.1942
G01 F70.00
G01 Z-0.0600
G01 F120.00
G01 X-18.8617 Y-6.1942
G01 X-18.8617 Y-5.8991
G01 X-18.8624 Y-5.8871
G01 X-18.8641 Y-5.8752
G01 X-18.8668 Y-5.8635
G01 X-18.8711 Y-5.8504
G01 X-18.8759 Y-5.8394
G01 X-18.8825 Y-5.8274
G01 X-18.8903 Y-5.8160
G01 X-18.8980 Y-5.8068
G01 X-18.9077 Y-5.7971
G01 X-18.9169 Y-5.7894
G01 X-18.9342 Y-5.7782
G01 X-18.9513 Y-5.7702
G01 X-18.9710 Y-5.7642
G01 X-18.9897 Y-5.7613
G01 X-19.0017 Y-5.7608
G01 X-19.4451 Y-5.7608
G01 X-19.4451 Y-5.7408
G01 X-18.8417 Y-5.7408
G01 X-18.8417 Y-6.1942
G00 Z2.0000
G00 X-17.6577 Y-5.8673
G01 F70.00
G01 Z-0.0600
G01 F120.00
G01 X-17.6491 Y-5.8836
G01 X-17.6394 Y-5.8988
G01 X-17.6284 Y-5.9131
G01 X-17.6162 Y-5.9264
G01 X-17.6029 Y-5.9386
G01 X-17.5886 Y-5.9496
G01 X-17.5734 Y-5.9593
G01 X-17.5571 Y-5.9679
G01 X-17.6577 Y-5.9679
G01 X-17.6577 Y-5.8673
G00 Z2.0000
G00 X-17.5571 Y-7.1279
G01 F70.00
G01 Z-0.0600
G01 F120.00
G01 X-17.5734 Y-7.1365
G01 X-17.5886 Y-7.1462
G01 X-17.6029 Y-7.1572
G01 X-17.6162 Y-7.1694
G01 X-17.6284 Y-7.1827
G01 X-17.6394 Y-7.1970
G01 X-17.6491 Y-7.2122
G01 X-17.6577 Y-7.2285
G01 X-17.6577 Y-7.1279
G01 X-17.5571 Y-7.1279
G00 Z2.0000
G00 X-15.1093 Y-7.0069
G01 F70.00
G01 Z-0.0600
G01 F120.00
G01 X-15.1093 Y-7.1800
G01 X-15.1210 Y-7.1676
G01 X-15.1325 Y-7.1572
G01 X-15.1447 Y-7.1477
G01 X-15.1597 Y-7.1378
G01 X-15.1756 Y-7.1292
G01 X-15.1897 Y-7.1229
G01 X-15.2067 Y-7.1169
G01 X-15.2218 Y-7.1130
G01 X-15.2051 Y-7.1055
G01 X-15.1872 Y-7.0953
G01 X-15.1703 Y-7.0835
G01 X-15.1547 Y-7.0700
G01 X-15.1405 Y-7.0551
G01 X-15.1293 Y-7.0409
G01 X-15.1181 Y-7.0236
G01 X-15.1093 Y-7.0069
G00 Z2.0000
G00 X-15.2218 Y-5.9828
G01 F70.00
G01 Z-0.0600
G01 F120.00
G01 X-15.1945 Y-5.9747
G01 X-15.1708 Y-5.9642
G01 X-15.1093 Y-5.9642
G01 X-15.1093 Y-6.0889
G01 X-15.1181 Y-6.0722
G01 X-15.1293 Y-6.0549
G01 X-15.1405 Y-6.0407
G01 X-15.1547 Y-6.0258
G01 X-15.1703 Y-6.0123
G01 X-15.1872 Y-6.0005
G01 X-15.2051 Y-5.9903
G01 X-15.2218 Y-5.9828
G00 Z2.0000
G00 X-15.1093 Y-4.4669
G01 F70.00
G01 Z-0.0600
G01 F120.00
G01 X-15.1093 Y-4.5917
G01 X-15.1706 Y-4.5917
G01 X-15.1945 Y-4.5811
G01 X-15.2218 Y-4.5730
G01 X-15.2051 Y-4.5655
G01 X-15.1872 Y-4.5553
G01 X-15.1703 Y-4.5435
G01 X-15.1547 Y-4.5300
G01 X-15.1405 Y-4.5151
G01 X-15.1293 Y-4.5009
G01 X-15.1181 Y-4.4836
G01 X-15.1093 Y-4.4669
G00 Z2.0000
G00 X-15.1093 Y-3.3757
G01 F70.00
G01 Z-0.0600
G01 F120.00
G01 X-15.1093 Y-3.5489
G01 X-15.1181 Y-3.5322
G01 X-15.1293 Y-3.5149
G01 X-15.1405 Y-3.5007
G01 X-15.1547 Y-3.4858
G01 X-15.1703 Y-3.4723
G01 X-15.1872 Y-3.4605
G01 X-15.2051 Y-3.4503
G01 X-15.2218 Y-3.4428
G01 X-15.2068 Y-3.4389
G01 X-15.1898 Y-3.4329
G01 X-15.1734 Y-3.4255
G01 X-15.1598 Y-3.4180
G01 X-15.1469 Y-3.4096
G01 X-15.1326 Y-3.3986
G01 X-15.1211 Y-3.3882
G01 X-15.1093 Y-3.3757
G00 Z2.0000
G00 X-15.1093 Y-1.9269
G01 F70.00
G01 Z-0.0600
G01 F120.00
G01 X-15.1093 Y-2.1001
G01 X-15.1211 Y-2.0876
G01 X-15.1326 Y-2.0772
G01 X-15.1448 Y-2.0677
G01 X-15.1598 Y-2.0578
G01 X-15.1734 Y-2.0503
G01 X-15.1898 Y-2.0429
G01 X-15.2068 Y-2.0369
G01 X-15.2218 Y-2.0330
G01 X-15.2051 Y-2.0255
G01 X-15.1872 Y-2.0153
G01 X-15.1703 Y-2.0035
G01 X-15.1547 Y-1.9900
G01 X-15.1405 Y-1.9751
G01 X-15.1293 Y-1.9609
G01 X-15.1181 Y-1.9436
G01 X-15.1093 Y-1.9269
G00 Z2.0000
G00 X-16.6877 Y-1.9079
G01 F70.00
G01 Z-0.0600
G01 F120.00
G01 X-16.6877 Y-2.1679
G01 X-17.4678 Y-2.1679
G01 X-17.4831 Y-2.1696
G01 X-17.4930 Y-2.1726
G01 X-17.5016 Y-2.1766
G01 X-17.5095 Y-2.1817
G01 X-17.5173 Y-2.1884
G01 X-17.5240 Y-2.1962
G01 X-17.5291 Y-2.2041
G01 X-17.5334 Y-2.2135
G01 X-17.5361 Y-2.2226
G01 X-17.5378 Y-2.2370
G01 X-17.5378 Y-2.4179
G01 X-17.7978 Y-2.4179
G01 X-17.7978 Y-1.9079
G01 X-16.6877 Y-1.9079
G00 Z2.0000
G00 X-16.7577 Y-1.9779
G01 F70.00
G01 Z-0.0600
G01 F120.00
G01 X-16.7577 Y-2.0979
G01 X-17.4695 Y-2.0979
G01 X-17.4832 Y-2.0988
G01 X-17.4951 Y-2.1006
G01 X-17.5068 Y-2.1034
G01 X-17.5182 Y-2.1073
G01 X-17.5307 Y-2.1128
G01 X-17.5441 Y-2.1205
G01 X-17.5566 Y-2.1297
G01 X-17.5668 Y-2.1389
G01 X-17.5771 Y-2.1504
G01 X-17.5861 Y-2.1630
G01 X-17.5936 Y-2.1765
G01 X-17.5990 Y-2.1891
G01 X-17.6048 Y-2.2089
G01 X-17.6076 Y-2.2310
G01 X-17.6078 Y-2.3479
G01 X-17.7278 Y-2.3479
G01 X-17.7278 Y-1.9779
G01 X-16.7577 Y-1.9779
G00 Z2.0000
G00 X-17.6578 Y-2.1485
G01 F70.00
G01 Z-0.0600
G01 F120.00
G01 X-17.6578 Y-2.0479
G01 X-17.5572 Y-2.0479
G01 X-17.5735 Y-2.0565
G01 X-17.5887 Y-2.0662
G01 X-17.6030 Y-2.0772
G01 X-17.6163 Y-2.0894
G01 X-17.6285 Y-2.1027
G01 X-17.6395 Y-2.1170
G01 X-17.6492 Y-2.1322
G01 X-17.6578 Y-2.1485
G00 Z2.0000
G00 X-17.7978 Y-3.0579
G01 F70.00
G01 Z-0.0600
G01 F120.00
G01 X-17.5378 Y-3.0579
G01 X-17.5378 Y-3.2388
G01 X-17.5361 Y-3.2532
G01 X-17.5334 Y-3.2623
G01 X-17.5291 Y-3.2717
G01 X-17.5240 Y-3.2796
G01 X-17.5173 Y-3.2874
G01 X-17.5095 Y-3.2941
G01 X-17.5016 Y-3.2992
G01 X-17.4930 Y-3.3032
G01 X-17.4831 Y-3.3062
G01 X-17.4678 Y-3.3079
G01 X-16.6878 Y-3.3079
G01 X-16.6878 Y-3.5679
G01 X-17.7978 Y-3.5679
G01 X-17.7978 Y-3.0579
G00 Z2.0000
G00 X-17.7278 Y-3.1279
G01 F70.00
G01 Z-0.0600
G01 F120.00
G01 X-17.6078 Y-3.1279
G01 X-17.6076 Y-3.2448
G01 X-17.6048 Y-3.2669
G01 X-17.5990 Y-3.2867
G01 X-17.5936 Y-3.2993
G01 X-17.5861 Y-3.3128
G01 X-17.5771 Y-3.3254
G01 X-17.5668 Y-3.3369
G01 X-17.5566 Y-3.3461
G01 X-17.5441 Y-3.3553
G01 X-17.5307 Y-3.3630
G01 X-17.5182 Y-3.3685
G01 X-17.5068 Y-3.3724
G01 X-17.4951 Y-3.3752
G01 X-17.4815 Y-3.3772
G01 X-17.4695 Y-3.3779
G01 X-16.7578 Y-3.3779
G01 X-16.7578 Y-3.4979
G01 X-17.7278 Y-3.4979
G01 X-17.7278 Y-3.1279
G00 Z2.0000
G00 X-17.6578 Y-3.3273
G01 F70.00
G01 Z-0.0600
G01 F120.00
G01 X-17.6492 Y-3.3436
G01 X-17.6395 Y-3.3588
G01 X-17.6285 Y-3.3731
G01 X-17.6163 Y-3.3864
G01 X-17.6030 Y-3.3986
G01 X-17.5887 Y-3.4096
G01 X-17.5735 Y-3.4193
G01 X-17.5572 Y-3.4279
G01 X-17.6578 Y-3.4279
G01 X-17.6578 Y-3.3273
G00 Z2.0000
G00 X-17.5571 Y-4.5879
G01 F70.00
G01 Z-0.0600
G01 F120.00
G01 X-17.5734 Y-4.5965
G01 X-17.5886 Y-4.6062
G01 X-17.6029 Y-4.6172
G01 X-17.6162 Y-4.6294
G01 X-17.6284 Y-4.6427
G01 X-17.6394 Y-4.6570
G01 X-17.6491 Y-4.6722
G01 X-17.6577 Y-4.6885
G01 X-17.6577 Y-4.5879
G01 X-17.5571 Y-4.5879
G00 Z2.0000
G00 X-19.4450 Y-4.2999
G01 F70.00
G01 Z-0.0600
G01 F120.00
G01 X-19.4450 Y-4.2799
G01 X-19.0017 Y-4.2799
G01 X-18.9897 Y-4.2794
G01 X-18.9710 Y-4.2765
G01 X-18.9513 Y-4.2705
G01 X-18.9342 Y-4.2625
G01 X-18.9169 Y-4.2513
G01 X-18.9077 Y-4.2436
G01 X-18.8980 Y-4.2339
G01 X-18.8903 Y-4.2247
G01 X-18.8825 Y-4.2133
G01 X-18.8759 Y-4.2013
G01 X-18.8711 Y-4.1903
G01 X-18.8668 Y-4.1772
G01 X-18.8641 Y-4.1655
G01 X-18.8624 Y-4.1536
G01 X-18.8617 Y-4.1416
G01 X-18.8617 Y-3.8465
G01 X-18.8417 Y-3.8465
G01 X-18.8417 Y-4.2999
G01 X-19.4450 Y-4.2999
G00 Z2.0000
G00 X-19.5150 Y-4.3699
G01 F70.00
G01 Z-0.0600
G01 F120.00
G01 X-19.5150 Y-4.2099
G01 X-19.0000 Y-4.2099
G01 X-18.9880 Y-4.2086
G01 X-18.9773 Y-4.2055
G01 X-18.9672 Y-4.2008
G01 X-18.9580 Y-4.1946
G01 X-18.9476 Y-4.1843
G01 X-18.9396 Y-4.1721
G01 X-18.9342 Y-4.1586
G01 X-18.9318 Y-4.1442
G01 X-18.9317 Y-3.7765
G01 X-18.7717 Y-3.7765
G01 X-18.7717 Y-4.3699
G01 X-19.5150 Y-4.3699
G00 Z2.0000
G00 X-20.7617 Y-3.8466
G01 F70.00
G01 Z-0.0600
G01 F120.00
G01 X-20.7417 Y-3.8466
G01 X-20.7417 Y-4.1416
G01 X-20.7410 Y-4.1536
G01 X-20.7393 Y-4.1655
G01 X-20.7366 Y-4.1772
G01 X-20.7323 Y-4.1903
G01 X-20.7275 Y-4.2013
G01 X-20.7209 Y-4.2133
G01 X-20.7131 Y-4.2247
G01 X-20.7054 Y-4.2339
G01 X-20.6957 Y-4.2436
G01 X-20.6865 Y-4.2513
G01 X-20.6692 Y-4.2625
G01 X-20.6521 Y-4.2705
G01 X-20.6324 Y-4.2765
G01 X-20.6137 Y-4.2794
G01 X-20.6017 Y-4.2799
G01 X-20.1583 Y-4.2799
G01 X-20.1583 Y-4.2999
G01 X-20.7617 Y-4.2999
G01 X-20.7617 Y-3.8466
G00 Z2.0000
G00 X-20.8317 Y-3.7766
G01 F70.00
G01 Z-0.0600
G01 F120.00
G01 X-20.6717 Y-3.7766
G01 X-20.6716 Y-4.1442
G01 X-20.6692 Y-4.1586
G01 X-20.6638 Y-4.1721
G01 X-20.6558 Y-4.1843
G01 X-20.6454 Y-4.1946
G01 X-20.6362 Y-4.2008
G01 X-20.6261 Y-4.2055
G01 X-20.6154 Y-4.2086
G01 X-20.6034 Y-4.2099
G01 X-20.0883 Y-4.2099
G01 X-20.0883 Y-4.3699
G01 X-20.8317 Y-4.3699
G01 X-20.8317 Y-3.7766
G00 Z2.0000
G00 X-20.6217 Y-2.5193
G01 F70.00
G01 Z-0.0600
G01 F120.00
G01 X-20.6017 Y-2.5200
G01 X-19.0017 Y-2.5200
G01 X-18.9817 Y-2.5193
G01 X-18.9817 Y-2.5606
G01 X-19.0017 Y-2.5599
G01 X-20.6017 Y-2.5599
G01 X-20.6217 Y-2.5606
G01 X-20.6217 Y-2.5193
G00 Z2.0000
G00 X-20.6917 Y-2.4297
G01 F70.00
G01 Z-0.0600
G01 F120.00
G01 X-20.6700 Y-2.4386
G01 X-20.6477 Y-2.4449
G01 X-20.6248 Y-2.4487
G01 X-20.6017 Y-2.4500
G01 X-18.9991 Y-2.4500
G01 X-18.9760 Y-2.4484
G01 X-18.9532 Y-2.4443
G01 X-18.9310 Y-2.4377
G01 X-18.9117 Y-2.4297
G01 X-18.9117 Y-2.6502
G01 X-18.9310 Y-2.6422
G01 X-18.9532 Y-2.6356
G01 X-18.9760 Y-2.6315
G01 X-18.9991 Y-2.6299
G01 X-20.6017 Y-2.6299
G01 X-20.6248 Y-2.6312
G01 X-20.6477 Y-2.6350
G01 X-20.6700 Y-2.6413
G01 X-20.6917 Y-2.6502
G01 X-20.6917 Y-2.4297
G00 Z2.0000
G00 X-22.5309 Y-3.2109
G01 F70.00
G01 Z-0.0600
G01 F120.00
G01 X-22.5323 Y-3.2663
G01 X-22.5364 Y-3.3217
G01 X-22.5432 Y-3.3767
G01 X-22.5526 Y-3.4313
G01 X-22.5648 Y-3.4855
G01 X-22.5796 Y-3.5389
G01 X-22.5970 Y-3.5916
G01 X-22.6169 Y-3.6433
G01 X-22.6394 Y-3.6940
G01 X-22.6643 Y-3.7436
G01 X-22.6917 Y-3.7918
G01 X-22.7214 Y-3.8387
G01 X-22.7533 Y-3.8840
G01 X-22.7874 Y-3.9278
G01 X-22.8236 Y-3.9697
G01 X-22.8619 Y-4.0099
G01 X-22.9021 Y-4.0482
G01 X-22.9440 Y-4.0844
G01 X-22.9878 Y-4.1185
G01 X-23.0331 Y-4.1504
G01 X-23.0800 Y-4.1801
G01 X-23.1282 Y-4.2075
G01 X-23.1778 Y-4.2324
G01 X-23.2285 Y-4.2549
G01 X-23.2802 Y-4.2748
G01 X-23.3329 Y-4.2922
G01 X-23.3863 Y-4.3070
G01 X-23.4405 Y-4.3192
G01 X-23.4951 Y-4.3286
G01 X-23.5501 Y-4.3354
G01 X-23.6055 Y-4.3395
G01 X-23.6609 Y-4.3409
G01 X-23.7163 Y-4.3395
G01 X-23.7717 Y-4.3354
G01 X-23.8267 Y-4.3286
G01 X-23.8813 Y-4.3192
G01 X-23.9355 Y-4.3070
G01 X-23.9889 Y-4.2922
G01 X-24.0416 Y-4.2748
G01 X-24.0933 Y-4.2549
G01 X-24.1440 Y-4.2324
G01 X-24.1936 Y-4.2075
G01 X-24.2418 Y-4.1801
G01 X-24.2887 Y-4.1504
G01 X-24.3340 Y-4.1185
G01 X-24.3778 Y-4.0844
G01 X-24.4197 Y-4.0482
G01 X-24.4599 Y-4.0099
G01 X-24.4982 Y-3.9697
G01 X-24.5344 Y-3.9278
G01 X-24.5685 Y-3.8840
G01 X-24.6004 Y-3.8387
G01 X-24.6301 Y-3.7918
G01 X-24.6575 Y-3.7436
G01 X-24.6824 Y-3.6940
G01 X-24.7049 Y-3.6433
G01 X-24.7248 Y-3.5916
G01 X-24.7422 Y-3.5389
G01 X-24.7570 Y-3.4855
G01 X-24.7692 Y-3.4313
G01 X-24.7786 Y-3.3767
G01 X-24.7854 Y-3.3217
G01 X-24.7895 Y-3.2663
G01 X-24.7909 Y-3.2109
G01 X-24.7895 Y-3.1555
G01 X-24.7854 Y-3.1001
G01 X-24.7786 Y-3.0451
G01 X-24.7692 Y-2.9905
G01 X-24.7570 Y-2.9363
G01 X-24.7422 Y-2.8829
G01 X-24.7248 Y-2.8302
G01 X-24.7049 Y-2.7785
G01 X-24.6824 Y-2.7278
G01 X-24.6575 Y-2.6782
G01 X-24.6301 Y-2.6300
G01 X-24.6004 Y-2.5831
G01 X-24.5685 Y-2.5378
G01 X-24.5344 Y-2.4940
G01 X-24.4982 Y-2.4521
G01 X-24.4599 Y-2.4119
G01 X-24.4197 Y-2.3736
G01 X-24.3778 Y-2.3374
G01 X-24.3340 Y-2.3033
G01 X-24.2887 Y-2.2714
G01 X-24.2418 Y-2.2417
G01 X-24.1936 Y-2.2143
G01 X-24.1440 Y-2.1894
G01 X-24.0933 Y-2.1669
G01 X-24.0416 Y-2.1470
G01 X-23.9889 Y-2.1296
G01 X-23.9355 Y-2.1148
G01 X-23.8813 Y-2.1026
G01 X-23.8267 Y-2.0932
G01 X-23.7717 Y-2.0864
G01 X-23.7163 Y-2.0823
G01 X-23.6609 Y-2.0809
G01 X-23.6055 Y-2.0823
G01 X-23.5501 Y-2.0864
G01 X-23.4951 Y-2.0932
G01 X-23.4405 Y-2.1026
G01 X-23.3863 Y-2.1148
G01 X-23.3329 Y-2.1296
G01 X-23.2802 Y-2.1470
G01 X-23.2285 Y-2.1669
G01 X-23.1778 Y-2.1894
G01 X-23.1282 Y-2.2143
G01 X-23.0800 Y-2.2417
G01 X-23.0331 Y-2.2714
G01 X-22.9878 Y-2.3033
G01 X-22.9440 Y-2.3374
G01 X-22.9021 Y-2.3736
G01 X-22.8619 Y-2.4119
G01 X-22.8236 Y-2.4521
G01 X-22.7874 Y-2.4940
G01 X-22.7533 Y-2.5378
G01 X-22.7214 Y-2.5831
G01 X-22.6917 Y-2.6300
G01 X-22.6643 Y-2.6782
G01 X-22.6394 Y-2.7278
G01 X-22.6169 Y-2.7785
G01 X-22.5970 Y-2.8302
G01 X-22.5796 Y-2.8829
G01 X-22.5648 Y-2.9363
G01 X-22.5526 Y-2.9905
G01 X-22.5432 Y-3.0451
G01 X-22.5364 Y-3.1001
G01 X-22.5323 Y-3.1555
G01 X-22.5309 Y-3.2109
G00 Z2.0000
G00 X-22.6009 Y-3.2109
G01 F70.00
G01 Z-0.0600
G01 F120.00
G01 X-22.6022 Y-3.2629
G01 X-22.6060 Y-3.3148
G01 X-22.6124 Y-3.3664
G01 X-22.6213 Y-3.4177
G01 X-22.6327 Y-3.4684
G01 X-22.6466 Y-3.5186
G01 X-22.6629 Y-3.5680
G01 X-22.6816 Y-3.6165
G01 X-22.7027 Y-3.6641
G01 X-22.7261 Y-3.7106
G01 X-22.7517 Y-3.7558
G01 X-22.7796 Y-3.7998
G01 X-22.8095 Y-3.8423
G01 X-22.8415 Y-3.8833
G01 X-22.8755 Y-3.9227
G01 X-22.9114 Y-3.9604
G01 X-22.9491 Y-3.9963
G01 X-22.9885 Y-4.0303
G01 X-23.0295 Y-4.0623
G01 X-23.0720 Y-4.0922
G01 X-23.1160 Y-4.1201
G01 X-23.1612 Y-4.1457
G01 X-23.2077 Y-4.1691
G01 X-23.2553 Y-4.1902
G01 X-23.3038 Y-4.2089
G01 X-23.3532 Y-4.2252
G01 X-23.4034 Y-4.2391
G01 X-23.4541 Y-4.2505
G01 X-23.5054 Y-4.2594
G01 X-23.5570 Y-4.2658
G01 X-23.6089 Y-4.2696
G01 X-23.6609 Y-4.2709
G01 X-23.7129 Y-4.2696
G01 X-23.7648 Y-4.2658
G01 X-23.8164 Y-4.2594
G01 X-23.8677 Y-4.2505
G01 X-23.9184 Y-4.2391
G01 X-23.9686 Y-4.2252
G01 X-24.0180 Y-4.2089
G01 X-24.0665 Y-4.1902
G01 X-24.1141 Y-4.1691
G01 X-24.1606 Y-4.1457
G01 X-24.2058 Y-4.1201
G01 X-24.2498 Y-4.0922
G01 X-24.2923 Y-4.0623
G01 X-24.3333 Y-4.0303
G01 X-24.3727 Y-3.9963
G01 X-24.4104 Y-3.9604
G01 X-24.4463 Y-3.9227
G01 X-24.4803 Y-3.8833
G01 X-24.5123 Y-3.8423
G01 X-24.5422 Y-3.7998
G01 X-24.5701 Y-3.7558
G01 X-24.5957 Y-3.7106
G01 X-24.6191 Y-3.6641
G01 X-24.6402 Y-3.6165
G01 X-24.6589 Y-3.5680
G01 X-24.6752 Y-3.5186
G01 X-24.6891 Y-3.4684
G01 X-24.7005 Y-3.4177
G01 X-24.7094 Y-3.3664
G01 X-24.7158 Y-3.3148
G01 X-24.7196 Y-3.2629
G01 X-24.7209 Y-3.2109
G01 X-24.7196 Y-3.1589
G01 X-24.7158 Y-3.1070
G01 X-24.7094 Y-3.0554
G01 X-24.7005 Y-3.0041
G01 X-24.6891 Y-2.9534
G01 X-24.6752 Y-2.9032
G01 X-24.6589 Y-2.8538
G01 X-24.6402 Y-2.8053
G01 X-24.6191 Y-2.7577
G01 X-24.5957 Y-2.7112
G01 X-24.5701 Y-2.6660
G01 X-24.5422 Y-2.6220
G01 X-24.5123 Y-2.5795
G01 X-24.4803 Y-2.5385
G01 X-24.4463 Y-2.4991
G01 X-24.4104 Y-2.4614
G01 X-24.3727 Y-2.4255
G01 X-24.3333 Y-2.3915
G01 X-24.2923 Y-2.3595
G01 X-24.2498 Y-2.3296
G01 X-24.2058 Y-2.3017
G01 X-24.1606 Y-2.2761
G01 X-24.1141 Y-2.2527
G01 X-24.0665 Y-2.2316
G01 X-24.0180 Y-2.2129
G01 X-23.9686 Y-2.1966
G01 X-23.9184 Y-2.1827
G01 X-23.8677 Y-2.1713
G01 X-23.8164 Y-2.1624
G01 X-23.7648 Y-2.1560
G01 X-23.7129 Y-2.1522
G01 X-23.6609 Y-2.1509
G01 X-23.6089 Y-2.1522
G01 X-23.5570 Y-2.1560
G01 X-23.5054 Y-2.1624
G01 X-23.4541 Y-2.1713
G01 X-23.4034 Y-2.1827
G01 X-23.3532 Y-2.1966
G01 X-23.3038 Y-2.2129
G01 X-23.2553 Y-2.2316
G01 X-23.2077 Y-2.2527
G01 X-23.1612 Y-2.2761
G01 X-23.1160 Y-2.3017
G01 X-23.0720 Y-2.3296
G01 X-23.0295 Y-2.3595
G01 X-22.9885 Y-2.3915
G01 X-22.9491 Y-2.4255
G01 X-22.9114 Y-2.4614
G01 X-22.8755 Y-2.4991
G01 X-22.8415 Y-2.5385
G01 X-22.8095 Y-2.5795
G01 X-22.7796 Y-2.6220
G01 X-22.7517 Y-2.6660
G01 X-22.7261 Y-2.7112
G01 X-22.7027 Y-2.7577
G01 X-22.6816 Y-2.8053
G01 X-22.6629 Y-2.8538
G01 X-22.6466 Y-2.9032
G01 X-22.6327 Y-2.9534
G01 X-22.6213 Y-3.0041
G01 X-22.6124 Y-3.0554
G01 X-22.6060 Y-3.1070
G01 X-22.6022 Y-3.1589
G01 X-22.6009 Y-3.2109
G00 Z2.0000
G00 X-22.6209 Y-3.2109
G01 F70.00
G01 Z-0.0600
G01 F120.00
G01 X-22.6222 Y-3.1599
G01 X-22.6259 Y-3.1090
G01 X-22.6322 Y-3.0583
G01 X-22.6409 Y-3.0080
G01 X-22.6521 Y-2.9582
G01 X-22.6657 Y-2.9090
G01 X-22.6817 Y-2.8605
G01 X-22.7001 Y-2.8129
G01 X-22.7208 Y-2.7662
G01 X-22.7437 Y-2.7206
G01 X-22.7689 Y-2.6762
G01 X-22.7962 Y-2.6331
G01 X-22.8256 Y-2.5914
G01 X-22.8570 Y-2.5511
G01 X-22.8903 Y-2.5125
G01 X-22.9255 Y-2.4755
G01 X-22.9625 Y-2.4403
G01 X-23.0011 Y-2.4070
G01 X-23.0414 Y-2.3756
G01 X-23.0831 Y-2.3462
G01 X-23.1262 Y-2.3189
G01 X-23.1706 Y-2.2937
G01 X-23.2162 Y-2.2708
G01 X-23.2629 Y-2.2501
G01 X-23.3105 Y-2.2317
G01 X-23.3590 Y-2.2157
G01 X-23.4082 Y-2.2021
G01 X-23.4580 Y-2.1909
G01 X-23.5083 Y-2.1822
G01 X-23.5590 Y-2.1759
G01 X-23.6099 Y-2.1722
G01 X-23.6609 Y-2.1709
G01 X-23.7119 Y-2.1722
G01 X-23.7628 Y-2.1759
G01 X-23.8135 Y-2.1822
G01 X-23.8638 Y-2.1909
G01 X-23.9136 Y-2.2021
G01 X-23.9628 Y-2.2157
G01 X-24.0113 Y-2.2317
G01 X-24.0589 Y-2.2501
G01 X-24.1056 Y-2.2708
G01 X-24.1512 Y-2.2937
G01 X-24.1956 Y-2.3189
G01 X-24.2387 Y-2.3462
G01 X-24.2804 Y-2.3756
G01 X-24.3207 Y-2.4070
G01 X-24.3593 Y-2.4403
G01 X-24.3963 Y-2.4755
G01 X-24.4315 Y-2.5125
G01 X-24.4648 Y-2.5511
G01 X-24.4962 Y-2.5914
G01 X-24.5256 Y-2.6331
G01 X-24.5529 Y-2.6762
G01 X-24.5781 Y-2.7206
G01 X-24.6010 Y-2.7662
G01 X-24.6217 Y-2.8129
G01 X-24.6401 Y-2.8605
G01 X-24.6561 Y-2.9090
G01 X-24.6697 Y-2.9582
G01 X-24.6809 Y-3.0080
G01 X-24.6896 Y-3.0583
G01 X-24.6959 Y-3.1090
G01 X-24.6996 Y-3.1599
G01 X-24.7009 Y-3.2109
G01 X-24.6996 Y-3.2619
G01 X-24.6959 Y-3.3128
G01 X-24.6896 Y-3.3635
G01 X-24.6809 Y-3.4138
G01 X-24.6697 Y-3.4636
G01 X-24.6561 Y-3.5128
G01 X-24.6401 Y-3.5613
G01 X-24.6217 Y-3.6089
G01 X-24.6010 Y-3.6556
G01 X-24.5781 Y-3.7012
G01 X-24.5529 Y-3.7456
G01 X-24.5256 Y-3.7887
G01 X-24.4962 Y-3.8304
G01 X-24.4648 Y-3.8707
G01 X-24.4315 Y-3.9093
G01 X-24.3963 Y-3.9463
G01 X-24.3593 Y-3.9815
G01 X-24.3207 Y-4.0148
G01 X-24.2804 Y-4.0462
G01 X-24.2387 Y-4.0756
G01 X-24.1956 Y-4.1029
G01 X-24.1512 Y-4.1281
G01 X-24.1056 Y-4.1510
G01 X-24.0589 Y-4.1717
G01 X-24.0113 Y-4.1901
G01 X-23.9628 Y-4.2061
G01 X-23.9136 Y-4.2197
G01 X-23.8638 Y-4.2309
G01 X-23.8135 Y-4.2396
G01 X-23.7628 Y-4.2459
G01 X-23.7119 Y-4.2496
G01 X-23.6609 Y-4.2509
G01 X-23.6099 Y-4.2496
G01 X-23.5590 Y-4.2459
G01 X-23.5083 Y-4.2396
G01 X-23.4580 Y-4.2309
G01 X-23.4082 Y-4.2197
G01 X-23.3590 Y-4.2061
G01 X-23.3105 Y-4.1901
G01 X-23.2629 Y-4.1717
G01 X-23.2162 Y-4.1510
G01 X-23.1706 Y-4.1281
G01 X-23.1262 Y-4.1029
G01 X-23.0831 Y-4.0756
G01 X-23.0414 Y-4.0462
G01 X-23.0011 Y-4.0148
G01 X-22.9625 Y-3.9815
G01 X-22.9255 Y-3.9463
G01 X-22.8903 Y-3.9093
G01 X-22.8570 Y-3.8707
G01 X-22.8256 Y-3.8304
G01 X-22.7962 Y-3.7887
G01 X-22.7689 Y-3.7456
G01 X-22.7437 Y-3.7012
G01 X-22.7208 Y-3.6556
G01 X-22.7001 Y-3.6089
G01 X-22.6817 Y-3.5613
G01 X-22.6657 Y-3.5128
G01 X-22.6521 Y-3.4636
G01 X-22.6409 Y-3.4138
G01 X-22.6322 Y-3.3635
G01 X-22.6259 Y-3.3128
G01 X-22.6222 Y-3.2619
G01 X-22.6209 Y-3.2109
G00 Z2.0000
G00 X-22.6909 Y-3.2109
G01 F70.00
G01 Z-0.0600
G01 F120.00
G01 X-22.6921 Y-3.1633
G01 X-22.6956 Y-3.1158
G01 X-22.7014 Y-3.0686
G01 X-22.7095 Y-3.0217
G01 X-22.7200 Y-2.9752
G01 X-22.7327 Y-2.9293
G01 X-22.7476 Y-2.8841
G01 X-22.7647 Y-2.8397
G01 X-22.7840 Y-2.7962
G01 X-22.8054 Y-2.7536
G01 X-22.8289 Y-2.7122
G01 X-22.8544 Y-2.6720
G01 X-22.8818 Y-2.6331
G01 X-22.9111 Y-2.5955
G01 X-22.9422 Y-2.5595
G01 X-22.9750 Y-2.5250
G01 X-23.0095 Y-2.4922
G01 X-23.0455 Y-2.4611
G01 X-23.0831 Y-2.4318
G01 X-23.1220 Y-2.4044
G01 X-23.1622 Y-2.3789
G01 X-23.2036 Y-2.3554
G01 X-23.2462 Y-2.3340
G01 X-23.2897 Y-2.3147
G01 X-23.3341 Y-2.2976
G01 X-23.3793 Y-2.2827
G01 X-23.4252 Y-2.2700
G01 X-23.4717 Y-2.2595
G01 X-23.5186 Y-2.2514
G01 X-23.5658 Y-2.2456
G01 X-23.6133 Y-2.2421
G01 X-23.6609 Y-2.2409
G01 X-23.7085 Y-2.2421
G01 X-23.7560 Y-2.2456
G01 X-23.8032 Y-2.2514
G01 X-23.8501 Y-2.2595
G01 X-23.8966 Y-2.2700
G01 X-23.9425 Y-2.2827
G01 X-23.9877 Y-2.2976
G01 X-24.0321 Y-2.3147
G01 X-24.0756 Y-2.3340
G01 X-24.1182 Y-2.3554
G01 X-24.1596 Y-2.3789
G01 X-24.1998 Y-2.4044
G01 X-24.2387 Y-2.4318
G01 X-24.2763 Y-2.4611
G01 X-24.3123 Y-2.4922
G01 X-24.3468 Y-2.5250
G01 X-24.3796 Y-2.5595
G01 X-24.4107 Y-2.5955
G01 X-24.4400 Y-2.6331
G01 X-24.4674 Y-2.6720
G01 X-24.4929 Y-2.7122
G01 X-24.5164 Y-2.7536
G01 X-24.5378 Y-2.7962
G01 X-24.5571 Y-2.8397
G01 X-24.5742 Y-2.8841
G01 X-24.5891 Y-2.9293
G01 X-24.6018 Y-2.9752
G01 X-24.6123 Y-3.0217
G01 X-24.6204 Y-3.0686
G01 X-24.6262 Y-3.1158
G01 X-24.6297 Y-3.1633
G01 X-24.6309 Y-3.2109
G01 X-24.6297 Y-3.2585
G01 X-24.6262 Y-3.3060
G01 X-24.6204 Y-3.3532
G01 X-24.6123 Y-3.4001
G01 X-24.6018 Y-3.4466
G01 X-24.5891 Y-3.4925
G01 X-24.5742 Y-3.5377
G01 X-24.5571 Y-3.5821
G01 X-24.5378 Y-3.6256
G01 X-24.5164 Y-3.6682
G01 X-24.4929 Y-3.7096
G01 X-24.4674 Y-3.7498
G01 X-24.4400 Y-3.7887
G01 X-24.4107 Y-3.8263
G01 X-24.3796 Y-3.8623
G01 X-24.3468 Y-3.8968
G01 X-24.3123 Y-3.9296
G01 X-24.2763 Y-3.9607
G01 X-24.2387 Y-3.9900
G01 X-24.1998 Y-4.0174
G01 X-24.1596 Y-4.0429
G01 X-24.1182 Y-4.0664
G01 X-24.0756 Y-4.0878
G01 X-24.0321 Y-4.1071
G01 X-23.9877 Y-4.1242
G01 X-23.9425 Y-4.1391
G01 X-23.8966 Y-4.1518
G01 X-23.8501 Y-4.1623
G01 X-23.8032 Y-4.1704
G01 X-23.7560 Y-4.1762
G01 X-23.7085 Y-4.1797
G01 X-23.6609 Y-4.1809
G01 X-23.6133 Y-4.1797
G01 X-23.5658 Y-4.1762
G01 X-23.5186 Y-4.1704
G01 X-23.4717 Y-4.1623
G01 X-23.4252 Y-4.1518
G01 X-23.3793 Y-4.1391
G01 X-23.3341 Y-4.1242
G01 X-23.2897 Y-4.1071
G01 X-23.2462 Y-4.0878
G01 X-23.2036 Y-4.0664
G01 X-23.1622 Y-4.0429
G01 X-23.1220 Y-4.0174
G01 X-23.0831 Y-3.9900
G01 X-23.0455 Y-3.9607
G01 X-23.0095 Y-3.9296
G01 X-22.9750 Y-3.8968
G01 X-22.9422 Y-3.8623
G01 X-22.9111 Y-3.8263
G01 X-22.8818 Y-3.7887
G01 X-22.8544 Y-3.7498
G01 X-22.8289 Y-3.7096
G01 X-22.8054 Y-3.6682
G01 X-22.7840 Y-3.6256
G01 X-22.7647 Y-3.5821
G01 X-22.7476 Y-3.5377
G01 X-22.7327 Y-3.4925
G01 X-22.7200 Y-3.4466
G01 X-22.7095 Y-3.4001
G01 X-22.7014 Y-3.3532
G01 X-22.6956 Y-3.3060
G01 X-22.6921 Y-3.2585
G01 X-22.6909 Y-3.2109
G00 Z2.0000
G00 X-23.4309 Y-3.2109
G01 F70.00
G01 Z-0.0600
G01 F120.00
G01 X-23.4320 Y-3.2334
G01 X-23.4353 Y-3.2558
G01 X-23.4408 Y-3.2777
G01 X-23.4484 Y-3.2989
G01 X-23.4581 Y-3.3193
G01 X-23.4697 Y-3.3387
G01 X-23.4831 Y-3.3568
G01 X-23.4983 Y-3.3735
G01 X-23.5150 Y-3.3887
G01 X-23.5331 Y-3.4021
G01 X-23.5525 Y-3.4137
G01 X-23.5729 Y-3.4234
G01 X-23.5941 Y-3.4310
G01 X-23.6160 Y-3.4365
G01 X-23.6384 Y-3.4398
G01 X-23.6609 Y-3.4409
G01 X-23.6834 Y-3.4398
G01 X-23.7058 Y-3.4365
G01 X-23.7277 Y-3.4310
G01 X-23.7489 Y-3.4234
G01 X-23.7693 Y-3.4137
G01 X-23.7887 Y-3.4021
G01 X-23.8068 Y-3.3887
G01 X-23.8235 Y-3.3735
G01 X-23.8387 Y-3.3568
G01 X-23.8521 Y-3.3387
G01 X-23.8637 Y-3.3193
G01 X-23.8734 Y-3.2989
G01 X-23.8810 Y-3.2777
G01 X-23.8865 Y-3.2558
G01 X-23.8898 Y-3.2334
G01 X-23.8909 Y-3.2109
G01 X-23.8898 Y-3.1884
G01 X-23.8865 Y-3.1660
G01 X-23.8810 Y-3.1441
G01 X-23.8734 Y-3.1229
G01 X-23.8637 Y-3.1025
G01 X-23.8521 Y-3.0831
G01 X-23.8387 Y-3.0650
G01 X-23.8235 Y-3.0483
G01 X-23.8068 Y-3.0331
G01 X-23.7887 Y-3.0197
G01 X-23.7693 Y-3.0081
G01 X-23.7489 Y-2.9984
G01 X-23.7277 Y-2.9908
G01 X-23.7058 Y-2.9853
G01 X-23.6834 Y-2.9820
G01 X-23.6609 Y-2.9809
G01 X-23.6384 Y-2.9820
G01 X-23.6160 Y-2.9853
G01 X-23.5941 Y-2.9908
G01 X-23.5729 Y-2.9984
G01 X-23.5525 Y-3.0081
G01 X-23.5331 Y-3.0197
G01 X-23.5150 Y-3.0331
G01 X-23.4983 Y-3.0483
G01 X-23.4831 Y-3.0650
G01 X-23.4697 Y-3.0831
G01 X-23.4581 Y-3.1025
G01 X-23.4484 Y-3.1229
G01 X-23.4408 Y-3.1441
G01 X-23.4353 Y-3.1660
G01 X-23.4320 Y-3.1884
G01 X-23.4309 Y-3.2109
G00 Z2.0000
G00 X-23.5009 Y-3.2109
G01 F70.00
G01 Z-0.0600
G01 F120.00
G01 X-23.5017 Y-3.2266
G01 X-23.5040 Y-3.2421
G01 X-23.5078 Y-3.2573
G01 X-23.5131 Y-3.2721
G01 X-23.5198 Y-3.2863
G01 X-23.5279 Y-3.2998
G01 X-23.5373 Y-3.3124
G01 X-23.5478 Y-3.3240
G01 X-23.5594 Y-3.3345
G01 X-23.5720 Y-3.3439
G01 X-23.5855 Y-3.3520
G01 X-23.5997 Y-3.3587
G01 X-23.6145 Y-3.3640
G01 X-23.6297 Y-3.3678
G01 X-23.6452 Y-3.3701
G01 X-23.6609 Y-3.3709
G01 X-23.6766 Y-3.3701
G01 X-23.6921 Y-3.3678
G01 X-23.7073 Y-3.3640
G01 X-23.7221 Y-3.3587
G01 X-23.7363 Y-3.3520
G01 X-23.7498 Y-3.3439
G01 X-23.7624 Y-3.3345
G01 X-23.7740 Y-3.3240
G01 X-23.7845 Y-3.3124
G01 X-23.7939 Y-3.2998
G01 X-23.8020 Y-3.2863
G01 X-23.8087 Y-3.2721
G01 X-23.8140 Y-3.2573
G01 X-23.8178 Y-3.2421
G01 X-23.8201 Y-3.2266
G01 X-23.8209 Y-3.2109
G01 X-23.8201 Y-3.1952
G01 X-23.8178 Y-3.1797
G01 X-23.8140 Y-3.1645
G01 X-23.8087 Y-3.1497
G01 X-23.8020 Y-3.1355
G01 X-23.7939 Y-3.1220
G01 X-23.7845 Y-3.1094
G01 X-23.7740 Y-3.0978
G01 X-23.7624 Y-3.0873
G01 X-23.7498 Y-3.0779
G01 X-23.7363 Y-3.0698
G01 X-23.7221 Y-3.0631
G01 X-23.7073 Y-3.0578
G01 X-23.6921 Y-3.0540
G01 X-23.6766 Y-3.0517
G01 X-23.6609 Y-3.0509
G01 X-23.6452 Y-3.0517
G01 X-23.6297 Y-3.0540
G01 X-23.6145 Y-3.0578
G01 X-23.5997 Y-3.0631
G01 X-23.5855 Y-3.0698
G01 X-23.5720 Y-3.0779
G01 X-23.5594 Y-3.0873
G01 X-23.5478 Y-3.0978
G01 X-23.5373 Y-3.1094
G01 X-23.5279 Y-3.1220
G01 X-23.5198 Y-3.1355
G01 X-23.5131 Y-3.1497
G01 X-23.5078 Y-3.1645
G01 X-23.5040 Y-3.1797
G01 X-23.5017 Y-3.1952
G01 X-23.5009 Y-3.2109
G00 Z2.0000
G00 X-23.5710 Y-3.2109
G01 F70.00
G01 Z-0.0600
G01 F120.00
G01 X-23.5727 Y-3.2284
G01 X-23.5778 Y-3.2453
G01 X-23.5861 Y-3.2609
G01 X-23.5973 Y-3.2745
G01 X-23.6109 Y-3.2857
G01 X-23.6265 Y-3.2940
G01 X-23.6434 Y-3.2991
G01 X-23.6609 Y-3.3008
G01 X-23.6784 Y-3.2991
G01 X-23.6953 Y-3.2940
G01 X-23.7109 Y-3.2857
G01 X-23.7245 Y-3.2745
G01 X-23.7357 Y-3.2609
G01 X-23.7440 Y-3.2453
G01 X-23.7491 Y-3.2284
G01 X-23.7508 Y-3.2109
G01 X-23.7491 Y-3.1934
G01 X-23.7440 Y-3.1765
G01 X-23.7357 Y-3.1609
G01 X-23.7245 Y-3.1473
G01 X-23.7109 Y-3.1361
G01 X-23.6953 Y-3.1278
G01 X-23.6784 Y-3.1227
G01 X-23.6609 Y-3.1210
G01 X-23.6434 Y-3.1227
G01 X-23.6265 Y-3.1278
G01 X-23.6109 Y-3.1361
G01 X-23.5973 Y-3.1473
G01 X-23.5861 Y-3.1609
G01 X-23.5778 Y-3.1765
G01 X-23.5727 Y-3.1934
G01 X-23.5710 Y-3.2109
G00 Z2.0000
G00 X-23.6410 Y-3.2109
G01 F70.00
G01 Z-0.0600
G01 F120.00
G01 X-23.6425 Y-3.2185
G01 X-23.6468 Y-3.2250
G01 X-23.6533 Y-3.2293
G01 X-23.6609 Y-3.2308
G01 X-23.6685 Y-3.2293
G01 X-23.6750 Y-3.2250
G01 X-23.6793 Y-3.2185
G01 X-23.6808 Y-3.2109
G01 X-23.6793 Y-3.2033
G01 X-23.6750 Y-3.1968
G01 X-23.6685 Y-3.1925
G01 X-23.6609 Y-3.1910
G01 X-23.6533 Y-3.1925
G01 X-23.6468 Y-3.1968
G01 X-23.6425 Y-3.2033
G01 X-23.6410 Y-3.2109
G00 Z2.0000
G00 X-23.6410 Y-5.7509
G01 F70.00
G01 Z-0.0600
G01 F120.00
G01 X-23.6425 Y-5.7585
G01 X-23.6468 Y-5.7650
G01 X-23.6533 Y-5.7693
G01 X-23.6609 Y-5.7708
G01 X-23.6685 Y-5.7693
G01 X-23.6750 Y-5.7650
G01 X-23.6793 Y-5.7585
G01 X-23.6808 Y-5.7509
G01 X-23.6793 Y-5.7433
G01 X-23.6750 Y-5.7368
G01 X-23.6685 Y-5.7325
G01 X-23.6609 Y-5.7310
G01 X-23.6533 Y-5.7325
G01 X-23.6468 Y-5.7368
G01 X-23.6425 Y-5.7433
G01 X-23.6410 Y-5.7509
G00 Z2.0000
G00 X-23.5710 Y-5.7509
G01 F70.00
G01 Z-0.0600
G01 F120.00
G01 X-23.5727 Y-5.7684
G01 X-23.5778 Y-5.7853
G01 X-23.5861 Y-5.8009
G01 X-23.5973 Y-5.8145
G01 X-23.6109 Y-5.8257
G01 X-23.6265 Y-5.8340
G01 X-23.6434 Y-5.8391
G01 X-23.6609 Y-5.8408
G01 X-23.6784 Y-5.8391
G01 X-23.6953 Y-5.8340
G01 X-23.7109 Y-5.8257
G01 X-23.7245 Y-5.8145
G01 X-23.7357 Y-5.8009
G01 X-23.7440 Y-5.7853
G01 X-23.7491 Y-5.7684
G01 X-23.7508 Y-5.7509
G01 X-23.7491 Y-5.7334
G01 X-23.7440 Y-5.7165
G01 X-23.7357 Y-5.7009
G01 X-23.7245 Y-5.6873
G01 X-23.7109 Y-5.6761
G01 X-23.6953 Y-5.6678
G01 X-23.6784 Y-5.6627
G01 X-23.6609 Y-5.6610
G01 X-23.6434 Y-5.6627
G01 X-23.6265 Y-5.6678
G01 X-23.6109 Y-5.6761
G01 X-23.5973 Y-5.6873
G01 X-23.5861 Y-5.7009
G01 X-23.5778 Y-5.7165
G01 X-23.5727 Y-5.7334
G01 X-23.5710 Y-5.7509
G00 Z2.0000
G00 X-23.5009 Y-5.7509
G01 F70.00
G01 Z-0.0600
G01 F120.00
G01 X-23.5017 Y-5.7666
G01 X-23.5040 Y-5.7821
G01 X-23.5078 Y-5.7973
G01 X-23.5131 Y-5.8121
G01 X-23.5198 Y-5.8263
G01 X-23.5279 Y-5.8398
G01 X-23.5373 Y-5.8524
G01 X-23.5478 Y-5.8640
G01 X-23.5594 Y-5.8745
G01 X-23.5720 Y-5.8839
G01 X-23.5855 Y-5.8920
G01 X-23.5997 Y-5.8987
G01 X-23.6145 Y-5.9040
G01 X-23.6297 Y-5.9078
G01 X-23.6452 Y-5.9101
G01 X-23.6609 Y-5.9109
G01 X-23.6766 Y-5.9101
G01 X-23.6921 Y-5.9078
G01 X-23.7073 Y-5.9040
G01 X-23.7221 Y-5.8987
G01 X-23.7363 Y-5.8920
G01 X-23.7498 Y-5.8839
G01 X-23.7624 Y-5.8745
G01 X-23.7740 Y-5.8640
G01 X-23.7845 Y-5.8524
G01 X-23.7939 Y-5.8398
G01 X-23.8020 Y-5.8263
G01 X-23.8087 Y-5.8121
G01 X-23.8140 Y-5.7973
G01 X-23.8178 Y-5.7821
G01 X-23.8201 Y-5.7666
G01 X-23.8209 Y-5.7509
G01 X-23.8201 Y-5.7352
G01 X-23.8178 Y-5.7197
G01 X-23.8140 Y-5.7045
G01 X-23.8087 Y-5.6897
G01 X-23.8020 Y-5.6755
G01 X-23.7939 Y-5.6620
G01 X-23.7845 Y-5.6494
G01 X-23.7740 Y-5.6378
G01 X-23.7624 Y-5.6273
G01 X-23.7498 Y-5.6179
G01 X-23.7363 Y-5.6098
G01 X-23.7221 Y-5.6031
G01 X-23.7073 Y-5.5978
G01 X-23.6921 Y-5.5940
G01 X-23.6766 Y-5.5917
G01 X-23.6609 Y-5.5909
G01 X-23.6452 Y-5.5917
G01 X-23.6297 Y-5.5940
G01 X-23.6145 Y-5.5978
G01 X-23.5997 Y-5.6031
G01 X-23.5855 Y-5.6098
G01 X-23.5720 Y-5.6179
G01 X-23.5594 Y-5.6273
G01 X-23.5478 Y-5.6378
G01 X-23.5373 Y-5.6494
G01 X-23.5279 Y-5.6620
G01 X-23.5198 Y-5.6755
G01 X-23.5131 Y-5.6897
G01 X-23.5078 Y-5.7045
G01 X-23.5040 Y-5.7197
G01 X-23.5017 Y-5.7352
G01 X-23.5009 Y-5.7509
G00 Z2.0000
G00 X-23.4309 Y-5.7509
G01 F70.00
G01 Z-0.0600
G01 F120.00
G01 X-23.4320 Y-5.7734
G01 X-23.4353 Y-5.7958
G01 X-23.4408 Y-5.8177
G01 X-23.4484 Y-5.8389
G01 X-23.4581 Y-5.8593
G01 X-23.4697 Y-5.8787
G01 X-23.4831 Y-5.8968
G01 X-23.4983 Y-5.9135
G01 X-23.5150 Y-5.9287
G01 X-23.5331 Y-5.9421
G01 X-23.5525 Y-5.9537
G01 X-23.5729 Y-5.9634
G01 X-23.5941 Y-5.9710
G01 X-23.6160 Y-5.9765
G01 X-23.6384 Y-5.9798
G01 X-23.6609 Y-5.9809
G01 X-23.6834 Y-5.9798
G01 X-23.7058 Y-5.9765
G01 X-23.7277 Y-5.9710
G01 X-23.7489 Y-5.9634
G01 X-23.7693 Y-5.9537
G01 X-23.7887 Y-5.9421
G01 X-23.8068 Y-5.9287
G01 X-23.8235 Y-5.9135
G01 X-23.8387 Y-5.8968
G01 X-23.8521 Y-5.8787
G01 X-23.8637 Y-5.8593
G01 X-23.8734 Y-5.8389
G01 X-23.8810 Y-5.8177
G01 X-23.8865 Y-5.7958
G01 X-23.8898 Y-5.7734
G01 X-23.8909 Y-5.7509
G01 X-23.8898 Y-5.7284
G01 X-23.8865 Y-5.7060
G01 X-23.8810 Y-5.6841
G01 X-23.8734 Y-5.6629
G01 X-23.8637 Y-5.6425
G01 X-23.8521 Y-5.6231
G01 X-23.8387 Y-5.6050
G01 X-23.8235 Y-5.5883
G01 X-23.8068 Y-5.5731
G01 X-23.7887 Y-5.5597
G01 X-23.7693 Y-5.5481
G01 X-23.7489 Y-5.5384
G01 X-23.7277 Y-5.5308
G01 X-23.7058 Y-5.5253
G01 X-23.6834 Y-5.5220
G01 X-23.6609 Y-5.5209
G01 X-23.6384 Y-5.5220
G01 X-23.6160 Y-5.5253
G01 X-23.5941 Y-5.5308
G01 X-23.5729 Y-5.5384
G01 X-23.5525 Y-5.5481
G01 X-23.5331 Y-5.5597
G01 X-23.5150 Y-5.5731
G01 X-23.4983 Y-5.5883
G01 X-23.4831 Y-5.6050
G01 X-23.4697 Y-5.6231
G01 X-23.4581 Y-5.6425
G01 X-23.4484 Y-5.6629
G01 X-23.4408 Y-5.6841
G01 X-23.4353 Y-5.7060
G01 X-23.4320 Y-5.7284
G01 X-23.4309 Y-5.7509
G00 Z2.0000
G00 X-22.6909 Y-5.7509
G01 F70.00
G01 Z-0.0600
G01 F120.00
G01 X-22.6921 Y-5.7033
G01 X-22.6956 Y-5.6558
G01 X-22.7014 Y-5.6086
G01 X-22.7095 Y-5.5617
G01 X-22.7200 Y-5.5152
G01 X-22.7327 Y-5.4693
G01 X-22.7476 Y-5.4241
G01 X-22.7647 Y-5.3797
G01 X-22.7840 Y-5.3362
G01 X-22.8054 Y-5.2936
G01 X-22.8289 Y-5.2522
G01 X-22.8544 Y-5.2120
G01 X-22.8818 Y-5.1731
G01 X-22.9111 Y-5.1355
G01 X-22.9422 Y-5.0995
G01 X-22.9750 Y-5.0650
G01 X-23.0095 Y-5.0322
G01 X-23.0455 Y-5.0011
G01 X-23.0831 Y-4.9718
G01 X-23.1220 Y-4.9444
G01 X-23.1622 Y-4.9189
G01 X-23.2036 Y-4.8954
G01 X-23.2462 Y-4.8740
G01 X-23.2897 Y-4.8547
G01 X-23.3341 Y-4.8376
G01 X-23.3793 Y-4.8227
G01 X-23.4252 Y-4.8100
G01 X-23.4717 Y-4.7995
G01 X-23.5186 Y-4.7914
G01 X-23.5658 Y-4.7856
G01 X-23.6133 Y-4.7821
G01 X-23.6609 Y-4.7809
G01 X-23.7085 Y-4.7821
G01 X-23.7560 Y-4.7856
G01 X-23.8032 Y-4.7914
G01 X-23.8501 Y-4.7995
G01 X-23.8966 Y-4.8100
G01 X-23.9425 Y-4.8227
G01 X-23.9877 Y-4.8376
G01 X-24.0321 Y-4.8547
G01 X-24.0756 Y-4.8740
G01 X-24.1182 Y-4.8954
G01 X-24.1596 Y-4.9189
G01 X-24.1998 Y-4.9444
G01 X-24.2387 Y-4.9718
G01 X-24.2763 Y-5.0011
G01 X-24.3123 Y-5.0322
G01 X-24.3468 Y-5.0650
G01 X-24.3796 Y-5.0995
G01 X-24.4107 Y-5.1355
G01 X-24.4400 Y-5.1731
G01 X-24.4674 Y-5.2120
G01 X-24.4929 Y-5.2522
G01 X-24.5164 Y-5.2936
G01 X-24.5378 Y-5.3362
G01 X-24.5571 Y-5.3797
G01 X-24.5742 Y-5.4241
G01 X-24.5891 Y-5.4693
G01 X-24.6018 Y-5.5152
G01 X-24.6123 Y-5.5617
G01 X-24.6204 Y-5.6086
G01 X-24.6262 Y-5.6558
G01 X-24.6297 Y-5.7033
G01 X-24.6309 Y-5.7509
G01 X-24.6297 Y-5.7985
G01 X-24.6262 Y-5.8460
G01 X-24.6204 Y-5.8932
G01 X-24.6123 Y-5.9401
G01 X-24.6018 Y-5.9866
G01 X-24.5891 Y-6.0325
G01 X-24.5742 Y-6.0777
G01 X-24.5571 Y-6.1221
G01 X-24.5378 Y-6.1656
G01 X-24.5164 Y-6.2082
G01 X-24.4929 Y-6.2496
G01 X-24.4674 Y-6.2898
G01 X-24.4400 Y-6.3287
G01 X-24.4107 Y-6.3663
G01 X-24.3796 Y-6.4023
G01 X-24.3468 Y-6.4368
G01 X-24.3123 Y-6.4696
G01 X-24.2763 Y-6.5007
G01 X-24.2387 Y-6.5300
G01 X-24.1998 Y-6.5574
G01 X-24.1596 Y-6.5829
G01 X-24.1182 Y-6.6064
G01 X-24.0756 Y-6.6278
G01 X-24.0321 Y-6.6471
G01 X-23.9877 Y-6.6642
G01 X-23.9425 Y-6.6791
G01 X-23.8966 Y-6.6918
G01 X-23.8501 Y-6.7023
G01 X-23.8032 Y-6.7104
G01 X-23.7560 Y-6.7162
G01 X-23.7085 Y-6.7197
G01 X-23.6609 Y-6.7209
G01 X-23.6133 Y-6.7197
G01 X-23.5658 Y-6.7162
G01 X-23.5186 Y-6.7104
G01 X-23.4717 Y-6.7023
G01 X-23.4252 Y-6.6918
G01 X-23.3793 Y-6.6791
G01 X-23.3341 Y-6.6642
G01 X-23.2897 Y-6.6471
G01 X-23.2462 Y-6.6278
G01 X-23.2036 Y-6.6064
G01 X-23.1622 Y-6.5829
G01 X-23.1220 Y-6.5574
G01 X-23.0831 Y-6.5300
G01 X-23.0455 Y-6.5007
G01 X-23.0095 Y-6.4696
G01 X-22.9750 Y-6.4368
G01 X-22.9422 Y-6.4023
G01 X-22.9111 Y-6.3663
G01 X-22.8818 Y-6.3287
G01 X-22.8544 Y-6.2898
G01 X-22.8289 Y-6.2496
G01 X-22.8054 Y-6.2082
G01 X-22.7840 Y-6.1656
G01 X-22.7647 Y-6.1221
G01 X-22.7476 Y-6.0777
G01 X-22.7327 Y-6.0325
G01 X-22.7200 Y-5.9866
G01 X-22.7095 Y-5.9401
G01 X-22.7014 Y-5.8932
G01 X-22.6956 Y-5.8460
G01 X-22.6921 Y-5.7985
G01 X-22.6909 Y-5.7509
G00 Z2.0000
G00 X-22.6209 Y-5.7509
G01 F70.00
G01 Z-0.0600
G01 F120.00
G01 X-22.6222 Y-5.6999
G01 X-22.6259 Y-5.6490
G01 X-22.6322 Y-5.5983
G01 X-22.6409 Y-5.5480
G01 X-22.6521 Y-5.4982
G01 X-22.6657 Y-5.4490
G01 X-22.6817 Y-5.4005
G01 X-22.7001 Y-5.3529
G01 X-22.7208 Y-5.3062
G01 X-22.7437 Y-5.2606
G01 X-22.7689 Y-5.2162
G01 X-22.7962 Y-5.1731
G01 X-22.8256 Y-5.1314
G01 X-22.8570 Y-5.0911
G01 X-22.8903 Y-5.0525
G01 X-22.9255 Y-5.0155
G01 X-22.9625 Y-4.9803
G01 X-23.0011 Y-4.9470
G01 X-23.0414 Y-4.9156
G01 X-23.0831 Y-4.8862
G01 X-23.1262 Y-4.8589
G01 X-23.1706 Y-4.8337
G01 X-23.2162 Y-4.8108
G01 X-23.2629 Y-4.7901
G01 X-23.3105 Y-4.7717
G01 X-23.3590 Y-4.7557
G01 X-23.4082 Y-4.7421
G01 X-23.4580 Y-4.7309
G01 X-23.5083 Y-4.7222
G01 X-23.5590 Y-4.7159
G01 X-23.6099 Y-4.7122
G01 X-23.6609 Y-4.7109
G01 X-23.7119 Y-4.7122
G01 X-23.7628 Y-4.7159
G01 X-23.8135 Y-4.7222
G01 X-23.8638 Y-4.7309
G01 X-23.9136 Y-4.7421
G01 X-23.9628 Y-4.7557
G01 X-24.0113 Y-4.7717
G01 X-24.0589 Y-4.7901
G01 X-24.1056 Y-4.8108
G01 X-24.1512 Y-4.8337
G01 X-24.1956 Y-4.8589
G01 X-24.2387 Y-4.8862
G01 X-24.2804 Y-4.9156
G01 X-24.3207 Y-4.9470
G01 X-24.3593 Y-4.9803
G01 X-24.3963 Y-5.0155
G01 X-24.4315 Y-5.0525
G01 X-24.4648 Y-5.0911
G01 X-24.4962 Y-5.1314
G01 X-24.5256 Y-5.1731
G01 X-24.5529 Y-5.2162
G01 X-24.5781 Y-5.2606
G01 X-24.6010 Y-5.3062
G01 X-24.6217 Y-5.3529
G01 X-24.6401 Y-5.4005
G01 X-24.6561 Y-5.4490
G01 X-24.6697 Y-5.4982
G01 X-24.6809 Y-5.5480
G01 X-24.6896 Y-5.5983
G01 X-24.6959 Y-5.6490
G01 X-24.6996 Y-5.6999
G01 X-24.7009 Y-5.7509
G01 X-24.6996 Y-5.8019
G01 X-24.6959 Y-5.8528
G01 X-24.6896 Y-5.9035
G01 X-24.6809 Y-5.9538
G01 X-24.6697 Y-6.0036
G01 X-24.6561 Y-6.0528
G01 X-24.6401 Y-6.1013
G01 X-24.6217 Y-6.1489
G01 X-24.6010 Y-6.1956
G01 X-24.5781 Y-6.2412
G01 X-24.5529 Y-6.2856
G01 X-24.5256 Y-6.3287
G01 X-24.4962 Y-6.3704
G01 X-24.4648 Y-6.4107
G01 X-24.4315 Y-6.4493
G01 X-24.3963 Y-6.4863
G01 X-24.3593 Y-6.5215
G01 X-24.3207 Y-6.5548
G01 X-24.2804 Y-6.5862
G01 X-24.2387 Y-6.6156
G01 X-24.1956 Y-6.6429
G01 X-24.1512 Y-6.6681
G01 X-24.1056 Y-6.6910
G01 X-24.0589 Y-6.7117
G01 X-24.0113 Y-6.7301
G01 X-23.9628 Y-6.7461
G01 X-23.9136 Y-6.7597
G01 X-23.8638 Y-6.7709
G01 X-23.8135 Y-6.7796
G01 X-23.7628 Y-6.7859
G01 X-23.7119 Y-6.7896
G01 X-23.6609 Y-6.7909
G01 X-23.6099 Y-6.7896
G01 X-23.5590 Y-6.7859
G01 X-23.5083 Y-6.7796
G01 X-23.4580 Y-6.7709
G01 X-23.4082 Y-6.7597
G01 X-23.3590 Y-6.7461
G01 X-23.3105 Y-6.7301
G01 X-23.2629 Y-6.7117
G01 X-23.2162 Y-6.6910
G01 X-23.1706 Y-6.6681
G01 X-23.1262 Y-6.6429
G01 X-23.0831 Y-6.6156
G01 X-23.0414 Y-6.5862
G01 X-23.0011 Y-6.5548
G01 X-22.9625 Y-6.5215
G01 X-22.9255 Y-6.4863
G01 X-22.8903 Y-6.4493
G01 X-22.8570 Y-6.4107
G01 X-22.8256 Y-6.3704
G01 X-22.7962 Y-6.3287
G01 X-22.7689 Y-6.2856
G01 X-22.7437 Y-6.2412
G01 X-22.7208 Y-6.1956
G01 X-22.7001 Y-6.1489
G01 X-22.6817 Y-6.1013
G01 X-22.6657 Y-6.0528
G01 X-22.6521 Y-6.0036
G01 X-22.6409 Y-5.9538
G01 X-22.6322 Y-5.9035
G01 X-22.6259 Y-5.8528
G01 X-22.6222 Y-5.8019
G01 X-22.6209 Y-5.7509
G00 Z2.0000
G00 X-23.1235 Y-7.2304
G01 F70.00
G01 Z-0.0600
G01 F120.00
G01 X-23.2367 Y-7.3435
G01 X-23.6140 Y-6.9663
G01 X-23.6258 Y-6.9577
G01 X-23.6399 Y-6.9515
G01 X-23.6550 Y-6.9485
G01 X-23.6696 Y-6.9487
G01 X-23.6805 Y-6.9510
G01 X-23.6909 Y-6.9549
G01 X-23.7006 Y-6.9605
G01 X-23.7093 Y-6.9675
G01 X-24.0853 Y-7.3435
G01 X-24.1984 Y-7.2303
G01 X-23.9210 Y-6.9523
G01 X-23.9151 Y-6.9438
G01 X-23.9106 Y-6.9345
G01 X-23.9075 Y-6.9247
G01 X-23.9059 Y-6.9145
G01 X-23.9057 Y-6.9051
G01 X-23.9070 Y-6.8949
G01 X-23.9097 Y-6.8850
G01 X-23.9139 Y-6.8755
G01 X-23.9199 Y-6.8661
G01 X-23.9273 Y-6.8578
G01 X-23.9360 Y-6.8508
G01 X-23.9457 Y-6.8453
G01 X-23.9553 Y-6.8415
G01 X-23.9889 Y-6.8322
G01 X-24.0416 Y-6.8148
G01 X-24.0933 Y-6.7949
G01 X-24.1440 Y-6.7724
G01 X-24.1936 Y-6.7475
G01 X-24.2418 Y-6.7201
G01 X-24.2887 Y-6.6904
G01 X-24.3340 Y-6.6585
G01 X-24.3778 Y-6.6244
G01 X-24.4197 Y-6.5882
G01 X-24.4599 Y-6.5499
G01 X-24.4982 Y-6.5097
G01 X-24.5344 Y-6.4678
G01 X-24.5685 Y-6.4240
G01 X-24.6004 Y-6.3787
G01 X-24.6301 Y-6.3318
G01 X-24.6575 Y-6.2836
G01 X-24.6824 Y-6.2340
G01 X-24.7049 Y-6.1833
G01 X-24.7248 Y-6.1316
G01 X-24.7422 Y-6.0789
G01 X-24.7570 Y-6.0255
G01 X-24.7692 Y-5.9713
G01 X-24.7786 Y-5.9167
G01 X-24.7854 Y-5.8617
G01 X-24.7895 Y-5.8063
G01 X-24.7909 Y-5.7509
G01 X-24.7895 Y-5.6955
G01 X-24.7854 Y-5.6401
G01 X-24.7786 Y-5.5851
G01 X-24.7692 Y-5.5305
G01 X-24.7570 Y-5.4763
G01 X-24.7422 Y-5.4229
G01 X-24.7248 Y-5.3702
G01 X-24.7049 Y-5.3185
G01 X-24.6824 Y-5.2678
G01 X-24.6575 Y-5.2182
G01 X-24.6301 Y-5.1700
G01 X-24.6004 Y-5.1231
G01 X-24.5685 Y-5.0778
G01 X-24.5344 Y-5.0340
G01 X-24.4982 Y-4.9921
G01 X-24.4599 Y-4.9519
G01 X-24.4197 Y-4.9136
G01 X-24.3778 Y-4.8774
G01 X-24.3340 Y-4.8433
G01 X-24.2887 Y-4.8114
G01 X-24.2418 Y-4.7817
