(G-CODE GENERATED BY FLATCAM v8.993 - www.flatcam.org - Version Date: 2020/06/05)

(Name: 133u02.drl_mill_cnc)
(Type: G-code from Geometry)
(Units: MM)

(Created on Friday, 13 November 2020 at 17:43)

(This preprocessor is the default preprocessor used by FlatCAM.)
(It is made to work with MACH3 compatible motion controllers.)

(TOOL DIAMETER: 2.0 mm)
(Feedrate_XY: 120.0 mm/min)
(Feedrate_Z: 70.0 mm/min)
(Feedrate rapids 1500.0 mm/min)

(Z_Cut: -1.7 mm)
(DepthPerCut: 0.1 mm <=>17 passes)
(Z_Move: 2.0 mm)
(Z Start: None mm)
(Z End: 25.0 mm)
(Steps per circle: 128)
(Preprocessor Geometry: default)

(X range:  -83.2100 ...   -4.1000  mm)
(Y range:   -5.4600 ...   -4.4600  mm)

(Spindle Speed: 10000 RPM)
G21
G90
G94



G01 F120.00
G00 Z2.0000

M03 S10000
G00 X-4.1000 Y-4.9600
G01 F70.00
G01 Z-0.1000
G01 F120.00
G01 X-4.1024 Y-5.0090
G01 X-4.1096 Y-5.0575
G01 X-4.1215 Y-5.1051
G01 X-4.1381 Y-5.1513
G01 X-4.1590 Y-5.1957
G01 X-4.1843 Y-5.2378
G01 X-4.2135 Y-5.2772
G01 X-4.2464 Y-5.3136
G01 X-4.2828 Y-5.3465
G01 X-4.3222 Y-5.3757
G01 X-4.3643 Y-5.4010
G01 X-4.4087 Y-5.4219
G01 X-4.4549 Y-5.4385
G01 X-4.5025 Y-5.4504
G01 X-4.5510 Y-5.4576
G01 X-4.6000 Y-5.4600
G01 X-4.6490 Y-5.4576
G01 X-4.6975 Y-5.4504
G01 X-4.7451 Y-5.4385
G01 X-4.7913 Y-5.4219
G01 X-4.8357 Y-5.4010
G01 X-4.8778 Y-5.3757
G01 X-4.9172 Y-5.3465
G01 X-4.9536 Y-5.3136
G01 X-4.9865 Y-5.2772
G01 X-5.0157 Y-5.2378
G01 X-5.0410 Y-5.1957
G01 X-5.0619 Y-5.1513
G01 X-5.0785 Y-5.1051
G01 X-5.0904 Y-5.0575
G01 X-5.0976 Y-5.0090
G01 X-5.1000 Y-4.9600
G01 X-5.0976 Y-4.9110
G01 X-5.0904 Y-4.8625
G01 X-5.0785 Y-4.8149
G01 X-5.0619 Y-4.7687
G01 X-5.0410 Y-4.7243
G01 X-5.0157 Y-4.6822
G01 X-4.9865 Y-4.6428
G01 X-4.9536 Y-4.6064
G01 X-4.9172 Y-4.5735
G01 X-4.8778 Y-4.5443
G01 X-4.8357 Y-4.5190
G01 X-4.7913 Y-4.4981
G01 X-4.7451 Y-4.4815
G01 X-4.6975 Y-4.4696
G01 X-4.6490 Y-4.4624
G01 X-4.6000 Y-4.4600
G01 X-4.5510 Y-4.4624
G01 X-4.5025 Y-4.4696
G01 X-4.4549 Y-4.4815
G01 X-4.4087 Y-4.4981
G01 X-4.3643 Y-4.5190
G01 X-4.3222 Y-4.5443
G01 X-4.2828 Y-4.5735
G01 X-4.2464 Y-4.6064
G01 X-4.2135 Y-4.6428
G01 X-4.1843 Y-4.6822
G01 X-4.1590 Y-4.7243
G01 X-4.1381 Y-4.7687
G01 X-4.1215 Y-4.8149
G01 X-4.1096 Y-4.8625
G01 X-4.1024 Y-4.9110
G01 X-4.1000 Y-4.9600
G00 X-4.1000 Y-4.9600
G01 F70.00
G01 Z-0.2000
G01 F120.00
G01 X-4.1024 Y-5.0090
G01 X-4.1096 Y-5.0575
G01 X-4.1215 Y-5.1051
G01 X-4.1381 Y-5.1513
G01 X-4.1590 Y-5.1957
G01 X-4.1843 Y-5.2378
G01 X-4.2135 Y-5.2772
G01 X-4.2464 Y-5.3136
G01 X-4.2828 Y-5.3465
G01 X-4.3222 Y-5.3757
G01 X-4.3643 Y-5.4010
G01 X-4.4087 Y-5.4219
G01 X-4.4549 Y-5.4385
G01 X-4.5025 Y-5.4504
G01 X-4.5510 Y-5.4576
G01 X-4.6000 Y-5.4600
G01 X-4.6490 Y-5.4576
G01 X-4.6975 Y-5.4504
G01 X-4.7451 Y-5.4385
G01 X-4.7913 Y-5.4219
G01 X-4.8357 Y-5.4010
G01 X-4.8778 Y-5.3757
G01 X-4.9172 Y-5.3465
G01 X-4.9536 Y-5.3136
G01 X-4.9865 Y-5.2772
G01 X-5.0157 Y-5.2378
G01 X-5.0410 Y-5.1957
G01 X-5.0619 Y-5.1513
G01 X-5.0785 Y-5.1051
G01 X-5.0904 Y-5.0575
G01 X-5.0976 Y-5.0090
G01 X-5.1000 Y-4.9600
G01 X-5.0976 Y-4.9110
G01 X-5.0904 Y-4.8625
G01 X-5.0785 Y-4.8149
G01 X-5.0619 Y-4.7687
G01 X-5.0410 Y-4.7243
G01 X-5.0157 Y-4.6822
G01 X-4.9865 Y-4.6428
G01 X-4.9536 Y-4.6064
G01 X-4.9172 Y-4.5735
G01 X-4.8778 Y-4.5443
G01 X-4.8357 Y-4.5190
G01 X-4.7913 Y-4.4981
G01 X-4.7451 Y-4.4815
G01 X-4.6975 Y-4.4696
G01 X-4.6490 Y-4.4624
G01 X-4.6000 Y-4.4600
G01 X-4.5510 Y-4.4624
G01 X-4.5025 Y-4.4696
G01 X-4.4549 Y-4.4815
G01 X-4.4087 Y-4.4981
G01 X-4.3643 Y-4.5190
G01 X-4.3222 Y-4.5443
G01 X-4.2828 Y-4.5735
G01 X-4.2464 Y-4.6064
G01 X-4.2135 Y-4.6428
G01 X-4.1843 Y-4.6822
G01 X-4.1590 Y-4.7243
G01 X-4.1381 Y-4.7687
G01 X-4.1215 Y-4.8149
G01 X-4.1096 Y-4.8625
G01 X-4.1024 Y-4.9110
G01 X-4.1000 Y-4.9600
G00 X-4.1000 Y-4.9600
G01 F70.00
G01 Z-0.3000
G01 F120.00
G01 X-4.1024 Y-5.0090
G01 X-4.1096 Y-5.0575
G01 X-4.1215 Y-5.1051
G01 X-4.1381 Y-5.1513
G01 X-4.1590 Y-5.1957
G01 X-4.1843 Y-5.2378
G01 X-4.2135 Y-5.2772
G01 X-4.2464 Y-5.3136
G01 X-4.2828 Y-5.3465
G01 X-4.3222 Y-5.3757
G01 X-4.3643 Y-5.4010
G01 X-4.4087 Y-5.4219
G01 X-4.4549 Y-5.4385
G01 X-4.5025 Y-5.4504
G01 X-4.5510 Y-5.4576
G01 X-4.6000 Y-5.4600
G01 X-4.6490 Y-5.4576
G01 X-4.6975 Y-5.4504
G01 X-4.7451 Y-5.4385
G01 X-4.7913 Y-5.4219
G01 X-4.8357 Y-5.4010
G01 X-4.8778 Y-5.3757
G01 X-4.9172 Y-5.3465
G01 X-4.9536 Y-5.3136
G01 X-4.9865 Y-5.2772
G01 X-5.0157 Y-5.2378
G01 X-5.0410 Y-5.1957
G01 X-5.0619 Y-5.1513
G01 X-5.0785 Y-5.1051
G01 X-5.0904 Y-5.0575
G01 X-5.0976 Y-5.0090
G01 X-5.1000 Y-4.9600
G01 X-5.0976 Y-4.9110
G01 X-5.0904 Y-4.8625
G01 X-5.0785 Y-4.8149
G01 X-5.0619 Y-4.7687
G01 X-5.0410 Y-4.7243
G01 X-5.0157 Y-4.6822
G01 X-4.9865 Y-4.6428
G01 X-4.9536 Y-4.6064
G01 X-4.9172 Y-4.5735
G01 X-4.8778 Y-4.5443
G01 X-4.8357 Y-4.5190
G01 X-4.7913 Y-4.4981
G01 X-4.7451 Y-4.4815
G01 X-4.6975 Y-4.4696
G01 X-4.6490 Y-4.4624
G01 X-4.6000 Y-4.4600
G01 X-4.5510 Y-4.4624
G01 X-4.5025 Y-4.4696
G01 X-4.4549 Y-4.4815
G01 X-4.4087 Y-4.4981
G01 X-4.3643 Y-4.5190
G01 X-4.3222 Y-4.5443
G01 X-4.2828 Y-4.5735
G01 X-4.2464 Y-4.6064
G01 X-4.2135 Y-4.6428
G01 X-4.1843 Y-4.6822
G01 X-4.1590 Y-4.7243
G01 X-4.1381 Y-4.7687
G01 X-4.1215 Y-4.8149
G01 X-4.1096 Y-4.8625
G01 X-4.1024 Y-4.9110
G01 X-4.1000 Y-4.9600
G00 X-4.1000 Y-4.9600
G01 F70.00
G01 Z-0.4000
G01 F120.00
G01 X-4.1024 Y-5.0090
G01 X-4.1096 Y-5.0575
G01 X-4.1215 Y-5.1051
G01 X-4.1381 Y-5.1513
G01 X-4.1590 Y-5.1957
G01 X-4.1843 Y-5.2378
G01 X-4.2135 Y-5.2772
G01 X-4.2464 Y-5.3136
G01 X-4.2828 Y-5.3465
G01 X-4.3222 Y-5.3757
G01 X-4.3643 Y-5.4010
G01 X-4.4087 Y-5.4219
G01 X-4.4549 Y-5.4385
G01 X-4.5025 Y-5.4504
G01 X-4.5510 Y-5.4576
G01 X-4.6000 Y-5.4600
G01 X-4.6490 Y-5.4576
G01 X-4.6975 Y-5.4504
G01 X-4.7451 Y-5.4385
G01 X-4.7913 Y-5.4219
G01 X-4.8357 Y-5.4010
G01 X-4.8778 Y-5.3757
G01 X-4.9172 Y-5.3465
G01 X-4.9536 Y-5.3136
G01 X-4.9865 Y-5.2772
G01 X-5.0157 Y-5.2378
G01 X-5.0410 Y-5.1957
G01 X-5.0619 Y-5.1513
G01 X-5.0785 Y-5.1051
G01 X-5.0904 Y-5.0575
G01 X-5.0976 Y-5.0090
G01 X-5.1000 Y-4.9600
G01 X-5.0976 Y-4.9110
G01 X-5.0904 Y-4.8625
G01 X-5.0785 Y-4.8149
G01 X-5.0619 Y-4.7687
G01 X-5.0410 Y-4.7243
G01 X-5.0157 Y-4.6822
G01 X-4.9865 Y-4.6428
G01 X-4.9536 Y-4.6064
G01 X-4.9172 Y-4.5735
G01 X-4.8778 Y-4.5443
G01 X-4.8357 Y-4.5190
G01 X-4.7913 Y-4.4981
G01 X-4.7451 Y-4.4815
G01 X-4.6975 Y-4.4696
G01 X-4.6490 Y-4.4624
G01 X-4.6000 Y-4.4600
G01 X-4.5510 Y-4.4624
G01 X-4.5025 Y-4.4696
G01 X-4.4549 Y-4.4815
G01 X-4.4087 Y-4.4981
G01 X-4.3643 Y-4.5190
G01 X-4.3222 Y-4.5443
G01 X-4.2828 Y-4.5735
G01 X-4.2464 Y-4.6064
G01 X-4.2135 Y-4.6428
G01 X-4.1843 Y-4.6822
G01 X-4.1590 Y-4.7243
G01 X-4.1381 Y-4.7687
G01 X-4.1215 Y-4.8149
G01 X-4.1096 Y-4.8625
G01 X-4.1024 Y-4.9110
G01 X-4.1000 Y-4.9600
G00 X-4.1000 Y-4.9600
G01 F70.00
G01 Z-0.5000
G01 F120.00
G01 X-4.1024 Y-5.0090
G01 X-4.1096 Y-5.0575
G01 X-4.1215 Y-5.1051
G01 X-4.1381 Y-5.1513
G01 X-4.1590 Y-5.1957
G01 X-4.1843 Y-5.2378
G01 X-4.2135 Y-5.2772
G01 X-4.2464 Y-5.3136
G01 X-4.2828 Y-5.3465
G01 X-4.3222 Y-5.3757
G01 X-4.3643 Y-5.4010
G01 X-4.4087 Y-5.4219
G01 X-4.4549 Y-5.4385
G01 X-4.5025 Y-5.4504
G01 X-4.5510 Y-5.4576
G01 X-4.6000 Y-5.4600
G01 X-4.6490 Y-5.4576
G01 X-4.6975 Y-5.4504
G01 X-4.7451 Y-5.4385
G01 X-4.7913 Y-5.4219
G01 X-4.8357 Y-5.4010
G01 X-4.8778 Y-5.3757
G01 X-4.9172 Y-5.3465
G01 X-4.9536 Y-5.3136
G01 X-4.9865 Y-5.2772
G01 X-5.0157 Y-5.2378
G01 X-5.0410 Y-5.1957
G01 X-5.0619 Y-5.1513
G01 X-5.0785 Y-5.1051
G01 X-5.0904 Y-5.0575
G01 X-5.0976 Y-5.0090
G01 X-5.1000 Y-4.9600
G01 X-5.0976 Y-4.9110
G01 X-5.0904 Y-4.8625
G01 X-5.0785 Y-4.8149
G01 X-5.0619 Y-4.7687
G01 X-5.0410 Y-4.7243
G01 X-5.0157 Y-4.6822
G01 X-4.9865 Y-4.6428
G01 X-4.9536 Y-4.6064
G01 X-4.9172 Y-4.5735
G01 X-4.8778 Y-4.5443
G01 X-4.8357 Y-4.5190
G01 X-4.7913 Y-4.4981
G01 X-4.7451 Y-4.4815
G01 X-4.6975 Y-4.4696
G01 X-4.6490 Y-4.4624
G01 X-4.6000 Y-4.4600
G01 X-4.5510 Y-4.4624
G01 X-4.5025 Y-4.4696
G01 X-4.4549 Y-4.4815
G01 X-4.4087 Y-4.4981
G01 X-4.3643 Y-4.5190
G01 X-4.3222 Y-4.5443
G01 X-4.2828 Y-4.5735
G01 X-4.2464 Y-4.6064
G01 X-4.2135 Y-4.6428
G01 X-4.1843 Y-4.6822
G01 X-4.1590 Y-4.7243
G01 X-4.1381 Y-4.7687
G01 X-4.1215 Y-4.8149
G01 X-4.1096 Y-4.8625
G01 X-4.1024 Y-4.9110
G01 X-4.1000 Y-4.9600
G00 X-4.1000 Y-4.9600
G01 F70.00
G01 Z-0.6000
G01 F120.00
G01 X-4.1024 Y-5.0090
G01 X-4.1096 Y-5.0575
G01 X-4.1215 Y-5.1051
G01 X-4.1381 Y-5.1513
G01 X-4.1590 Y-5.1957
G01 X-4.1843 Y-5.2378
G01 X-4.2135 Y-5.2772
G01 X-4.2464 Y-5.3136
G01 X-4.2828 Y-5.3465
G01 X-4.3222 Y-5.3757
G01 X-4.3643 Y-5.4010
G01 X-4.4087 Y-5.4219
G01 X-4.4549 Y-5.4385
G01 X-4.5025 Y-5.4504
G01 X-4.5510 Y-5.4576
G01 X-4.6000 Y-5.4600
G01 X-4.6490 Y-5.4576
G01 X-4.6975 Y-5.4504
G01 X-4.7451 Y-5.4385
G01 X-4.7913 Y-5.4219
G01 X-4.8357 Y-5.4010
G01 X-4.8778 Y-5.3757
G01 X-4.9172 Y-5.3465
G01 X-4.9536 Y-5.3136
G01 X-4.9865 Y-5.2772
G01 X-5.0157 Y-5.2378
G01 X-5.0410 Y-5.1957
G01 X-5.0619 Y-5.1513
G01 X-5.0785 Y-5.1051
G01 X-5.0904 Y-5.0575
G01 X-5.0976 Y-5.0090
G01 X-5.1000 Y-4.9600
G01 X-5.0976 Y-4.9110
G01 X-5.0904 Y-4.8625
G01 X-5.0785 Y-4.8149
G01 X-5.0619 Y-4.7687
G01 X-5.0410 Y-4.7243
G01 X-5.0157 Y-4.6822
G01 X-4.9865 Y-4.6428
G01 X-4.9536 Y-4.6064
G01 X-4.9172 Y-4.5735
G01 X-4.8778 Y-4.5443
G01 X-4.8357 Y-4.5190
G01 X-4.7913 Y-4.4981
G01 X-4.7451 Y-4.4815
G01 X-4.6975 Y-4.4696
G01 X-4.6490 Y-4.4624
G01 X-4.6000 Y-4.4600
G01 X-4.5510 Y-4.4624
G01 X-4.5025 Y-4.4696
G01 X-4.4549 Y-4.4815
G01 X-4.4087 Y-4.4981
G01 X-4.3643 Y-4.5190
G01 X-4.3222 Y-4.5443
G01 X-4.2828 Y-4.5735
G01 X-4.2464 Y-4.6064
G01 X-4.2135 Y-4.6428
G01 X-4.1843 Y-4.6822
G01 X-4.1590 Y-4.7243
G01 X-4.1381 Y-4.7687
G01 X-4.1215 Y-4.8149
G01 X-4.1096 Y-4.8625
G01 X-4.1024 Y-4.9110
G01 X-4.1000 Y-4.9600
G00 X-4.1000 Y-4.9600
G01 F70.00
G01 Z-0.7000
G01 F120.00
G01 X-4.1024 Y-5.0090
G01 X-4.1096 Y-5.0575
G01 X-4.1215 Y-5.1051
G01 X-4.1381 Y-5.1513
G01 X-4.1590 Y-5.1957
G01 X-4.1843 Y-5.2378
G01 X-4.2135 Y-5.2772
G01 X-4.2464 Y-5.3136
G01 X-4.2828 Y-5.3465
G01 X-4.3222 Y-5.3757
G01 X-4.3643 Y-5.4010
G01 X-4.4087 Y-5.4219
G01 X-4.4549 Y-5.4385
G01 X-4.5025 Y-5.4504
G01 X-4.5510 Y-5.4576
G01 X-4.6000 Y-5.4600
G01 X-4.6490 Y-5.4576
G01 X-4.6975 Y-5.4504
G01 X-4.7451 Y-5.4385
G01 X-4.7913 Y-5.4219
G01 X-4.8357 Y-5.4010
G01 X-4.8778 Y-5.3757
G01 X-4.9172 Y-5.3465
G01 X-4.9536 Y-5.3136
G01 X-4.9865 Y-5.2772
G01 X-5.0157 Y-5.2378
G01 X-5.0410 Y-5.1957
G01 X-5.0619 Y-5.1513
G01 X-5.0785 Y-5.1051
G01 X-5.0904 Y-5.0575
G01 X-5.0976 Y-5.0090
G01 X-5.1000 Y-4.9600
G01 X-5.0976 Y-4.9110
G01 X-5.0904 Y-4.8625
G01 X-5.0785 Y-4.8149
G01 X-5.0619 Y-4.7687
G01 X-5.0410 Y-4.7243
G01 X-5.0157 Y-4.6822
G01 X-4.9865 Y-4.6428
G01 X-4.9536 Y-4.6064
G01 X-4.9172 Y-4.5735
G01 X-4.8778 Y-4.5443
G01 X-4.8357 Y-4.5190
G01 X-4.7913 Y-4.4981
G01 X-4.7451 Y-4.4815
G01 X-4.6975 Y-4.4696
G01 X-4.6490 Y-4.4624
G01 X-4.6000 Y-4.4600
G01 X-4.5510 Y-4.4624
G01 X-4.5025 Y-4.4696
G01 X-4.4549 Y-4.4815
G01 X-4.4087 Y-4.4981
G01 X-4.3643 Y-4.5190
G01 X-4.3222 Y-4.5443
G01 X-4.2828 Y-4.5735
G01 X-4.2464 Y-4.6064
G01 X-4.2135 Y-4.6428
G01 X-4.1843 Y-4.6822
G01 X-4.1590 Y-4.7243
G01 X-4.1381 Y-4.7687
G01 X-4.1215 Y-4.8149
G01 X-4.1096 Y-4.8625
G01 X-4.1024 Y-4.9110
G01 X-4.1000 Y-4.9600
G00 X-4.1000 Y-4.9600
G01 F70.00
G01 Z-0.8000
G01 F120.00
G01 X-4.1024 Y-5.0090
G01 X-4.1096 Y-5.0575
G01 X-4.1215 Y-5.1051
G01 X-4.1381 Y-5.1513
G01 X-4.1590 Y-5.1957
G01 X-4.1843 Y-5.2378
G01 X-4.2135 Y-5.2772
G01 X-4.2464 Y-5.3136
G01 X-4.2828 Y-5.3465
G01 X-4.3222 Y-5.3757
G01 X-4.3643 Y-5.4010
G01 X-4.4087 Y-5.4219
G01 X-4.4549 Y-5.4385
G01 X-4.5025 Y-5.4504
G01 X-4.5510 Y-5.4576
G01 X-4.6000 Y-5.4600
G01 X-4.6490 Y-5.4576
G01 X-4.6975 Y-5.4504
G01 X-4.7451 Y-5.4385
G01 X-4.7913 Y-5.4219
G01 X-4.8357 Y-5.4010
G01 X-4.8778 Y-5.3757
G01 X-4.9172 Y-5.3465
G01 X-4.9536 Y-5.3136
G01 X-4.9865 Y-5.2772
G01 X-5.0157 Y-5.2378
G01 X-5.0410 Y-5.1957
G01 X-5.0619 Y-5.1513
G01 X-5.0785 Y-5.1051
G01 X-5.0904 Y-5.0575
G01 X-5.0976 Y-5.0090
G01 X-5.1000 Y-4.9600
G01 X-5.0976 Y-4.9110
G01 X-5.0904 Y-4.8625
G01 X-5.0785 Y-4.8149
G01 X-5.0619 Y-4.7687
G01 X-5.0410 Y-4.7243
G01 X-5.0157 Y-4.6822
G01 X-4.9865 Y-4.6428
G01 X-4.9536 Y-4.6064
G01 X-4.9172 Y-4.5735
G01 X-4.8778 Y-4.5443
G01 X-4.8357 Y-4.5190
G01 X-4.7913 Y-4.4981
G01 X-4.7451 Y-4.4815
G01 X-4.6975 Y-4.4696
G01 X-4.6490 Y-4.4624
G01 X-4.6000 Y-4.4600
G01 X-4.5510 Y-4.4624
G01 X-4.5025 Y-4.4696
G01 X-4.4549 Y-4.4815
G01 X-4.4087 Y-4.4981
G01 X-4.3643 Y-4.5190
G01 X-4.3222 Y-4.5443
G01 X-4.2828 Y-4.5735
G01 X-4.2464 Y-4.6064
G01 X-4.2135 Y-4.6428
G01 X-4.1843 Y-4.6822
G01 X-4.1590 Y-4.7243
G01 X-4.1381 Y-4.7687
G01 X-4.1215 Y-4.8149
G01 X-4.1096 Y-4.8625
G01 X-4.1024 Y-4.9110
G01 X-4.1000 Y-4.9600
G00 X-4.1000 Y-4.9600
G01 F70.00
G01 Z-0.9000
G01 F120.00
G01 X-4.1024 Y-5.0090
G01 X-4.1096 Y-5.0575
G01 X-4.1215 Y-5.1051
G01 X-4.1381 Y-5.1513
G01 X-4.1590 Y-5.1957
G01 X-4.1843 Y-5.2378
G01 X-4.2135 Y-5.2772
G01 X-4.2464 Y-5.3136
G01 X-4.2828 Y-5.3465
G01 X-4.3222 Y-5.3757
G01 X-4.3643 Y-5.4010
G01 X-4.4087 Y-5.4219
G01 X-4.4549 Y-5.4385
G01 X-4.5025 Y-5.4504
G01 X-4.5510 Y-5.4576
G01 X-4.6000 Y-5.4600
G01 X-4.6490 Y-5.4576
G01 X-4.6975 Y-5.4504
G01 X-4.7451 Y-5.4385
G01 X-4.7913 Y-5.4219
G01 X-4.8357 Y-5.4010
G01 X-4.8778 Y-5.3757
G01 X-4.9172 Y-5.3465
G01 X-4.9536 Y-5.3136
G01 X-4.9865 Y-5.2772
G01 X-5.0157 Y-5.2378
G01 X-5.0410 Y-5.1957
G01 X-5.0619 Y-5.1513
G01 X-5.0785 Y-5.1051
G01 X-5.0904 Y-5.0575
G01 X-5.0976 Y-5.0090
G01 X-5.1000 Y-4.9600
G01 X-5.0976 Y-4.9110
G01 X-5.0904 Y-4.8625
G01 X-5.0785 Y-4.8149
G01 X-5.0619 Y-4.7687
G01 X-5.0410 Y-4.7243
G01 X-5.0157 Y-4.6822
G01 X-4.9865 Y-4.6428
G01 X-4.9536 Y-4.6064
G01 X-4.9172 Y-4.5735
G01 X-4.8778 Y-4.5443
G01 X-4.8357 Y-4.5190
G01 X-4.7913 Y-4.4981
G01 X-4.7451 Y-4.4815
G01 X-4.6975 Y-4.4696
G01 X-4.6490 Y-4.4624
G01 X-4.6000 Y-4.4600
G01 X-4.5510 Y-4.4624
G01 X-4.5025 Y-4.4696
G01 X-4.4549 Y-4.4815
G01 X-4.4087 Y-4.4981
G01 X-4.3643 Y-4.5190
G01 X-4.3222 Y-4.5443
G01 X-4.2828 Y-4.5735
G01 X-4.2464 Y-4.6064
G01 X-4.2135 Y-4.6428
G01 X-4.1843 Y-4.6822
G01 X-4.1590 Y-4.7243
G01 X-4.1381 Y-4.7687
G01 X-4.1215 Y-4.8149
G01 X-4.1096 Y-4.8625
G01 X-4.1024 Y-4.9110
G01 X-4.1000 Y-4.9600
G00 X-4.1000 Y-4.9600
G01 F70.00
G01 Z-1.0000
G01 F120.00
G01 X-4.1024 Y-5.0090
G01 X-4.1096 Y-5.0575
G01 X-4.1215 Y-5.1051
G01 X-4.1381 Y-5.1513
G01 X-4.1590 Y-5.1957
G01 X-4.1843 Y-5.2378
G01 X-4.2135 Y-5.2772
G01 X-4.2464 Y-5.3136
G01 X-4.2828 Y-5.3465
G01 X-4.3222 Y-5.3757
G01 X-4.3643 Y-5.4010
G01 X-4.4087 Y-5.4219
G01 X-4.4549 Y-5.4385
G01 X-4.5025 Y-5.4504
G01 X-4.5510 Y-5.4576
G01 X-4.6000 Y-5.4600
G01 X-4.6490 Y-5.4576
G01 X-4.6975 Y-5.4504
G01 X-4.7451 Y-5.4385
G01 X-4.7913 Y-5.4219
G01 X-4.8357 Y-5.4010
G01 X-4.8778 Y-5.3757
G01 X-4.9172 Y-5.3465
G01 X-4.9536 Y-5.3136
G01 X-4.9865 Y-5.2772
G01 X-5.0157 Y-5.2378
G01 X-5.0410 Y-5.1957
G01 X-5.0619 Y-5.1513
G01 X-5.0785 Y-5.1051
G01 X-5.0904 Y-5.0575
G01 X-5.0976 Y-5.0090
G01 X-5.1000 Y-4.9600
G01 X-5.0976 Y-4.9110
G01 X-5.0904 Y-4.8625
G01 X-5.0785 Y-4.8149
G01 X-5.0619 Y-4.7687
G01 X-5.0410 Y-4.7243
G01 X-5.0157 Y-4.6822
G01 X-4.9865 Y-4.6428
G01 X-4.9536 Y-4.6064
G01 X-4.9172 Y-4.5735
G01 X-4.8778 Y-4.5443
G01 X-4.8357 Y-4.5190
G01 X-4.7913 Y-4.4981
G01 X-4.7451 Y-4.4815
G01 X-4.6975 Y-4.4696
G01 X-4.6490 Y-4.4624
G01 X-4.6000 Y-4.4600
G01 X-4.5510 Y-4.4624
G01 X-4.5025 Y-4.4696
G01 X-4.4549 Y-4.4815
G01 X-4.4087 Y-4.4981
G01 X-4.3643 Y-4.5190
G01 X-4.3222 Y-4.5443
G01 X-4.2828 Y-4.5735
G01 X-4.2464 Y-4.6064
G01 X-4.2135 Y-4.6428
G01 X-4.1843 Y-4.6822
G01 X-4.1590 Y-4.7243
G01 X-4.1381 Y-4.7687
G01 X-4.1215 Y-4.8149
G01 X-4.1096 Y-4.8625
G01 X-4.1024 Y-4.9110
G01 X-4.1000 Y-4.9600
G00 X-4.1000 Y-4.9600
G01 F70.00
G01 Z-1.1000
G01 F120.00
G01 X-4.1024 Y-5.0090
G01 X-4.1096 Y-5.0575
G01 X-4.1215 Y-5.1051
G01 X-4.1381 Y-5.1513
G01 X-4.1590 Y-5.1957
G01 X-4.1843 Y-5.2378
G01 X-4.2135 Y-5.2772
G01 X-4.2464 Y-5.3136
G01 X-4.2828 Y-5.3465
G01 X-4.3222 Y-5.3757
G01 X-4.3643 Y-5.4010
G01 X-4.4087 Y-5.4219
G01 X-4.4549 Y-5.4385
G01 X-4.5025 Y-5.4504
G01 X-4.5510 Y-5.4576
G01 X-4.6000 Y-5.4600
G01 X-4.6490 Y-5.4576
G01 X-4.6975 Y-5.4504
G01 X-4.7451 Y-5.4385
G01 X-4.7913 Y-5.4219
G01 X-4.8357 Y-5.4010
G01 X-4.8778 Y-5.3757
G01 X-4.9172 Y-5.3465
G01 X-4.9536 Y-5.3136
G01 X-4.9865 Y-5.2772
G01 X-5.0157 Y-5.2378
G01 X-5.0410 Y-5.1957
G01 X-5.0619 Y-5.1513
G01 X-5.0785 Y-5.1051
G01 X-5.0904 Y-5.0575
G01 X-5.0976 Y-5.0090
G01 X-5.1000 Y-4.9600
G01 X-5.0976 Y-4.9110
G01 X-5.0904 Y-4.8625
G01 X-5.0785 Y-4.8149
G01 X-5.0619 Y-4.7687
G01 X-5.0410 Y-4.7243
G01 X-5.0157 Y-4.6822
G01 X-4.9865 Y-4.6428
G01 X-4.9536 Y-4.6064
G01 X-4.9172 Y-4.5735
G01 X-4.8778 Y-4.5443
G01 X-4.8357 Y-4.5190
G01 X-4.7913 Y-4.4981
G01 X-4.7451 Y-4.4815
G01 X-4.6975 Y-4.4696
G01 X-4.6490 Y-4.4624
G01 X-4.6000 Y-4.4600
G01 X-4.5510 Y-4.4624
G01 X-4.5025 Y-4.4696
G01 X-4.4549 Y-4.4815
G01 X-4.4087 Y-4.4981
G01 X-4.3643 Y-4.5190
G01 X-4.3222 Y-4.5443
G01 X-4.2828 Y-4.5735
G01 X-4.2464 Y-4.6064
G01 X-4.2135 Y-4.6428
G01 X-4.1843 Y-4.6822
G01 X-4.1590 Y-4.7243
G01 X-4.1381 Y-4.7687
G01 X-4.1215 Y-4.8149
G01 X-4.1096 Y-4.8625
G01 X-4.1024 Y-4.9110
G01 X-4.1000 Y-4.9600
G00 X-4.1000 Y-4.9600
G01 F70.00
G01 Z-1.2000
G01 F120.00
G01 X-4.1024 Y-5.0090
G01 X-4.1096 Y-5.0575
G01 X-4.1215 Y-5.1051
G01 X-4.1381 Y-5.1513
G01 X-4.1590 Y-5.1957
G01 X-4.1843 Y-5.2378
G01 X-4.2135 Y-5.2772
G01 X-4.2464 Y-5.3136
G01 X-4.2828 Y-5.3465
G01 X-4.3222 Y-5.3757
G01 X-4.3643 Y-5.4010
G01 X-4.4087 Y-5.4219
G01 X-4.4549 Y-5.4385
G01 X-4.5025 Y-5.4504
G01 X-4.5510 Y-5.4576
G01 X-4.6000 Y-5.4600
G01 X-4.6490 Y-5.4576
G01 X-4.6975 Y-5.4504
G01 X-4.7451 Y-5.4385
G01 X-4.7913 Y-5.4219
G01 X-4.8357 Y-5.4010
G01 X-4.8778 Y-5.3757
G01 X-4.9172 Y-5.3465
G01 X-4.9536 Y-5.3136
G01 X-4.9865 Y-5.2772
G01 X-5.0157 Y-5.2378
G01 X-5.0410 Y-5.1957
G01 X-5.0619 Y-5.1513
G01 X-5.0785 Y-5.1051
G01 X-5.0904 Y-5.0575
G01 X-5.0976 Y-5.0090
G01 X-5.1000 Y-4.9600
G01 X-5.0976 Y-4.9110
G01 X-5.0904 Y-4.8625
G01 X-5.0785 Y-4.8149
G01 X-5.0619 Y-4.7687
G01 X-5.0410 Y-4.7243
G01 X-5.0157 Y-4.6822
G01 X-4.9865 Y-4.6428
G01 X-4.9536 Y-4.6064
G01 X-4.9172 Y-4.5735
G01 X-4.8778 Y-4.5443
G01 X-4.8357 Y-4.5190
G01 X-4.7913 Y-4.4981
G01 X-4.7451 Y-4.4815
G01 X-4.6975 Y-4.4696
G01 X-4.6490 Y-4.4624
G01 X-4.6000 Y-4.4600
G01 X-4.5510 Y-4.4624
G01 X-4.5025 Y-4.4696
G01 X-4.4549 Y-4.4815
G01 X-4.4087 Y-4.4981
G01 X-4.3643 Y-4.5190
G01 X-4.3222 Y-4.5443
G01 X-4.2828 Y-4.5735
G01 X-4.2464 Y-4.6064
G01 X-4.2135 Y-4.6428
G01 X-4.1843 Y-4.6822
G01 X-4.1590 Y-4.7243
G01 X-4.1381 Y-4.7687
G01 X-4.1215 Y-4.8149
G01 X-4.1096 Y-4.8625
G01 X-4.1024 Y-4.9110
G01 X-4.1000 Y-4.9600
G00 X-4.1000 Y-4.9600
G01 F70.00
G01 Z-1.3000
G01 F120.00
G01 X-4.1024 Y-5.0090
G01 X-4.1096 Y-5.0575
G01 X-4.1215 Y-5.1051
G01 X-4.1381 Y-5.1513
G01 X-4.1590 Y-5.1957
G01 X-4.1843 Y-5.2378
G01 X-4.2135 Y-5.2772
G01 X-4.2464 Y-5.3136
G01 X-4.2828 Y-5.3465
G01 X-4.3222 Y-5.3757
G01 X-4.3643 Y-5.4010
G01 X-4.4087 Y-5.4219
G01 X-4.4549 Y-5.4385
G01 X-4.5025 Y-5.4504
G01 X-4.5510 Y-5.4576
G01 X-4.6000 Y-5.4600
G01 X-4.6490 Y-5.4576
G01 X-4.6975 Y-5.4504
G01 X-4.7451 Y-5.4385
G01 X-4.7913 Y-5.4219
G01 X-4.8357 Y-5.4010
G01 X-4.8778 Y-5.3757
G01 X-4.9172 Y-5.3465
G01 X-4.9536 Y-5.3136
G01 X-4.9865 Y-5.2772
G01 X-5.0157 Y-5.2378
G01 X-5.0410 Y-5.1957
G01 X-5.0619 Y-5.1513
G01 X-5.0785 Y-5.1051
G01 X-5.0904 Y-5.0575
G01 X-5.0976 Y-5.0090
G01 X-5.1000 Y-4.9600
G01 X-5.0976 Y-4.9110
G01 X-5.0904 Y-4.8625
G01 X-5.0785 Y-4.8149
G01 X-5.0619 Y-4.7687
G01 X-5.0410 Y-4.7243
G01 X-5.0157 Y-4.6822
G01 X-4.9865 Y-4.6428
G01 X-4.9536 Y-4.6064
G01 X-4.9172 Y-4.5735
G01 X-4.8778 Y-4.5443
G01 X-4.8357 Y-4.5190
G01 X-4.7913 Y-4.4981
G01 X-4.7451 Y-4.4815
G01 X-4.6975 Y-4.4696
G01 X-4.6490 Y-4.4624
G01 X-4.6000 Y-4.4600
G01 X-4.5510 Y-4.4624
G01 X-4.5025 Y-4.4696
G01 X-4.4549 Y-4.4815
G01 X-4.4087 Y-4.4981
G01 X-4.3643 Y-4.5190
G01 X-4.3222 Y-4.5443
G01 X-4.2828 Y-4.5735
G01 X-4.2464 Y-4.6064
G01 X-4.2135 Y-4.6428
G01 X-4.1843 Y-4.6822
G01 X-4.1590 Y-4.7243
G01 X-4.1381 Y-4.7687
G01 X-4.1215 Y-4.8149
G01 X-4.1096 Y-4.8625
G01 X-4.1024 Y-4.9110
G01 X-4.1000 Y-4.9600
G00 X-4.1000 Y-4.9600
G01 F70.00
G01 Z-1.4000
G01 F120.00
G01 X-4.1024 Y-5.0090
G01 X-4.1096 Y-5.0575
G01 X-4.1215 Y-5.1051
G01 X-4.1381 Y-5.1513
G01 X-4.1590 Y-5.1957
G01 X-4.1843 Y-5.2378
G01 X-4.2135 Y-5.2772
G01 X-4.2464 Y-5.3136
G01 X-4.2828 Y-5.3465
G01 X-4.3222 Y-5.3757
G01 X-4.3643 Y-5.4010
G01 X-4.4087 Y-5.4219
G01 X-4.4549 Y-5.4385
G01 X-4.5025 Y-5.4504
G01 X-4.5510 Y-5.4576
G01 X-4.6000 Y-5.4600
G01 X-4.6490 Y-5.4576
G01 X-4.6975 Y-5.4504
G01 X-4.7451 Y-5.4385
G01 X-4.7913 Y-5.4219
G01 X-4.8357 Y-5.4010
G01 X-4.8778 Y-5.3757
G01 X-4.9172 Y-5.3465
G01 X-4.9536 Y-5.3136
G01 X-4.9865 Y-5.2772
G01 X-5.0157 Y-5.2378
G01 X-5.0410 Y-5.1957
G01 X-5.0619 Y-5.1513
G01 X-5.0785 Y-5.1051
G01 X-5.0904 Y-5.0575
G01 X-5.0976 Y-5.0090
G01 X-5.1000 Y-4.9600
G01 X-5.0976 Y-4.9110
G01 X-5.0904 Y-4.8625
G01 X-5.0785 Y-4.8149
G01 X-5.0619 Y-4.7687
G01 X-5.0410 Y-4.7243
G01 X-5.0157 Y-4.6822
G01 X-4.9865 Y-4.6428
G01 X-4.9536 Y-4.6064
G01 X-4.9172 Y-4.5735
G01 X-4.8778 Y-4.5443
G01 X-4.8357 Y-4.5190
G01 X-4.7913 Y-4.4981
G01 X-4.7451 Y-4.4815
G01 X-4.6975 Y-4.4696
G01 X-4.6490 Y-4.4624
G01 X-4.6000 Y-4.4600
G01 X-4.5510 Y-4.4624
G01 X-4.5025 Y-4.4696
G01 X-4.4549 Y-4.4815
G01 X-4.4087 Y-4.4981
G01 X-4.3643 Y-4.5190
G01 X-4.3222 Y-4.5443
G01 X-4.2828 Y-4.5735
G01 X-4.2464 Y-4.6064
G01 X-4.2135 Y-4.6428
G01 X-4.1843 Y-4.6822
G01 X-4.1590 Y-4.7243
G01 X-4.1381 Y-4.7687
G01 X-4.1215 Y-4.8149
G01 X-4.1096 Y-4.8625
G01 X-4.1024 Y-4.9110
G01 X-4.1000 Y-4.9600
G00 X-4.1000 Y-4.9600
G01 F70.00
G01 Z-1.5000
G01 F120.00
G01 X-4.1024 Y-5.0090
G01 X-4.1096 Y-5.0575
G01 X-4.1215 Y-5.1051
G01 X-4.1381 Y-5.1513
G01 X-4.1590 Y-5.1957
G01 X-4.1843 Y-5.2378
G01 X-4.2135 Y-5.2772
G01 X-4.2464 Y-5.3136
G01 X-4.2828 Y-5.3465
G01 X-4.3222 Y-5.3757
G01 X-4.3643 Y-5.4010
G01 X-4.4087 Y-5.4219
G01 X-4.4549 Y-5.4385
G01 X-4.5025 Y-5.4504
G01 X-4.5510 Y-5.4576
G01 X-4.6000 Y-5.4600
G01 X-4.6490 Y-5.4576
G01 X-4.6975 Y-5.4504
G01 X-4.7451 Y-5.4385
G01 X-4.7913 Y-5.4219
G01 X-4.8357 Y-5.4010
G01 X-4.8778 Y-5.3757
G01 X-4.9172 Y-5.3465
G01 X-4.9536 Y-5.3136
G01 X-4.9865 Y-5.2772
G01 X-5.0157 Y-5.2378
G01 X-5.0410 Y-5.1957
G01 X-5.0619 Y-5.1513
G01 X-5.0785 Y-5.1051
G01 X-5.0904 Y-5.0575
G01 X-5.0976 Y-5.0090
G01 X-5.1000 Y-4.9600
G01 X-5.0976 Y-4.9110
G01 X-5.0904 Y-4.8625
G01 X-5.0785 Y-4.8149
G01 X-5.0619 Y-4.7687
G01 X-5.0410 Y-4.7243
G01 X-5.0157 Y-4.6822
G01 X-4.9865 Y-4.6428
G01 X-4.9536 Y-4.6064
G01 X-4.9172 Y-4.5735
G01 X-4.8778 Y-4.5443
G01 X-4.8357 Y-4.5190
G01 X-4.7913 Y-4.4981
G01 X-4.7451 Y-4.4815
G01 X-4.6975 Y-4.4696
G01 X-4.6490 Y-4.4624
G01 X-4.6000 Y-4.4600
G01 X-4.5510 Y-4.4624
G01 X-4.5025 Y-4.4696
G01 X-4.4549 Y-4.4815
G01 X-4.4087 Y-4.4981
G01 X-4.3643 Y-4.5190
G01 X-4.3222 Y-4.5443
G01 X-4.2828 Y-4.5735
G01 X-4.2464 Y-4.6064
G01 X-4.2135 Y-4.6428
G01 X-4.1843 Y-4.6822
G01 X-4.1590 Y-4.7243
G01 X-4.1381 Y-4.7687
G01 X-4.1215 Y-4.8149
G01 X-4.1096 Y-4.8625
G01 X-4.1024 Y-4.9110
G01 X-4.1000 Y-4.9600
G00 X-4.1000 Y-4.9600
G01 F70.00
G01 Z-1.6000
G01 F120.00
G01 X-4.1024 Y-5.0090
G01 X-4.1096 Y-5.0575
G01 X-4.1215 Y-5.1051
G01 X-4.1381 Y-5.1513
G01 X-4.1590 Y-5.1957
G01 X-4.1843 Y-5.2378
G01 X-4.2135 Y-5.2772
G01 X-4.2464 Y-5.3136
G01 X-4.2828 Y-5.3465
G01 X-4.3222 Y-5.3757
G01 X-4.3643 Y-5.4010
G01 X-4.4087 Y-5.4219
G01 X-4.4549 Y-5.4385
G01 X-4.5025 Y-5.4504
G01 X-4.5510 Y-5.4576
G01 X-4.6000 Y-5.4600
G01 X-4.6490 Y-5.4576
G01 X-4.6975 Y-5.4504
G01 X-4.7451 Y-5.4385
G01 X-4.7913 Y-5.4219
G01 X-4.8357 Y-5.4010
G01 X-4.8778 Y-5.3757
G01 X-4.9172 Y-5.3465
G01 X-4.9536 Y-5.3136
G01 X-4.9865 Y-5.2772
G01 X-5.0157 Y-5.2378
G01 X-5.0410 Y-5.1957
G01 X-5.0619 Y-5.1513
G01 X-5.0785 Y-5.1051
G01 X-5.0904 Y-5.0575
G01 X-5.0976 Y-5.0090
G01 X-5.1000 Y-4.9600
G01 X-5.0976 Y-4.9110
G01 X-5.0904 Y-4.8625
G01 X-5.0785 Y-4.8149
G01 X-5.0619 Y-4.7687
G01 X-5.0410 Y-4.7243
G01 X-5.0157 Y-4.6822
G01 X-4.9865 Y-4.6428
G01 X-4.9536 Y-4.6064
G01 X-4.9172 Y-4.5735
G01 X-4.8778 Y-4.5443
G01 X-4.8357 Y-4.5190
G01 X-4.7913 Y-4.4981
G01 X-4.7451 Y-4.4815
G01 X-4.6975 Y-4.4696
G01 X-4.6490 Y-4.4624
G01 X-4.6000 Y-4.4600
G01 X-4.5510 Y-4.4624
G01 X-4.5025 Y-4.4696
G01 X-4.4549 Y-4.4815
G01 X-4.4087 Y-4.4981
G01 X-4.3643 Y-4.5190
G01 X-4.3222 Y-4.5443
G01 X-4.2828 Y-4.5735
G01 X-4.2464 Y-4.6064
G01 X-4.2135 Y-4.6428
G01 X-4.1843 Y-4.6822
G01 X-4.1590 Y-4.7243
G01 X-4.1381 Y-4.7687
G01 X-4.1215 Y-4.8149
G01 X-4.1096 Y-4.8625
G01 X-4.1024 Y-4.9110
G01 X-4.1000 Y-4.9600
G00 X-4.1000 Y-4.9600
G01 F70.00
G01 Z-1.7000
G01 F120.00
G01 X-4.1024 Y-5.0090
G01 X-4.1096 Y-5.0575
G01 X-4.1215 Y-5.1051
G01 X-4.1381 Y-5.1513
G01 X-4.1590 Y-5.1957
G01 X-4.1843 Y-5.2378
G01 X-4.2135 Y-5.2772
G01 X-4.2464 Y-5.3136
G01 X-4.2828 Y-5.3465
G01 X-4.3222 Y-5.3757
G01 X-4.3643 Y-5.4010
G01 X-4.4087 Y-5.4219
G01 X-4.4549 Y-5.4385
G01 X-4.5025 Y-5.4504
G01 X-4.5510 Y-5.4576
G01 X-4.6000 Y-5.4600
G01 X-4.6490 Y-5.4576
G01 X-4.6975 Y-5.4504
G01 X-4.7451 Y-5.4385
G01 X-4.7913 Y-5.4219
G01 X-4.8357 Y-5.4010
G01 X-4.8778 Y-5.3757
G01 X-4.9172 Y-5.3465
G01 X-4.9536 Y-5.3136
G01 X-4.9865 Y-5.2772
G01 X-5.0157 Y-5.2378
G01 X-5.0410 Y-5.1957
G01 X-5.0619 Y-5.1513
G01 X-5.0785 Y-5.1051
G01 X-5.0904 Y-5.0575
G01 X-5.0976 Y-5.0090
G01 X-5.1000 Y-4.9600
G01 X-5.0976 Y-4.9110
G01 X-5.0904 Y-4.8625
G01 X-5.0785 Y-4.8149
G01 X-5.0619 Y-4.7687
G01 X-5.0410 Y-4.7243
G01 X-5.0157 Y-4.6822
G01 X-4.9865 Y-4.6428
G01 X-4.9536 Y-4.6064
G01 X-4.9172 Y-4.5735
G01 X-4.8778 Y-4.5443
G01 X-4.8357 Y-4.5190
G01 X-4.7913 Y-4.4981
G01 X-4.7451 Y-4.4815
G01 X-4.6975 Y-4.4696
G01 X-4.6490 Y-4.4624
G01 X-4.6000 Y-4.4600
G01 X-4.5510 Y-4.4624
G01 X-4.5025 Y-4.4696
G01 X-4.4549 Y-4.4815
G01 X-4.4087 Y-4.4981
G01 X-4.3643 Y-4.5190
G01 X-4.3222 Y-4.5443
G01 X-4.2828 Y-4.5735
G01 X-4.2464 Y-4.6064
G01 X-4.2135 Y-4.6428
G01 X-4.1843 Y-4.6822
G01 X-4.1590 Y-4.7243
G01 X-4.1381 Y-4.7687
G01 X-4.1215 Y-4.8149
G01 X-4.1096 Y-4.8625
G01 X-4.1024 Y-4.9110
G01 X-4.1000 Y-4.9600
G00 Z2.0000
G00 X-82.2100 Y-4.9600
G01 F70.00
G01 Z-0.1000
G01 F120.00
G01 X-82.2124 Y-5.0090
G01 X-82.2196 Y-5.0575
G01 X-82.2315 Y-5.1051
G01 X-82.2481 Y-5.1513
G01 X-82.2690 Y-5.1957
G01 X-82.2943 Y-5.2378
G01 X-82.3235 Y-5.2772
G01 X-82.3564 Y-5.3136
G01 X-82.3928 Y-5.3465
G01 X-82.4322 Y-5.3757
G01 X-82.4743 Y-5.4010
G01 X-82.5187 Y-5.4219
G01 X-82.5649 Y-5.4385
G01 X-82.6125 Y-5.4504
G01 X-82.6610 Y-5.4576
G01 X-82.7100 Y-5.4600
G01 X-82.7590 Y-5.4576
G01 X-82.8075 Y-5.4504
G01 X-82.8551 Y-5.4385
G01 X-82.9013 Y-5.4219
G01 X-82.9457 Y-5.4010
G01 X-82.9878 Y-5.3757
G01 X-83.0272 Y-5.3465
G01 X-83.0636 Y-5.3136
G01 X-83.0965 Y-5.2772
G01 X-83.1257 Y-5.2378
G01 X-83.1510 Y-5.1957
G01 X-83.1719 Y-5.1513
G01 X-83.1885 Y-5.1051
G01 X-83.2004 Y-5.0575
G01 X-83.2076 Y-5.0090
G01 X-83.2100 Y-4.9600
G01 X-83.2076 Y-4.9110
G01 X-83.2004 Y-4.8625
G01 X-83.1885 Y-4.8149
G01 X-83.1719 Y-4.7687
G01 X-83.1510 Y-4.7243
G01 X-83.1257 Y-4.6822
G01 X-83.0965 Y-4.6428
G01 X-83.0636 Y-4.6064
G01 X-83.0272 Y-4.5735
G01 X-82.9878 Y-4.5443
G01 X-82.9457 Y-4.5190
G01 X-82.9013 Y-4.4981
G01 X-82.8551 Y-4.4815
G01 X-82.8075 Y-4.4696
G01 X-82.7590 Y-4.4624
G01 X-82.7100 Y-4.4600
G01 X-82.6610 Y-4.4624
G01 X-82.6125 Y-4.4696
G01 X-82.5649 Y-4.4815
G01 X-82.5187 Y-4.4981
G01 X-82.4743 Y-4.5190
G01 X-82.4322 Y-4.5443
G01 X-82.3928 Y-4.5735
G01 X-82.3564 Y-4.6064
G01 X-82.3235 Y-4.6428
G01 X-82.2943 Y-4.6822
G01 X-82.2690 Y-4.7243
G01 X-82.2481 Y-4.7687
G01 X-82.2315 Y-4.8149
G01 X-82.2196 Y-4.8625
G01 X-82.2124 Y-4.9110
G01 X-82.2100 Y-4.9600
G00 X-82.2100 Y-4.9600
G01 F70.00
G01 Z-0.2000
G01 F120.00
G01 X-82.2124 Y-5.0090
G01 X-82.2196 Y-5.0575
G01 X-82.2315 Y-5.1051
G01 X-82.2481 Y-5.1513
G01 X-82.2690 Y-5.1957
G01 X-82.2943 Y-5.2378
G01 X-82.3235 Y-5.2772
G01 X-82.3564 Y-5.3136
G01 X-82.3928 Y-5.3465
G01 X-82.4322 Y-5.3757
G01 X-82.4743 Y-5.4010
G01 X-82.5187 Y-5.4219
G01 X-82.5649 Y-5.4385
G01 X-82.6125 Y-5.4504
G01 X-82.6610 Y-5.4576
G01 X-82.7100 Y-5.4600
G01 X-82.7590 Y-5.4576
G01 X-82.8075 Y-5.4504
G01 X-82.8551 Y-5.4385
G01 X-82.9013 Y-5.4219
G01 X-82.9457 Y-5.4010
G01 X-82.9878 Y-5.3757
G01 X-83.0272 Y-5.3465
G01 X-83.0636 Y-5.3136
G01 X-83.0965 Y-5.2772
G01 X-83.1257 Y-5.2378
G01 X-83.1510 Y-5.1957
G01 X-83.1719 Y-5.1513
G01 X-83.1885 Y-5.1051
G01 X-83.2004 Y-5.0575
G01 X-83.2076 Y-5.0090
G01 X-83.2100 Y-4.9600
G01 X-83.2076 Y-4.9110
G01 X-83.2004 Y-4.8625
G01 X-83.1885 Y-4.8149
G01 X-83.1719 Y-4.7687
G01 X-83.1510 Y-4.7243
G01 X-83.1257 Y-4.6822
G01 X-83.0965 Y-4.6428
G01 X-83.0636 Y-4.6064
G01 X-83.0272 Y-4.5735
G01 X-82.9878 Y-4.5443
G01 X-82.9457 Y-4.5190
G01 X-82.9013 Y-4.4981
G01 X-82.8551 Y-4.4815
G01 X-82.8075 Y-4.4696
G01 X-82.7590 Y-4.4624
G01 X-82.7100 Y-4.4600
G01 X-82.6610 Y-4.4624
G01 X-82.6125 Y-4.4696
G01 X-82.5649 Y-4.4815
G01 X-82.5187 Y-4.4981
G01 X-82.4743 Y-4.5190
G01 X-82.4322 Y-4.5443
G01 X-82.3928 Y-4.5735
G01 X-82.3564 Y-4.6064
G01 X-82.3235 Y-4.6428
G01 X-82.2943 Y-4.6822
G01 X-82.2690 Y-4.7243
G01 X-82.2481 Y-4.7687
G01 X-82.2315 Y-4.8149
G01 X-82.2196 Y-4.8625
G01 X-82.2124 Y-4.9110
G01 X-82.2100 Y-4.9600
G00 X-82.2100 Y-4.9600
G01 F70.00
G01 Z-0.3000
G01 F120.00
G01 X-82.2124 Y-5.0090
G01 X-82.2196 Y-5.0575
G01 X-82.2315 Y-5.1051
G01 X-82.2481 Y-5.1513
G01 X-82.2690 Y-5.1957
G01 X-82.2943 Y-5.2378
G01 X-82.3235 Y-5.2772
G01 X-82.3564 Y-5.3136
G01 X-82.3928 Y-5.3465
G01 X-82.4322 Y-5.3757
G01 X-82.4743 Y-5.4010
G01 X-82.5187 Y-5.4219
G01 X-82.5649 Y-5.4385
G01 X-82.6125 Y-5.4504
G01 X-82.6610 Y-5.4576
G01 X-82.7100 Y-5.4600
G01 X-82.7590 Y-5.4576
G01 X-82.8075 Y-5.4504
G01 X-82.8551 Y-5.4385
G01 X-82.9013 Y-5.4219
G01 X-82.9457 Y-5.4010
G01 X-82.9878 Y-5.3757
G01 X-83.0272 Y-5.3465
G01 X-83.0636 Y-5.3136
G01 X-83.0965 Y-5.2772
G01 X-83.1257 Y-5.2378
G01 X-83.1510 Y-5.1957
G01 X-83.1719 Y-5.1513
G01 X-83.1885 Y-5.1051
G01 X-83.2004 Y-5.0575
G01 X-83.2076 Y-5.0090
G01 X-83.2100 Y-4.9600
G01 X-83.2076 Y-4.9110
G01 X-83.2004 Y-4.8625
G01 X-83.1885 Y-4.8149
G01 X-83.1719 Y-4.7687
G01 X-83.1510 Y-4.7243
G01 X-83.1257 Y-4.6822
G01 X-83.0965 Y-4.6428
G01 X-83.0636 Y-4.6064
G01 X-83.0272 Y-4.5735
G01 X-82.9878 Y-4.5443
G01 X-82.9457 Y-4.5190
G01 X-82.9013 Y-4.4981
G01 X-82.8551 Y-4.4815
G01 X-82.8075 Y-4.4696
G01 X-82.7590 Y-4.4624
G01 X-82.7100 Y-4.4600
G01 X-82.6610 Y-4.4624
G01 X-82.6125 Y-4.4696
G01 X-82.5649 Y-4.4815
G01 X-82.5187 Y-4.4981
G01 X-82.4743 Y-4.5190
G01 X-82.4322 Y-4.5443
G01 X-82.3928 Y-4.5735
G01 X-82.3564 Y-4.6064
G01 X-82.3235 Y-4.6428
G01 X-82.2943 Y-4.6822
G01 X-82.2690 Y-4.7243
G01 X-82.2481 Y-4.7687
G01 X-82.2315 Y-4.8149
G01 X-82.2196 Y-4.8625
G01 X-82.2124 Y-4.9110
G01 X-82.2100 Y-4.9600
G00 X-82.2100 Y-4.9600
G01 F70.00
G01 Z-0.4000
G01 F120.00
G01 X-82.2124 Y-5.0090
G01 X-82.2196 Y-5.0575
G01 X-82.2315 Y-5.1051
G01 X-82.2481 Y-5.1513
G01 X-82.2690 Y-5.1957
G01 X-82.2943 Y-5.2378
G01 X-82.3235 Y-5.2772
G01 X-82.3564 Y-5.3136
G01 X-82.3928 Y-5.3465
G01 X-82.4322 Y-5.3757
G01 X-82.4743 Y-5.4010
G01 X-82.5187 Y-5.4219
G01 X-82.5649 Y-5.4385
G01 X-82.6125 Y-5.4504
G01 X-82.6610 Y-5.4576
G01 X-82.7100 Y-5.4600
G01 X-82.7590 Y-5.4576
G01 X-82.8075 Y-5.4504
G01 X-82.8551 Y-5.4385
G01 X-82.9013 Y-5.4219
G01 X-82.9457 Y-5.4010
G01 X-82.9878 Y-5.3757
G01 X-83.0272 Y-5.3465
G01 X-83.0636 Y-5.3136
G01 X-83.0965 Y-5.2772
G01 X-83.1257 Y-5.2378
G01 X-83.1510 Y-5.1957
G01 X-83.1719 Y-5.1513
G01 X-83.1885 Y-5.1051
G01 X-83.2004 Y-5.0575
G01 X-83.2076 Y-5.0090
G01 X-83.2100 Y-4.9600
G01 X-83.2076 Y-4.9110
G01 X-83.2004 Y-4.8625
G01 X-83.1885 Y-4.8149
G01 X-83.1719 Y-4.7687
G01 X-83.1510 Y-4.7243
G01 X-83.1257 Y-4.6822
G01 X-83.0965 Y-4.6428
G01 X-83.0636 Y-4.6064
G01 X-83.0272 Y-4.5735
G01 X-82.9878 Y-4.5443
G01 X-82.9457 Y-4.5190
G01 X-82.9013 Y-4.4981
G01 X-82.8551 Y-4.4815
G01 X-82.8075 Y-4.4696
G01 X-82.7590 Y-4.4624
G01 X-82.7100 Y-4.4600
G01 X-82.6610 Y-4.4624
G01 X-82.6125 Y-4.4696
G01 X-82.5649 Y-4.4815
G01 X-82.5187 Y-4.4981
G01 X-82.4743 Y-4.5190
G01 X-82.4322 Y-4.5443
G01 X-82.3928 Y-4.5735
G01 X-82.3564 Y-4.6064
G01 X-82.3235 Y-4.6428
G01 X-82.2943 Y-4.6822
G01 X-82.2690 Y-4.7243
G01 X-82.2481 Y-4.7687
G01 X-82.2315 Y-4.8149
G01 X-82.2196 Y-4.8625
G01 X-82.2124 Y-4.9110
G01 X-82.2100 Y-4.9600
G00 X-82.2100 Y-4.9600
G01 F70.00
G01 Z-0.5000
G01 F120.00
G01 X-82.2124 Y-5.0090
G01 X-82.2196 Y-5.0575
G01 X-82.2315 Y-5.1051
G01 X-82.2481 Y-5.1513
G01 X-82.2690 Y-5.1957
G01 X-82.2943 Y-5.2378
G01 X-82.3235 Y-5.2772
G01 X-82.3564 Y-5.3136
G01 X-82.3928 Y-5.3465
G01 X-82.4322 Y-5.3757
G01 X-82.4743 Y-5.4010
G01 X-82.5187 Y-5.4219
G01 X-82.5649 Y-5.4385
G01 X-82.6125 Y-5.4504
G01 X-82.6610 Y-5.4576
G01 X-82.7100 Y-5.4600
G01 X-82.7590 Y-5.4576
G01 X-82.8075 Y-5.4504
G01 X-82.8551 Y-5.4385
G01 X-82.9013 Y-5.4219
G01 X-82.9457 Y-5.4010
G01 X-82.9878 Y-5.3757
G01 X-83.0272 Y-5.3465
G01 X-83.0636 Y-5.3136
G01 X-83.0965 Y-5.2772
G01 X-83.1257 Y-5.2378
G01 X-83.1510 Y-5.1957
G01 X-83.1719 Y-5.1513
G01 X-83.1885 Y-5.1051
G01 X-83.2004 Y-5.0575
G01 X-83.2076 Y-5.0090
G01 X-83.2100 Y-4.9600
G01 X-83.2076 Y-4.9110
G01 X-83.2004 Y-4.8625
G01 X-83.1885 Y-4.8149
G01 X-83.1719 Y-4.7687
G01 X-83.1510 Y-4.7243
G01 X-83.1257 Y-4.6822
G01 X-83.0965 Y-4.6428
G01 X-83.0636 Y-4.6064
G01 X-83.0272 Y-4.5735
G01 X-82.9878 Y-4.5443
G01 X-82.9457 Y-4.5190
G01 X-82.9013 Y-4.4981
G01 X-82.8551 Y-4.4815
G01 X-82.8075 Y-4.4696
G01 X-82.7590 Y-4.4624
G01 X-82.7100 Y-4.4600
G01 X-82.6610 Y-4.4624
G01 X-82.6125 Y-4.4696
G01 X-82.5649 Y-4.4815
G01 X-82.5187 Y-4.4981
G01 X-82.4743 Y-4.5190
G01 X-82.4322 Y-4.5443
G01 X-82.3928 Y-4.5735
G01 X-82.3564 Y-4.6064
G01 X-82.3235 Y-4.6428
G01 X-82.2943 Y-4.6822
G01 X-82.2690 Y-4.7243
G01 X-82.2481 Y-4.7687
G01 X-82.2315 Y-4.8149
G01 X-82.2196 Y-4.8625
G01 X-82.2124 Y-4.9110
G01 X-82.2100 Y-4.9600
G00 X-82.2100 Y-4.9600
G01 F70.00
G01 Z-0.6000
G01 F120.00
G01 X-82.2124 Y-5.0090
G01 X-82.2196 Y-5.0575
G01 X-82.2315 Y-5.1051
G01 X-82.2481 Y-5.1513
G01 X-82.2690 Y-5.1957
G01 X-82.2943 Y-5.2378
G01 X-82.3235 Y-5.2772
G01 X-82.3564 Y-5.3136
G01 X-82.3928 Y-5.3465
G01 X-82.4322 Y-5.3757
G01 X-82.4743 Y-5.4010
G01 X-82.5187 Y-5.4219
G01 X-82.5649 Y-5.4385
G01 X-82.6125 Y-5.4504
G01 X-82.6610 Y-5.4576
G01 X-82.7100 Y-5.4600
G01 X-82.7590 Y-5.4576
G01 X-82.8075 Y-5.4504
G01 X-82.8551 Y-5.4385
G01 X-82.9013 Y-5.4219
G01 X-82.9457 Y-5.4010
G01 X-82.9878 Y-5.3757
G01 X-83.0272 Y-5.3465
G01 X-83.0636 Y-5.3136
G01 X-83.0965 Y-5.2772
G01 X-83.1257 Y-5.2378
G01 X-83.1510 Y-5.1957
G01 X-83.1719 Y-5.1513
G01 X-83.1885 Y-5.1051
G01 X-83.2004 Y-5.0575
G01 X-83.2076 Y-5.0090
G01 X-83.2100 Y-4.9600
G01 X-83.2076 Y-4.9110
G01 X-83.2004 Y-4.8625
G01 X-83.1885 Y-4.8149
G01 X-83.1719 Y-4.7687
G01 X-83.1510 Y-4.7243
G01 X-83.1257 Y-4.6822
G01 X-83.0965 Y-4.6428
G01 X-83.0636 Y-4.6064
G01 X-83.0272 Y-4.5735
G01 X-82.9878 Y-4.5443
G01 X-82.9457 Y-4.5190
G01 X-82.9013 Y-4.4981
G01 X-82.8551 Y-4.4815
G01 X-82.8075 Y-4.4696
G01 X-82.7590 Y-4.4624
G01 X-82.7100 Y-4.4600
G01 X-82.6610 Y-4.4624
G01 X-82.6125 Y-4.4696
G01 X-82.5649 Y-4.4815
G01 X-82.5187 Y-4.4981
G01 X-82.4743 Y-4.5190
G01 X-82.4322 Y-4.5443
G01 X-82.3928 Y-4.5735
G01 X-82.3564 Y-4.6064
G01 X-82.3235 Y-4.6428
G01 X-82.2943 Y-4.6822
G01 X-82.2690 Y-4.7243
G01 X-82.2481 Y-4.7687
G01 X-82.2315 Y-4.8149
G01 X-82.2196 Y-4.8625
G01 X-82.2124 Y-4.9110
G01 X-82.2100 Y-4.9600
G00 X-82.2100 Y-4.9600
G01 F70.00
G01 Z-0.7000
G01 F120.00
G01 X-82.2124 Y-5.0090
G01 X-82.2196 Y-5.0575
G01 X-82.2315 Y-5.1051
G01 X-82.2481 Y-5.1513
G01 X-82.2690 Y-5.1957
G01 X-82.2943 Y-5.2378
G01 X-82.3235 Y-5.2772
G01 X-82.3564 Y-5.3136
G01 X-82.3928 Y-5.3465
G01 X-82.4322 Y-5.3757
G01 X-82.4743 Y-5.4010
G01 X-82.5187 Y-5.4219
G01 X-82.5649 Y-5.4385
G01 X-82.6125 Y-5.4504
G01 X-82.6610 Y-5.4576
G01 X-82.7100 Y-5.4600
G01 X-82.7590 Y-5.4576
G01 X-82.8075 Y-5.4504
G01 X-82.8551 Y-5.4385
G01 X-82.9013 Y-5.4219
G01 X-82.9457 Y-5.4010
G01 X-82.9878 Y-5.3757
G01 X-83.0272 Y-5.3465
G01 X-83.0636 Y-5.3136
G01 X-83.0965 Y-5.2772
G01 X-83.1257 Y-5.2378
G01 X-83.1510 Y-5.1957
G01 X-83.1719 Y-5.1513
G01 X-83.1885 Y-5.1051
G01 X-83.2004 Y-5.0575
G01 X-83.2076 Y-5.0090
G01 X-83.2100 Y-4.9600
G01 X-83.2076 Y-4.9110
G01 X-83.2004 Y-4.8625
G01 X-83.1885 Y-4.8149
G01 X-83.1719 Y-4.7687
G01 X-83.1510 Y-4.7243
G01 X-83.1257 Y-4.6822
G01 X-83.0965 Y-4.6428
G01 X-83.0636 Y-4.6064
G01 X-83.0272 Y-4.5735
G01 X-82.9878 Y-4.5443
G01 X-82.9457 Y-4.5190
G01 X-82.9013 Y-4.4981
G01 X-82.8551 Y-4.4815
G01 X-82.8075 Y-4.4696
G01 X-82.7590 Y-4.4624
G01 X-82.7100 Y-4.4600
G01 X-82.6610 Y-4.4624
G01 X-82.6125 Y-4.4696
G01 X-82.5649 Y-4.4815
G01 X-82.5187 Y-4.4981
G01 X-82.4743 Y-4.5190
G01 X-82.4322 Y-4.5443
G01 X-82.3928 Y-4.5735
G01 X-82.3564 Y-4.6064
G01 X-82.3235 Y-4.6428
G01 X-82.2943 Y-4.6822
G01 X-82.2690 Y-4.7243
G01 X-82.2481 Y-4.7687
G01 X-82.2315 Y-4.8149
G01 X-82.2196 Y-4.8625
G01 X-82.2124 Y-4.9110
G01 X-82.2100 Y-4.9600
G00 X-82.2100 Y-4.9600
G01 F70.00
G01 Z-0.8000
G01 F120.00
G01 X-82.2124 Y-5.0090
G01 X-82.2196 Y-5.0575
G01 X-82.2315 Y-5.1051
G01 X-82.2481 Y-5.1513
G01 X-82.2690 Y-5.1957
G01 X-82.2943 Y-5.2378
G01 X-82.3235 Y-5.2772
G01 X-82.3564 Y-5.3136
G01 X-82.3928 Y-5.3465
G01 X-82.4322 Y-5.3757
G01 X-82.4743 Y-5.4010
G01 X-82.5187 Y-5.4219
G01 X-82.5649 Y-5.4385
G01 X-82.6125 Y-5.4504
G01 X-82.6610 Y-5.4576
G01 X-82.7100 Y-5.4600
G01 X-82.7590 Y-5.4576
G01 X-82.8075 Y-5.4504
G01 X-82.8551 Y-5.4385
G01 X-82.9013 Y-5.4219
G01 X-82.9457 Y-5.4010
G01 X-82.9878 Y-5.3757
G01 X-83.0272 Y-5.3465
G01 X-83.0636 Y-5.3136
G01 X-83.0965 Y-5.2772
G01 X-83.1257 Y-5.2378
G01 X-83.1510 Y-5.1957
G01 X-83.1719 Y-5.1513
G01 X-83.1885 Y-5.1051
G01 X-83.2004 Y-5.0575
G01 X-83.2076 Y-5.0090
G01 X-83.2100 Y-4.9600
G01 X-83.2076 Y-4.9110
G01 X-83.2004 Y-4.8625
G01 X-83.1885 Y-4.8149
G01 X-83.1719 Y-4.7687
G01 X-83.1510 Y-4.7243
G01 X-83.1257 Y-4.6822
G01 X-83.0965 Y-4.6428
G01 X-83.0636 Y-4.6064
G01 X-83.0272 Y-4.5735
G01 X-82.9878 Y-4.5443
G01 X-82.9457 Y-4.5190
G01 X-82.9013 Y-4.4981
G01 X-82.8551 Y-4.4815
G01 X-82.8075 Y-4.4696
G01 X-82.7590 Y-4.4624
G01 X-82.7100 Y-4.4600
G01 X-82.6610 Y-4.4624
G01 X-82.6125 Y-4.4696
G01 X-82.5649 Y-4.4815
G01 X-82.5187 Y-4.4981
G01 X-82.4743 Y-4.5190
G01 X-82.4322 Y-4.5443
G01 X-82.3928 Y-4.5735
G01 X-82.3564 Y-4.6064
G01 X-82.3235 Y-4.6428
G01 X-82.2943 Y-4.6822
G01 X-82.2690 Y-4.7243
G01 X-82.2481 Y-4.7687
G01 X-82.2315 Y-4.8149
G01 X-82.2196 Y-4.8625
G01 X-82.2124 Y-4.9110
G01 X-82.2100 Y-4.9600
G00 X-82.2100 Y-4.9600
G01 F70.00
G01 Z-0.9000
G01 F120.00
G01 X-82.2124 Y-5.0090
G01 X-82.2196 Y-5.0575
G01 X-82.2315 Y-5.1051
G01 X-82.2481 Y-5.1513
G01 X-82.2690 Y-5.1957
G01 X-82.2943 Y-5.2378
G01 X-82.3235 Y-5.2772
G01 X-82.3564 Y-5.3136
G01 X-82.3928 Y-5.3465
G01 X-82.4322 Y-5.3757
G01 X-82.4743 Y-5.4010
G01 X-82.5187 Y-5.4219
G01 X-82.5649 Y-5.4385
G01 X-82.6125 Y-5.4504
G01 X-82.6610 Y-5.4576
G01 X-82.7100 Y-5.4600
G01 X-82.7590 Y-5.4576
G01 X-82.8075 Y-5.4504
G01 X-82.8551 Y-5.4385
G01 X-82.9013 Y-5.4219
G01 X-82.9457 Y-5.4010
G01 X-82.9878 Y-5.3757
G01 X-83.0272 Y-5.3465
G01 X-83.0636 Y-5.3136
G01 X-83.0965 Y-5.2772
G01 X-83.1257 Y-5.2378
G01 X-83.1510 Y-5.1957
G01 X-83.1719 Y-5.1513
G01 X-83.1885 Y-5.1051
G01 X-83.2004 Y-5.0575
G01 X-83.2076 Y-5.0090
G01 X-83.2100 Y-4.9600
G01 X-83.2076 Y-4.9110
G01 X-83.2004 Y-4.8625
G01 X-83.1885 Y-4.8149
G01 X-83.1719 Y-4.7687
G01 X-83.1510 Y-4.7243
G01 X-83.1257 Y-4.6822
G01 X-83.0965 Y-4.6428
G01 X-83.0636 Y-4.6064
G01 X-83.0272 Y-4.5735
G01 X-82.9878 Y-4.5443
G01 X-82.9457 Y-4.5190
G01 X-82.9013 Y-4.4981
G01 X-82.8551 Y-4.4815
G01 X-82.8075 Y-4.4696
G01 X-82.7590 Y-4.4624
G01 X-82.7100 Y-4.4600
G01 X-82.6610 Y-4.4624
G01 X-82.6125 Y-4.4696
G01 X-82.5649 Y-4.4815
G01 X-82.5187 Y-4.4981
G01 X-82.4743 Y-4.5190
G01 X-82.4322 Y-4.5443
G01 X-82.3928 Y-4.5735
G01 X-82.3564 Y-4.6064
G01 X-82.3235 Y-4.6428
G01 X-82.2943 Y-4.6822
G01 X-82.2690 Y-4.7243
G01 X-82.2481 Y-4.7687
G01 X-82.2315 Y-4.8149
G01 X-82.2196 Y-4.8625
G01 X-82.2124 Y-4.9110
G01 X-82.2100 Y-4.9600
G00 X-82.2100 Y-4.9600
G01 F70.00
G01 Z-1.0000
G01 F120.00
G01 X-82.2124 Y-5.0090
G01 X-82.2196 Y-5.0575
G01 X-82.2315 Y-5.1051
G01 X-82.2481 Y-5.1513
G01 X-82.2690 Y-5.1957
G01 X-82.2943 Y-5.2378
G01 X-82.3235 Y-5.2772
G01 X-82.3564 Y-5.3136
G01 X-82.3928 Y-5.3465
G01 X-82.4322 Y-5.3757
G01 X-82.4743 Y-5.4010
G01 X-82.5187 Y-5.4219
G01 X-82.5649 Y-5.4385
G01 X-82.6125 Y-5.4504
G01 X-82.6610 Y-5.4576
G01 X-82.7100 Y-5.4600
G01 X-82.7590 Y-5.4576
G01 X-82.8075 Y-5.4504
G01 X-82.8551 Y-5.4385
G01 X-82.9013 Y-5.4219
G01 X-82.9457 Y-5.4010
G01 X-82.9878 Y-5.3757
G01 X-83.0272 Y-5.3465
G01 X-83.0636 Y-5.3136
G01 X-83.0965 Y-5.2772
G01 X-83.1257 Y-5.2378
G01 X-83.1510 Y-5.1957
G01 X-83.1719 Y-5.1513
G01 X-83.1885 Y-5.1051
G01 X-83.2004 Y-5.0575
G01 X-83.2076 Y-5.0090
G01 X-83.2100 Y-4.9600
G01 X-83.2076 Y-4.9110
G01 X-83.2004 Y-4.8625
G01 X-83.1885 Y-4.8149
G01 X-83.1719 Y-4.7687
G01 X-83.1510 Y-4.7243
G01 X-83.1257 Y-4.6822
G01 X-83.0965 Y-4.6428
G01 X-83.0636 Y-4.6064
G01 X-83.0272 Y-4.5735
G01 X-82.9878 Y-4.5443
G01 X-82.9457 Y-4.5190
G01 X-82.9013 Y-4.4981
G01 X-82.8551 Y-4.4815
G01 X-82.8075 Y-4.4696
G01 X-82.7590 Y-4.4624
G01 X-82.7100 Y-4.4600
G01 X-82.6610 Y-4.4624
G01 X-82.6125 Y-4.4696
G01 X-82.5649 Y-4.4815
G01 X-82.5187 Y-4.4981
G01 X-82.4743 Y-4.5190
G01 X-82.4322 Y-4.5443
G01 X-82.3928 Y-4.5735
G01 X-82.3564 Y-4.6064
G01 X-82.3235 Y-4.6428
G01 X-82.2943 Y-4.6822
G01 X-82.2690 Y-4.7243
G01 X-82.2481 Y-4.7687
G01 X-82.2315 Y-4.8149
G01 X-82.2196 Y-4.8625
G01 X-82.2124 Y-4.9110
G01 X-82.2100 Y-4.9600
G00 X-82.2100 Y-4.9600
G01 F70.00
G01 Z-1.1000
G01 F120.00
G01 X-82.2124 Y-5.0090
G01 X-82.2196 Y-5.0575
G01 X-82.2315 Y-5.1051
G01 X-82.2481 Y-5.1513
G01 X-82.2690 Y-5.1957
G01 X-82.2943 Y-5.2378
G01 X-82.3235 Y-5.2772
G01 X-82.3564 Y-5.3136
G01 X-82.3928 Y-5.3465
G01 X-82.4322 Y-5.3757
G01 X-82.4743 Y-5.4010
G01 X-82.5187 Y-5.4219
G01 X-82.5649 Y-5.4385
G01 X-82.6125 Y-5.4504
G01 X-82.6610 Y-5.4576
G01 X-82.7100 Y-5.4600
G01 X-82.7590 Y-5.4576
G01 X-82.8075 Y-5.4504
G01 X-82.8551 Y-5.4385
G01 X-82.9013 Y-5.4219
G01 X-82.9457 Y-5.4010
G01 X-82.9878 Y-5.3757
G01 X-83.0272 Y-5.3465
G01 X-83.0636 Y-5.3136
G01 X-83.0965 Y-5.2772
G01 X-83.1257 Y-5.2378
G01 X-83.1510 Y-5.1957
G01 X-83.1719 Y-5.1513
G01 X-83.1885 Y-5.1051
G01 X-83.2004 Y-5.0575
G01 X-83.2076 Y-5.0090
G01 X-83.2100 Y-4.9600
G01 X-83.2076 Y-4.9110
G01 X-83.2004 Y-4.8625
G01 X-83.1885 Y-4.8149
G01 X-83.1719 Y-4.7687
G01 X-83.1510 Y-4.7243
G01 X-83.1257 Y-4.6822
G01 X-83.0965 Y-4.6428
G01 X-83.0636 Y-4.6064
G01 X-83.0272 Y-4.5735
G01 X-82.9878 Y-4.5443
G01 X-82.9457 Y-4.5190
G01 X-82.9013 Y-4.4981
G01 X-82.8551 Y-4.4815
G01 X-82.8075 Y-4.4696
G01 X-82.7590 Y-4.4624
G01 X-82.7100 Y-4.4600
G01 X-82.6610 Y-4.4624
G01 X-82.6125 Y-4.4696
G01 X-82.5649 Y-4.4815
G01 X-82.5187 Y-4.4981
G01 X-82.4743 Y-4.5190
G01 X-82.4322 Y-4.5443
G01 X-82.3928 Y-4.5735
G01 X-82.3564 Y-4.6064
G01 X-82.3235 Y-4.6428
G01 X-82.2943 Y-4.6822
G01 X-82.2690 Y-4.7243
G01 X-82.2481 Y-4.7687
G01 X-82.2315 Y-4.8149
G01 X-82.2196 Y-4.8625
G01 X-82.2124 Y-4.9110
G01 X-82.2100 Y-4.9600
G00 X-82.2100 Y-4.9600
G01 F70.00
G01 Z-1.2000
G01 F120.00
G01 X-82.2124 Y-5.0090
G01 X-82.2196 Y-5.0575
G01 X-82.2315 Y-5.1051
G01 X-82.2481 Y-5.1513
G01 X-82.2690 Y-5.1957
G01 X-82.2943 Y-5.2378
G01 X-82.3235 Y-5.2772
G01 X-82.3564 Y-5.3136
G01 X-82.3928 Y-5.3465
G01 X-82.4322 Y-5.3757
G01 X-82.4743 Y-5.4010
G01 X-82.5187 Y-5.4219
G01 X-82.5649 Y-5.4385
G01 X-82.6125 Y-5.4504
G01 X-82.6610 Y-5.4576
G01 X-82.7100 Y-5.4600
G01 X-82.7590 Y-5.4576
G01 X-82.8075 Y-5.4504
G01 X-82.8551 Y-5.4385
G01 X-82.9013 Y-5.4219
G01 X-82.9457 Y-5.4010
G01 X-82.9878 Y-5.3757
G01 X-83.0272 Y-5.3465
G01 X-83.0636 Y-5.3136
G01 X-83.0965 Y-5.2772
G01 X-83.1257 Y-5.2378
G01 X-83.1510 Y-5.1957
G01 X-83.1719 Y-5.1513
G01 X-83.1885 Y-5.1051
G01 X-83.2004 Y-5.0575
G01 X-83.2076 Y-5.0090
G01 X-83.2100 Y-4.9600
G01 X-83.2076 Y-4.9110
G01 X-83.2004 Y-4.8625
G01 X-83.1885 Y-4.8149
G01 X-83.1719 Y-4.7687
G01 X-83.1510 Y-4.7243
G01 X-83.1257 Y-4.6822
G01 X-83.0965 Y-4.6428
G01 X-83.0636 Y-4.6064
G01 X-83.0272 Y-4.5735
G01 X-82.9878 Y-4.5443
G01 X-82.9457 Y-4.5190
G01 X-82.9013 Y-4.4981
G01 X-82.8551 Y-4.4815
G01 X-82.8075 Y-4.4696
G01 X-82.7590 Y-4.4624
G01 X-82.7100 Y-4.4600
G01 X-82.6610 Y-4.4624
G01 X-82.6125 Y-4.4696
G01 X-82.5649 Y-4.4815
G01 X-82.5187 Y-4.4981
G01 X-82.4743 Y-4.5190
G01 X-82.4322 Y-4.5443
G01 X-82.3928 Y-4.5735
G01 X-82.3564 Y-4.6064
G01 X-82.3235 Y-4.6428
G01 X-82.2943 Y-4.6822
G01 X-82.2690 Y-4.7243
G01 X-82.2481 Y-4.7687
G01 X-82.2315 Y-4.8149
G01 X-82.2196 Y-4.8625
G01 X-82.2124 Y-4.9110
G01 X-82.2100 Y-4.9600
G00 X-82.2100 Y-4.9600
G01 F70.00
G01 Z-1.3000
G01 F120.00
G01 X-82.2124 Y-5.0090
G01 X-82.2196 Y-5.0575
G01 X-82.2315 Y-5.1051
G01 X-82.2481 Y-5.1513
G01 X-82.2690 Y-5.1957
G01 X-82.2943 Y-5.2378
G01 X-82.3235 Y-5.2772
G01 X-82.3564 Y-5.3136
G01 X-82.3928 Y-5.3465
G01 X-82.4322 Y-5.3757
G01 X-82.4743 Y-5.4010
G01 X-82.5187 Y-5.4219
G01 X-82.5649 Y-5.4385
G01 X-82.6125 Y-5.4504
G01 X-82.6610 Y-5.4576
G01 X-82.7100 Y-5.4600
G01 X-82.7590 Y-5.4576
G01 X-82.8075 Y-5.4504
G01 X-82.8551 Y-5.4385
G01 X-82.9013 Y-5.4219
G01 X-82.9457 Y-5.4010
G01 X-82.9878 Y-5.3757
G01 X-83.0272 Y-5.3465
G01 X-83.0636 Y-5.3136
G01 X-83.0965 Y-5.2772
G01 X-83.1257 Y-5.2378
G01 X-83.1510 Y-5.1957
G01 X-83.1719 Y-5.1513
G01 X-83.1885 Y-5.1051
G01 X-83.2004 Y-5.0575
G01 X-83.2076 Y-5.0090
G01 X-83.2100 Y-4.9600
G01 X-83.2076 Y-4.9110
G01 X-83.2004 Y-4.8625
G01 X-83.1885 Y-4.8149
G01 X-83.1719 Y-4.7687
G01 X-83.1510 Y-4.7243
G01 X-83.1257 Y-4.6822
G01 X-83.0965 Y-4.6428
G01 X-83.0636 Y-4.6064
G01 X-83.0272 Y-4.5735
G01 X-82.9878 Y-4.5443
G01 X-82.9457 Y-4.5190
G01 X-82.9013 Y-4.4981
G01 X-82.8551 Y-4.4815
G01 X-82.8075 Y-4.4696
G01 X-82.7590 Y-4.4624
G01 X-82.7100 Y-4.4600
G01 X-82.6610 Y-4.4624
G01 X-82.6125 Y-4.4696
G01 X-82.5649 Y-4.4815
G01 X-82.5187 Y-4.4981
G01 X-82.4743 Y-4.5190
G01 X-82.4322 Y-4.5443
G01 X-82.3928 Y-4.5735
G01 X-82.3564 Y-4.6064
G01 X-82.3235 Y-4.6428
G01 X-82.2943 Y-4.6822
G01 X-82.2690 Y-4.7243
G01 X-82.2481 Y-4.7687
G01 X-82.2315 Y-4.8149
G01 X-82.2196 Y-4.8625
G01 X-82.2124 Y-4.9110
G01 X-82.2100 Y-4.9600
G00 X-82.2100 Y-4.9600
G01 F70.00
G01 Z-1.4000
G01 F120.00
G01 X-82.2124 Y-5.0090
G01 X-82.2196 Y-5.0575
G01 X-82.2315 Y-5.1051
G01 X-82.2481 Y-5.1513
G01 X-82.2690 Y-5.1957
G01 X-82.2943 Y-5.2378
G01 X-82.3235 Y-5.2772
G01 X-82.3564 Y-5.3136
G01 X-82.3928 Y-5.3465
G01 X-82.4322 Y-5.3757
G01 X-82.4743 Y-5.4010
G01 X-82.5187 Y-5.4219
G01 X-82.5649 Y-5.4385
G01 X-82.6125 Y-5.4504
G01 X-82.6610 Y-5.4576
G01 X-82.7100 Y-5.4600
G01 X-82.7590 Y-5.4576
G01 X-82.8075 Y-5.4504
G01 X-82.8551 Y-5.4385
G01 X-82.9013 Y-5.4219
G01 X-82.9457 Y-5.4010
G01 X-82.9878 Y-5.3757
G01 X-83.0272 Y-5.3465
G01 X-83.0636 Y-5.3136
G01 X-83.0965 Y-5.2772
G01 X-83.1257 Y-5.2378
G01 X-83.1510 Y-5.1957
G01 X-83.1719 Y-5.1513
G01 X-83.1885 Y-5.1051
G01 X-83.2004 Y-5.0575
G01 X-83.2076 Y-5.0090
G01 X-83.2100 Y-4.9600
G01 X-83.2076 Y-4.9110
G01 X-83.2004 Y-4.8625
G01 X-83.1885 Y-4.8149
G01 X-83.1719 Y-4.7687
G01 X-83.1510 Y-4.7243
G01 X-83.1257 Y-4.6822
G01 X-83.0965 Y-4.6428
G01 X-83.0636 Y-4.6064
G01 X-83.0272 Y-4.5735
G01 X-82.9878 Y-4.5443
G01 X-82.9457 Y-4.5190
G01 X-82.9013 Y-4.4981
G01 X-82.8551 Y-4.4815
G01 X-82.8075 Y-4.4696
G01 X-82.7590 Y-4.4624
G01 X-82.7100 Y-4.4600
G01 X-82.6610 Y-4.4624
G01 X-82.6125 Y-4.4696
G01 X-82.5649 Y-4.4815
G01 X-82.5187 Y-4.4981
G01 X-82.4743 Y-4.5190
G01 X-82.4322 Y-4.5443
G01 X-82.3928 Y-4.5735
G01 X-82.3564 Y-4.6064
G01 X-82.3235 Y-4.6428
G01 X-82.2943 Y-4.6822
G01 X-82.2690 Y-4.7243
G01 X-82.2481 Y-4.7687
G01 X-82.2315 Y-4.8149
G01 X-82.2196 Y-4.8625
G01 X-82.2124 Y-4.9110
G01 X-82.2100 Y-4.9600
G00 X-82.2100 Y-4.9600
G01 F70.00
G01 Z-1.5000
G01 F120.00
G01 X-82.2124 Y-5.0090
G01 X-82.2196 Y-5.0575
G01 X-82.2315 Y-5.1051
G01 X-82.2481 Y-5.1513
G01 X-82.2690 Y-5.1957
G01 X-82.2943 Y-5.2378
G01 X-82.3235 Y-5.2772
G01 X-82.3564 Y-5.3136
G01 X-82.3928 Y-5.3465
G01 X-82.4322 Y-5.3757
G01 X-82.4743 Y-5.4010
G01 X-82.5187 Y-5.4219
G01 X-82.5649 Y-5.4385
G01 X-82.6125 Y-5.4504
G01 X-82.6610 Y-5.4576
G01 X-82.7100 Y-5.4600
G01 X-82.7590 Y-5.4576
G01 X-82.8075 Y-5.4504
G01 X-82.8551 Y-5.4385
G01 X-82.9013 Y-5.4219
G01 X-82.9457 Y-5.4010
G01 X-82.9878 Y-5.3757
G01 X-83.0272 Y-5.3465
G01 X-83.0636 Y-5.3136
G01 X-83.0965 Y-5.2772
G01 X-83.1257 Y-5.2378
G01 X-83.1510 Y-5.1957
G01 X-83.1719 Y-5.1513
G01 X-83.1885 Y-5.1051
G01 X-83.2004 Y-5.0575
G01 X-83.2076 Y-5.0090
G01 X-83.2100 Y-4.9600
G01 X-83.2076 Y-4.9110
G01 X-83.2004 Y-4.8625
G01 X-83.1885 Y-4.8149
G01 X-83.1719 Y-4.7687
G01 X-83.1510 Y-4.7243
G01 X-83.1257 Y-4.6822
G01 X-83.0965 Y-4.6428
G01 X-83.0636 Y-4.6064
G01 X-83.0272 Y-4.5735
G01 X-82.9878 Y-4.5443
G01 X-82.9457 Y-4.5190
G01 X-82.9013 Y-4.4981
G01 X-82.8551 Y-4.4815
G01 X-82.8075 Y-4.4696
G01 X-82.7590 Y-4.4624
G01 X-82.7100 Y-4.4600
G01 X-82.6610 Y-4.4624
G01 X-82.6125 Y-4.4696
G01 X-82.5649 Y-4.4815
G01 X-82.5187 Y-4.4981
G01 X-82.4743 Y-4.5190
G01 X-82.4322 Y-4.5443
G01 X-82.3928 Y-4.5735
G01 X-82.3564 Y-4.6064
G01 X-82.3235 Y-4.6428
G01 X-82.2943 Y-4.6822
G01 X-82.2690 Y-4.7243
G01 X-82.2481 Y-4.7687
G01 X-82.2315 Y-4.8149
G01 X-82.2196 Y-4.8625
G01 X-82.2124 Y-4.9110
G01 X-82.2100 Y-4.9600
G00 X-82.2100 Y-4.9600
G01 F70.00
G01 Z-1.6000
G01 F120.00
G01 X-82.2124 Y-5.0090
G01 X-82.2196 Y-5.0575
G01 X-82.2315 Y-5.1051
G01 X-82.2481 Y-5.1513
G01 X-82.2690 Y-5.1957
G01 X-82.2943 Y-5.2378
G01 X-82.3235 Y-5.2772
G01 X-82.3564 Y-5.3136
G01 X-82.3928 Y-5.3465
G01 X-82.4322 Y-5.3757
G01 X-82.4743 Y-5.4010
G01 X-82.5187 Y-5.4219
G01 X-82.5649 Y-5.4385
G01 X-82.6125 Y-5.4504
G01 X-82.6610 Y-5.4576
G01 X-82.7100 Y-5.4600
G01 X-82.7590 Y-5.4576
G01 X-82.8075 Y-5.4504
G01 X-82.8551 Y-5.4385
G01 X-82.9013 Y-5.4219
G01 X-82.9457 Y-5.4010
G01 X-82.9878 Y-5.3757
G01 X-83.0272 Y-5.3465
G01 X-83.0636 Y-5.3136
G01 X-83.0965 Y-5.2772
G01 X-83.1257 Y-5.2378
G01 X-83.1510 Y-5.1957
G01 X-83.1719 Y-5.1513
G01 X-83.1885 Y-5.1051
G01 X-83.2004 Y-5.0575
G01 X-83.2076 Y-5.0090
G01 X-83.2100 Y-4.9600
G01 X-83.2076 Y-4.9110
G01 X-83.2004 Y-4.8625
G01 X-83.1885 Y-4.8149
G01 X-83.1719 Y-4.7687
G01 X-83.1510 Y-4.7243
G01 X-83.1257 Y-4.6822
G01 X-83.0965 Y-4.6428
G01 X-83.0636 Y-4.6064
G01 X-83.0272 Y-4.5735
G01 X-82.9878 Y-4.5443
G01 X-82.9457 Y-4.5190
G01 X-82.9013 Y-4.4981
G01 X-82.8551 Y-4.4815
G01 X-82.8075 Y-4.4696
G01 X-82.7590 Y-4.4624
G01 X-82.7100 Y-4.4600
G01 X-82.6610 Y-4.4624
G01 X-82.6125 Y-4.4696
G01 X-82.5649 Y-4.4815
G01 X-82.5187 Y-4.4981
G01 X-82.4743 Y-4.5190
G01 X-82.4322 Y-4.5443
G01 X-82.3928 Y-4.5735
G01 X-82.3564 Y-4.6064
G01 X-82.3235 Y-4.6428
G01 X-82.2943 Y-4.6822
G01 X-82.2690 Y-4.7243
G01 X-82.2481 Y-4.7687
G01 X-82.2315 Y-4.8149
G01 X-82.2196 Y-4.8625
G01 X-82.2124 Y-4.9110
G01 X-82.2100 Y-4.9600
G00 X-82.2100 Y-4.9600
G01 F70.00
G01 Z-1.7000
G01 F120.00
G01 X-82.2124 Y-5.0090
G01 X-82.2196 Y-5.0575
G01 X-82.2315 Y-5.1051
G01 X-82.2481 Y-5.1513
G01 X-82.2690 Y-5.1957
G01 X-82.2943 Y-5.2378
G01 X-82.3235 Y-5.2772
G01 X-82.3564 Y-5.3136
G01 X-82.3928 Y-5.3465
G01 X-82.4322 Y-5.3757
G01 X-82.4743 Y-5.4010
G01 X-82.5187 Y-5.4219
G01 X-82.5649 Y-5.4385
G01 X-82.6125 Y-5.4504
G01 X-82.6610 Y-5.4576
G01 X-82.7100 Y-5.4600
G01 X-82.7590 Y-5.4576
G01 X-82.8075 Y-5.4504
G01 X-82.8551 Y-5.4385
G01 X-82.9013 Y-5.4219
G01 X-82.9457 Y-5.4010
G01 X-82.9878 Y-5.3757
G01 X-83.0272 Y-5.3465
G01 X-83.0636 Y-5.3136
G01 X-83.0965 Y-5.2772
G01 X-83.1257 Y-5.2378
G01 X-83.1510 Y-5.1957
G01 X-83.1719 Y-5.1513
G01 X-83.1885 Y-5.1051
G01 X-83.2004 Y-5.0575
G01 X-83.2076 Y-5.0090
G01 X-83.2100 Y-4.9600
G01 X-83.2076 Y-4.9110
G01 X-83.2004 Y-4.8625
G01 X-83.1885 Y-4.8149
G01 X-83.1719 Y-4.7687
G01 X-83.1510 Y-4.7243
G01 X-83.1257 Y-4.6822
G01 X-83.0965 Y-4.6428
G01 X-83.0636 Y-4.6064
G01 X-83.0272 Y-4.5735
G01 X-82.9878 Y-4.5443
G01 X-82.9457 Y-4.5190
G01 X-82.9013 Y-4.4981
G01 X-82.8551 Y-4.4815
G01 X-82.8075 Y-4.4696
G01 X-82.7590 Y-4.4624
G01 X-82.7100 Y-4.4600
G01 X-82.6610 Y-4.4624
G01 X-82.6125 Y-4.4696
G01 X-82.5649 Y-4.4815
G01 X-82.5187 Y-4.4981
G01 X-82.4743 Y-4.5190
G01 X-82.4322 Y-4.5443
G01 X-82.3928 Y-4.5735
G01 X-82.3564 Y-4.6064
G01 X-82.3235 Y-4.6428
G01 X-82.2943 Y-4.6822
G01 X-82.2690 Y-4.7243
G01 X-82.2481 Y-4.7687
G01 X-82.2315 Y-4.8149
G01 X-82.2196 Y-4.8625
G01 X-82.2124 Y-4.9110
G01 X-82.2100 Y-4.9600
G00 Z2.0000
M05
G00 Z2.0000
G00 Z25.00

