(G-CODE GENERATED BY FLATCAM v8.993 - www.flatcam.org - Version Date: 2020/06/05)

(Name: 133u02_Ф2_низ.gbr_iso_combined_cnc)
(Type: G-code from Geometry)
(Units: MM)

(Created on Tuesday, 10 November 2020 at 21:07)

(This preprocessor is the default preprocessor used by FlatCAM.)
(It is made to work with MACH3 compatible motion controllers.)

(TOOL DIAMETER: 0.14 mm)
(Feedrate_XY: 120.0 mm/min)
(Feedrate_Z: 70.0 mm/min)
(Feedrate rapids 1500.0 mm/min)

(Z_Cut: -0.06 mm)
(Z_Move: 2.0 mm)
(Z Start: None mm)
(Z End: 25.0 mm)
(Steps per circle: 128)
(Preprocessor Geometry: default)

(X range:  -98.5592 ...    0.2008  mm)
(Y range:  -33.4196 ...    0.2404  mm)

(Spindle Speed: 10000 RPM)
G21
G90
G94



G01 F120.00
G00 Z2.0000

M03 S10000
G00 X-15.1093 Y-1.9666
G01 F70.00
G01 Z-0.0600
G01 F120.00
G01 X-15.1181 Y-1.9833
G01 X-15.1293 Y-2.0006
G01 X-15.1405 Y-2.0148
G01 X-15.1547 Y-2.0297
G01 X-15.1703 Y-2.0432
G01 X-15.1872 Y-2.0550
G01 X-15.2051 Y-2.0652
G01 X-15.2218 Y-2.0727
G01 X-15.2068 Y-2.0766
G01 X-15.1898 Y-2.0826
G01 X-15.1757 Y-2.0889
G01 X-15.1598 Y-2.0975
G01 X-15.1469 Y-2.1059
G01 X-15.1326 Y-2.1169
G01 X-15.1211 Y-2.1273
G01 X-15.1093 Y-2.1398
G01 X-15.1093 Y-1.9666
G00 Z2.0000
G00 X-15.1093 Y-3.4154
G01 F70.00
G01 Z-0.0600
G01 F120.00
G01 X-15.1211 Y-3.4279
G01 X-15.1326 Y-3.4383
G01 X-15.1469 Y-3.4493
G01 X-15.1598 Y-3.4577
G01 X-15.1757 Y-3.4663
G01 X-15.1898 Y-3.4726
G01 X-15.2068 Y-3.4786
G01 X-15.2218 Y-3.4825
G01 X-15.2051 Y-3.4900
G01 X-15.1872 Y-3.5002
G01 X-15.1703 Y-3.5120
G01 X-15.1547 Y-3.5255
G01 X-15.1422 Y-3.5385
G01 X-15.1293 Y-3.5546
G01 X-15.1181 Y-3.5719
G01 X-15.1093 Y-3.5886
G01 X-15.1093 Y-3.4154
G00 Z2.0000
G00 X-15.1093 Y-4.5066
G01 F70.00
G01 Z-0.0600
G01 F120.00
G01 X-15.1181 Y-4.5233
G01 X-15.1293 Y-4.5406
G01 X-15.1405 Y-4.5548
G01 X-15.1547 Y-4.5697
G01 X-15.1703 Y-4.5832
G01 X-15.1872 Y-4.5950
G01 X-15.2051 Y-4.6052
G01 X-15.2218 Y-4.6127
G01 X-15.1945 Y-4.6208
G01 X-15.1706 Y-4.6314
G01 X-15.1093 Y-4.6314
G01 X-15.1093 Y-4.5066
G00 Z2.0000
G00 X-15.2218 Y-6.0225
G01 F70.00
G01 Z-0.0600
G01 F120.00
G01 X-15.2051 Y-6.0300
G01 X-15.1872 Y-6.0402
G01 X-15.1703 Y-6.0520
G01 X-15.1547 Y-6.0655
G01 X-15.1422 Y-6.0785
G01 X-15.1293 Y-6.0946
G01 X-15.1181 Y-6.1119
G01 X-15.1093 Y-6.1286
G01 X-15.1093 Y-6.0039
G01 X-15.1708 Y-6.0039
G01 X-15.1945 Y-6.0144
G01 X-15.2218 Y-6.0225
G00 Z2.0000
G00 X-15.1093 Y-7.0466
G01 F70.00
G01 Z-0.0600
G01 F120.00
G01 X-15.1181 Y-7.0633
G01 X-15.1293 Y-7.0806
G01 X-15.1405 Y-7.0948
G01 X-15.1547 Y-7.1097
G01 X-15.1703 Y-7.1232
G01 X-15.1872 Y-7.1350
G01 X-15.2051 Y-7.1452
G01 X-15.2218 Y-7.1527
G01 X-15.2067 Y-7.1566
G01 X-15.1897 Y-7.1626
G01 X-15.1756 Y-7.1689
G01 X-15.1597 Y-7.1775
G01 X-15.1447 Y-7.1874
G01 X-15.1325 Y-7.1969
G01 X-15.1210 Y-7.2073
G01 X-15.1093 Y-7.2197
G01 X-15.1093 Y-7.0466
G00 Z2.0000
G00 X-15.2218 Y-8.5625
G01 F70.00
G01 Z-0.0600
G01 F120.00
G01 X-15.2051 Y-8.5700
G01 X-15.1872 Y-8.5802
G01 X-15.1703 Y-8.5920
G01 X-15.1547 Y-8.6055
G01 X-15.1405 Y-8.6204
G01 X-15.1293 Y-8.6346
G01 X-15.1181 Y-8.6519
G01 X-15.1093 Y-8.6686
G01 X-15.1093 Y-8.4955
G01 X-15.1210 Y-8.5079
G01 X-15.1325 Y-8.5183
G01 X-15.1468 Y-8.5293
G01 X-15.1597 Y-8.5377
G01 X-15.1733 Y-8.5452
G01 X-15.1897 Y-8.5526
G01 X-15.2067 Y-8.5586
G01 X-15.2218 Y-8.5625
G00 Z2.0000
G00 X-17.5571 Y-7.1676
G01 F70.00
G01 Z-0.0600
G01 F120.00
G01 X-17.6577 Y-7.1676
G01 X-17.6577 Y-7.2682
G01 X-17.6488 Y-7.2513
G01 X-17.6391 Y-7.2362
G01 X-17.6281 Y-7.2220
G01 X-17.6159 Y-7.2088
G01 X-17.6026 Y-7.1967
G01 X-17.5883 Y-7.1857
G01 X-17.5732 Y-7.1760
G01 X-17.5571 Y-7.1676
G00 Z2.0000
G00 X-17.6577 Y-5.9070
G01 F70.00
G01 Z-0.0600
G01 F120.00
G01 X-17.6577 Y-6.0076
G01 X-17.5571 Y-6.0076
G01 X-17.5734 Y-5.9990
G01 X-17.5886 Y-5.9893
G01 X-17.6029 Y-5.9783
G01 X-17.6162 Y-5.9661
G01 X-17.6284 Y-5.9528
G01 X-17.6394 Y-5.9385
G01 X-17.6491 Y-5.9233
G01 X-17.6577 Y-5.9070
G00 Z2.0000
G00 X-17.5571 Y-4.6276
G01 F70.00
G01 Z-0.0600
G01 F120.00
G01 X-17.6577 Y-4.6276
G01 X-17.6577 Y-4.7282
G01 X-17.6491 Y-4.7119
G01 X-17.6394 Y-4.6967
G01 X-17.6284 Y-4.6824
G01 X-17.6162 Y-4.6691
G01 X-17.6029 Y-4.6569
G01 X-17.5886 Y-4.6459
G01 X-17.5734 Y-4.6362
G01 X-17.5571 Y-4.6276
G00 Z2.0000
G00 X-17.6578 Y-3.3670
G01 F70.00
G01 Z-0.0600
G01 F120.00
G01 X-17.6578 Y-3.4676
G01 X-17.5572 Y-3.4676
G01 X-17.5735 Y-3.4590
G01 X-17.5887 Y-3.4493
G01 X-17.6030 Y-3.4383
G01 X-17.6163 Y-3.4261
G01 X-17.6285 Y-3.4128
G01 X-17.6395 Y-3.3985
G01 X-17.6492 Y-3.3833
G01 X-17.6578 Y-3.3670
G00 Z2.0000
G00 X-17.7278 Y-3.1675
G01 F70.00
G01 Z-0.0600
G01 F120.00
G01 X-17.7278 Y-3.5376
G01 X-16.7578 Y-3.5376
G01 X-16.7578 Y-3.4176
G01 X-17.4695 Y-3.4176
G01 X-17.4815 Y-3.4169
G01 X-17.4934 Y-3.4152
G01 X-17.5051 Y-3.4125
G01 X-17.5182 Y-3.4082
G01 X-17.5307 Y-3.4027
G01 X-17.5441 Y-3.3950
G01 X-17.5553 Y-3.3869
G01 X-17.5668 Y-3.3766
G01 X-17.5760 Y-3.3664
G01 X-17.5852 Y-3.3539
G01 X-17.5929 Y-3.3405
G01 X-17.5990 Y-3.3264
G01 X-17.6048 Y-3.3066
G01 X-17.6076 Y-3.2845
G01 X-17.6078 Y-3.1675
G01 X-17.7278 Y-3.1675
G00 Z2.0000
G00 X-17.7978 Y-3.0975
G01 F70.00
G01 Z-0.0600
G01 F120.00
G01 X-17.7978 Y-3.6076
G01 X-16.6878 Y-3.6076
G01 X-16.6878 Y-3.3476
G01 X-17.4678 Y-3.3476
G01 X-17.4831 Y-3.3459
G01 X-17.4930 Y-3.3429
G01 X-17.5016 Y-3.3389
G01 X-17.5095 Y-3.3338
G01 X-17.5173 Y-3.3271
G01 X-17.5235 Y-3.3200
G01 X-17.5291 Y-3.3114
G01 X-17.5334 Y-3.3020
G01 X-17.5361 Y-3.2929
G01 X-17.5378 Y-3.2785
G01 X-17.5378 Y-3.0975
G01 X-17.7978 Y-3.0975
G00 Z2.0000
G00 X-17.5378 Y-2.4575
G01 F70.00
G01 Z-0.0600
G01 F120.00
G01 X-17.5378 Y-2.2767
G01 X-17.5365 Y-2.2639
G01 X-17.5340 Y-2.2548
G01 X-17.5303 Y-2.2461
G01 X-17.5255 Y-2.2380
G01 X-17.5191 Y-2.2300
G01 X-17.5122 Y-2.2235
G01 X-17.5045 Y-2.2180
G01 X-17.4962 Y-2.2136
G01 X-17.4873 Y-2.2104
G01 X-17.4772 Y-2.2082
G01 X-17.4678 Y-2.2076
G01 X-16.6877 Y-2.2076
G01 X-16.6877 Y-1.9476
G01 X-17.7978 Y-1.9476
G01 X-17.7978 Y-2.4575
G01 X-17.5378 Y-2.4575
G00 Z2.0000
G00 X-17.6078 Y-2.3875
G01 F70.00
G01 Z-0.0600
G01 F120.00
G01 X-17.6076 Y-2.2707
G01 X-17.6051 Y-2.2503
G01 X-17.5996 Y-2.2304
G01 X-17.5944 Y-2.2177
G01 X-17.5870 Y-2.2042
G01 X-17.5792 Y-2.1928
G01 X-17.5692 Y-2.1811
G01 X-17.5592 Y-2.1716
G01 X-17.5484 Y-2.1631
G01 X-17.5368 Y-2.1558
G01 X-17.5230 Y-2.1489
G01 X-17.5101 Y-2.1441
G01 X-17.4968 Y-2.1406
G01 X-17.4832 Y-2.1385
G01 X-17.4695 Y-2.1376
G01 X-16.7577 Y-2.1376
G01 X-16.7577 Y-2.0176
G01 X-17.7278 Y-2.0176
G01 X-17.7278 Y-2.3875
G01 X-17.6078 Y-2.3875
G00 Z2.0000
G00 X-17.6578 Y-2.1882
G01 F70.00
G01 Z-0.0600
G01 F120.00
G01 X-17.6492 Y-2.1719
G01 X-17.6395 Y-2.1567
G01 X-17.6285 Y-2.1424
G01 X-17.6163 Y-2.1291
G01 X-17.6030 Y-2.1169
G01 X-17.5887 Y-2.1059
G01 X-17.5735 Y-2.0962
G01 X-17.5572 Y-2.0876
G01 X-17.6578 Y-2.0876
G01 X-17.6578 Y-2.1882
G00 Z2.0000
G00 X-19.4450 Y-4.2999
G01 F70.00
G01 Z-0.0600
G01 F120.00
G01 X-18.8417 Y-4.2999
G01 X-18.8417 Y-3.8465
G01 X-18.8617 Y-3.8465
G01 X-18.8617 Y-4.1416
G01 X-18.8624 Y-4.1536
G01 X-18.8641 Y-4.1655
G01 X-18.8672 Y-4.1789
G01 X-18.8711 Y-4.1903
G01 X-18.8766 Y-4.2028
G01 X-18.8825 Y-4.2133
G01 X-18.8893 Y-4.2233
G01 X-18.8980 Y-4.2339
G01 X-18.9064 Y-4.2425
G01 X-18.9169 Y-4.2513
G01 X-18.9327 Y-4.2617
G01 X-18.9513 Y-4.2705
G01 X-18.9694 Y-4.2761
G01 X-18.9897 Y-4.2794
G01 X-19.0017 Y-4.2799
G01 X-19.4450 Y-4.2799
G01 X-19.4450 Y-4.2999
G00 Z2.0000
G00 X-19.5150 Y-4.3699
G01 F70.00
G01 Z-0.0600
G01 F120.00
G01 X-18.7717 Y-4.3699
G01 X-18.7717 Y-3.7765
G01 X-18.9317 Y-3.7765
G01 X-18.9318 Y-4.1442
G01 X-18.9342 Y-4.1586
G01 X-18.9396 Y-4.1721
G01 X-18.9476 Y-4.1843
G01 X-18.9580 Y-4.1946
G01 X-18.9672 Y-4.2008
G01 X-18.9773 Y-4.2055
G01 X-18.9880 Y-4.2086
G01 X-19.0000 Y-4.2099
G01 X-19.5150 Y-4.2099
G01 X-19.5150 Y-4.3699
G00 Z2.0000
G00 X-20.7617 Y-3.8466
G01 F70.00
G01 Z-0.0600
G01 F120.00
G01 X-20.7617 Y-4.2999
G01 X-20.1583 Y-4.2999
G01 X-20.1583 Y-4.2799
G01 X-20.6017 Y-4.2799
G01 X-20.6137 Y-4.2794
G01 X-20.6340 Y-4.2761
G01 X-20.6521 Y-4.2705
G01 X-20.6707 Y-4.2617
G01 X-20.6865 Y-4.2513
G01 X-20.6970 Y-4.2425
G01 X-20.7054 Y-4.2339
G01 X-20.7131 Y-4.2247
G01 X-20.7209 Y-4.2133
G01 X-20.7275 Y-4.2013
G01 X-20.7323 Y-4.1903
G01 X-20.7362 Y-4.1789
G01 X-20.7393 Y-4.1655
G01 X-20.7410 Y-4.1536
G01 X-20.7417 Y-4.1416
G01 X-20.7417 Y-3.8466
G01 X-20.7617 Y-3.8466
G00 Z2.0000
G00 X-20.8317 Y-3.7766
G01 F70.00
G01 Z-0.0600
G01 F120.00
G01 X-20.8317 Y-4.3699
G01 X-20.0883 Y-4.3699
G01 X-20.0883 Y-4.2099
G01 X-20.6034 Y-4.2099
G01 X-20.6145 Y-4.2087
G01 X-20.6261 Y-4.2055
G01 X-20.6362 Y-4.2008
G01 X-20.6454 Y-4.1946
G01 X-20.6558 Y-4.1843
G01 X-20.6638 Y-4.1721
G01 X-20.6692 Y-4.1586
G01 X-20.6716 Y-4.1442
G01 X-20.6717 Y-3.7766
G01 X-20.8317 Y-3.7766
G00 Z2.0000
G00 X-20.6217 Y-2.5193
G01 F70.00
G01 Z-0.0600
G01 F120.00
G01 X-20.6217 Y-2.5606
G01 X-20.6017 Y-2.5599
G01 X-19.0017 Y-2.5599
G01 X-18.9817 Y-2.5606
G01 X-18.9817 Y-2.5193
G01 X-19.0017 Y-2.5200
G01 X-20.6017 Y-2.5200
G01 X-20.6217 Y-2.5193
G00 Z2.0000
G00 X-20.6917 Y-2.4297
G01 F70.00
G01 Z-0.0600
G01 F120.00
G01 X-20.6917 Y-2.6502
G01 X-20.6700 Y-2.6413
G01 X-20.6477 Y-2.6350
G01 X-20.6248 Y-2.6312
G01 X-20.6017 Y-2.6299
G01 X-18.9991 Y-2.6299
G01 X-18.9760 Y-2.6315
G01 X-18.9532 Y-2.6356
G01 X-18.9310 Y-2.6422
G01 X-18.9117 Y-2.6502
G01 X-18.9117 Y-2.4297
G01 X-18.9310 Y-2.4377
G01 X-18.9532 Y-2.4443
G01 X-18.9760 Y-2.4484
G01 X-18.9991 Y-2.4500
G01 X-20.6017 Y-2.4500
G01 X-20.6248 Y-2.4487
G01 X-20.6477 Y-2.4449
G01 X-20.6700 Y-2.4386
G01 X-20.6917 Y-2.4297
G00 Z2.0000
G00 X-22.5309 Y-3.2109
G01 F70.00
G01 Z-0.0600
G01 F120.00
G01 X-22.5323 Y-3.1555
G01 X-22.5364 Y-3.1001
G01 X-22.5432 Y-3.0451
G01 X-22.5526 Y-2.9905
G01 X-22.5648 Y-2.9363
G01 X-22.5796 Y-2.8829
G01 X-22.5970 Y-2.8302
G01 X-22.6169 Y-2.7785
G01 X-22.6394 Y-2.7278
G01 X-22.6643 Y-2.6782
G01 X-22.6917 Y-2.6300
G01 X-22.7214 Y-2.5831
G01 X-22.7533 Y-2.5378
G01 X-22.7874 Y-2.4940
G01 X-22.8236 Y-2.4521
G01 X-22.8619 Y-2.4119
G01 X-22.9021 Y-2.3736
G01 X-22.9440 Y-2.3374
G01 X-22.9878 Y-2.3033
G01 X-23.0331 Y-2.2714
G01 X-23.0800 Y-2.2417
G01 X-23.1282 Y-2.2143
G01 X-23.1778 Y-2.1894
G01 X-23.2285 Y-2.1669
G01 X-23.2802 Y-2.1470
G01 X-23.3329 Y-2.1296
G01 X-23.3863 Y-2.1148
G01 X-23.4405 Y-2.1026
G01 X-23.4951 Y-2.0932
G01 X-23.5501 Y-2.0864
G01 X-23.6055 Y-2.0823
G01 X-23.6609 Y-2.0809
G01 X-23.7163 Y-2.0823
G01 X-23.7717 Y-2.0864
G01 X-23.8267 Y-2.0932
G01 X-23.8813 Y-2.1026
G01 X-23.9355 Y-2.1148
G01 X-23.9889 Y-2.1296
G01 X-24.0416 Y-2.1470
G01 X-24.0933 Y-2.1669
G01 X-24.1440 Y-2.1894
G01 X-24.1936 Y-2.2143
G01 X-24.2418 Y-2.2417
G01 X-24.2887 Y-2.2714
G01 X-24.3340 Y-2.3033
G01 X-24.3778 Y-2.3374
G01 X-24.4197 Y-2.3736
G01 X-24.4599 Y-2.4119
G01 X-24.4982 Y-2.4521
G01 X-24.5344 Y-2.4940
G01 X-24.5685 Y-2.5378
G01 X-24.6004 Y-2.5831
G01 X-24.6301 Y-2.6300
G01 X-24.6575 Y-2.6782
G01 X-24.6824 Y-2.7278
G01 X-24.7049 Y-2.7785
G01 X-24.7248 Y-2.8302
G01 X-24.7422 Y-2.8829
G01 X-24.7570 Y-2.9363
G01 X-24.7692 Y-2.9905
G01 X-24.7786 Y-3.0451
G01 X-24.7854 Y-3.1001
G01 X-24.7895 Y-3.1555
G01 X-24.7909 Y-3.2109
G01 X-24.7895 Y-3.2663
G01 X-24.7854 Y-3.3217
G01 X-24.7786 Y-3.3767
G01 X-24.7692 Y-3.4313
G01 X-24.7570 Y-3.4855
G01 X-24.7422 Y-3.5389
G01 X-24.7248 Y-3.5916
G01 X-24.7049 Y-3.6433
G01 X-24.6824 Y-3.6940
G01 X-24.6575 Y-3.7436
G01 X-24.6301 Y-3.7918
G01 X-24.6004 Y-3.8387
G01 X-24.5685 Y-3.8840
G01 X-24.5344 Y-3.9278
G01 X-24.4982 Y-3.9697
G01 X-24.4599 Y-4.0099
G01 X-24.4197 Y-4.0482
G01 X-24.3778 Y-4.0844
G01 X-24.3340 Y-4.1185
G01 X-24.2887 Y-4.1504
G01 X-24.2418 Y-4.1801
G01 X-24.1936 Y-4.2075
G01 X-24.1440 Y-4.2324
G01 X-24.0933 Y-4.2549
G01 X-24.0416 Y-4.2748
G01 X-23.9889 Y-4.2922
G01 X-23.9355 Y-4.3070
G01 X-23.8813 Y-4.3192
G01 X-23.8267 Y-4.3286
G01 X-23.7717 Y-4.3354
G01 X-23.7163 Y-4.3395
G01 X-23.6609 Y-4.3409
G01 X-23.6055 Y-4.3395
G01 X-23.5501 Y-4.3354
G01 X-23.4951 Y-4.3286
G01 X-23.4405 Y-4.3192
G01 X-23.3863 Y-4.3070
G01 X-23.3329 Y-4.2922
G01 X-23.2802 Y-4.2748
G01 X-23.2285 Y-4.2549
G01 X-23.1778 Y-4.2324
G01 X-23.1282 Y-4.2075
G01 X-23.0800 Y-4.1801
G01 X-23.0331 Y-4.1504
G01 X-22.9878 Y-4.1185
G01 X-22.9440 Y-4.0844
G01 X-22.9021 Y-4.0482
G01 X-22.8619 Y-4.0099
G01 X-22.8236 Y-3.9697
G01 X-22.7874 Y-3.9278
G01 X-22.7533 Y-3.8840
G01 X-22.7214 Y-3.8387
G01 X-22.6917 Y-3.7918
G01 X-22.6643 Y-3.7436
G01 X-22.6394 Y-3.6940
G01 X-22.6169 Y-3.6433
G01 X-22.5970 Y-3.5916
G01 X-22.5796 Y-3.5389
G01 X-22.5648 Y-3.4855
G01 X-22.5526 Y-3.4313
G01 X-22.5432 Y-3.3767
G01 X-22.5364 Y-3.3217
G01 X-22.5323 Y-3.2663
G01 X-22.5309 Y-3.2109
G00 Z2.0000
G00 X-22.6009 Y-3.2109
G01 F70.00
G01 Z-0.0600
G01 F120.00
G01 X-22.6022 Y-3.1589
G01 X-22.6060 Y-3.1070
G01 X-22.6124 Y-3.0554
G01 X-22.6213 Y-3.0041
G01 X-22.6327 Y-2.9534
G01 X-22.6466 Y-2.9032
G01 X-22.6629 Y-2.8538
G01 X-22.6816 Y-2.8053
G01 X-22.7027 Y-2.7577
G01 X-22.7261 Y-2.7112
G01 X-22.7517 Y-2.6660
G01 X-22.7796 Y-2.6220
G01 X-22.8095 Y-2.5795
G01 X-22.8415 Y-2.5385
G01 X-22.8755 Y-2.4991
G01 X-22.9114 Y-2.4614
G01 X-22.9491 Y-2.4255
G01 X-22.9885 Y-2.3915
G01 X-23.0295 Y-2.3595
G01 X-23.0720 Y-2.3296
G01 X-23.1160 Y-2.3017
G01 X-23.1612 Y-2.2761
G01 X-23.2077 Y-2.2527
G01 X-23.2553 Y-2.2316
G01 X-23.3038 Y-2.2129
G01 X-23.3532 Y-2.1966
G01 X-23.4034 Y-2.1827
G01 X-23.4541 Y-2.1713
G01 X-23.5054 Y-2.1624
G01 X-23.5570 Y-2.1560
G01 X-23.6089 Y-2.1522
G01 X-23.6609 Y-2.1509
G01 X-23.7129 Y-2.1522
G01 X-23.7648 Y-2.1560
G01 X-23.8164 Y-2.1624
G01 X-23.8677 Y-2.1713
G01 X-23.9184 Y-2.1827
G01 X-23.9686 Y-2.1966
G01 X-24.0180 Y-2.2129
G01 X-24.0665 Y-2.2316
G01 X-24.1141 Y-2.2527
G01 X-24.1606 Y-2.2761
G01 X-24.2058 Y-2.3017
G01 X-24.2498 Y-2.3296
G01 X-24.2923 Y-2.3595
G01 X-24.3333 Y-2.3915
G01 X-24.3727 Y-2.4255
G01 X-24.4104 Y-2.4614
G01 X-24.4463 Y-2.4991
G01 X-24.4803 Y-2.5385
G01 X-24.5123 Y-2.5795
G01 X-24.5422 Y-2.6220
G01 X-24.5701 Y-2.6660
G01 X-24.5957 Y-2.7112
G01 X-24.6191 Y-2.7577
G01 X-24.6402 Y-2.8053
G01 X-24.6589 Y-2.8538
G01 X-24.6752 Y-2.9032
G01 X-24.6891 Y-2.9534
G01 X-24.7005 Y-3.0041
G01 X-24.7094 Y-3.0554
G01 X-24.7158 Y-3.1070
G01 X-24.7196 Y-3.1589
G01 X-24.7209 Y-3.2109
G01 X-24.7196 Y-3.2629
G01 X-24.7158 Y-3.3148
G01 X-24.7094 Y-3.3664
G01 X-24.7005 Y-3.4177
G01 X-24.6891 Y-3.4684
G01 X-24.6752 Y-3.5186
G01 X-24.6589 Y-3.5680
G01 X-24.6402 Y-3.6165
G01 X-24.6191 Y-3.6641
G01 X-24.5957 Y-3.7106
G01 X-24.5701 Y-3.7558
G01 X-24.5422 Y-3.7998
G01 X-24.5123 Y-3.8423
G01 X-24.4803 Y-3.8833
G01 X-24.4463 Y-3.9227
G01 X-24.4104 Y-3.9604
G01 X-24.3727 Y-3.9963
G01 X-24.3333 Y-4.0303
G01 X-24.2923 Y-4.0623
G01 X-24.2498 Y-4.0922
G01 X-24.2058 Y-4.1201
G01 X-24.1606 Y-4.1457
G01 X-24.1141 Y-4.1691
G01 X-24.0665 Y-4.1902
G01 X-24.0180 Y-4.2089
G01 X-23.9686 Y-4.2252
G01 X-23.9184 Y-4.2391
G01 X-23.8677 Y-4.2505
G01 X-23.8164 Y-4.2594
G01 X-23.7648 Y-4.2658
G01 X-23.7129 Y-4.2696
G01 X-23.6609 Y-4.2709
G01 X-23.6089 Y-4.2696
G01 X-23.5570 Y-4.2658
G01 X-23.5054 Y-4.2594
G01 X-23.4541 Y-4.2505
G01 X-23.4034 Y-4.2391
G01 X-23.3532 Y-4.2252
G01 X-23.3038 Y-4.2089
G01 X-23.2553 Y-4.1902
G01 X-23.2077 Y-4.1691
G01 X-23.1612 Y-4.1457
G01 X-23.1160 Y-4.1201
G01 X-23.0720 Y-4.0922
G01 X-23.0295 Y-4.0623
G01 X-22.9885 Y-4.0303
G01 X-22.9491 Y-3.9963
G01 X-22.9114 Y-3.9604
G01 X-22.8755 Y-3.9227
G01 X-22.8415 Y-3.8833
G01 X-22.8095 Y-3.8423
G01 X-22.7796 Y-3.7998
G01 X-22.7517 Y-3.7558
G01 X-22.7261 Y-3.7106
G01 X-22.7027 Y-3.6641
G01 X-22.6816 Y-3.6165
G01 X-22.6629 Y-3.5680
G01 X-22.6466 Y-3.5186
G01 X-22.6327 Y-3.4684
G01 X-22.6213 Y-3.4177
G01 X-22.6124 Y-3.3664
G01 X-22.6060 Y-3.3148
G01 X-22.6022 Y-3.2629
G01 X-22.6009 Y-3.2109
G00 Z2.0000
G00 X-24.6296 Y-3.2602
G01 F70.00
G01 Z-0.0600
G01 F120.00
G01 X-24.6262 Y-3.3060
G01 X-24.6204 Y-3.3532
G01 X-24.6123 Y-3.4001
G01 X-24.6018 Y-3.4466
G01 X-24.5891 Y-3.4925
G01 X-24.5741 Y-3.5379
G01 X-24.5571 Y-3.5820
G01 X-24.5379 Y-3.6254
G01 X-24.5164 Y-3.6682
G01 X-24.4928 Y-3.7097
G01 X-24.4675 Y-3.7497
G01 X-24.4400 Y-3.7887
G01 X-24.4107 Y-3.8263
G01 X-24.3796 Y-3.8623
G01 X-24.3468 Y-3.8968
G01 X-24.3123 Y-3.9296
G01 X-24.2763 Y-3.9607
G01 X-24.2387 Y-3.9900
G01 X-24.1998 Y-4.0174
G01 X-24.1594 Y-4.0430
G01 X-24.1182 Y-4.0664
G01 X-24.0759 Y-4.0877
G01 X-24.0321 Y-4.1071
G01 X-23.9879 Y-4.1241
G01 X-23.9425 Y-4.1391
G01 X-23.8966 Y-4.1518
G01 X-23.8501 Y-4.1623
G01 X-23.8032 Y-4.1704
G01 X-23.7560 Y-4.1762
G01 X-23.7085 Y-4.1797
G01 X-23.6609 Y-4.1809
G01 X-23.6133 Y-4.1797
G01 X-23.5658 Y-4.1762
G01 X-23.5186 Y-4.1704
G01 X-23.4717 Y-4.1623
G01 X-23.4252 Y-4.1518
G01 X-23.3793 Y-4.1391
G01 X-23.3339 Y-4.1241
G01 X-23.2898 Y-4.1071
G01 X-23.2464 Y-4.0879
G01 X-23.2036 Y-4.0664
G01 X-23.1621 Y-4.0428
G01 X-23.1221 Y-4.0175
G01 X-23.0831 Y-3.9900
G01 X-23.0455 Y-3.9607
G01 X-23.0095 Y-3.9296
G01 X-22.9750 Y-3.8968
G01 X-22.9422 Y-3.8623
G01 X-22.9111 Y-3.8263
G01 X-22.8818 Y-3.7887
G01 X-22.8544 Y-3.7498
G01 X-22.8288 Y-3.7094
G01 X-22.8054 Y-3.6682
G01 X-22.7840 Y-3.6256
G01 X-22.7647 Y-3.5821
G01 X-22.7477 Y-3.5379
G01 X-22.7327 Y-3.4925
G01 X-22.7200 Y-3.4466
G01 X-22.7095 Y-3.4001
G01 X-22.7014 Y-3.3532
G01 X-22.6956 Y-3.3060
G01 X-22.6921 Y-3.2585
G01 X-22.6909 Y-3.2109
G01 X-22.6921 Y-3.1633
G01 X-22.6956 Y-3.1158
G01 X-22.7014 Y-3.0686
G01 X-22.7095 Y-3.0217
G01 X-22.7200 Y-2.9752
G01 X-22.7327 Y-2.9293
G01 X-22.7477 Y-2.8839
G01 X-22.7647 Y-2.8398
G01 X-22.7839 Y-2.7964
G01 X-22.8054 Y-2.7536
G01 X-22.8290 Y-2.7121
G01 X-22.8543 Y-2.6721
G01 X-22.8818 Y-2.6331
G01 X-22.9111 Y-2.5955
G01 X-22.9422 Y-2.5595
G01 X-22.9750 Y-2.5250
G01 X-23.0095 Y-2.4922
G01 X-23.0455 Y-2.4611
G01 X-23.0831 Y-2.4318
G01 X-23.1220 Y-2.4044
G01 X-23.1624 Y-2.3788
G01 X-23.2036 Y-2.3554
G01 X-23.2459 Y-2.3341
G01 X-23.2897 Y-2.3147
G01 X-23.3339 Y-2.2977
G01 X-23.3793 Y-2.2827
G01 X-23.4252 Y-2.2700
G01 X-23.4717 Y-2.2595
G01 X-23.5186 Y-2.2514
G01 X-23.5658 Y-2.2456
G01 X-23.6133 Y-2.2421
G01 X-23.6609 Y-2.2409
G01 X-23.7085 Y-2.2421
G01 X-23.7560 Y-2.2456
G01 X-23.8032 Y-2.2514
G01 X-23.8501 Y-2.2595
G01 X-23.8966 Y-2.2700
G01 X-23.9425 Y-2.2827
G01 X-23.9879 Y-2.2977
G01 X-24.0320 Y-2.3147
G01 X-24.0754 Y-2.3339
G01 X-24.1182 Y-2.3554
G01 X-24.1597 Y-2.3790
G01 X-24.1997 Y-2.4043
G01 X-24.2387 Y-2.4318
G01 X-24.2763 Y-2.4611
G01 X-24.3123 Y-2.4922
G01 X-24.3468 Y-2.5250
G01 X-24.3796 Y-2.5595
G01 X-24.4107 Y-2.5955
G01 X-24.4400 Y-2.6331
G01 X-24.4674 Y-2.6720
G01 X-24.4929 Y-2.7122
G01 X-24.5164 Y-2.7536
G01 X-24.5377 Y-2.7959
G01 X-24.5571 Y-2.8397
G01 X-24.5741 Y-2.8839
G01 X-24.5891 Y-2.9293
G01 X-24.6018 Y-2.9752
G01 X-24.6123 Y-3.0217
G01 X-24.6204 Y-3.0686
G01 X-24.6262 Y-3.1158
G01 X-24.6297 Y-3.1633
G01 X-24.6309 Y-3.2109
G01 X-24.6296 Y-3.2602
G00 Z2.0000
G00 X-24.6994 Y-3.2654
G01 F70.00
G01 Z-0.0600
G01 F120.00
G01 X-24.6959 Y-3.3128
G01 X-24.6896 Y-3.3635
G01 X-24.6809 Y-3.4138
G01 X-24.6697 Y-3.4636
G01 X-24.6561 Y-3.5128
G01 X-24.6399 Y-3.5617
G01 X-24.6218 Y-3.6087
G01 X-24.6013 Y-3.6550
G01 X-24.5781 Y-3.7012
G01 X-24.5528 Y-3.7458
G01 X-24.5257 Y-3.7886
G01 X-24.4962 Y-3.8304
G01 X-24.4648 Y-3.8707
G01 X-24.4315 Y-3.9093
G01 X-24.3963 Y-3.9463
G01 X-24.3593 Y-3.9815
G01 X-24.3207 Y-4.0148
G01 X-24.2804 Y-4.0462
G01 X-24.2387 Y-4.0756
G01 X-24.1953 Y-4.1031
G01 X-24.1512 Y-4.1281
G01 X-24.1060 Y-4.1508
G01 X-24.0589 Y-4.1717
G01 X-24.0116 Y-4.1900
G01 X-23.9629 Y-4.2061
G01 X-23.9136 Y-4.2197
G01 X-23.8638 Y-4.2309
G01 X-23.8135 Y-4.2396
G01 X-23.7628 Y-4.2459
G01 X-23.7119 Y-4.2496
G01 X-23.6609 Y-4.2509
G01 X-23.6099 Y-4.2496
G01 X-23.5590 Y-4.2459
G01 X-23.5083 Y-4.2396
G01 X-23.4580 Y-4.2309
G01 X-23.4082 Y-4.2197
G01 X-23.3590 Y-4.2061
G01 X-23.3101 Y-4.1899
G01 X-23.2631 Y-4.1718
G01 X-23.2168 Y-4.1513
G01 X-23.1706 Y-4.1281
G01 X-23.1260 Y-4.1028
G01 X-23.0833 Y-4.0757
G01 X-23.0414 Y-4.0462
G01 X-23.0011 Y-4.0148
G01 X-22.9625 Y-3.9815
G01 X-22.9255 Y-3.9463
G01 X-22.8903 Y-3.9093
G01 X-22.8570 Y-3.8707
G01 X-22.8256 Y-3.8304
G01 X-22.7962 Y-3.7887
G01 X-22.7687 Y-3.7453
G01 X-22.7437 Y-3.7012
G01 X-22.7208 Y-3.6556
G01 X-22.7001 Y-3.6089
G01 X-22.6818 Y-3.5616
G01 X-22.6657 Y-3.5129
G01 X-22.6521 Y-3.4636
G01 X-22.6409 Y-3.4138
G01 X-22.6322 Y-3.3635
G01 X-22.6259 Y-3.3128
G01 X-22.6222 Y-3.2619
G01 X-22.6209 Y-3.2109
G01 X-22.6222 Y-3.1599
G01 X-22.6259 Y-3.1090
G01 X-22.6322 Y-3.0583
G01 X-22.6409 Y-3.0080
G01 X-22.6521 Y-2.9582
G01 X-22.6657 Y-2.9090
G01 X-22.6819 Y-2.8601
G01 X-22.7000 Y-2.8131
G01 X-22.7205 Y-2.7668
G01 X-22.7437 Y-2.7206
G01 X-22.7690 Y-2.6760
G01 X-22.7961 Y-2.6332
G01 X-22.8256 Y-2.5914
G01 X-22.8570 Y-2.5511
G01 X-22.8903 Y-2.5125
G01 X-22.9255 Y-2.4755
G01 X-22.9625 Y-2.4403
G01 X-23.0011 Y-2.4070
G01 X-23.0414 Y-2.3756
G01 X-23.0831 Y-2.3462
G01 X-23.1265 Y-2.3187
G01 X-23.1706 Y-2.2937
G01 X-23.2158 Y-2.2710
G01 X-23.2629 Y-2.2501
G01 X-23.3102 Y-2.2318
G01 X-23.3589 Y-2.2157
G01 X-23.4082 Y-2.2021
G01 X-23.4580 Y-2.1909
G01 X-23.5083 Y-2.1822
G01 X-23.5590 Y-2.1759
G01 X-23.6099 Y-2.1722
G01 X-23.6609 Y-2.1709
G01 X-23.7119 Y-2.1722
G01 X-23.7628 Y-2.1759
G01 X-23.8135 Y-2.1822
G01 X-23.8638 Y-2.1909
G01 X-23.9136 Y-2.2021
G01 X-23.9628 Y-2.2157
G01 X-24.0117 Y-2.2319
G01 X-24.0587 Y-2.2500
G01 X-24.1050 Y-2.2705
G01 X-24.1512 Y-2.2937
G01 X-24.1958 Y-2.3190
G01 X-24.2386 Y-2.3461
G01 X-24.2804 Y-2.3756
G01 X-24.3207 Y-2.4070
G01 X-24.3593 Y-2.4403
G01 X-24.3963 Y-2.4755
G01 X-24.4315 Y-2.5125
G01 X-24.4648 Y-2.5511
G01 X-24.4962 Y-2.5914
G01 X-24.5256 Y-2.6331
G01 X-24.5529 Y-2.6762
G01 X-24.5781 Y-2.7206
G01 X-24.6008 Y-2.7658
G01 X-24.6217 Y-2.8129
G01 X-24.6400 Y-2.8602
G01 X-24.6561 Y-2.9089
G01 X-24.6697 Y-2.9582
G01 X-24.6809 Y-3.0080
G01 X-24.6896 Y-3.0583
G01 X-24.6959 Y-3.1090
G01 X-24.6996 Y-3.1599
G01 X-24.7009 Y-3.2109
G01 X-24.6994 Y-3.2654
G00 Z2.0000
G00 X-26.8746 Y-3.5260
G01 F70.00
G01 Z-0.0600
G01 F120.00
G01 X-26.8760 Y-3.4706
G01 X-26.8801 Y-3.4152
G01 X-26.8869 Y-3.3602
G01 X-26.8963 Y-3.3056
G01 X-26.9085 Y-3.2514
G01 X-26.9233 Y-3.1980
G01 X-26.9407 Y-3.1453
G01 X-26.9606 Y-3.0936
G01 X-26.9831 Y-3.0429
G01 X-27.0080 Y-2.9933
G01 X-27.0354 Y-2.9451
G01 X-27.0651 Y-2.8982
G01 X-27.0970 Y-2.8529
G01 X-27.1311 Y-2.8091
G01 X-27.1673 Y-2.7672
G01 X-27.2056 Y-2.7270
G01 X-27.2458 Y-2.6887
G01 X-27.2877 Y-2.6525
G01 X-27.3315 Y-2.6184
G01 X-27.3768 Y-2.5865
G01 X-27.4237 Y-2.5568
G01 X-27.4719 Y-2.5294
G01 X-27.5215 Y-2.5045
G01 X-27.5722 Y-2.4820
G01 X-27.6239 Y-2.4621
G01 X-27.6766 Y-2.4447
G01 X-27.7300 Y-2.4299
G01 X-27.7842 Y-2.4177
G01 X-27.8388 Y-2.4083
G01 X-27.8938 Y-2.4015
G01 X-27.9492 Y-2.3974
G01 X-28.0046 Y-2.3960
G01 X-28.0600 Y-2.3974
G01 X-28.1154 Y-2.4015
G01 X-28.1704 Y-2.4083
G01 X-28.2250 Y-2.4177
G01 X-28.2792 Y-2.4299
G01 X-28.3326 Y-2.4447
G01 X-28.3853 Y-2.4621
G01 X-28.4370 Y-2.4820
G01 X-28.4877 Y-2.5045
G01 X-28.5373 Y-2.5294
G01 X-28.5855 Y-2.5568
G01 X-28.6324 Y-2.5865
G01 X-28.6777 Y-2.6184
G01 X-28.7215 Y-2.6525
G01 X-28.7634 Y-2.6887
G01 X-28.8036 Y-2.7270
G01 X-28.8419 Y-2.7672
G01 X-28.8781 Y-2.8091
G01 X-28.9122 Y-2.8529
G01 X-28.9441 Y-2.8982
G01 X-28.9738 Y-2.9451
G01 X-29.0012 Y-2.9933
G01 X-29.0261 Y-3.0429
G01 X-29.0486 Y-3.0936
G01 X-29.0685 Y-3.1453
G01 X-29.0859 Y-3.1980
G01 X-29.1007 Y-3.2514
G01 X-29.1129 Y-3.3056
G01 X-29.1223 Y-3.3602
G01 X-29.1291 Y-3.4152
G01 X-29.1332 Y-3.4706
G01 X-29.1346 Y-3.5260
G01 X-29.1332 Y-3.5814
G01 X-29.1291 Y-3.6368
G01 X-29.1223 Y-3.6918
G01 X-29.1129 Y-3.7464
G01 X-29.1007 Y-3.8006
G01 X-29.0859 Y-3.8540
G01 X-29.0685 Y-3.9067
G01 X-29.0486 Y-3.9584
G01 X-29.0261 Y-4.0091
G01 X-29.0012 Y-4.0587
G01 X-28.9738 Y-4.1069
G01 X-28.9441 Y-4.1538
G01 X-28.9122 Y-4.1991
G01 X-28.8781 Y-4.2429
G01 X-28.8419 Y-4.2848
G01 X-28.8036 Y-4.3250
G01 X-28.7634 Y-4.3633
G01 X-28.7215 Y-4.3995
G01 X-28.6777 Y-4.4336
G01 X-28.6324 Y-4.4655
G01 X-28.5855 Y-4.4952
G01 X-28.5373 Y-4.5226
G01 X-28.4877 Y-4.5475
G01 X-28.4370 Y-4.5700
G01 X-28.3853 Y-4.5899
G01 X-28.3326 Y-4.6073
G01 X-28.2792 Y-4.6221
G01 X-28.2250 Y-4.6343
G01 X-28.1704 Y-4.6437
G01 X-28.1154 Y-4.6505
G01 X-28.0600 Y-4.6546
G01 X-28.0046 Y-4.6560
G01 X-27.9492 Y-4.6546
G01 X-27.8938 Y-4.6505
G01 X-27.8388 Y-4.6437
G01 X-27.7842 Y-4.6343
G01 X-27.7300 Y-4.6221
G01 X-27.6766 Y-4.6073
G01 X-27.6239 Y-4.5899
G01 X-27.5722 Y-4.5700
G01 X-27.5215 Y-4.5475
G01 X-27.4719 Y-4.5226
G01 X-27.4237 Y-4.4952
G01 X-27.3768 Y-4.4655
G01 X-27.3315 Y-4.4336
G01 X-27.2877 Y-4.3995
G01 X-27.2458 Y-4.3633
G01 X-27.2056 Y-4.3250
G01 X-27.1673 Y-4.2848
G01 X-27.1311 Y-4.2429
G01 X-27.0970 Y-4.1991
G01 X-27.0651 Y-4.1538
G01 X-27.0354 Y-4.1069
G01 X-27.0080 Y-4.0587
G01 X-26.9831 Y-4.0091
G01 X-26.9606 Y-3.9584
G01 X-26.9407 Y-3.9067
G01 X-26.9233 Y-3.8540
G01 X-26.9085 Y-3.8006
G01 X-26.8963 Y-3.7464
G01 X-26.8869 Y-3.6918
G01 X-26.8801 Y-3.6368
G01 X-26.8760 Y-3.5814
G01 X-26.8746 Y-3.5260
G00 Z2.0000
G00 X-26.9446 Y-3.5260
G01 F70.00
G01 Z-0.0600
G01 F120.00
G01 X-26.9459 Y-3.4740
G01 X-26.9497 Y-3.4221
G01 X-26.9561 Y-3.3705
G01 X-26.9650 Y-3.3192
G01 X-26.9764 Y-3.2685
G01 X-26.9903 Y-3.2183
G01 X-27.0066 Y-3.1689
G01 X-27.0253 Y-3.1204
G01 X-27.0464 Y-3.0728
G01 X-27.0698 Y-3.0263
G01 X-27.0954 Y-2.9811
G01 X-27.1233 Y-2.9371
G01 X-27.1532 Y-2.8946
G01 X-27.1852 Y-2.8536
G01 X-27.2192 Y-2.8142
G01 X-27.2551 Y-2.7765
G01 X-27.2928 Y-2.7406
G01 X-27.3322 Y-2.7066
G01 X-27.3732 Y-2.6746
G01 X-27.4157 Y-2.6447
G01 X-27.4597 Y-2.6168
G01 X-27.5049 Y-2.5912
G01 X-27.5514 Y-2.5678
G01 X-27.5990 Y-2.5467
G01 X-27.6475 Y-2.5280
G01 X-27.6969 Y-2.5117
G01 X-27.7471 Y-2.4978
G01 X-27.7978 Y-2.4864
G01 X-27.8491 Y-2.4775
G01 X-27.9007 Y-2.4711
G01 X-27.9526 Y-2.4673
G01 X-28.0046 Y-2.4660
G01 X-28.0566 Y-2.4673
G01 X-28.1085 Y-2.4711
G01 X-28.1601 Y-2.4775
G01 X-28.2114 Y-2.4864
G01 X-28.2621 Y-2.4978
G01 X-28.3123 Y-2.5117
G01 X-28.3617 Y-2.5280
G01 X-28.4102 Y-2.5467
G01 X-28.4578 Y-2.5678
G01 X-28.5043 Y-2.5912
G01 X-28.5495 Y-2.6168
G01 X-28.5935 Y-2.6447
G01 X-28.6360 Y-2.6746
G01 X-28.6770 Y-2.7066
G01 X-28.7164 Y-2.7406
G01 X-28.7541 Y-2.7765
G01 X-28.7900 Y-2.8142
G01 X-28.8240 Y-2.8536
G01 X-28.8560 Y-2.8946
G01 X-28.8859 Y-2.9371
G01 X-28.9138 Y-2.9811
G01 X-28.9394 Y-3.0263
G01 X-28.9628 Y-3.0728
G01 X-28.9839 Y-3.1204
G01 X-29.0026 Y-3.1689
G01 X-29.0189 Y-3.2183
G01 X-29.0328 Y-3.2685
G01 X-29.0442 Y-3.3192
G01 X-29.0531 Y-3.3705
G01 X-29.0595 Y-3.4221
G01 X-29.0633 Y-3.4740
G01 X-29.0646 Y-3.5260
G01 X-29.0633 Y-3.5780
G01 X-29.0595 Y-3.6299
G01 X-29.0531 Y-3.6815
G01 X-29.0442 Y-3.7328
G01 X-29.0328 Y-3.7835
G01 X-29.0189 Y-3.8337
G01 X-29.0026 Y-3.8831
G01 X-28.9839 Y-3.9316
G01 X-28.9628 Y-3.9792
G01 X-28.9394 Y-4.0257
G01 X-28.9138 Y-4.0709
G01 X-28.8859 Y-4.1149
G01 X-28.8560 Y-4.1574
G01 X-28.8240 Y-4.1984
G01 X-28.7900 Y-4.2378
G01 X-28.7541 Y-4.2755
G01 X-28.7164 Y-4.3114
G01 X-28.6770 Y-4.3454
G01 X-28.6360 Y-4.3774
G01 X-28.5935 Y-4.4073
G01 X-28.5495 Y-4.4352
G01 X-28.5043 Y-4.4608
G01 X-28.4578 Y-4.4842
G01 X-28.4102 Y-4.5053
G01 X-28.3617 Y-4.5240
G01 X-28.3123 Y-4.5403
G01 X-28.2621 Y-4.5542
G01 X-28.2114 Y-4.5656
G01 X-28.1601 Y-4.5745
G01 X-28.1085 Y-4.5809
G01 X-28.0566 Y-4.5847
G01 X-28.0046 Y-4.5860
G01 X-27.9526 Y-4.5847
G01 X-27.9007 Y-4.5809
G01 X-27.8491 Y-4.5745
G01 X-27.7978 Y-4.5656
G01 X-27.7471 Y-4.5542
G01 X-27.6969 Y-4.5403
G01 X-27.6475 Y-4.5240
G01 X-27.5990 Y-4.5053
G01 X-27.5514 Y-4.4842
G01 X-27.5049 Y-4.4608
G01 X-27.4597 Y-4.4352
G01 X-27.4157 Y-4.4073
G01 X-27.3732 Y-4.3774
G01 X-27.3322 Y-4.3454
G01 X-27.2928 Y-4.3114
G01 X-27.2551 Y-4.2755
G01 X-27.2192 Y-4.2378
G01 X-27.1852 Y-4.1984
G01 X-27.1532 Y-4.1574
G01 X-27.1233 Y-4.1149
G01 X-27.0954 Y-4.0709
G01 X-27.0698 Y-4.0257
G01 X-27.0464 Y-3.9792
G01 X-27.0253 Y-3.9316
G01 X-27.0066 Y-3.8831
G01 X-26.9903 Y-3.8337
G01 X-26.9764 Y-3.7835
G01 X-26.9650 Y-3.7328
G01 X-26.9561 Y-3.6815
G01 X-26.9497 Y-3.6299
G01 X-26.9459 Y-3.5780
G01 X-26.9446 Y-3.5260
G00 Z2.0000
G00 X-26.8746 Y-4.9360
G01 F70.00
G01 Z-0.0600
G01 F120.00
G01 X-29.1346 Y-4.9360
G01 X-29.1346 Y-7.1960
G01 X-26.8746 Y-7.1960
G01 X-26.8746 Y-4.9360
G00 Z2.0000
G00 X-26.9446 Y-5.0060
G01 F70.00
G01 Z-0.0600
G01 F120.00
G01 X-29.0646 Y-5.0060
G01 X-29.0646 Y-7.1260
G01 X-26.9446 Y-7.1260
G01 X-26.9446 Y-5.0060
G00 Z2.0000
G00 X-24.6994 Y-5.8054
G01 F70.00
G01 Z-0.0600
G01 F120.00
G01 X-24.6959 Y-5.8528
G01 X-24.6896 Y-5.9035
G01 X-24.6809 Y-5.9538
G01 X-24.6697 Y-6.0036
G01 X-24.6561 Y-6.0528
G01 X-24.6399 Y-6.1017
G01 X-24.6218 Y-6.1487
G01 X-24.6013 Y-6.1950
G01 X-24.5781 Y-6.2412
G01 X-24.5528 Y-6.2858
G01 X-24.5257 Y-6.3286
G01 X-24.4962 Y-6.3704
G01 X-24.4648 Y-6.4107
G01 X-24.4315 Y-6.4493
G01 X-24.3963 Y-6.4863
G01 X-24.3593 Y-6.5215
G01 X-24.3207 Y-6.5548
G01 X-24.2804 Y-6.5862
G01 X-24.2387 Y-6.6156
G01 X-24.1953 Y-6.6431
G01 X-24.1512 Y-6.6681
G01 X-24.1060 Y-6.6908
G01 X-24.0589 Y-6.7117
G01 X-24.0116 Y-6.7300
G01 X-23.9629 Y-6.7461
G01 X-23.9136 Y-6.7597
G01 X-23.8638 Y-6.7709
G01 X-23.8135 Y-6.7796
G01 X-23.7628 Y-6.7859
G01 X-23.7119 Y-6.7896
G01 X-23.6609 Y-6.7909
G01 X-23.6099 Y-6.7896
G01 X-23.5590 Y-6.7859
G01 X-23.5083 Y-6.7796
G01 X-23.4580 Y-6.7709
G01 X-23.4082 Y-6.7597
G01 X-23.3590 Y-6.7461
G01 X-23.3101 Y-6.7299
G01 X-23.2631 Y-6.7118
G01 X-23.2168 Y-6.6913
G01 X-23.1706 Y-6.6681
G01 X-23.1260 Y-6.6428
G01 X-23.0832 Y-6.6157
G01 X-23.0414 Y-6.5862
G01 X-23.0011 Y-6.5548
G01 X-22.9625 Y-6.5215
G01 X-22.9255 Y-6.4863
G01 X-22.8903 Y-6.4493
G01 X-22.8570 Y-6.4107
G01 X-22.8256 Y-6.3704
G01 X-22.7962 Y-6.3287
G01 X-22.7687 Y-6.2853
G01 X-22.7437 Y-6.2412
G01 X-22.7210 Y-6.1960
G01 X-22.7001 Y-6.1489
G01 X-22.6818 Y-6.1016
G01 X-22.6657 Y-6.0529
G01 X-22.6521 Y-6.0036
G01 X-22.6409 Y-5.9538
G01 X-22.6322 Y-5.9035
G01 X-22.6259 Y-5.8528
G01 X-22.6222 Y-5.8019
G01 X-22.6209 Y-5.7509
G01 X-22.6222 Y-5.6999
G01 X-22.6259 Y-5.6490
G01 X-22.6322 Y-5.5983
G01 X-22.6409 Y-5.5480
G01 X-22.6521 Y-5.4982
G01 X-22.6657 Y-5.4490
G01 X-22.6819 Y-5.4001
G01 X-22.7000 Y-5.3531
G01 X-22.7205 Y-5.3068
G01 X-22.7437 Y-5.2606
G01 X-22.7690 Y-5.2160
G01 X-22.7961 Y-5.1732
G01 X-22.8256 Y-5.1314
G01 X-22.8570 Y-5.0911
G01 X-22.8903 Y-5.0525
G01 X-22.9255 Y-5.0155
G01 X-22.9625 Y-4.9803
G01 X-23.0011 Y-4.9470
G01 X-23.0414 Y-4.9156
G01 X-23.0831 Y-4.8862
G01 X-23.1265 Y-4.8587
G01 X-23.1706 Y-4.8337
G01 X-23.2158 Y-4.8110
G01 X-23.2629 Y-4.7901
G01 X-23.3102 Y-4.7718
G01 X-23.3589 Y-4.7557
G01 X-23.4082 Y-4.7421
G01 X-23.4580 Y-4.7309
G01 X-23.5083 Y-4.7222
G01 X-23.5590 Y-4.7159
G01 X-23.6099 Y-4.7122
G01 X-23.6609 Y-4.7109
G01 X-23.7119 Y-4.7122
G01 X-23.7628 Y-4.7159
G01 X-23.8135 Y-4.7222
G01 X-23.8638 Y-4.7309
G01 X-23.9136 Y-4.7421
G01 X-23.9628 Y-4.7557
G01 X-24.0117 Y-4.7719
G01 X-24.0587 Y-4.7900
G01 X-24.1050 Y-4.8105
G01 X-24.1512 Y-4.8337
G01 X-24.1958 Y-4.8590
G01 X-24.2386 Y-4.8861
G01 X-24.2804 Y-4.9156
G01 X-24.3207 Y-4.9470
G01 X-24.3593 Y-4.9803
G01 X-24.3963 Y-5.0155
G01 X-24.4315 Y-5.0525
G01 X-24.4648 Y-5.0911
G01 X-24.4962 Y-5.1314
G01 X-24.5256 Y-5.1731
G01 X-24.5531 Y-5.2165
G01 X-24.5781 Y-5.2606
G01 X-24.6008 Y-5.3058
G01 X-24.6217 Y-5.3529
G01 X-24.6400 Y-5.4002
G01 X-24.6561 Y-5.4489
G01 X-24.6697 Y-5.4982
G01 X-24.6809 Y-5.5480
G01 X-24.6896 Y-5.5983
G01 X-24.6959 Y-5.6490
G01 X-24.6996 Y-5.6999
G01 X-24.7009 Y-5.7509
G01 X-24.6994 Y-5.8054
G00 Z2.0000
G00 X-24.6296 Y-5.8002
G01 F70.00
G01 Z-0.0600
G01 F120.00
G01 X-24.6262 Y-5.8460
G01 X-24.6204 Y-5.8932
G01 X-24.6123 Y-5.9401
G01 X-24.6018 Y-5.9866
G01 X-24.5891 Y-6.0325
G01 X-24.5741 Y-6.0779
G01 X-24.5571 Y-6.1220
G01 X-24.5379 Y-6.1654
G01 X-24.5164 Y-6.2082
G01 X-24.4928 Y-6.2497
G01 X-24.4675 Y-6.2897
G01 X-24.4400 Y-6.3287
G01 X-24.4107 Y-6.3663
G01 X-24.3796 Y-6.4023
G01 X-24.3468 Y-6.4368
G01 X-24.3123 Y-6.4696
G01 X-24.2763 Y-6.5007
G01 X-24.2387 Y-6.5300
G01 X-24.1998 Y-6.5574
G01 X-24.1594 Y-6.5830
G01 X-24.1182 Y-6.6064
G01 X-24.0759 Y-6.6277
G01 X-24.0321 Y-6.6471
G01 X-23.9879 Y-6.6641
G01 X-23.9425 Y-6.6791
G01 X-23.8966 Y-6.6918
G01 X-23.8501 Y-6.7023
G01 X-23.8032 Y-6.7104
G01 X-23.7560 Y-6.7162
G01 X-23.7085 Y-6.7197
G01 X-23.6609 Y-6.7209
G01 X-23.6133 Y-6.7197
G01 X-23.5658 Y-6.7162
G01 X-23.5186 Y-6.7104
G01 X-23.4717 Y-6.7023
G01 X-23.4252 Y-6.6918
G01 X-23.3793 Y-6.6791
G01 X-23.3339 Y-6.6641
G01 X-23.2898 Y-6.6471
G01 X-23.2464 Y-6.6279
G01 X-23.2036 Y-6.6064
G01 X-23.1621 Y-6.5828
G01 X-23.1221 Y-6.5575
G01 X-23.0831 Y-6.5300
G01 X-23.0455 Y-6.5007
G01 X-23.0095 Y-6.4696
G01 X-22.9750 Y-6.4368
G01 X-22.9422 Y-6.4023
G01 X-22.9111 Y-6.3663
G01 X-22.8818 Y-6.3287
G01 X-22.8544 Y-6.2898
G01 X-22.8288 Y-6.2494
G01 X-22.8054 Y-6.2082
G01 X-22.7841 Y-6.1659
G01 X-22.7647 Y-6.1221
G01 X-22.7477 Y-6.0779
G01 X-22.7327 Y-6.0325
G01 X-22.7200 Y-5.9866
G01 X-22.7095 Y-5.9401
G01 X-22.7014 Y-5.8932
G01 X-22.6956 Y-5.8460
G01 X-22.6921 Y-5.7985
G01 X-22.6909 Y-5.7509
G01 X-22.6921 Y-5.7033
G01 X-22.6956 Y-5.6558
G01 X-22.7014 Y-5.6086
G01 X-22.7095 Y-5.5617
G01 X-22.7200 Y-5.5152
G01 X-22.7327 Y-5.4693
G01 X-22.7477 Y-5.4239
G01 X-22.7647 Y-5.3798
G01 X-22.7839 Y-5.3364
G01 X-22.8054 Y-5.2936
G01 X-22.8290 Y-5.2521
G01 X-22.8543 Y-5.2121
G01 X-22.8818 Y-5.1731
G01 X-22.9111 Y-5.1355
G01 X-22.9422 Y-5.0995
G01 X-22.9750 Y-5.0650
G01 X-23.0095 Y-5.0322
G01 X-23.0455 Y-5.0011
G01 X-23.0831 Y-4.9718
G01 X-23.1220 Y-4.9444
G01 X-23.1624 Y-4.9188
G01 X-23.2036 Y-4.8954
G01 X-23.2459 Y-4.8741
G01 X-23.2897 Y-4.8547
G01 X-23.3339 Y-4.8377
G01 X-23.3793 Y-4.8227
G01 X-23.4252 Y-4.8100
G01 X-23.4717 Y-4.7995
G01 X-23.5186 Y-4.7914
G01 X-23.5658 Y-4.7856
G01 X-23.6133 Y-4.7821
G01 X-23.6609 Y-4.7809
G01 X-23.7085 Y-4.7821
G01 X-23.7560 Y-4.7856
G01 X-23.8032 Y-4.7914
G01 X-23.8501 Y-4.7995
G01 X-23.8966 Y-4.8100
G01 X-23.9425 Y-4.8227
G01 X-23.9879 Y-4.8377
G01 X-24.0320 Y-4.8547
G01 X-24.0754 Y-4.8739
G01 X-24.1182 Y-4.8954
G01 X-24.1597 Y-4.9190
G01 X-24.1997 Y-4.9443
G01 X-24.2387 Y-4.9718
G01 X-24.2763 Y-5.0011
G01 X-24.3123 Y-5.0322
G01 X-24.3468 Y-5.0650
G01 X-24.3796 Y-5.0995
G01 X-24.4107 Y-5.1355
G01 X-24.4400 Y-5.1731
G01 X-24.4674 Y-5.2120
G01 X-24.4930 Y-5.2524
G01 X-24.5164 Y-5.2936
G01 X-24.5377 Y-5.3359
G01 X-24.5571 Y-5.3797
G01 X-24.5741 Y-5.4239
G01 X-24.5891 Y-5.4693
G01 X-24.6018 Y-5.5152
G01 X-24.6123 Y-5.5617
G01 X-24.6204 Y-5.6086
G01 X-24.6262 Y-5.6558
G01 X-24.6297 Y-5.7033
G01 X-24.6309 Y-5.7509
G01 X-24.6296 Y-5.8002
G00 Z2.0000
G00 X-24.0853 Y-7.2445
G01 F70.00
G01 Z-0.0600
G01 F120.00
G01 X-23.7524 Y-6.9122
G01 X-23.7430 Y-6.9047
G01 X-23.7330 Y-6.8981
G01 X-23.7209 Y-6.8916
G01 X-23.7098 Y-6.8870
G01 X-23.6983 Y-6.8833
G01 X-23.6849 Y-6.8803
G01 X-23.6730 Y-6.8787
G01 X-23.6610 Y-6.8782
G01 X-23.6473 Y-6.8789
G01 X-23.6354 Y-6.8806
G01 X-23.6237 Y-6.8833
G01 X-23.6122 Y-6.8870
G01 X-23.5996 Y-6.8924
G01 X-23.5890 Y-6.8981
G01 X-23.5790 Y-6.9047
G01 X-23.5696 Y-6.9122
G01 X-23.2367 Y-7.2445
G01 X-23.2225 Y-7.2304
G01 X-23.4465 Y-7.0063
G01 X-23.4577 Y-6.9933
G01 X-23.4673 Y-6.9791
G01 X-23.4750 Y-6.9637
G01 X-23.4808 Y-6.9476
G01 X-23.4845 Y-6.9308
G01 X-23.4863 Y-6.9120
G01 X-23.4857 Y-6.8949
G01 X-23.4829 Y-6.8779
G01 X-23.4781 Y-6.8614
G01 X-23.4714 Y-6.8456
G01 X-23.4598 Y-6.8266
G01 X-23.4453 Y-6.8096
G01 X-23.4283 Y-6.7951
G01 X-23.4108 Y-6.7843
G01 X-23.3902 Y-6.7756
G01 X-23.3532 Y-6.7652
G01 X-23.3038 Y-6.7489
G01 X-23.2553 Y-6.7302
G01 X-23.2077 Y-6.7091
G01 X-23.1612 Y-6.6857
G01 X-23.1160 Y-6.6601
G01 X-23.0720 Y-6.6322
G01 X-23.0295 Y-6.6023
G01 X-22.9885 Y-6.5703
G01 X-22.9491 Y-6.5363
G01 X-22.9114 Y-6.5004
G01 X-22.8755 Y-6.4627
G01 X-22.8415 Y-6.4233
G01 X-22.8095 Y-6.3823
G01 X-22.7796 Y-6.3398
G01 X-22.7517 Y-6.2958
G01 X-22.7261 Y-6.2506
G01 X-22.7027 Y-6.2041
G01 X-22.6816 Y-6.1565
G01 X-22.6629 Y-6.1080
G01 X-22.6466 Y-6.0586
G01 X-22.6327 Y-6.0084
G01 X-22.6213 Y-5.9577
G01 X-22.6124 Y-5.9064
G01 X-22.6060 Y-5.8548
G01 X-22.6022 Y-5.8029
G01 X-22.6009 Y-5.7509
G01 X-22.6022 Y-5.6989
G01 X-22.6060 Y-5.6470
G01 X-22.6124 Y-5.5954
G01 X-22.6213 Y-5.5441
G01 X-22.6327 Y-5.4934
G01 X-22.6466 Y-5.4432
G01 X-22.6629 Y-5.3938
G01 X-22.6816 Y-5.3453
G01 X-22.7027 Y-5.2977
G01 X-22.7261 Y-5.2512
G01 X-22.7517 Y-5.2060
G01 X-22.7796 Y-5.1620
G01 X-22.8095 Y-5.1195
G01 X-22.8415 Y-5.0785
G01 X-22.8755 Y-5.0391
G01 X-22.9114 Y-5.0014
G01 X-22.9491 Y-4.9655
G01 X-22.9885 Y-4.9315
G01 X-23.0295 Y-4.8995
G01 X-23.0720 Y-4.8696
G01 X-23.1160 Y-4.8417
G01 X-23.1612 Y-4.8161
G01 X-23.2077 Y-4.7927
G01 X-23.2553 Y-4.7716
G01 X-23.3038 Y-4.7529
G01 X-23.3532 Y-4.7366
G01 X-23.4034 Y-4.7227
G01 X-23.4541 Y-4.7113
G01 X-23.5054 Y-4.7024
G01 X-23.5570 Y-4.6960
G01 X-23.6089 Y-4.6922
G01 X-23.6609 Y-4.6909
G01 X-23.7129 Y-4.6922
G01 X-23.7648 Y-4.6960
G01 X-23.8164 Y-4.7024
G01 X-23.8677 Y-4.7113
G01 X-23.9184 Y-4.7227
G01 X-23.9686 Y-4.7366
G01 X-24.0180 Y-4.7529
G01 X-24.0665 Y-4.7716
G01 X-24.1141 Y-4.7927
G01 X-24.1606 Y-4.8161
G01 X-24.2058 Y-4.8417
G01 X-24.2498 Y-4.8696
G01 X-24.2923 Y-4.8995
G01 X-24.3333 Y-4.9315
G01 X-24.3727 Y-4.9655
G01 X-24.4104 Y-5.0014
G01 X-24.4463 Y-5.0391
G01 X-24.4803 Y-5.0785
G01 X-24.5123 Y-5.1195
G01 X-24.5422 Y-5.1620
G01 X-24.5701 Y-5.2060
G01 X-24.5957 Y-5.2512
G01 X-24.6191 Y-5.2977
G01 X-24.6402 Y-5.3453
G01 X-24.6589 Y-5.3938
G01 X-24.6752 Y-5.4432
G01 X-24.6891 Y-5.4934
G01 X-24.7005 Y-5.5441
G01 X-24.7094 Y-5.5954
G01 X-24.7158 Y-5.6470
G01 X-24.7196 Y-5.6989
G01 X-24.7209 Y-5.7509
G01 X-24.7196 Y-5.8029
G01 X-24.7158 Y-5.8548
G01 X-24.7094 Y-5.9064
G01 X-24.7005 Y-5.9577
G01 X-24.6891 Y-6.0084
G01 X-24.6752 Y-6.0586
G01 X-24.6589 Y-6.1080
G01 X-24.6402 Y-6.1565
G01 X-24.6191 Y-6.2041
G01 X-24.5957 Y-6.2506
G01 X-24.5701 Y-6.2958
G01 X-24.5422 Y-6.3398
G01 X-24.5123 Y-6.3823
G01 X-24.4803 Y-6.4233
G01 X-24.4463 Y-6.4627
G01 X-24.4104 Y-6.5004
G01 X-24.3727 Y-6.5363
G01 X-24.3333 Y-6.5703
G01 X-24.2923 Y-6.6023
G01 X-24.2498 Y-6.6322
G01 X-24.2058 Y-6.6601
G01 X-24.1606 Y-6.6857
G01 X-24.1141 Y-6.7091
G01 X-24.0665 Y-6.7302
G01 X-24.0180 Y-6.7489
G01 X-23.9686 Y-6.7652
G01 X-23.9285 Y-6.7767
G01 X-23.9158 Y-6.7820
G01 X-23.9036 Y-6.7885
G01 X-23.8936 Y-6.7951
G01 X-23.8842 Y-6.8025
G01 X-23.8742 Y-6.8120
G01 X-23.8663 Y-6.8211
G01 X-23.8583 Y-6.8322
G01 X-23.8521 Y-6.8425
G01 X-23.8469 Y-6.8534
G01 X-23.8427 Y-6.8646
G01 X-23.8387 Y-6.8795
G01 X-23.8363 Y-6.8948
G01 X-23.8356 Y-6.9102
G01 X-23.8367 Y-6.9257
G01 X-23.8394 Y-6.9409
G01 X-23.8438 Y-6.9557
G01 X-23.8498 Y-6.9699
G01 X-23.8573 Y-6.9834
G01 X-23.8652 Y-6.9947
G01 X-23.8754 Y-7.0063
G01 X-24.0994 Y-7.2303
G01 X-24.0853 Y-7.2445
G00 Z2.0000
G00 X-24.0853 Y-7.3435
G01 F70.00
G01 Z-0.0600
G01 F120.00
G01 X-23.7086 Y-6.9669
G01 X-23.6977 Y-6.9586
G01 X-23.6862 Y-6.9529
G01 X-23.6738 Y-6.9494
G01 X-23.6610 Y-6.9482
G01 X-23.6482 Y-6.9494
G01 X-23.6350 Y-6.9532
G01 X-23.6236 Y-6.9591
G01 X-23.6134 Y-6.9669
G01 X-23.2367 Y-7.3435
G01 X-23.1235 Y-7.2304
G01 X-23.4010 Y-6.9523
G01 X-23.4068 Y-6.9438
G01 X-23.4113 Y-6.9346
G01 X-23.4144 Y-6.9247
G01 X-23.4160 Y-6.9154
G01 X-23.4163 Y-6.9060
G01 X-23.4151 Y-6.8958
G01 X-23.4128 Y-6.8866
G01 X-23.4089 Y-6.8771
G01 X-23.4026 Y-6.8669
G01 X-23.3952 Y-6.8585
G01 X-23.3859 Y-6.8509
G01 X-23.3763 Y-6.8453
G01 X-23.3666 Y-6.8416
G01 X-23.3329 Y-6.8322
G01 X-23.2802 Y-6.8148
G01 X-23.2285 Y-6.7949
G01 X-23.1778 Y-6.7724
G01 X-23.1282 Y-6.7475
G01 X-23.0800 Y-6.7201
G01 X-23.0331 Y-6.6904
G01 X-22.9878 Y-6.6585
G01 X-22.9440 Y-6.6244
G01 X-22.9021 Y-6.5882
G01 X-22.8619 Y-6.5499
G01 X-22.8236 Y-6.5097
G01 X-22.7874 Y-6.4678
G01 X-22.7533 Y-6.4240
G01 X-22.7214 Y-6.3787
G01 X-22.6917 Y-6.3318
G01 X-22.6643 Y-6.2836
G01 X-22.6394 Y-6.2340
G01 X-22.6169 Y-6.1833
G01 X-22.5970 Y-6.1316
G01 X-22.5796 Y-6.0789
G01 X-22.5648 Y-6.0255
G01 X-22.5526 Y-5.9713
G01 X-22.5432 Y-5.9167
G01 X-22.5364 Y-5.8617
G01 X-22.5323 Y-5.8063
G01 X-22.5309 Y-5.7509
G01 X-22.5323 Y-5.6955
G01 X-22.5364 Y-5.6401
G01 X-22.5432 Y-5.5851
G01 X-22.5526 Y-5.5305
G01 X-22.5648 Y-5.4763
G01 X-22.5796 Y-5.4229
G01 X-22.5970 Y-5.3702
G01 X-22.6169 Y-5.3185
G01 X-22.6394 Y-5.2678
G01 X-22.6643 Y-5.2182
G01 X-22.6917 Y-5.1700
G01 X-22.7214 Y-5.1231
G01 X-22.7533 Y-5.0778
G01 X-22.7874 Y-5.0340
G01 X-22.8236 Y-4.9921
G01 X-22.8619 Y-4.9519
G01 X-22.9021 Y-4.9136
G01 X-22.9440 Y-4.8774
G01 X-22.9878 Y-4.8433
G01 X-23.0331 Y-4.8114
G01 X-23.0800 Y-4.7817
G01 X-23.1282 Y-4.7543
G01 X-23.1778 Y-4.7294
G01 X-23.2285 Y-4.7069
G01 X-23.2802 Y-4.6870
G01 X-23.3329 Y-4.6696
G01 X-23.3863 Y-4.6548
G01 X-23.4405 Y-4.6426
G01 X-23.4951 Y-4.6332
G01 X-23.5501 Y-4.6264
G01 X-23.6055 Y-4.6223
G01 X-23.6609 Y-4.6209
G01 X-23.7163 Y-4.6223
G01 X-23.7717 Y-4.6264
G01 X-23.8267 Y-4.6332
G01 X-23.8813 Y-4.6426
G01 X-23.9355 Y-4.6548
G01 X-23.9889 Y-4.6696
G01 X-24.0416 Y-4.6870
G01 X-24.0933 Y-4.7069
G01 X-24.1440 Y-4.7294
G01 X-24.1936 Y-4.7543
G01 X-24.2418 Y-4.7817
G01 X-24.2887 Y-4.8114
G01 X-24.3340 Y-4.8433
G01 X-24.3778 Y-4.8774
G01 X-24.4197 Y-4.9136
G01 X-24.4599 Y-4.9519
G01 X-24.4982 Y-4.9921
G01 X-24.5344 Y-5.0340
G01 X-24.5685 Y-5.0778
G01 X-24.6004 Y-5.1231
G01 X-24.6301 Y-5.1700
G01 X-24.6575 Y-5.2182
G01 X-24.6824 Y-5.2678
G01 X-24.7049 Y-5.3185
G01 X-24.7248 Y-5.3702
G01 X-24.7422 Y-5.4229
G01 X-24.7570 Y-5.4763
G01 X-24.7692 Y-5.5305
G01 X-24.7786 Y-5.5851
G01 X-24.7854 Y-5.6401
G01 X-24.7895 Y-5.6955
G01 X-24.7909 Y-5.7509
G01 X-24.7895 Y-5.8063
G01 X-24.7854 Y-5.8617
G01 X-24.7786 Y-5.9167
G01 X-24.7692 Y-5.9713
G01 X-24.7570 Y-6.0255
G01 X-24.7422 Y-6.0789
G01 X-24.7248 Y-6.1316
G01 X-24.7049 Y-6.1833
G01 X-24.6824 Y-6.2340
G01 X-24.6575 Y-6.2836
G01 X-24.6301 Y-6.3318
G01 X-24.6004 Y-6.3787
G01 X-24.5685 Y-6.4240
G01 X-24.5344 Y-6.4678
G01 X-24.4982 Y-6.5097
G01 X-24.4599 Y-6.5499
G01 X-24.4197 Y-6.5882
G01 X-24.3778 Y-6.6244
G01 X-24.3340 Y-6.6585
G01 X-24.2887 Y-6.6904
G01 X-24.2418 Y-6.7201
G01 X-24.1936 Y-6.7475
G01 X-24.1440 Y-6.7724
G01 X-24.0933 Y-6.7949
G01 X-24.0416 Y-6.8148
G01 X-23.9889 Y-6.8322
G01 X-23.9545 Y-6.8418
G01 X-23.9426 Y-6.8468
G01 X-23.9319 Y-6.8539
G01 X-23.9226 Y-6.8628
G01 X-23.9151 Y-6.8733
G01 X-23.9097 Y-6.8850
G01 X-23.9073 Y-6.8932
G01 X-23.9059 Y-6.9025
G01 X-23.9057 Y-6.9120
G01 X-23.9068 Y-6.9213
G01 X-23.9089 Y-6.9297
G01 X-23.9123 Y-6.9385
G01 X-23.9165 Y-6.9460
G01 X-23.9221 Y-6.9536
G01 X-24.1984 Y-7.2303
G01 X-24.0853 Y-7.3435
G00 Z2.0000
G00 X-24.9833 Y-8.3405
G01 F70.00
G01 Z-0.0600
G01 F120.00
G01 X-24.9915 Y-8.3306
G01 X-24.9978 Y-8.3194
G01 X-25.0019 Y-8.3072
G01 X-25.0037 Y-8.2953
G01 X-25.0033 Y-8.2824
G01 X-25.0005 Y-8.2699
G01 X-24.9955 Y-8.2580
G01 X-24.9885 Y-8.2473
G01 X-24.6085 Y-7.8667
G01 X-24.7216 Y-7.7536
G01 X-25.2590 Y-8.2910
G01 X-24.7216 Y-8.8284
G01 X-24.6085 Y-8.7153
G01 X-24.9833 Y-8.3405
G00 Z2.0000
G00 X-25.0328 Y-8.3900
G01 F70.00
G01 Z-0.0600
G01 F120.00
G01 X-25.0473 Y-8.3730
G01 X-25.0589 Y-8.3539
G01 X-25.0638 Y-8.3430
G01 X-25.0678 Y-8.3316
G01 X-25.0725 Y-8.3098
G01 X-25.0736 Y-8.2979
G01 X-25.0737 Y-8.2858
G01 X-25.0711 Y-8.2637
G01 X-25.0683 Y-8.2520
G01 X-25.0644 Y-8.2406
G01 X-25.0548 Y-8.2205
G01 X-25.0452 Y-8.2062
G01 X-25.0340 Y-8.1932
G01 X-24.7075 Y-7.8667
G01 X-24.7216 Y-7.8526
G01 X-25.1600 Y-8.2910
G01 X-24.7216 Y-8.7294
G01 X-24.7075 Y-8.7153
G01 X-25.0328 Y-8.3900
G00 Z2.0000
G00 X-24.1984 Y-9.3517
G01 F70.00
G01 Z-0.0600
G01 F120.00
G01 X-23.6610 Y-9.8891
G01 X-23.1235 Y-9.3517
G01 X-23.2367 Y-9.2385
G01 X-23.6134 Y-9.6151
G01 X-23.6236 Y-9.6229
G01 X-23.6358 Y-9.6291
G01 X-23.6482 Y-9.6326
G01 X-23.6610 Y-9.6338
G01 X-23.6747 Y-9.6325
G01 X-23.6870 Y-9.6288
G01 X-23.6984 Y-9.6229
G01 X-23.7086 Y-9.6151
G01 X-24.0852 Y-9.2385
G01 X-24.1984 Y-9.3517
G00 Z2.0000
G00 X-24.0994 Y-9.3517
G01 F70.00
G01 Z-0.0600
G01 F120.00
G01 X-23.6610 Y-9.7901
G01 X-23.2225 Y-9.3517
G01 X-23.2367 Y-9.3375
G01 X-23.5620 Y-9.6628
G01 X-23.5735 Y-9.6731
G01 X-23.5832 Y-9.6802
G01 X-23.5935 Y-9.6864
G01 X-23.6043 Y-9.6918
G01 X-23.6155 Y-9.6962
G01 X-23.6270 Y-9.6996
G01 X-23.6388 Y-9.7020
G01 X-23.6610 Y-9.7038
G01 X-23.6730 Y-9.7033
G01 X-23.6849 Y-9.7017
G01 X-23.6967 Y-9.6992
G01 X-23.7082 Y-9.6956
G01 X-23.7193 Y-9.6911
G01 X-23.7300 Y-9.6856
G01 X-23.7485 Y-9.6731
G01 X-23.7600 Y-9.6628
G01 X-24.0852 Y-9.3375
G01 X-24.0994 Y-9.3517
G00 Z2.0000
G00 X-22.7135 Y-8.7152
G01 F70.00
G01 Z-0.0600
G01 F120.00
G01 X-22.6003 Y-8.8284
G01 X-22.0629 Y-8.2910
G01 X-22.6003 Y-7.7536
G01 X-22.7135 Y-7.8667
G01 X-22.3363 Y-8.2440
G01 X-22.3277 Y-8.2558
G01 X-22.3215 Y-8.2699
G01 X-22.3185 Y-8.2850
G01 X-22.3187 Y-8.2996
G01 X-22.3210 Y-8.3105
G01 X-22.3249 Y-8.3209
G01 X-22.3305 Y-8.3306
G01 X-22.3375 Y-8.3393
G01 X-22.7135 Y-8.7152
G00 Z2.0000
G00 X-22.6145 Y-8.7152
G01 F70.00
G01 Z-0.0600
G01 F120.00
G01 X-22.6003 Y-8.7294
G01 X-22.1619 Y-8.2910
G01 X-22.6003 Y-7.8526
G01 X-22.6145 Y-7.8667
G01 X-22.2892 Y-8.1920
G01 X-22.2789 Y-8.2035
G01 X-22.2718 Y-8.2132
G01 X-22.2656 Y-8.2235
G01 X-22.2602 Y-8.2343
G01 X-22.2558 Y-8.2455
G01 X-22.2524 Y-8.2570
G01 X-22.2500 Y-8.2688
G01 X-22.2486 Y-8.2807
G01 X-22.2482 Y-8.2927
G01 X-22.2491 Y-8.3064
G01 X-22.2509 Y-8.3183
G01 X-22.2537 Y-8.3300
G01 X-22.2576 Y-8.3414
G01 X-22.2624 Y-8.3524
G01 X-22.2681 Y-8.3630
G01 X-22.2747 Y-8.3730
G01 X-22.2822 Y-8.3824
G01 X-22.6145 Y-8.7152
G00 Z2.0000
G00 X-20.6717 Y-6.2642
G01 F70.00
G01 Z-0.0600
G01 F120.00
G01 X-20.6716 Y-5.8974
G01 X-20.6698 Y-5.8846
G01 X-20.6657 Y-5.8724
G01 X-20.6594 Y-5.8612
G01 X-20.6518 Y-5.8519
G01 X-20.6420 Y-5.8436
G01 X-20.6301 Y-5.8368
G01 X-20.6179 Y-5.8327
G01 X-20.6043 Y-5.8308
G01 X-20.0884 Y-5.8308
G01 X-20.0884 Y-5.6708
G01 X-20.8317 Y-5.6708
G01 X-20.8317 Y-6.2642
G01 X-20.6717 Y-6.2642
G00 Z2.0000
G00 X-20.7417 Y-6.1942
G01 F70.00
G01 Z-0.0600
G01 F120.00
G01 X-20.7417 Y-5.9008
G01 X-20.7404 Y-5.8820
G01 X-20.7379 Y-5.8685
G01 X-20.7346 Y-5.8569
G01 X-20.7297 Y-5.8441
G01 X-20.7235 Y-5.8318
G01 X-20.7162 Y-5.8202
G01 X-20.7077 Y-5.8094
G01 X-20.6982 Y-5.7994
G01 X-20.6878 Y-5.7904
G01 X-20.6722 Y-5.7798
G01 X-20.6537 Y-5.7708
G01 X-20.6357 Y-5.7650
G01 X-20.6154 Y-5.7615
G01 X-20.6017 Y-5.7608
G01 X-20.1584 Y-5.7608
G01 X-20.1584 Y-5.7408
G01 X-20.7617 Y-5.7408
G01 X-20.7617 Y-6.1942
G01 X-20.7417 Y-6.1942
G00 Z2.0000
G00 X-19.5151 Y-5.8308
G01 F70.00
G01 Z-0.0600
G01 F120.00
G01 X-19.0008 Y-5.8308
G01 X-18.9914 Y-5.8316
G01 X-18.9830 Y-5.8333
G01 X-18.9749 Y-5.8361
G01 X-18.9665 Y-5.8403
G01 X-18.9593 Y-5.8451
G01 X-18.9528 Y-5.8507
G01 X-18.9426 Y-5.8634
G01 X-18.9384 Y-5.8709
G01 X-18.9352 Y-5.8788
G01 X-18.9320 Y-5.8948
G01 X-18.9317 Y-6.2642
G01 X-18.7717 Y-6.2642
G01 X-18.7717 Y-5.6708
G01 X-19.5151 Y-5.6708
G01 X-19.5151 Y-5.8308
G00 Z2.0000
G00 X-19.4451 Y-5.7608
G01 F70.00
G01 Z-0.0600
G01 F120.00
G01 X-18.9948 Y-5.7610
G01 X-18.9761 Y-5.7632
G01 X-18.9562 Y-5.7684
G01 X-18.9372 Y-5.7765
G01 X-18.9197 Y-5.7873
G01 X-18.9090 Y-5.7959
G01 X-18.8991 Y-5.8055
G01 X-18.8913 Y-5.8147
G01 X-18.8834 Y-5.8259
G01 X-18.8766 Y-5.8379
G01 X-18.8717 Y-5.8488
G01 X-18.8672 Y-5.8618
G01 X-18.8641 Y-5.8752
G01 X-18.8624 Y-5.8871
G01 X-18.8617 Y-5.8991
G01 X-18.8617 Y-6.1942
G01 X-18.8417 Y-6.1942
G01 X-18.8417 Y-5.7408
G01 X-19.4451 Y-5.7408
G01 X-19.4451 Y-5.7608
G00 Z2.0000
G00 X-18.9817 Y-7.5215
G01 F70.00
G01 Z-0.0600
G01 F120.00
G01 X-18.9817 Y-7.4801
G01 X-19.0017 Y-7.4808
G01 X-20.6017 Y-7.4808
G01 X-20.6217 Y-7.4801
G01 X-20.6217 Y-7.5215
G01 X-20.6017 Y-7.5208
G01 X-19.0017 Y-7.5208
G01 X-18.9817 Y-7.5215
G00 Z2.0000
G00 X-18.9117 Y-7.6111
G01 F70.00
G01 Z-0.0600
G01 F120.00
G01 X-18.9117 Y-7.3905
G01 X-18.9334 Y-7.3994
G01 X-18.9557 Y-7.4057
G01 X-18.9786 Y-7.4095
G01 X-19.0017 Y-7.4108
G01 X-20.6043 Y-7.4108
G01 X-20.6274 Y-7.4092
G01 X-20.6502 Y-7.4051
G01 X-20.6724 Y-7.3985
G01 X-20.6917 Y-7.3905
G01 X-20.6917 Y-7.6111
G01 X-20.6724 Y-7.6031
G01 X-20.6502 Y-7.5965
G01 X-20.6274 Y-7.5924
G01 X-20.6043 Y-7.5908
G01 X-19.0017 Y-7.5908
G01 X-18.9786 Y-7.5921
G01 X-18.9557 Y-7.5959
G01 X-18.9334 Y-7.6022
G01 X-18.9117 Y-7.6111
G00 Z2.0000
G00 X-18.6301 Y-8.4544
G01 F70.00
G01 Z-0.0600
G01 F120.00
G01 X-18.6507 Y-8.4607
G01 X-18.6709 Y-8.4647
G01 X-18.6914 Y-8.4667
G01 X-18.7120 Y-8.4667
G01 X-18.7325 Y-8.4647
G01 X-18.7527 Y-8.4607
G01 X-18.7724 Y-8.4547
G01 X-18.7917 Y-8.4467
G01 X-18.7917 Y-8.4696
G01 X-18.6453 Y-8.4696
G01 X-18.6301 Y-8.4544
G00 Z2.0000
G00 X-19.2653 Y-10.4656
G01 F70.00
G01 Z-0.0600
G01 F120.00
G01 X-19.2499 Y-10.4810
G01 X-19.2339 Y-10.4750
G01 X-19.1808 Y-10.4575
G01 X-19.1285 Y-10.4431
G01 X-19.0722 Y-10.4305
G01 X-19.0188 Y-10.4212
G01 X-18.9632 Y-10.4144
G01 X-18.9074 Y-10.4103
G01 X-18.8515 Y-10.4089
G01 X-18.7956 Y-10.4103
G01 X-18.7398 Y-10.4144
G01 X-18.6842 Y-10.4212
G01 X-18.6308 Y-10.4305
G01 X-18.5745 Y-10.4431
G01 X-18.5222 Y-10.4575
G01 X-18.4691 Y-10.4750
G01 X-18.4530 Y-10.4811
G01 X-18.4376 Y-10.4657
G01 X-18.4607 Y-10.4567
G01 X-18.5148 Y-10.4389
G01 X-18.5697 Y-10.4237
G01 X-18.6252 Y-10.4112
G01 X-18.6813 Y-10.4015
G01 X-18.7378 Y-10.3945
G01 X-18.7946 Y-10.3903
G01 X-18.8515 Y-10.3889
G01 X-18.9084 Y-10.3903
G01 X-18.9652 Y-10.3945
G01 X-19.0217 Y-10.4015
G01 X-19.0778 Y-10.4112
G01 X-19.1333 Y-10.4237
G01 X-19.1882 Y-10.4389
G01 X-19.2423 Y-10.4567
G01 X-19.2653 Y-10.4656
G00 Z2.0000
G00 X-19.3877 Y-10.4422
G01 F70.00
G01 Z-0.0600
G01 F120.00
G01 X-19.2670 Y-10.5630
G01 X-19.2120 Y-10.5414
G01 X-19.1621 Y-10.5250
G01 X-19.1115 Y-10.5110
G01 X-19.0602 Y-10.4995
G01 X-19.0085 Y-10.4905
G01 X-18.9564 Y-10.4841
G01 X-18.9040 Y-10.4802
G01 X-18.8515 Y-10.4789
G01 X-18.7990 Y-10.4802
G01 X-18.7466 Y-10.4841
G01 X-18.6945 Y-10.4905
G01 X-18.6428 Y-10.4995
G01 X-18.5915 Y-10.5110
G01 X-18.5409 Y-10.5250
G01 X-18.4910 Y-10.5414
G01 X-18.4360 Y-10.5630
G01 X-18.3152 Y-10.4422
G01 X-18.3808 Y-10.4125
G01 X-18.4371 Y-10.3908
G01 X-18.4945 Y-10.3719
G01 X-18.5526 Y-10.3558
G01 X-18.6115 Y-10.3426
G01 X-18.6710 Y-10.3322
G01 X-18.7309 Y-10.3248
G01 X-18.7911 Y-10.3204
G01 X-18.8515 Y-10.3189
G01 X-18.9119 Y-10.3204
G01 X-18.9721 Y-10.3248
G01 X-19.0320 Y-10.3322
G01 X-19.0915 Y-10.3426
G01 X-19.1504 Y-10.3558
G01 X-19.2085 Y-10.3719
G01 X-19.2659 Y-10.3908
G01 X-19.3222 Y-10.4125
G01 X-19.3877 Y-10.4422
G00 Z2.0000
G00 X-19.9582 Y-11.0126
G01 F70.00
G01 Z-0.0600
G01 F120.00
G01 X-19.9879 Y-11.0782
G01 X-20.0096 Y-11.1345
G01 X-20.0285 Y-11.1919
G01 X-20.0446 Y-11.2500
G01 X-20.0578 Y-11.3089
G01 X-20.0682 Y-11.3684
G01 X-20.0756 Y-11.4283
G01 X-20.0800 Y-11.4885
G01 X-20.0815 Y-11.5489
G01 X-20.0800 Y-11.6093
G01 X-20.0756 Y-11.6695
G01 X-20.0682 Y-11.7294
G01 X-20.0578 Y-11.7889
G01 X-20.0446 Y-11.8478
G01 X-20.0285 Y-11.9059
G01 X-20.0096 Y-11.9633
G01 X-19.9879 Y-12.0196
G01 X-19.9582 Y-12.0852
G01 X-19.8374 Y-11.9644
G01 X-19.8590 Y-11.9094
G01 X-19.8754 Y-11.8595
G01 X-19.8894 Y-11.8089
G01 X-19.9009 Y-11.7576
G01 X-19.9099 Y-11.7059
G01 X-19.9163 Y-11.6538
G01 X-19.9202 Y-11.6014
G01 X-19.9215 Y-11.5489
G01 X-19.9202 Y-11.4964
G01 X-19.9163 Y-11.4440
G01 X-19.9099 Y-11.3919
G01 X-19.9009 Y-11.3402
G01 X-19.8894 Y-11.2889
G01 X-19.8754 Y-11.2383
G01 X-19.8590 Y-11.1884
G01 X-19.8374 Y-11.1334
G01 X-19.9582 Y-11.0126
G00 Z2.0000
G00 X-19.9347 Y-11.1350
G01 F70.00
G01 Z-0.0600
G01 F120.00
G01 X-19.9437 Y-11.1581
G01 X-19.9615 Y-11.2122
G01 X-19.9767 Y-11.2671
G01 X-19.9892 Y-11.3226
G01 X-19.9989 Y-11.3787
G01 X-20.0059 Y-11.4352
G01 X-20.0101 Y-11.4920
G01 X-20.0115 Y-11.5489
G01 X-20.0101 Y-11.6058
G01 X-20.0059 Y-11.6626
G01 X-19.9989 Y-11.7191
G01 X-19.9892 Y-11.7752
G01 X-19.9767 Y-11.8307
G01 X-19.9615 Y-11.8856
G01 X-19.9437 Y-11.9397
G01 X-19.9347 Y-11.9628
G01 X-19.9193 Y-11.9474
G01 X-19.9254 Y-11.9313
G01 X-19.9429 Y-11.8782
G01 X-19.9573 Y-11.8259
G01 X-19.9699 Y-11.7696
G01 X-19.9792 Y-11.7162
G01 X-19.9860 Y-11.6606
G01 X-19.9901 Y-11.6048
G01 X-19.9915 Y-11.5489
G01 X-19.9901 Y-11.4930
G01 X-19.9860 Y-11.4372
G01 X-19.9792 Y-11.3816
G01 X-19.9699 Y-11.3282
G01 X-19.9573 Y-11.2719
G01 X-19.9429 Y-11.2196
G01 X-19.9254 Y-11.1665
G01 X-19.9193 Y-11.1504
G01 X-19.9347 Y-11.1350
G00 Z2.0000
G00 X-19.3877 Y-12.6556
G01 F70.00
G01 Z-0.0600
G01 F120.00
G01 X-19.3222 Y-12.6853
G01 X-19.2659 Y-12.7070
G01 X-19.2085 Y-12.7259
G01 X-19.1504 Y-12.7420
G01 X-19.0915 Y-12.7552
G01 X-19.0320 Y-12.7656
G01 X-18.9721 Y-12.7730
G01 X-18.9119 Y-12.7774
G01 X-18.8515 Y-12.7789
G01 X-18.7911 Y-12.7774
G01 X-18.7309 Y-12.7730
G01 X-18.6710 Y-12.7656
G01 X-18.6115 Y-12.7552
G01 X-18.5526 Y-12.7420
G01 X-18.4945 Y-12.7259
G01 X-18.4371 Y-12.7070
G01 X-18.3808 Y-12.6853
G01 X-18.3152 Y-12.6556
G01 X-18.4360 Y-12.5348
G01 X-18.4910 Y-12.5564
G01 X-18.5409 Y-12.5728
G01 X-18.5915 Y-12.5868
G01 X-18.6428 Y-12.5983
G01 X-18.6945 Y-12.6073
G01 X-18.7466 Y-12.6137
G01 X-18.7990 Y-12.6176
G01 X-18.8515 Y-12.6189
G01 X-18.9040 Y-12.6176
G01 X-18.9564 Y-12.6137
G01 X-19.0085 Y-12.6073
G01 X-19.0602 Y-12.5983
G01 X-19.1115 Y-12.5868
G01 X-19.1621 Y-12.5728
G01 X-19.2120 Y-12.5564
G01 X-19.2670 Y-12.5348
G01 X-19.3877 Y-12.6556
G00 Z2.0000
G00 X-19.2653 Y-12.6322
G01 F70.00
G01 Z-0.0600
G01 F120.00
G01 X-19.2423 Y-12.6411
G01 X-19.1882 Y-12.6589
G01 X-19.1333 Y-12.6741
G01 X-19.0778 Y-12.6866
G01 X-19.0217 Y-12.6963
G01 X-18.9652 Y-12.7033
G01 X-18.9084 Y-12.7075
G01 X-18.8515 Y-12.7089
G01 X-18.7946 Y-12.7075
G01 X-18.7378 Y-12.7033
G01 X-18.6813 Y-12.6963
G01 X-18.6252 Y-12.6866
G01 X-18.5697 Y-12.6741
G01 X-18.5148 Y-12.6589
G01 X-18.4607 Y-12.6411
G01 X-18.4376 Y-12.6321
G01 X-18.4530 Y-12.6167
G01 X-18.4691 Y-12.6228
G01 X-18.5222 Y-12.6403
G01 X-18.5745 Y-12.6547
G01 X-18.6308 Y-12.6673
G01 X-18.6842 Y-12.6766
G01 X-18.7398 Y-12.6834
G01 X-18.7956 Y-12.6875
G01 X-18.8515 Y-12.6889
G01 X-18.9074 Y-12.6875
G01 X-18.9632 Y-12.6834
G01 X-19.0188 Y-12.6766
G01 X-19.0722 Y-12.6673
G01 X-19.1285 Y-12.6547
G01 X-19.1808 Y-12.6403
G01 X-19.2339 Y-12.6228
G01 X-19.2499 Y-12.6168
G01 X-19.2653 Y-12.6322
G00 Z2.0000
G00 X-17.8656 Y-11.9644
G01 F70.00
G01 Z-0.0600
G01 F120.00
G01 X-17.7448 Y-12.0852
G01 X-17.7151 Y-12.0196
G01 X-17.6934 Y-11.9633
G01 X-17.6745 Y-11.9059
G01 X-17.6584 Y-11.8478
G01 X-17.6484 Y-11.8043
G01 X-17.6454 Y-11.7963
G01 X-17.6415 Y-11.7887
G01 X-17.6333 Y-11.7776
G01 X-17.6238 Y-11.7689
G01 X-17.6129 Y-11.7621
G01 X-17.6009 Y-11.7574
G01 X-17.5883 Y-11.7550
G01 X-17.5754 Y-11.7549
G01 X-17.5628 Y-11.7572
G01 X-17.5500 Y-11.7621
G01 X-17.5398 Y-11.7684
G01 X-17.5308 Y-11.7764
G01 X-17.5232 Y-11.7858
G01 X-17.5175 Y-11.7963
G01 X-17.5138 Y-11.8068
G01 X-17.5045 Y-11.8478
G01 X-17.4884 Y-11.9059
G01 X-17.4695 Y-11.9633
G01 X-17.4478 Y-12.0196
G01 X-17.4233 Y-12.0748
G01 X-17.3961 Y-12.1287
G01 X-17.3664 Y-12.1812
G01 X-17.3341 Y-12.2322
G01 X-17.2993 Y-12.2816
G01 X-17.2622 Y-12.3292
G01 X-17.2228 Y-12.3749
G01 X-17.1811 Y-12.4186
G01 X-17.1374 Y-12.4603
G01 X-17.0917 Y-12.4997
G01 X-17.0441 Y-12.5368
G01 X-16.9947 Y-12.5716
G01 X-16.9437 Y-12.6039
G01 X-16.8912 Y-12.6336
G01 X-16.8373 Y-12.6608
G01 X-16.7821 Y-12.6853
G01 X-16.7258 Y-12.7070
G01 X-16.6684 Y-12.7259
G01 X-16.6103 Y-12.7420
G01 X-16.5514 Y-12.7552
G01 X-16.4919 Y-12.7656
G01 X-16.4320 Y-12.7730
G01 X-16.3718 Y-12.7774
G01 X-16.3114 Y-12.7789
G01 X-16.2510 Y-12.7774
G01 X-16.1908 Y-12.7730
G01 X-16.1309 Y-12.7656
G01 X-16.0714 Y-12.7552
G01 X-16.0125 Y-12.7420
G01 X-15.9544 Y-12.7259
G01 X-15.8970 Y-12.7070
G01 X-15.8407 Y-12.6853
G01 X-15.7855 Y-12.6608
G01 X-15.7316 Y-12.6336
G01 X-15.6791 Y-12.6039
G01 X-15.6281 Y-12.5716
G01 X-15.5787 Y-12.5368
G01 X-15.5311 Y-12.4997
G01 X-15.4854 Y-12.4603
G01 X-15.4417 Y-12.4186
G01 X-15.4000 Y-12.3749
G01 X-15.3606 Y-12.3292
G01 X-15.3235 Y-12.2816
G01 X-15.2887 Y-12.2322
G01 X-15.2564 Y-12.1812
G01 X-15.2267 Y-12.1287
G01 X-15.1995 Y-12.0748
G01 X-15.1750 Y-12.0196
G01 X-15.1533 Y-11.9633
G01 X-15.1344 Y-11.9059
G01 X-15.1183 Y-11.8478
G01 X-15.1089 Y-11.8062
G01 X-15.1027 Y-11.7911
G01 X-15.0966 Y-11.7818
G01 X-15.0897 Y-11.7742
G01 X-15.0810 Y-11.7672
G01 X-15.0713 Y-11.7616
G01 X-15.0617 Y-11.7579
G01 X-15.0508 Y-11.7555
G01 X-15.0397 Y-11.7549
G01 X-15.0286 Y-11.7561
G01 X-15.0130 Y-11.7609
G01 X-14.9990 Y-11.7692
G01 X-14.9873 Y-11.7805
G01 X-14.9785 Y-11.7942
G01 X-14.9737 Y-11.8070
G01 X-14.9645 Y-11.8478
G01 X-14.9484 Y-11.9059
G01 X-14.9295 Y-11.9633
G01 X-14.9078 Y-12.0196
G01 X-14.8833 Y-12.0748
G01 X-14.8561 Y-12.1287
G01 X-14.8264 Y-12.1812
G01 X-14.7941 Y-12.2322
G01 X-14.7593 Y-12.2816
G01 X-14.7222 Y-12.3292
G01 X-14.6828 Y-12.3749
G01 X-14.6411 Y-12.4186
G01 X-14.5974 Y-12.4603
G01 X-14.5517 Y-12.4997
G01 X-14.5041 Y-12.5368
G01 X-14.4547 Y-12.5716
G01 X-14.4037 Y-12.6039
G01 X-14.3512 Y-12.6336
G01 X-14.2973 Y-12.6608
G01 X-14.2421 Y-12.6853
G01 X-14.1858 Y-12.7070
G01 X-14.1284 Y-12.7259
G01 X-14.0703 Y-12.7420
G01 X-14.0114 Y-12.7552
G01 X-13.9519 Y-12.7656
G01 X-13.8920 Y-12.7730
G01 X-13.8318 Y-12.7774
G01 X-13.7714 Y-12.7789
G01 X-13.7110 Y-12.7774
G01 X-13.6508 Y-12.7730
G01 X-13.5909 Y-12.7656
G01 X-13.5314 Y-12.7552
G01 X-13.4725 Y-12.7420
G01 X-13.4144 Y-12.7259
G01 X-13.3570 Y-12.7070
G01 X-13.3007 Y-12.6853
G01 X-13.2455 Y-12.6608
G01 X-13.1916 Y-12.6336
G01 X-13.1391 Y-12.6039
G01 X-13.0881 Y-12.5716
G01 X-13.0387 Y-12.5368
G01 X-12.9911 Y-12.4997
G01 X-12.9454 Y-12.4603
G01 X-12.9017 Y-12.4186
G01 X-12.8600 Y-12.3749
G01 X-12.8206 Y-12.3292
G01 X-12.7835 Y-12.2816
G01 X-12.7487 Y-12.2322
G01 X-12.7164 Y-12.1812
G01 X-12.6867 Y-12.1287
G01 X-12.6595 Y-12.0748
G01 X-12.6350 Y-12.0196
G01 X-12.6133 Y-11.9633
G01 X-12.5944 Y-11.9059
G01 X-12.5783 Y-11.8478
G01 X-12.5651 Y-11.7889
G01 X-12.5547 Y-11.7294
G01 X-12.5473 Y-11.6695
G01 X-12.5429 Y-11.6093
G01 X-12.5414 Y-11.5489
G01 X-12.5429 Y-11.4885
G01 X-12.5473 Y-11.4283
G01 X-12.5547 Y-11.3684
G01 X-12.5651 Y-11.3089
G01 X-12.5783 Y-11.2500
G01 X-12.5944 Y-11.1919
G01 X-12.6133 Y-11.1345
G01 X-12.6350 Y-11.0782
G01 X-12.6595 Y-11.0230
G01 X-12.6867 Y-10.9691
G01 X-12.7164 Y-10.9166
G01 X-12.7487 Y-10.8656
G01 X-12.7835 Y-10.8162
G01 X-12.8206 Y-10.7686
G01 X-12.8600 Y-10.7229
G01 X-12.9017 Y-10.6792
G01 X-12.9454 Y-10.6375
G01 X-12.9911 Y-10.5981
G01 X-13.0387 Y-10.5610
G01 X-13.0881 Y-10.5262
G01 X-13.1391 Y-10.4939
G01 X-13.1916 Y-10.4642
G01 X-13.2455 Y-10.4370
G01 X-13.3007 Y-10.4125
G01 X-13.3570 Y-10.3908
G01 X-13.4144 Y-10.3719
G01 X-13.4725 Y-10.3558
G01 X-13.5314 Y-10.3426
G01 X-13.5909 Y-10.3322
G01 X-13.6508 Y-10.3248
G01 X-13.7110 Y-10.3204
G01 X-13.7714 Y-10.3189
G01 X-13.8318 Y-10.3204
G01 X-13.8920 Y-10.3248
G01 X-13.9519 Y-10.3322
G01 X-14.0114 Y-10.3426
G01 X-14.0703 Y-10.3558
G01 X-14.1284 Y-10.3719
G01 X-14.1858 Y-10.3908
G01 X-14.2421 Y-10.4125
G01 X-14.2973 Y-10.4370
G01 X-14.3512 Y-10.4642
G01 X-14.4037 Y-10.4939
G01 X-14.4547 Y-10.5262
G01 X-14.5041 Y-10.5610
G01 X-14.5517 Y-10.5981
G01 X-14.5974 Y-10.6375
G01 X-14.6411 Y-10.6792
G01 X-14.6828 Y-10.7229
G01 X-14.7222 Y-10.7686
G01 X-14.7593 Y-10.8162
G01 X-14.7941 Y-10.8656
G01 X-14.8264 Y-10.9166
G01 X-14.8561 Y-10.9691
G01 X-14.8833 Y-11.0230
G01 X-14.9078 Y-11.0782
G01 X-14.9295 Y-11.1345
G01 X-14.9484 Y-11.1919
G01 X-14.9645 Y-11.2500
G01 X-14.9739 Y-11.2916
G01 X-14.9797 Y-11.3059
G01 X-14.9852 Y-11.3146
G01 X-14.9913 Y-11.3218
G01 X-14.9983 Y-11.3281
G01 X-15.0062 Y-11.3334
G01 X-15.0146 Y-11.3376
G01 X-15.0236 Y-11.3406
G01 X-15.0328 Y-11.3424
G01 X-15.0423 Y-11.3429
G01 X-15.0517 Y-11.3422
G01 X-15.0609 Y-11.3402
G01 X-15.0698 Y-11.3369
G01 X-15.0781 Y-11.3325
G01 X-15.0858 Y-11.3270
G01 X-15.0927 Y-11.3206
G01 X-15.0986 Y-11.3132
G01 X-15.1035 Y-11.3052
G01 X-15.1089 Y-11.2916
G01 X-15.1183 Y-11.2500
G01 X-15.1344 Y-11.1919
G01 X-15.1533 Y-11.1345
G01 X-15.1750 Y-11.0782
G01 X-15.1995 Y-11.0230
G01 X-15.2267 Y-10.9691
G01 X-15.2564 Y-10.9166
G01 X-15.2887 Y-10.8656
G01 X-15.3235 Y-10.8162
G01 X-15.3606 Y-10.7686
G01 X-15.4000 Y-10.7229
G01 X-15.4417 Y-10.6792
G01 X-15.4854 Y-10.6375
G01 X-15.5311 Y-10.5981
G01 X-15.5787 Y-10.5610
G01 X-15.6281 Y-10.5262
G01 X-15.6791 Y-10.4939
G01 X-15.7316 Y-10.4642
G01 X-15.7855 Y-10.4370
G01 X-15.8407 Y-10.4125
G01 X-15.8970 Y-10.3908
G01 X-15.9544 Y-10.3719
G01 X-16.0125 Y-10.3558
G01 X-16.0714 Y-10.3426
G01 X-16.1309 Y-10.3322
G01 X-16.1908 Y-10.3248
G01 X-16.2510 Y-10.3204
G01 X-16.3114 Y-10.3189
G01 X-16.3718 Y-10.3204
G01 X-16.4320 Y-10.3248
G01 X-16.4919 Y-10.3322
G01 X-16.5514 Y-10.3426
G01 X-16.6103 Y-10.3558
G01 X-16.6684 Y-10.3719
G01 X-16.7258 Y-10.3908
G01 X-16.7821 Y-10.4125
G01 X-16.8373 Y-10.4370
G01 X-16.8912 Y-10.4642
G01 X-16.9437 Y-10.4939
G01 X-16.9947 Y-10.5262
G01 X-17.0441 Y-10.5610
G01 X-17.0917 Y-10.5981
G01 X-17.1374 Y-10.6375
G01 X-17.1811 Y-10.6792
G01 X-17.2228 Y-10.7229
G01 X-17.2622 Y-10.7686
G01 X-17.2993 Y-10.8162
G01 X-17.3341 Y-10.8656
G01 X-17.3664 Y-10.9166
G01 X-17.3961 Y-10.9691
G01 X-17.4233 Y-11.0230
G01 X-17.4478 Y-11.0782
G01 X-17.4695 Y-11.1345
G01 X-17.4884 Y-11.1919
G01 X-17.5045 Y-11.2500
G01 X-17.5138 Y-11.2910
G01 X-17.5171 Y-11.3007
G01 X-17.5223 Y-11.3106
G01 X-17.5296 Y-11.3202
G01 X-17.5377 Y-11.3278
G01 X-17.5469 Y-11.3341
G01 X-17.5595 Y-11.3396
G01 X-17.5729 Y-11.3426
G01 X-17.5866 Y-11.3430
G01 X-17.5993 Y-11.3408
G01 X-17.6122 Y-11.3361
G01 X-17.6231 Y-11.3294
G01 X-17.6333 Y-11.3202
G01 X-17.6410 Y-11.3099
G01 X-17.6454 Y-11.3015
G01 X-17.6484 Y-11.2935
G01 X-17.6584 Y-11.2500
G01 X-17.6745 Y-11.1919
G01 X-17.6934 Y-11.1345
G01 X-17.7151 Y-11.0782
G01 X-17.7448 Y-11.0126
G01 X-17.8656 Y-11.1334
G01 X-17.8440 Y-11.1884
G01 X-17.8276 Y-11.2383
G01 X-17.8136 Y-11.2889
G01 X-17.8021 Y-11.3402
G01 X-17.7931 Y-11.3919
G01 X-17.7867 Y-11.4440
G01 X-17.7828 Y-11.4964
G01 X-17.7815 Y-11.5489
G01 X-17.7828 Y-11.6014
G01 X-17.7867 Y-11.6538
G01 X-17.7931 Y-11.7059
G01 X-17.8021 Y-11.7576
G01 X-17.8136 Y-11.8089
G01 X-17.8276 Y-11.8595
G01 X-17.8440 Y-11.9094
G01 X-17.8656 Y-11.9644
G00 Z2.0000
G00 X-17.7837 Y-11.9474
G01 F70.00
G01 Z-0.0600
G01 F120.00
G01 X-17.7683 Y-11.9628
G01 X-17.7593 Y-11.9397
G01 X-17.7415 Y-11.8856
G01 X-17.7263 Y-11.8307
G01 X-17.7173 Y-11.7906
G01 X-17.7127 Y-11.7759
G01 X-17.7057 Y-11.7602
G01 X-17.6979 Y-11.7469
G01 X-17.6886 Y-11.7345
G01 X-17.6780 Y-11.7233
G01 X-17.6621 Y-11.7102
G01 X-17.6444 Y-11.6996
G01 X-17.6237 Y-11.6912
G01 X-17.6037 Y-11.6864
G01 X-17.5814 Y-11.6847
G01 X-17.5609 Y-11.6862
G01 X-17.5408 Y-11.6907
G01 X-17.5216 Y-11.6981
G01 X-17.5110 Y-11.7037
G01 X-17.5008 Y-11.7102
G01 X-17.4837 Y-11.7245
G01 X-17.4754 Y-11.7332
G01 X-17.4680 Y-11.7426
G01 X-17.4564 Y-11.7617
G01 X-17.4508 Y-11.7743
G01 X-17.4465 Y-11.7873
G01 X-17.4366 Y-11.8307
G01 X-17.4214 Y-11.8856
G01 X-17.4036 Y-11.9397
G01 X-17.3831 Y-11.9928
G01 X-17.3600 Y-12.0448
G01 X-17.3344 Y-12.0957
G01 X-17.3063 Y-12.1452
G01 X-17.2759 Y-12.1933
G01 X-17.2431 Y-12.2399
G01 X-17.2081 Y-12.2848
G01 X-17.1709 Y-12.3279
G01 X-17.1316 Y-12.3691
G01 X-17.0904 Y-12.4084
G01 X-17.0473 Y-12.4456
G01 X-17.0024 Y-12.4806
G01 X-16.9558 Y-12.5134
G01 X-16.9077 Y-12.5438
G01 X-16.8582 Y-12.5719
G01 X-16.8073 Y-12.5975
G01 X-16.7553 Y-12.6206
G01 X-16.7022 Y-12.6411
G01 X-16.6481 Y-12.6589
G01 X-16.5932 Y-12.6741
G01 X-16.5377 Y-12.6866
G01 X-16.4816 Y-12.6963
G01 X-16.4251 Y-12.7033
G01 X-16.3683 Y-12.7075
G01 X-16.3114 Y-12.7089
G01 X-16.2545 Y-12.7075
G01 X-16.1977 Y-12.7033
G01 X-16.1412 Y-12.6963
G01 X-16.0851 Y-12.6866
G01 X-16.0296 Y-12.6741
G01 X-15.9747 Y-12.6589
G01 X-15.9206 Y-12.6411
G01 X-15.8675 Y-12.6206
G01 X-15.8155 Y-12.5975
G01 X-15.7646 Y-12.5719
G01 X-15.7151 Y-12.5438
G01 X-15.6670 Y-12.5134
G01 X-15.6204 Y-12.4806
G01 X-15.5755 Y-12.4456
G01 X-15.5324 Y-12.4084
G01 X-15.4912 Y-12.3691
G01 X-15.4519 Y-12.3279
G01 X-15.4147 Y-12.2848
G01 X-15.3797 Y-12.2399
G01 X-15.3469 Y-12.1933
G01 X-15.3165 Y-12.1452
G01 X-15.2884 Y-12.0957
G01 X-15.2628 Y-12.0448
G01 X-15.2397 Y-11.9928
G01 X-15.2192 Y-11.9397
G01 X-15.2014 Y-11.8856
G01 X-15.1862 Y-11.8307
G01 X-15.1776 Y-11.7925
G01 X-15.1738 Y-11.7793
G01 X-15.1657 Y-11.7604
G01 X-15.1538 Y-11.7415
G01 X-15.1416 Y-11.7271
G01 X-15.1275 Y-11.7145
G01 X-15.1119 Y-11.7039
G01 X-15.0934 Y-11.6949
G01 X-15.0737 Y-11.6887
G01 X-15.0551 Y-11.6856
G01 X-15.0345 Y-11.6850
G01 X-15.0158 Y-11.6872
G01 X-15.0008 Y-11.6909
G01 X-14.9862 Y-11.6962
G01 X-14.9724 Y-11.7031
G01 X-14.9594 Y-11.7114
G01 X-14.9474 Y-11.7211
G01 X-14.9365 Y-11.7321
G01 X-14.9269 Y-11.7443
G01 X-14.9188 Y-11.7574
G01 X-14.9121 Y-11.7713
G01 X-14.9069 Y-11.7859
G01 X-14.8966 Y-11.8307
G01 X-14.8814 Y-11.8856
G01 X-14.8636 Y-11.9397
G01 X-14.8431 Y-11.9928
G01 X-14.8200 Y-12.0448
G01 X-14.7944 Y-12.0957
G01 X-14.7663 Y-12.1452
G01 X-14.7359 Y-12.1933
G01 X-14.7031 Y-12.2399
G01 X-14.6681 Y-12.2848
G01 X-14.6309 Y-12.3279
G01 X-14.5916 Y-12.3691
G01 X-14.5504 Y-12.4084
G01 X-14.5073 Y-12.4456
G01 X-14.4624 Y-12.4806
G01 X-14.4158 Y-12.5134
G01 X-14.3677 Y-12.5438
G01 X-14.3182 Y-12.5719
G01 X-14.2673 Y-12.5975
G01 X-14.2153 Y-12.6206
G01 X-14.1622 Y-12.6411
G01 X-14.1081 Y-12.6589
G01 X-14.0532 Y-12.6741
G01 X-13.9977 Y-12.6866
G01 X-13.9416 Y-12.6963
G01 X-13.8851 Y-12.7033
G01 X-13.8283 Y-12.7075
G01 X-13.7714 Y-12.7089
G01 X-13.7145 Y-12.7075
G01 X-13.6577 Y-12.7033
G01 X-13.6012 Y-12.6963
G01 X-13.5451 Y-12.6866
G01 X-13.4896 Y-12.6741
G01 X-13.4347 Y-12.6589
G01 X-13.3806 Y-12.6411
G01 X-13.3275 Y-12.6206
G01 X-13.2755 Y-12.5975
G01 X-13.2246 Y-12.5719
G01 X-13.1751 Y-12.5438
G01 X-13.1270 Y-12.5134
G01 X-13.0804 Y-12.4806
G01 X-13.0355 Y-12.4456
G01 X-12.9924 Y-12.4084
G01 X-12.9512 Y-12.3691
G01 X-12.9119 Y-12.3279
G01 X-12.8747 Y-12.2848
G01 X-12.8397 Y-12.2399
G01 X-12.8069 Y-12.1933
G01 X-12.7765 Y-12.1452
G01 X-12.7484 Y-12.0957
G01 X-12.7228 Y-12.0448
G01 X-12.6997 Y-11.9928
G01 X-12.6792 Y-11.9397
G01 X-12.6614 Y-11.8856
G01 X-12.6462 Y-11.8307
G01 X-12.6337 Y-11.7752
G01 X-12.6240 Y-11.7191
G01 X-12.6170 Y-11.6626
G01 X-12.6128 Y-11.6058
G01 X-12.6114 Y-11.5489
G01 X-12.6128 Y-11.4920
G01 X-12.6170 Y-11.4352
G01 X-12.6240 Y-11.3787
G01 X-12.6337 Y-11.3226
G01 X-12.6462 Y-11.2671
G01 X-12.6614 Y-11.2122
G01 X-12.6792 Y-11.1581
G01 X-12.6997 Y-11.1050
G01 X-12.7228 Y-11.0530
G01 X-12.7484 Y-11.0021
G01 X-12.7765 Y-10.9526
G01 X-12.8069 Y-10.9045
G01 X-12.8397 Y-10.8579
G01 X-12.8747 Y-10.8130
G01 X-12.9119 Y-10.7699
G01 X-12.9512 Y-10.7287
G01 X-12.9924 Y-10.6894
G01 X-13.0355 Y-10.6522
G01 X-13.0804 Y-10.6172
G01 X-13.1270 Y-10.5844
G01 X-13.1751 Y-10.5540
G01 X-13.2246 Y-10.5259
G01 X-13.2755 Y-10.5003
G01 X-13.3275 Y-10.4772
G01 X-13.3806 Y-10.4567
G01 X-13.4347 Y-10.4389
G01 X-13.4896 Y-10.4237
G01 X-13.5451 Y-10.4112
G01 X-13.6012 Y-10.4015
G01 X-13.6577 Y-10.3945
G01 X-13.7145 Y-10.3903
G01 X-13.7714 Y-10.3889
G01 X-13.8283 Y-10.3903
G01 X-13.8851 Y-10.3945
G01 X-13.9416 Y-10.4015
G01 X-13.9977 Y-10.4112
G01 X-14.0532 Y-10.4237
G01 X-14.1081 Y-10.4389
G01 X-14.1622 Y-10.4567
G01 X-14.2153 Y-10.4772
G01 X-14.2673 Y-10.5003
G01 X-14.3182 Y-10.5259
G01 X-14.3677 Y-10.5540
G01 X-14.4158 Y-10.5844
G01 X-14.4624 Y-10.6172
G01 X-14.5073 Y-10.6522
G01 X-14.5504 Y-10.6894
G01 X-14.5916 Y-10.7287
G01 X-14.6309 Y-10.7699
G01 X-14.6681 Y-10.8130
G01 X-14.7031 Y-10.8579
G01 X-14.7359 Y-10.9045
G01 X-14.7663 Y-10.9526
G01 X-14.7944 Y-11.0021
G01 X-14.8200 Y-11.0530
G01 X-14.8431 Y-11.1050
G01 X-14.8636 Y-11.1581
G01 X-14.8814 Y-11.2122
G01 X-14.8966 Y-11.2671
G01 X-14.9079 Y-11.3152
G01 X-14.9141 Y-11.3312
G01 X-14.9222 Y-11.3464
G01 X-14.9321 Y-11.3604
G01 X-14.9449 Y-11.3743
G01 X-14.9594 Y-11.3864
G01 X-14.9739 Y-11.3956
G01 X-14.9910 Y-11.4035
G01 X-15.0074 Y-11.4087
G01 X-15.0260 Y-11.4121
G01 X-15.0431 Y-11.4129
G01 X-15.0585 Y-11.4119
G01 X-15.0754 Y-11.4087
G01 X-15.0902 Y-11.4042
G01 X-15.1059 Y-11.3972
G01 X-15.1206 Y-11.3884
G01 X-15.1328 Y-11.3789
G01 X-15.1440 Y-11.3682
G01 X-15.1549 Y-11.3549
G01 X-15.1657 Y-11.3374
G01 X-15.1738 Y-11.3185
G01 X-15.1776 Y-11.3053
G01 X-15.1862 Y-11.2671
G01 X-15.2014 Y-11.2122
G01 X-15.2192 Y-11.1581
G01 X-15.2397 Y-11.1050
G01 X-15.2628 Y-11.0530
G01 X-15.2884 Y-11.0021
G01 X-15.3165 Y-10.9526
G01 X-15.3469 Y-10.9045
G01 X-15.3797 Y-10.8579
G01 X-15.4147 Y-10.8130
G01 X-15.4519 Y-10.7699
G01 X-15.4912 Y-10.7287
G01 X-15.5324 Y-10.6894
G01 X-15.5755 Y-10.6522
G01 X-15.6204 Y-10.6172
G01 X-15.6670 Y-10.5844
G01 X-15.7151 Y-10.5540
G01 X-15.7646 Y-10.5259
G01 X-15.8155 Y-10.5003
G01 X-15.8675 Y-10.4772
G01 X-15.9206 Y-10.4567
G01 X-15.9747 Y-10.4389
G01 X-16.0296 Y-10.4237
G01 X-16.0851 Y-10.4112
G01 X-16.1412 Y-10.4015
G01 X-16.1977 Y-10.3945
G01 X-16.2545 Y-10.3903
G01 X-16.3114 Y-10.3889
G01 X-16.3683 Y-10.3903
G01 X-16.4251 Y-10.3945
G01 X-16.4816 Y-10.4015
G01 X-16.5377 Y-10.4112
G01 X-16.5932 Y-10.4237
G01 X-16.6481 Y-10.4389
G01 X-16.7022 Y-10.4567
G01 X-16.7553 Y-10.4772
G01 X-16.8073 Y-10.5003
G01 X-16.8582 Y-10.5259
G01 X-16.9077 Y-10.5540
G01 X-16.9558 Y-10.5844
G01 X-17.0024 Y-10.6172
G01 X-17.0473 Y-10.6522
G01 X-17.0904 Y-10.6894
G01 X-17.1316 Y-10.7287
G01 X-17.1709 Y-10.7699
G01 X-17.2081 Y-10.8130
G01 X-17.2431 Y-10.8579
G01 X-17.2759 Y-10.9045
G01 X-17.3063 Y-10.9526
G01 X-17.3344 Y-11.0021
G01 X-17.3600 Y-11.0530
G01 X-17.3831 Y-11.1050
G01 X-17.4036 Y-11.1581
G01 X-17.4214 Y-11.2122
G01 X-17.4366 Y-11.2671
G01 X-17.4465 Y-11.3105
G01 X-17.4502 Y-11.3219
G01 X-17.4549 Y-11.3330
G01 X-17.4660 Y-11.3523
G01 X-17.4789 Y-11.3684
G01 X-17.4953 Y-11.3835
G01 X-17.5139 Y-11.3958
G01 X-17.5327 Y-11.4044
G01 X-17.5541 Y-11.4105
G01 X-17.5746 Y-11.4130
G01 X-17.5969 Y-11.4123
G01 X-17.6171 Y-11.4085
G01 X-17.6382 Y-11.4011
G01 X-17.6578 Y-11.3905
G01 X-17.6755 Y-11.3769
G01 X-17.6863 Y-11.3659
G01 X-17.6969 Y-11.3523
G01 X-17.7049 Y-11.3391
G01 X-17.7121 Y-11.3235
G01 X-17.7168 Y-11.3088
G01 X-17.7263 Y-11.2671
G01 X-17.7415 Y-11.2122
G01 X-17.7593 Y-11.1581
G01 X-17.7683 Y-11.1350
G01 X-17.7837 Y-11.1504
G01 X-17.7776 Y-11.1665
G01 X-17.7601 Y-11.2196
G01 X-17.7457 Y-11.2719
G01 X-17.7331 Y-11.3282
G01 X-17.7238 Y-11.3816
G01 X-17.7170 Y-11.4372
G01 X-17.7129 Y-11.4930
G01 X-17.7115 Y-11.5489
G01 X-17.7129 Y-11.6048
G01 X-17.7170 Y-11.6606
G01 X-17.7238 Y-11.7162
G01 X-17.7331 Y-11.7696
G01 X-17.7457 Y-11.8259
G01 X-17.7601 Y-11.8782
G01 X-17.7776 Y-11.9313
G01 X-17.7837 Y-11.9474
G00 Z2.0000
G00 X-17.4462 Y-11.6572
G01 F70.00
G01 Z-0.0600
G01 F120.00
G01 X-17.4391 Y-11.7162
G01 X-17.4295 Y-11.7713
G01 X-17.4172 Y-11.8259
G01 X-17.4023 Y-11.8798
G01 X-17.3848 Y-11.9330
G01 X-17.3646 Y-11.9852
G01 X-17.3422 Y-12.0358
G01 X-17.3165 Y-12.0868
G01 X-17.2891 Y-12.1352
G01 X-17.2594 Y-12.1821
G01 X-17.2271 Y-12.2280
G01 X-17.1924 Y-12.2724
G01 X-17.1561 Y-12.3145
G01 X-17.1175 Y-12.3550
G01 X-17.0770 Y-12.3935
G01 X-17.0346 Y-12.4301
G01 X-16.9905 Y-12.4646
G01 X-16.9448 Y-12.4968
G01 X-16.8977 Y-12.5266
G01 X-16.8488 Y-12.5543
G01 X-16.7993 Y-12.5792
G01 X-16.7477 Y-12.6021
G01 X-16.6955 Y-12.6223
G01 X-16.6423 Y-12.6398
G01 X-16.5884 Y-12.6547
G01 X-16.5338 Y-12.6670
G01 X-16.4787 Y-12.6766
G01 X-16.4231 Y-12.6834
G01 X-16.3673 Y-12.6875
G01 X-16.3114 Y-12.6889
G01 X-16.2555 Y-12.6875
G01 X-16.1997 Y-12.6834
G01 X-16.1441 Y-12.6766
G01 X-16.0890 Y-12.6670
G01 X-16.0344 Y-12.6547
G01 X-15.9805 Y-12.6398
G01 X-15.9273 Y-12.6223
G01 X-15.8751 Y-12.6021
G01 X-15.8245 Y-12.5797
G01 X-15.7735 Y-12.5540
G01 X-15.7251 Y-12.5266
G01 X-15.6782 Y-12.4969
G01 X-15.6323 Y-12.4646
G01 X-15.5879 Y-12.4299
G01 X-15.5458 Y-12.3936
G01 X-15.5053 Y-12.3550
G01 X-15.4668 Y-12.3145
G01 X-15.4302 Y-12.2721
G01 X-15.3957 Y-12.2280
G01 X-15.3635 Y-12.1823
G01 X-15.3337 Y-12.1352
G01 X-15.3060 Y-12.0863
G01 X-15.2811 Y-12.0368
G01 X-15.2582 Y-11.9852
G01 X-15.2380 Y-11.9330
G01 X-15.2205 Y-11.8798
G01 X-15.2056 Y-11.8259
G01 X-15.1933 Y-11.7713
G01 X-15.1837 Y-11.7162
G01 X-15.1769 Y-11.6606
G01 X-15.1728 Y-11.6048
G01 X-15.1714 Y-11.5489
G01 X-15.1728 Y-11.4930
G01 X-15.1769 Y-11.4372
G01 X-15.1837 Y-11.3816
G01 X-15.1933 Y-11.3265
G01 X-15.2056 Y-11.2719
G01 X-15.2205 Y-11.2180
G01 X-15.2380 Y-11.1648
G01 X-15.2582 Y-11.1126
G01 X-15.2806 Y-11.0620
G01 X-15.3063 Y-11.0110
G01 X-15.3337 Y-10.9626
G01 X-15.3634 Y-10.9157
G01 X-15.3957 Y-10.8698
G01 X-15.4304 Y-10.8254
G01 X-15.4667 Y-10.7833
G01 X-15.5053 Y-10.7428
G01 X-15.5458 Y-10.7043
G01 X-15.5882 Y-10.6677
G01 X-15.6323 Y-10.6332
G01 X-15.6780 Y-10.6010
G01 X-15.7251 Y-10.5712
G01 X-15.7740 Y-10.5435
G01 X-15.8235 Y-10.5186
G01 X-15.8751 Y-10.4957
G01 X-15.9273 Y-10.4755
G01 X-15.9805 Y-10.4580
G01 X-16.0344 Y-10.4431
G01 X-16.0890 Y-10.4308
G01 X-16.1441 Y-10.4212
G01 X-16.1997 Y-10.4144
G01 X-16.2555 Y-10.4103
G01 X-16.3114 Y-10.4089
G01 X-16.3673 Y-10.4103
G01 X-16.4231 Y-10.4144
G01 X-16.4787 Y-10.4212
G01 X-16.5338 Y-10.4308
G01 X-16.5884 Y-10.4431
G01 X-16.6423 Y-10.4580
G01 X-16.6955 Y-10.4755
G01 X-16.7477 Y-10.4957
G01 X-16.7983 Y-10.5181
G01 X-16.8493 Y-10.5438
G01 X-16.8977 Y-10.5712
G01 X-16.9446 Y-10.6009
G01 X-16.9905 Y-10.6332
G01 X-17.0349 Y-10.6679
G01 X-17.0770 Y-10.7042
G01 X-17.1175 Y-10.7428
G01 X-17.1560 Y-10.7833
G01 X-17.1926 Y-10.8257
G01 X-17.2271 Y-10.8698
G01 X-17.2593 Y-10.9155
G01 X-17.2892 Y-10.9628
G01 X-17.3168 Y-11.0115
G01 X-17.3419 Y-11.0615
G01 X-17.3646 Y-11.1126
G01 X-17.3848 Y-11.1648
G01 X-17.4023 Y-11.2180
G01 X-17.4172 Y-11.2719
G01 X-17.4295 Y-11.3265
G01 X-17.4391 Y-11.3816
G01 X-17.4459 Y-11.4372
G01 X-17.4500 Y-11.4930
G01 X-17.4514 Y-11.5489
G01 X-17.4500 Y-11.6048
G01 X-17.4462 Y-11.6572
G00 Z2.0000
G00 X-17.3764 Y-11.6521
G01 F70.00
G01 Z-0.0600
G01 F120.00
G01 X-17.3698 Y-11.7059
G01 X-17.3608 Y-11.7576
G01 X-17.3493 Y-11.8089
G01 X-17.3353 Y-11.8595
G01 X-17.3189 Y-11.9094
G01 X-17.3000 Y-11.9584
G01 X-17.2788 Y-12.0061
G01 X-17.2549 Y-12.0536
G01 X-17.2291 Y-12.0991
G01 X-17.2011 Y-12.1433
G01 X-17.1708 Y-12.1863
G01 X-17.1384 Y-12.2278
G01 X-17.1042 Y-12.2675
G01 X-17.0680 Y-12.3055
G01 X-17.0300 Y-12.3417
G01 X-16.9902 Y-12.3760
G01 X-16.9488 Y-12.4083
G01 X-16.9059 Y-12.4386
G01 X-16.8616 Y-12.4666
G01 X-16.8158 Y-12.4926
G01 X-16.7691 Y-12.5161
G01 X-16.7209 Y-12.5375
G01 X-16.6719 Y-12.5564
G01 X-16.6220 Y-12.5728
G01 X-16.5714 Y-12.5868
G01 X-16.5201 Y-12.5983
G01 X-16.4684 Y-12.6073
G01 X-16.4163 Y-12.6137
G01 X-16.3639 Y-12.6176
G01 X-16.3114 Y-12.6189
G01 X-16.2589 Y-12.6176
G01 X-16.2065 Y-12.6137
G01 X-16.1544 Y-12.6073
G01 X-16.1027 Y-12.5983
G01 X-16.0514 Y-12.5868
G01 X-16.0008 Y-12.5728
G01 X-15.9509 Y-12.5564
G01 X-15.9019 Y-12.5375
G01 X-15.8542 Y-12.5163
G01 X-15.8067 Y-12.4924
G01 X-15.7612 Y-12.4666
G01 X-15.7170 Y-12.4386
G01 X-15.6740 Y-12.4083
G01 X-15.6325 Y-12.3759
G01 X-15.5928 Y-12.3417
G01 X-15.5548 Y-12.3055
G01 X-15.5186 Y-12.2675
G01 X-15.4843 Y-12.2277
G01 X-15.4520 Y-12.1863
G01 X-15.4217 Y-12.1434
G01 X-15.3937 Y-12.0991
G01 X-15.3677 Y-12.0533
G01 X-15.3442 Y-12.0066
G01 X-15.3228 Y-11.9584
G01 X-15.3039 Y-11.9094
G01 X-15.2875 Y-11.8595
G01 X-15.2735 Y-11.8089
G01 X-15.2620 Y-11.7576
G01 X-15.2530 Y-11.7059
G01 X-15.2466 Y-11.6538
G01 X-15.2427 Y-11.6014
G01 X-15.2414 Y-11.5489
G01 X-15.2427 Y-11.4964
G01 X-15.2466 Y-11.4440
G01 X-15.2530 Y-11.3919
G01 X-15.2620 Y-11.3402
G01 X-15.2735 Y-11.2889
G01 X-15.2875 Y-11.2383
G01 X-15.3039 Y-11.1884
G01 X-15.3228 Y-11.1394
G01 X-15.3440 Y-11.0917
G01 X-15.3679 Y-11.0442
G01 X-15.3937 Y-10.9987
G01 X-15.4217 Y-10.9545
G01 X-15.4520 Y-10.9115
G01 X-15.4844 Y-10.8700
G01 X-15.5186 Y-10.8303
G01 X-15.5548 Y-10.7923
G01 X-15.5928 Y-10.7561
G01 X-15.6326 Y-10.7218
G01 X-15.6740 Y-10.6895
G01 X-15.7169 Y-10.6592
G01 X-15.7612 Y-10.6312
G01 X-15.8070 Y-10.6052
G01 X-15.8537 Y-10.5817
G01 X-15.9019 Y-10.5603
G01 X-15.9509 Y-10.5414
G01 X-16.0008 Y-10.5250
G01 X-16.0514 Y-10.5110
G01 X-16.1027 Y-10.4995
G01 X-16.1544 Y-10.4905
G01 X-16.2065 Y-10.4841
G01 X-16.2589 Y-10.4802
G01 X-16.3114 Y-10.4789
G01 X-16.3639 Y-10.4802
G01 X-16.4163 Y-10.4841
G01 X-16.4684 Y-10.4905
G01 X-16.5201 Y-10.4995
G01 X-16.5714 Y-10.5110
G01 X-16.6220 Y-10.5250
G01 X-16.6719 Y-10.5414
G01 X-16.7209 Y-10.5603
G01 X-16.7686 Y-10.5815
G01 X-16.8161 Y-10.6054
G01 X-16.8616 Y-10.6312
G01 X-16.9058 Y-10.6592
G01 X-16.9488 Y-10.6895
G01 X-16.9903 Y-10.7219
G01 X-17.0300 Y-10.7561
G01 X-17.0680 Y-10.7923
G01 X-17.1042 Y-10.8303
G01 X-17.1385 Y-10.8701
G01 X-17.1708 Y-10.9115
G01 X-17.2011 Y-10.9544
G01 X-17.2292 Y-10.9988
G01 X-17.2551 Y-11.0445
G01 X-17.2787 Y-11.0914
G01 X-17.3000 Y-11.1394
G01 X-17.3189 Y-11.1884
G01 X-17.3353 Y-11.2383
G01 X-17.3493 Y-11.2889
G01 X-17.3608 Y-11.3402
G01 X-17.3698 Y-11.3919
G01 X-17.3762 Y-11.4440
G01 X-17.3801 Y-11.4964
G01 X-17.3814 Y-11.5489
G01 X-17.3801 Y-11.6014
G01 X-17.3764 Y-11.6521
G00 Z2.0000
G00 X-17.6441 Y-11.4736
G01 F70.00
G01 Z-0.0600
G01 F120.00
G01 X-17.6428 Y-11.4921
G01 X-17.6415 Y-11.5489
G01 X-17.6428 Y-11.6057
G01 X-17.6441 Y-11.6242
G01 X-17.6275 Y-11.6198
G01 X-17.6123 Y-11.6169
G01 X-17.5969 Y-11.6152
G01 X-17.5814 Y-11.6147
G01 X-17.5660 Y-11.6152
G01 X-17.5506 Y-11.6169
G01 X-17.5354 Y-11.6198
G01 X-17.5188 Y-11.6242
G01 X-17.5201 Y-11.6057
G01 X-17.5214 Y-11.5489
G01 X-17.5201 Y-11.4921
G01 X-17.5188 Y-11.4736
G01 X-17.5354 Y-11.4780
G01 X-17.5506 Y-11.4809
G01 X-17.5660 Y-11.4826
G01 X-17.5815 Y-11.4831
G01 X-17.5969 Y-11.4826
G01 X-17.6123 Y-11.4809
G01 X-17.6275 Y-11.4780
G01 X-17.6441 Y-11.4736
G00 Z2.0000
G00 X-15.1040 Y-11.6244
G01 F70.00
G01 Z-0.0600
G01 F120.00
G01 X-15.0874 Y-11.6200
G01 X-15.0722 Y-11.6171
G01 X-15.0568 Y-11.6154
G01 X-15.0414 Y-11.6149
G01 X-15.0260 Y-11.6154
G01 X-15.0106 Y-11.6171
G01 X-14.9954 Y-11.6200
G01 X-14.9788 Y-11.6244
G01 X-14.9801 Y-11.6057
G01 X-14.9814 Y-11.5489
G01 X-14.9801 Y-11.4921
G01 X-14.9788 Y-11.4734
G01 X-14.9954 Y-11.4778
G01 X-15.0106 Y-11.4807
G01 X-15.0260 Y-11.4824
G01 X-15.0414 Y-11.4829
G01 X-15.0568 Y-11.4824
G01 X-15.0722 Y-11.4807
G01 X-15.0874 Y-11.4778
G01 X-15.1040 Y-11.4734
G01 X-15.1027 Y-11.4921
G01 X-15.1014 Y-11.5489
G01 X-15.1027 Y-11.6057
G01 X-15.1040 Y-11.6244
G00 Z2.0000
G00 X-14.9062 Y-11.6572
G01 F70.00
G01 Z-0.0600
G01 F120.00
G01 X-14.8991 Y-11.7162
G01 X-14.8895 Y-11.7713
G01 X-14.8772 Y-11.8259
G01 X-14.8623 Y-11.8798
G01 X-14.8448 Y-11.9330
G01 X-14.8246 Y-11.9852
G01 X-14.8022 Y-12.0358
G01 X-14.7765 Y-12.0868
G01 X-14.7491 Y-12.1352
G01 X-14.7194 Y-12.1821
G01 X-14.6871 Y-12.2280
G01 X-14.6524 Y-12.2724
G01 X-14.6161 Y-12.3145
G01 X-14.5775 Y-12.3550
G01 X-14.5370 Y-12.3935
G01 X-14.4946 Y-12.4301
G01 X-14.4505 Y-12.4646
G01 X-14.4048 Y-12.4968
G01 X-14.3577 Y-12.5266
G01 X-14.3088 Y-12.5543
G01 X-14.2593 Y-12.5792
G01 X-14.2077 Y-12.6021
G01 X-14.1555 Y-12.6223
G01 X-14.1023 Y-12.6398
G01 X-14.0484 Y-12.6547
G01 X-13.9938 Y-12.6670
G01 X-13.9387 Y-12.6766
G01 X-13.8831 Y-12.6834
G01 X-13.8273 Y-12.6875
G01 X-13.7714 Y-12.6889
G01 X-13.7155 Y-12.6875
G01 X-13.6597 Y-12.6834
G01 X-13.6041 Y-12.6766
G01 X-13.5490 Y-12.6670
G01 X-13.4944 Y-12.6547
G01 X-13.4405 Y-12.6398
G01 X-13.3873 Y-12.6223
G01 X-13.3351 Y-12.6021
G01 X-13.2845 Y-12.5797
G01 X-13.2335 Y-12.5540
G01 X-13.1851 Y-12.5266
G01 X-13.1382 Y-12.4969
G01 X-13.0923 Y-12.4646
G01 X-13.0479 Y-12.4299
G01 X-13.0058 Y-12.3936
G01 X-12.9653 Y-12.3550
G01 X-12.9268 Y-12.3145
G01 X-12.8902 Y-12.2721
G01 X-12.8557 Y-12.2280
G01 X-12.8235 Y-12.1823
G01 X-12.7937 Y-12.1352
G01 X-12.7660 Y-12.0863
G01 X-12.7411 Y-12.0368
G01 X-12.7182 Y-11.9852
G01 X-12.6980 Y-11.9330
G01 X-12.6805 Y-11.8798
G01 X-12.6656 Y-11.8259
G01 X-12.6533 Y-11.7713
G01 X-12.6437 Y-11.7162
G01 X-12.6369 Y-11.6606
G01 X-12.6328 Y-11.6048
G01 X-12.6314 Y-11.5489
G01 X-12.6328 Y-11.4930
G01 X-12.6369 Y-11.4372
G01 X-12.6437 Y-11.3816
G01 X-12.6533 Y-11.3265
G01 X-12.6656 Y-11.2719
G01 X-12.6805 Y-11.2180
G01 X-12.6980 Y-11.1648
G01 X-12.7182 Y-11.1126
G01 X-12.7406 Y-11.0620
G01 X-12.7663 Y-11.0110
G01 X-12.7937 Y-10.9626
G01 X-12.8234 Y-10.9157
G01 X-12.8557 Y-10.8698
G01 X-12.8904 Y-10.8254
G01 X-12.9267 Y-10.7833
G01 X-12.9653 Y-10.7428
G01 X-13.0058 Y-10.7043
G01 X-13.0482 Y-10.6677
G01 X-13.0923 Y-10.6332
G01 X-13.1380 Y-10.6010
G01 X-13.1851 Y-10.5712
G01 X-13.2340 Y-10.5435
G01 X-13.2835 Y-10.5186
G01 X-13.3351 Y-10.4957
G01 X-13.3873 Y-10.4755
G01 X-13.4405 Y-10.4580
G01 X-13.4944 Y-10.4431
G01 X-13.5490 Y-10.4308
G01 X-13.6041 Y-10.4212
G01 X-13.6597 Y-10.4144
G01 X-13.7155 Y-10.4103
G01 X-13.7714 Y-10.4089
G01 X-13.8273 Y-10.4103
G01 X-13.8831 Y-10.4144
G01 X-13.9387 Y-10.4212
G01 X-13.9938 Y-10.4308
G01 X-14.0484 Y-10.4431
G01 X-14.1023 Y-10.4580
G01 X-14.1555 Y-10.4755
G01 X-14.2077 Y-10.4957
G01 X-14.2583 Y-10.5181
G01 X-14.3093 Y-10.5438
G01 X-14.3577 Y-10.5712
G01 X-14.4046 Y-10.6009
G01 X-14.4505 Y-10.6332
G01 X-14.4949 Y-10.6679
G01 X-14.5370 Y-10.7042
G01 X-14.5775 Y-10.7428
G01 X-14.6160 Y-10.7833
G01 X-14.6526 Y-10.8257
G01 X-14.6871 Y-10.8698
G01 X-14.7193 Y-10.9155
G01 X-14.7492 Y-10.9628
G01 X-14.7768 Y-11.0115
G01 X-14.8019 Y-11.0615
G01 X-14.8246 Y-11.1126
G01 X-14.8448 Y-11.1648
G01 X-14.8623 Y-11.2180
G01 X-14.8772 Y-11.2719
G01 X-14.8895 Y-11.3265
G01 X-14.8991 Y-11.3816
G01 X-14.9059 Y-11.4372
G01 X-14.9100 Y-11.4930
G01 X-14.9114 Y-11.5489
G01 X-14.9100 Y-11.6048
G01 X-14.9062 Y-11.6572
G00 Z2.0000
G00 X-14.8364 Y-11.6521
G01 F70.00
G01 Z-0.0600
G01 F120.00
G01 X-14.8298 Y-11.7059
G01 X-14.8208 Y-11.7576
G01 X-14.8093 Y-11.8089
G01 X-14.7953 Y-11.8595
G01 X-14.7789 Y-11.9094
G01 X-14.7600 Y-11.9584
G01 X-14.7388 Y-12.0061
G01 X-14.7149 Y-12.0536
G01 X-14.6891 Y-12.0991
G01 X-14.6611 Y-12.1433
G01 X-14.6308 Y-12.1863
G01 X-14.5984 Y-12.2278
G01 X-14.5642 Y-12.2675
G01 X-14.5280 Y-12.3055
G01 X-14.4900 Y-12.3417
G01 X-14.4502 Y-12.3760
G01 X-14.4088 Y-12.4083
G01 X-14.3659 Y-12.4386
G01 X-14.3216 Y-12.4666
G01 X-14.2758 Y-12.4926
G01 X-14.2291 Y-12.5161
G01 X-14.1809 Y-12.5375
G01 X-14.1319 Y-12.5564
G01 X-14.0820 Y-12.5728
G01 X-14.0314 Y-12.5868
G01 X-13.9801 Y-12.5983
G01 X-13.9284 Y-12.6073
G01 X-13.8763 Y-12.6137
G01 X-13.8239 Y-12.6176
G01 X-13.7714 Y-12.6189
G01 X-13.7189 Y-12.6176
G01 X-13.6665 Y-12.6137
G01 X-13.6144 Y-12.6073
G01 X-13.5627 Y-12.5983
G01 X-13.5114 Y-12.5868
G01 X-13.4608 Y-12.5728
G01 X-13.4109 Y-12.5564
G01 X-13.3619 Y-12.5375
G01 X-13.3142 Y-12.5163
G01 X-13.2667 Y-12.4924
G01 X-13.2212 Y-12.4666
G01 X-13.1770 Y-12.4386
G01 X-13.1340 Y-12.4083
G01 X-13.0925 Y-12.3759
G01 X-13.0528 Y-12.3417
G01 X-13.0148 Y-12.3055
G01 X-12.9786 Y-12.2675
G01 X-12.9443 Y-12.2277
G01 X-12.9120 Y-12.1863
G01 X-12.8817 Y-12.1434
G01 X-12.8537 Y-12.0991
G01 X-12.8277 Y-12.0533
G01 X-12.8042 Y-12.0066
G01 X-12.7828 Y-11.9584
G01 X-12.7639 Y-11.9094
G01 X-12.7475 Y-11.8595
G01 X-12.7335 Y-11.8089
G01 X-12.7220 Y-11.7576
G01 X-12.7130 Y-11.7059
G01 X-12.7066 Y-11.6538
G01 X-12.7027 Y-11.6014
G01 X-12.7014 Y-11.5489
G01 X-12.7027 Y-11.4964
G01 X-12.7066 Y-11.4440
G01 X-12.7130 Y-11.3919
G01 X-12.7220 Y-11.3402
G01 X-12.7335 Y-11.2889
G01 X-12.7475 Y-11.2383
G01 X-12.7639 Y-11.1884
G01 X-12.7828 Y-11.1394
G01 X-12.8040 Y-11.0917
G01 X-12.8279 Y-11.0442
G01 X-12.8537 Y-10.9987
G01 X-12.8817 Y-10.9545
G01 X-12.9120 Y-10.9115
G01 X-12.9444 Y-10.8700
G01 X-12.9786 Y-10.8303
G01 X-13.0148 Y-10.7923
G01 X-13.0528 Y-10.7561
G01 X-13.0926 Y-10.7218
G01 X-13.1340 Y-10.6895
G01 X-13.1769 Y-10.6592
G01 X-13.2212 Y-10.6312
G01 X-13.2670 Y-10.6052
G01 X-13.3137 Y-10.5817
G01 X-13.3619 Y-10.5603
G01 X-13.4109 Y-10.5414
G01 X-13.4608 Y-10.5250
G01 X-13.5114 Y-10.5110
G01 X-13.5627 Y-10.4995
G01 X-13.6144 Y-10.4905
G01 X-13.6665 Y-10.4841
G01 X-13.7189 Y-10.4802
G01 X-13.7714 Y-10.4789
G01 X-13.8239 Y-10.4802
G01 X-13.8763 Y-10.4841
G01 X-13.9284 Y-10.4905
G01 X-13.9801 Y-10.4995
G01 X-14.0314 Y-10.5110
G01 X-14.0820 Y-10.5250
G01 X-14.1319 Y-10.5414
G01 X-14.1809 Y-10.5603
G01 X-14.2286 Y-10.5815
G01 X-14.2761 Y-10.6054
G01 X-14.3216 Y-10.6312
G01 X-14.3658 Y-10.6592
G01 X-14.4088 Y-10.6895
G01 X-14.4503 Y-10.7219
G01 X-14.4900 Y-10.7561
G01 X-14.5280 Y-10.7923
G01 X-14.5642 Y-10.8303
G01 X-14.5985 Y-10.8701
G01 X-14.6308 Y-10.9115
G01 X-14.6611 Y-10.9544
G01 X-14.6892 Y-10.9988
G01 X-14.7151 Y-11.0445
G01 X-14.7387 Y-11.0914
G01 X-14.7600 Y-11.1394
G01 X-14.7789 Y-11.1884
G01 X-14.7953 Y-11.2383
G01 X-14.8093 Y-11.2889
G01 X-14.8208 Y-11.3402
G01 X-14.8298 Y-11.3919
G01 X-14.8362 Y-11.4440
G01 X-14.8401 Y-11.4964
G01 X-14.8414 Y-11.5489
G01 X-14.8401 Y-11.6014
G01 X-14.8364 Y-11.6521
G00 Z2.0000
G00 X-27.3052 Y-15.7160
G01 F70.00
G01 Z-0.0600
G01 F120.00
G01 X-27.3067 Y-15.6556
G01 X-27.3111 Y-15.5954
G01 X-27.3185 Y-15.5355
G01 X-27.3289 Y-15.4760
G01 X-27.3421 Y-15.4171
G01 X-27.3582 Y-15.3590
G01 X-27.3771 Y-15.3016
G01 X-27.3988 Y-15.2453
G01 X-27.4233 Y-15.1901
G01 X-27.4505 Y-15.1362
G01 X-27.4802 Y-15.0837
G01 X-27.5125 Y-15.0327
G01 X-27.5473 Y-14.9833
G01 X-27.5844 Y-14.9357
G01 X-27.6238 Y-14.8900
G01 X-27.6655 Y-14.8463
G01 X-27.7092 Y-14.8046
G01 X-27.7549 Y-14.7652
G01 X-27.8025 Y-14.7281
G01 X-27.8519 Y-14.6933
G01 X-27.9029 Y-14.6610
G01 X-27.9554 Y-14.6313
G01 X-28.0093 Y-14.6041
G01 X-28.0645 Y-14.5796
G01 X-28.1208 Y-14.5579
G01 X-28.1782 Y-14.5390
G01 X-28.2363 Y-14.5229
G01 X-28.2952 Y-14.5097
G01 X-28.3547 Y-14.4993
G01 X-28.4146 Y-14.4919
G01 X-28.4748 Y-14.4875
G01 X-28.5352 Y-14.4860
G01 X-28.5956 Y-14.4875
G01 X-28.6558 Y-14.4919
G01 X-28.7157 Y-14.4993
G01 X-28.7752 Y-14.5097
G01 X-28.8341 Y-14.5229
G01 X-28.8922 Y-14.5390
G01 X-28.9496 Y-14.5579
G01 X-29.0059 Y-14.5796
G01 X-29.0611 Y-14.6041
G01 X-29.1150 Y-14.6313
G01 X-29.1675 Y-14.6610
G01 X-29.2185 Y-14.6933
G01 X-29.2679 Y-14.7281
G01 X-29.3155 Y-14.7652
G01 X-29.3612 Y-14.8046
G01 X-29.4049 Y-14.8463
G01 X-29.4466 Y-14.8900
G01 X-29.4860 Y-14.9357
G01 X-29.5231 Y-14.9833
G01 X-29.5579 Y-15.0327
G01 X-29.5902 Y-15.0837
G01 X-29.6199 Y-15.1362
G01 X-29.6471 Y-15.1901
G01 X-29.6716 Y-15.2453
G01 X-29.6933 Y-15.3016
G01 X-29.7122 Y-15.3590
G01 X-29.7283 Y-15.4171
G01 X-29.7415 Y-15.4760
G01 X-29.7519 Y-15.5355
G01 X-29.7593 Y-15.5954
G01 X-29.7637 Y-15.6556
G01 X-29.7652 Y-15.7160
G01 X-29.7637 Y-15.7764
G01 X-29.7593 Y-15.8366
G01 X-29.7519 Y-15.8965
G01 X-29.7415 Y-15.9560
G01 X-29.7283 Y-16.0149
G01 X-29.7122 Y-16.0730
G01 X-29.6933 Y-16.1304
G01 X-29.6716 Y-16.1867
G01 X-29.6471 Y-16.2419
G01 X-29.6199 Y-16.2958
G01 X-29.5902 Y-16.3483
G01 X-29.5579 Y-16.3993
G01 X-29.5231 Y-16.4487
G01 X-29.4860 Y-16.4963
G01 X-29.4466 Y-16.5420
G01 X-29.4049 Y-16.5857
G01 X-29.3612 Y-16.6274
G01 X-29.3155 Y-16.6668
G01 X-29.2679 Y-16.7039
G01 X-29.2185 Y-16.7387
G01 X-29.1675 Y-16.7710
G01 X-29.1150 Y-16.8007
G01 X-29.0611 Y-16.8279
G01 X-29.0059 Y-16.8524
G01 X-28.9496 Y-16.8741
G01 X-28.8922 Y-16.8930
G01 X-28.8341 Y-16.9091
G01 X-28.7752 Y-16.9223
G01 X-28.7157 Y-16.9327
G01 X-28.6558 Y-16.9401
G01 X-28.5956 Y-16.9445
G01 X-28.5352 Y-16.9460
G01 X-28.4748 Y-16.9445
G01 X-28.4146 Y-16.9401
G01 X-28.3547 Y-16.9327
G01 X-28.2952 Y-16.9223
G01 X-28.2363 Y-16.9091
G01 X-28.1782 Y-16.8930
G01 X-28.1208 Y-16.8741
G01 X-28.0645 Y-16.8524
G01 X-28.0093 Y-16.8279
G01 X-27.9554 Y-16.8007
G01 X-27.9029 Y-16.7710
G01 X-27.8519 Y-16.7387
G01 X-27.8025 Y-16.7039
G01 X-27.7549 Y-16.6668
G01 X-27.7092 Y-16.6274
G01 X-27.6655 Y-16.5857
G01 X-27.6238 Y-16.5420
G01 X-27.5844 Y-16.4963
G01 X-27.5473 Y-16.4487
G01 X-27.5125 Y-16.3993
G01 X-27.4802 Y-16.3483
G01 X-27.4505 Y-16.2958
G01 X-27.4233 Y-16.2419
G01 X-27.3988 Y-16.1867
G01 X-27.3771 Y-16.1304
G01 X-27.3582 Y-16.0730
G01 X-27.3421 Y-16.0149
G01 X-27.3289 Y-15.9560
G01 X-27.3185 Y-15.8965
G01 X-27.3111 Y-15.8366
G01 X-27.3067 Y-15.7764
G01 X-27.3052 Y-15.7160
G00 Z2.0000
G00 X-27.3752 Y-15.7160
G01 F70.00
G01 Z-0.0600
G01 F120.00
G01 X-27.3766 Y-15.6591
G01 X-27.3808 Y-15.6023
G01 X-27.3878 Y-15.5458
G01 X-27.3975 Y-15.4897
G01 X-27.4100 Y-15.4342
G01 X-27.4252 Y-15.3793
G01 X-27.4430 Y-15.3252
G01 X-27.4635 Y-15.2721
G01 X-27.4866 Y-15.2201
G01 X-27.5122 Y-15.1692
G01 X-27.5403 Y-15.1197
G01 X-27.5707 Y-15.0716
G01 X-27.6035 Y-15.0250
G01 X-27.6385 Y-14.9801
G01 X-27.6757 Y-14.9370
G01 X-27.7150 Y-14.8958
G01 X-27.7562 Y-14.8565
G01 X-27.7993 Y-14.8193
G01 X-27.8442 Y-14.7843
G01 X-27.8908 Y-14.7515
G01 X-27.9389 Y-14.7211
G01 X-27.9884 Y-14.6930
G01 X-28.0393 Y-14.6674
G01 X-28.0913 Y-14.6443
G01 X-28.1444 Y-14.6238
G01 X-28.1985 Y-14.6060
G01 X-28.2534 Y-14.5908
G01 X-28.3089 Y-14.5783
G01 X-28.3650 Y-14.5686
G01 X-28.4215 Y-14.5616
G01 X-28.4783 Y-14.5574
G01 X-28.5352 Y-14.5560
G01 X-28.5921 Y-14.5574
G01 X-28.6489 Y-14.5616
G01 X-28.7054 Y-14.5686
G01 X-28.7615 Y-14.5783
G01 X-28.8170 Y-14.5908
G01 X-28.8719 Y-14.6060
G01 X-28.9260 Y-14.6238
G01 X-28.9791 Y-14.6443
G01 X-29.0311 Y-14.6674
G01 X-29.0820 Y-14.6930
G01 X-29.1315 Y-14.7211
G01 X-29.1796 Y-14.7515
G01 X-29.2262 Y-14.7843
G01 X-29.2711 Y-14.8193
G01 X-29.3142 Y-14.8565
G01 X-29.3554 Y-14.8958
G01 X-29.3947 Y-14.9370
G01 X-29.4319 Y-14.9801
G01 X-29.4669 Y-15.0250
G01 X-29.4997 Y-15.0716
G01 X-29.5301 Y-15.1197
G01 X-29.5582 Y-15.1692
G01 X-29.5838 Y-15.2201
G01 X-29.6069 Y-15.2721
G01 X-29.6274 Y-15.3252
G01 X-29.6452 Y-15.3793
G01 X-29.6604 Y-15.4342
G01 X-29.6729 Y-15.4897
G01 X-29.6826 Y-15.5458
G01 X-29.6896 Y-15.6023
G01 X-29.6938 Y-15.6591
G01 X-29.6952 Y-15.7160
G01 X-29.6938 Y-15.7729
G01 X-29.6896 Y-15.8297
G01 X-29.6826 Y-15.8862
G01 X-29.6729 Y-15.9423
G01 X-29.6604 Y-15.9978
G01 X-29.6452 Y-16.0527
G01 X-29.6274 Y-16.1068
G01 X-29.6069 Y-16.1599
G01 X-29.5838 Y-16.2119
G01 X-29.5582 Y-16.2628
G01 X-29.5301 Y-16.3123
G01 X-29.4997 Y-16.3604
G01 X-29.4669 Y-16.4070
G01 X-29.4319 Y-16.4519
G01 X-29.3947 Y-16.4950
G01 X-29.3554 Y-16.5362
G01 X-29.3142 Y-16.5755
G01 X-29.2711 Y-16.6127
G01 X-29.2262 Y-16.6477
G01 X-29.1796 Y-16.6805
G01 X-29.1315 Y-16.7109
G01 X-29.0820 Y-16.7390
G01 X-29.0311 Y-16.7646
G01 X-28.9791 Y-16.7877
G01 X-28.9260 Y-16.8082
G01 X-28.8719 Y-16.8260
G01 X-28.8170 Y-16.8412
G01 X-28.7615 Y-16.8537
G01 X-28.7054 Y-16.8634
G01 X-28.6489 Y-16.8704
G01 X-28.5921 Y-16.8746
G01 X-28.5352 Y-16.8760
G01 X-28.4783 Y-16.8746
G01 X-28.4215 Y-16.8704
G01 X-28.3650 Y-16.8634
G01 X-28.3089 Y-16.8537
G01 X-28.2534 Y-16.8412
G01 X-28.1985 Y-16.8260
G01 X-28.1444 Y-16.8082
G01 X-28.0913 Y-16.7877
G01 X-28.0393 Y-16.7646
G01 X-27.9884 Y-16.7390
G01 X-27.9389 Y-16.7109
G01 X-27.8908 Y-16.6805
G01 X-27.8442 Y-16.6477
G01 X-27.7993 Y-16.6127
G01 X-27.7562 Y-16.5755
G01 X-27.7150 Y-16.5362
G01 X-27.6757 Y-16.4950
G01 X-27.6385 Y-16.4519
G01 X-27.6035 Y-16.4070
G01 X-27.5707 Y-16.3604
G01 X-27.5403 Y-16.3123
G01 X-27.5122 Y-16.2628
G01 X-27.4866 Y-16.2119
G01 X-27.4635 Y-16.1599
G01 X-27.4430 Y-16.1068
G01 X-27.4252 Y-16.0527
G01 X-27.4100 Y-15.9978
G01 X-27.3975 Y-15.9423
G01 X-27.3878 Y-15.8862
G01 X-27.3808 Y-15.8297
G01 X-27.3766 Y-15.7729
G01 X-27.3752 Y-15.7160
G00 Z2.0000
G00 X-29.6002 Y-15.8192
G01 F70.00
G01 Z-0.0600
G01 F120.00
G01 X-29.5936 Y-15.8730
G01 X-29.5846 Y-15.9247
G01 X-29.5731 Y-15.9760
G01 X-29.5591 Y-16.0266
G01 X-29.5427 Y-16.0765
G01 X-29.5238 Y-16.1255
G01 X-29.5026 Y-16.1732
G01 X-29.4787 Y-16.2207
G01 X-29.4529 Y-16.2662
G01 X-29.4248 Y-16.3106
G01 X-29.3946 Y-16.3534
G01 X-29.3622 Y-16.3949
G01 X-29.3280 Y-16.4346
G01 X-29.2918 Y-16.4726
G01 X-29.2538 Y-16.5088
G01 X-29.2140 Y-16.5431
G01 X-29.1726 Y-16.5754
G01 X-29.1297 Y-16.6057
G01 X-29.0854 Y-16.6337
G01 X-29.0396 Y-16.6597
G01 X-28.9929 Y-16.6832
G01 X-28.9447 Y-16.7046
G01 X-28.8957 Y-16.7235
G01 X-28.8458 Y-16.7399
G01 X-28.7952 Y-16.7539
G01 X-28.7439 Y-16.7654
G01 X-28.6922 Y-16.7744
G01 X-28.6401 Y-16.7808
G01 X-28.5877 Y-16.7847
G01 X-28.5352 Y-16.7860
G01 X-28.4827 Y-16.7847
G01 X-28.4303 Y-16.7808
G01 X-28.3782 Y-16.7744
G01 X-28.3265 Y-16.7654
G01 X-28.2752 Y-16.7539
G01 X-28.2246 Y-16.7399
G01 X-28.1747 Y-16.7235
G01 X-28.1257 Y-16.7046
G01 X-28.0780 Y-16.6834
G01 X-28.0305 Y-16.6595
G01 X-27.9850 Y-16.6337
G01 X-27.9406 Y-16.6056
G01 X-27.8978 Y-16.5754
G01 X-27.8563 Y-16.5430
G01 X-27.8166 Y-16.5088
G01 X-27.7786 Y-16.4726
G01 X-27.7424 Y-16.4346
G01 X-27.7081 Y-16.3948
G01 X-27.6758 Y-16.3534
G01 X-27.6455 Y-16.3105
G01 X-27.6175 Y-16.2662
G01 X-27.5915 Y-16.2204
G01 X-27.5680 Y-16.1737
G01 X-27.5466 Y-16.1255
G01 X-27.5277 Y-16.0765
G01 X-27.5113 Y-16.0266
G01 X-27.4973 Y-15.9760
G01 X-27.4858 Y-15.9247
G01 X-27.4768 Y-15.8730
G01 X-27.4704 Y-15.8209
G01 X-27.4665 Y-15.7685
G01 X-27.4652 Y-15.7160
G01 X-27.4665 Y-15.6635
G01 X-27.4704 Y-15.6111
G01 X-27.4768 Y-15.5590
G01 X-27.4858 Y-15.5073
G01 X-27.4973 Y-15.4560
G01 X-27.5113 Y-15.4054
G01 X-27.5277 Y-15.3555
G01 X-27.5466 Y-15.3065
G01 X-27.5678 Y-15.2588
G01 X-27.5917 Y-15.2113
G01 X-27.6175 Y-15.1658
G01 X-27.6455 Y-15.1216
G01 X-27.6758 Y-15.0786
G01 X-27.7082 Y-15.0371
G01 X-27.7424 Y-14.9974
G01 X-27.7786 Y-14.9594
G01 X-27.8166 Y-14.9232
G01 X-27.8564 Y-14.8889
G01 X-27.8978 Y-14.8566
G01 X-27.9407 Y-14.8263
G01 X-27.9850 Y-14.7983
G01 X-28.0308 Y-14.7723
G01 X-28.0775 Y-14.7488
G01 X-28.1257 Y-14.7274
G01 X-28.1747 Y-14.7085
G01 X-28.2246 Y-14.6921
G01 X-28.2752 Y-14.6781
G01 X-28.3265 Y-14.6666
G01 X-28.3782 Y-14.6576
G01 X-28.4303 Y-14.6512
G01 X-28.4827 Y-14.6473
G01 X-28.5352 Y-14.6460
G01 X-28.5877 Y-14.6473
G01 X-28.6401 Y-14.6512
G01 X-28.6922 Y-14.6576
G01 X-28.7439 Y-14.6666
G01 X-28.7952 Y-14.6781
G01 X-28.8458 Y-14.6921
G01 X-28.8957 Y-14.7085
G01 X-28.9447 Y-14.7274
G01 X-28.9924 Y-14.7486
G01 X-29.0399 Y-14.7725
G01 X-29.0854 Y-14.7983
G01 X-29.1296 Y-14.8263
G01 X-29.1726 Y-14.8566
G01 X-29.2141 Y-14.8890
G01 X-29.2538 Y-14.9232
G01 X-29.2918 Y-14.9594
G01 X-29.3280 Y-14.9974
G01 X-29.3623 Y-15.0372
G01 X-29.3946 Y-15.0786
G01 X-29.4249 Y-15.1215
G01 X-29.4529 Y-15.1658
G01 X-29.4789 Y-15.2116
G01 X-29.5024 Y-15.2583
G01 X-29.5238 Y-15.3065
G01 X-29.5427 Y-15.3555
G01 X-29.5591 Y-15.4054
G01 X-29.5731 Y-15.4560
G01 X-29.5846 Y-15.5073
G01 X-29.5936 Y-15.5590
G01 X-29.6000 Y-15.6111
G01 X-29.6039 Y-15.6635
G01 X-29.6052 Y-15.7160
G01 X-29.6039 Y-15.7685
G01 X-29.6002 Y-15.8192
G00 Z2.0000
G00 X-29.6700 Y-15.8243
G01 F70.00
G01 Z-0.0600
G01 F120.00
G01 X-29.6629 Y-15.8833
G01 X-29.6533 Y-15.9384
G01 X-29.6410 Y-15.9930
G01 X-29.6261 Y-16.0469
G01 X-29.6086 Y-16.1001
G01 X-29.5884 Y-16.1523
G01 X-29.5660 Y-16.2029
G01 X-29.5403 Y-16.2539
G01 X-29.5129 Y-16.3023
G01 X-29.4829 Y-16.3496
G01 X-29.4509 Y-16.3951
G01 X-29.4162 Y-16.4395
G01 X-29.3799 Y-16.4816
G01 X-29.3413 Y-16.5221
G01 X-29.3008 Y-16.5606
G01 X-29.2584 Y-16.5972
G01 X-29.2143 Y-16.6317
G01 X-29.1686 Y-16.6639
G01 X-29.1215 Y-16.6937
G01 X-29.0726 Y-16.7214
G01 X-29.0231 Y-16.7463
G01 X-28.9715 Y-16.7692
G01 X-28.9193 Y-16.7894
G01 X-28.8661 Y-16.8069
G01 X-28.8122 Y-16.8218
G01 X-28.7576 Y-16.8341
G01 X-28.7025 Y-16.8437
G01 X-28.6469 Y-16.8505
G01 X-28.5911 Y-16.8546
G01 X-28.5352 Y-16.8560
G01 X-28.4793 Y-16.8546
G01 X-28.4235 Y-16.8505
G01 X-28.3679 Y-16.8437
G01 X-28.3128 Y-16.8341
G01 X-28.2582 Y-16.8218
G01 X-28.2043 Y-16.8069
G01 X-28.1511 Y-16.7894
G01 X-28.0989 Y-16.7692
G01 X-28.0483 Y-16.7468
G01 X-27.9973 Y-16.7211
G01 X-27.9489 Y-16.6937
G01 X-27.9016 Y-16.6637
G01 X-27.8561 Y-16.6317
G01 X-27.8117 Y-16.5970
G01 X-27.7696 Y-16.5607
G01 X-27.7291 Y-16.5221
G01 X-27.6906 Y-16.4816
G01 X-27.6540 Y-16.4392
G01 X-27.6195 Y-16.3951
G01 X-27.5873 Y-16.3494
G01 X-27.5575 Y-16.3023
G01 X-27.5298 Y-16.2534
G01 X-27.5049 Y-16.2039
G01 X-27.4820 Y-16.1523
G01 X-27.4618 Y-16.1001
G01 X-27.4443 Y-16.0469
G01 X-27.4294 Y-15.9930
G01 X-27.4171 Y-15.9384
G01 X-27.4075 Y-15.8833
G01 X-27.4007 Y-15.8277
G01 X-27.3966 Y-15.7719
G01 X-27.3952 Y-15.7160
G01 X-27.3966 Y-15.6601
G01 X-27.4007 Y-15.6043
G01 X-27.4075 Y-15.5487
G01 X-27.4171 Y-15.4936
G01 X-27.4294 Y-15.4390
G01 X-27.4443 Y-15.3851
G01 X-27.4618 Y-15.3319
G01 X-27.4820 Y-15.2797
G01 X-27.5044 Y-15.2291
G01 X-27.5301 Y-15.1781
G01 X-27.5575 Y-15.1297
G01 X-27.5872 Y-15.0828
G01 X-27.6195 Y-15.0369
G01 X-27.6542 Y-14.9925
G01 X-27.6905 Y-14.9504
G01 X-27.7291 Y-14.9099
G01 X-27.7696 Y-14.8714
G01 X-27.8120 Y-14.8348
G01 X-27.8561 Y-14.8003
G01 X-27.9018 Y-14.7681
G01 X-27.9489 Y-14.7383
G01 X-27.9978 Y-14.7106
G01 X-28.0473 Y-14.6857
G01 X-28.0989 Y-14.6628
G01 X-28.1511 Y-14.6426
G01 X-28.2043 Y-14.6251
G01 X-28.2582 Y-14.6102
G01 X-28.3128 Y-14.5979
G01 X-28.3679 Y-14.5883
G01 X-28.4235 Y-14.5815
G01 X-28.4793 Y-14.5774
G01 X-28.5352 Y-14.5760
G01 X-28.5911 Y-14.5774
G01 X-28.6469 Y-14.5815
G01 X-28.7025 Y-14.5883
G01 X-28.7576 Y-14.5979
G01 X-28.8122 Y-14.6102
G01 X-28.8661 Y-14.6251
G01 X-28.9193 Y-14.6426
G01 X-28.9715 Y-14.6628
G01 X-29.0221 Y-14.6852
G01 X-29.0731 Y-14.7109
G01 X-29.1215 Y-14.7383
G01 X-29.1684 Y-14.7680
G01 X-29.2143 Y-14.8003
G01 X-29.2587 Y-14.8350
G01 X-29.3008 Y-14.8713
G01 X-29.3413 Y-14.9099
G01 X-29.3798 Y-14.9504
G01 X-29.4164 Y-14.9928
G01 X-29.4509 Y-15.0369
G01 X-29.4831 Y-15.0826
G01 X-29.5129 Y-15.1297
G01 X-29.5406 Y-15.1786
G01 X-29.5655 Y-15.2281
G01 X-29.5884 Y-15.2797
G01 X-29.6086 Y-15.3319
G01 X-29.6261 Y-15.3851
G01 X-29.6410 Y-15.4390
G01 X-29.6533 Y-15.4936
G01 X-29.6629 Y-15.5487
G01 X-29.6697 Y-15.6043
G01 X-29.6738 Y-15.6601
G01 X-29.6752 Y-15.7160
G01 X-29.6738 Y-15.7719
G01 X-29.6700 Y-15.8243
G00 Z2.0000
G00 X-28.0969 Y-12.4555
G01 F70.00
G01 Z-0.0600
G01 F120.00
G01 X-28.0969 Y-12.4755
G01 X-27.4936 Y-12.4755
G01 X-27.4936 Y-12.0221
G01 X-27.5136 Y-12.0221
G01 X-27.5136 Y-12.3172
G01 X-27.5143 Y-12.3292
G01 X-27.5160 Y-12.3411
G01 X-27.5191 Y-12.3545
G01 X-27.5236 Y-12.3675
G01 X-27.5293 Y-12.3800
G01 X-27.5353 Y-12.3904
G01 X-27.5432 Y-12.4016
G01 X-27.5522 Y-12.4120
G01 X-27.5609 Y-12.4204
G01 X-27.5716 Y-12.4290
G01 X-27.5891 Y-12.4398
G01 X-27.6064 Y-12.4473
G01 X-27.6263 Y-12.4528
G01 X-27.6467 Y-12.4553
G01 X-28.0969 Y-12.4555
G00 Z2.0000
G00 X-28.1669 Y-12.3855
G01 F70.00
G01 Z-0.0600
G01 F120.00
G01 X-28.1669 Y-12.5455
G01 X-27.4236 Y-12.5455
G01 X-27.4236 Y-11.9521
G01 X-27.5836 Y-11.9521
G01 X-27.5839 Y-12.3215
G01 X-27.5871 Y-12.3375
G01 X-27.5903 Y-12.3454
G01 X-27.5945 Y-12.3529
G01 X-27.6047 Y-12.3656
G01 X-27.6112 Y-12.3712
G01 X-27.6184 Y-12.3760
G01 X-27.6260 Y-12.3798
G01 X-27.6349 Y-12.3830
G01 X-27.6442 Y-12.3849
G01 X-27.6527 Y-12.3855
G01 X-28.1669 Y-12.3855
G00 Z2.0000
G00 X-29.4136 Y-12.0221
G01 F70.00
G01 Z-0.0600
G01 F120.00
G01 X-29.4136 Y-12.4755
G01 X-28.8102 Y-12.4755
G01 X-28.8102 Y-12.4555
G01 X-29.2536 Y-12.4555
G01 X-29.2656 Y-12.4550
G01 X-29.2859 Y-12.4517
G01 X-29.3040 Y-12.4461
G01 X-29.3226 Y-12.4373
G01 X-29.3384 Y-12.4269
G01 X-29.3476 Y-12.4192
G01 X-29.3573 Y-12.4095
G01 X-29.3650 Y-12.4003
G01 X-29.3728 Y-12.3889
G01 X-29.3787 Y-12.3784
G01 X-29.3842 Y-12.3659
G01 X-29.3885 Y-12.3528
G01 X-29.3912 Y-12.3411
G01 X-29.3929 Y-12.3292
G01 X-29.3936 Y-12.3172
G01 X-29.3936 Y-12.0221
G01 X-29.4136 Y-12.0221
G00 Z2.0000
G00 X-29.4836 Y-11.9521
G01 F70.00
G01 Z-0.0600
G01 F120.00
G01 X-29.4836 Y-12.5455
G01 X-28.7402 Y-12.5455
G01 X-28.7402 Y-12.3855
G01 X-29.2553 Y-12.3855
G01 X-29.2664 Y-12.3843
G01 X-29.2772 Y-12.3814
G01 X-29.2881 Y-12.3764
G01 X-29.2973 Y-12.3702
G01 X-29.3077 Y-12.3599
G01 X-29.3157 Y-12.3477
G01 X-29.3211 Y-12.3342
G01 X-29.3235 Y-12.3198
G01 X-29.3236 Y-11.9521
G01 X-29.4836 Y-11.9521
G00 Z2.0000
G00 X-29.2736 Y-10.6948
G01 F70.00
G01 Z-0.0600
G01 F120.00
G01 X-29.2736 Y-10.7362
G01 X-29.2536 Y-10.7355
G01 X-27.6536 Y-10.7355
G01 X-27.6279 Y-10.7367
G01 X-27.6225 Y-10.7150
G01 X-27.6151 Y-10.6928
G01 X-27.6330 Y-10.6947
G01 X-27.6536 Y-10.6955
G01 X-29.2536 Y-10.6955
G01 X-29.2736 Y-10.6948
G00 Z2.0000
G00 X-29.3436 Y-10.6052
G01 F70.00
G01 Z-0.0600
G01 F120.00
G01 X-29.3436 Y-10.8258
G01 X-29.3219 Y-10.8169
G01 X-29.2996 Y-10.8106
G01 X-29.2767 Y-10.8068
G01 X-29.2536 Y-10.8055
G01 X-27.6510 Y-10.8055
G01 X-27.6279 Y-10.8071
G01 X-27.6051 Y-10.8112
G01 X-27.5829 Y-10.8178
G01 X-27.5636 Y-10.8258
G01 X-27.5635 Y-10.7852
G01 X-27.5617 Y-10.7647
G01 X-27.5567 Y-10.7394
G01 X-27.5486 Y-10.7150
G01 X-27.5376 Y-10.6917
G01 X-27.5238 Y-10.6699
G01 X-27.5057 Y-10.6482
G01 X-27.4868 Y-10.6306
G01 X-27.4638 Y-10.6142
G01 X-27.4410 Y-10.6020
G01 X-27.4170 Y-10.5928
G01 X-27.3895 Y-10.5861
G01 X-27.3639 Y-10.5832
G01 X-27.3356 Y-10.5837
G01 X-27.3076 Y-10.5881
G01 X-27.2820 Y-10.5955
G01 X-27.4444 Y-10.4332
G01 X-27.4467 Y-10.4514
G01 X-27.4505 Y-10.4690
G01 X-27.4559 Y-10.4862
G01 X-27.4627 Y-10.5030
G01 X-27.4709 Y-10.5190
G01 X-27.4804 Y-10.5343
G01 X-27.4929 Y-10.5507
G01 X-27.5051 Y-10.5640
G01 X-27.5204 Y-10.5778
G01 X-27.5348 Y-10.5887
G01 X-27.5501 Y-10.5982
G01 X-27.5661 Y-10.6064
G01 X-27.5829 Y-10.6132
G01 X-27.6001 Y-10.6186
G01 X-27.6177 Y-10.6224
G01 X-27.6356 Y-10.6247
G01 X-27.6536 Y-10.6255
G01 X-29.2562 Y-10.6255
G01 X-29.2793 Y-10.6239
G01 X-29.3021 Y-10.6198
G01 X-29.3243 Y-10.6132
G01 X-29.3436 Y-10.6052
G00 Z2.0000
G00 X-29.4811 Y-8.9136
G01 F70.00
G01 Z-0.0600
G01 F120.00
G01 X-29.4745 Y-8.9674
G01 X-29.4652 Y-9.0208
G01 X-29.4540 Y-9.0704
G01 X-29.4405 Y-9.1194
G01 X-29.4238 Y-9.1701
G01 X-29.4047 Y-9.2199
G01 X-29.3831 Y-9.2685
G01 X-29.3593 Y-9.3157
G01 X-29.3342 Y-9.3599
G01 X-29.3236 Y-9.3767
G01 X-29.3236 Y-10.4181
G01 X-29.3224 Y-10.4283
G01 X-29.3195 Y-10.4391
G01 X-29.3153 Y-10.4485
G01 X-29.3098 Y-10.4572
G01 X-29.3031 Y-10.4650
G01 X-29.2953 Y-10.4717
G01 X-29.2866 Y-10.4772
G01 X-29.2764 Y-10.4817
G01 X-29.2647 Y-10.4846
G01 X-29.2536 Y-10.4855
G01 X-27.6536 Y-10.4855
G01 X-27.6383 Y-10.4838
G01 X-27.6284 Y-10.4808
G01 X-27.6184 Y-10.4760
G01 X-27.6099 Y-10.4702
G01 X-27.6017 Y-10.4625
G01 X-27.5954 Y-10.4544
G01 X-27.5903 Y-10.4454
G01 X-27.5864 Y-10.4350
G01 X-27.5842 Y-10.4249
G01 X-27.5836 Y-10.4155
G01 X-27.5836 Y-10.0960
G01 X-26.3395 Y-11.3401
G01 X-26.3188 Y-11.3588
G01 X-26.3051 Y-11.3696
G01 X-26.2908 Y-11.3796
