(G-CODE GENERATED BY FLATCAM v8.993 - www.flatcam.org - Version Date: 2020/06/05)

(Name: 133u02_Ф1_верх.gbr_iso_combined_cnc)
(Type: G-code from Geometry)
(Units: MM)

(Created on Tuesday, 10 November 2020 at 18:17)

(This preprocessor is the default preprocessor used by FlatCAM.)
(It is made to work with MACH3 compatible motion controllers.)

(TOOL DIAMETER: 0.14 mm)
(Feedrate_XY: 120.0 mm/min)
(Feedrate_Z: 70.0 mm/min)
(Feedrate rapids 1500.0 mm/min)

(Z_Cut: -0.06 mm)
(Z_Move: 2.0 mm)
(Z Start: None mm)
(Z End: 25.0 mm)
(Steps per circle: 128)
(Preprocessor Geometry: default)

(X range:    0.2711 ...   97.3913  mm)
(Y range:  -32.6651 ...   -0.1547  mm)

(Spindle Speed: 10000 RPM)
G21
G90
G94



G01 F120.00
G00 Z2.0000

M03 S10000
G00 X1.6306 Y-1.3382
G01 F70.00
G01 Z-0.0600
G01 F120.00
G01 X1.8362 Y-1.3382
G01 X1.8490 Y-1.3370
G01 X1.8582 Y-1.3346
G01 X1.8669 Y-1.3310
G01 X1.8751 Y-1.3263
G01 X1.8826 Y-1.3205
G01 X1.8898 Y-1.3132
G01 X1.8954 Y-1.3055
G01 X1.8999 Y-1.2972
G01 X1.9032 Y-1.2884
G01 X1.9055 Y-1.2783
G01 X1.9062 Y-1.2671
G01 X1.9051 Y-1.2560
G01 X1.9026 Y-1.2460
G01 X1.7980 Y-0.9670
G01 X1.7905 Y-0.9535
G01 X1.7803 Y-0.9420
G01 X1.7678 Y-0.9330
G01 X1.7537 Y-0.9269
G01 X1.7428 Y-0.9246
G01 X1.7308 Y-0.9240
G01 X1.7189 Y-0.9254
G01 X1.7083 Y-0.9286
G01 X1.6975 Y-0.9339
G01 X1.6878 Y-0.9409
G01 X1.6799 Y-0.9488
G01 X1.6730 Y-0.9585
G01 X1.6678 Y-0.9694
G01 X1.5634 Y-1.2485
G01 X1.5606 Y-1.2646
G01 X1.5617 Y-1.2808
G01 X1.5665 Y-1.2964
G01 X1.5748 Y-1.3105
G01 X1.5861 Y-1.3222
G01 X1.5990 Y-1.3307
G01 X1.6144 Y-1.3363
G01 X1.6306 Y-1.3382
G00 Z2.0000
G00 X1.9018 Y-1.3732
G01 F70.00
G01 Z-0.0600
G01 F120.00
G01 X1.5632 Y-1.3733
G01 X1.5538 Y-1.3741
G01 X1.5446 Y-1.3762
G01 X1.5350 Y-1.3799
G01 X1.5268 Y-1.3845
G01 X1.5186 Y-1.3907
G01 X1.5114 Y-1.3981
G01 X1.5049 Y-1.4071
G01 X1.5003 Y-1.4163
G01 X1.3824 Y-1.7301
G01 X1.3801 Y-1.7337
G01 X1.3769 Y-1.7366
G01 X1.3732 Y-1.7387
G01 X1.3682 Y-1.7399
G01 X1.3639 Y-1.7397
G01 X1.3590 Y-1.7381
G01 X1.3547 Y-1.7352
G01 X1.3520 Y-1.7319
G01 X1.3501 Y-1.7281
G01 X1.3492 Y-1.7239
G01 X1.3494 Y-1.7196
G01 X1.3506 Y-1.7154
G01 X1.7167 Y-0.7393
G01 X1.7185 Y-0.7353
G01 X1.7212 Y-0.7320
G01 X1.7247 Y-0.7294
G01 X1.7287 Y-0.7277
G01 X1.7356 Y-0.7272
G01 X1.7413 Y-0.7290
G01 X1.7467 Y-0.7332
G01 X1.7501 Y-0.7393
G01 X2.1161 Y-1.7154
G01 X2.1175 Y-1.7221
G01 X2.1166 Y-1.7281
G01 X2.1132 Y-1.7340
G01 X2.1085 Y-1.7377
G01 X2.1011 Y-1.7399
G01 X2.0943 Y-1.7390
G01 X2.0878 Y-1.7350
G01 X2.0839 Y-1.7293
G01 X1.9674 Y-1.4187
G01 X1.9627 Y-1.4086
G01 X1.9575 Y-1.4007
G01 X1.9519 Y-1.3943
G01 X1.9448 Y-1.3880
G01 X1.9370 Y-1.3827
G01 X1.9286 Y-1.3785
G01 X1.9196 Y-1.3755
G01 X1.9104 Y-1.3738
G01 X1.9018 Y-1.3732
G00 Z2.0000
G00 X2.4247 Y-0.7455
G01 F70.00
G01 Z-0.0600
G01 F120.00
G01 X2.4254 Y-0.7395
G01 X2.4276 Y-0.7349
G01 X2.4318 Y-0.7305
G01 X2.4363 Y-0.7281
G01 X2.4422 Y-0.7271
G01 X2.4473 Y-0.7278
G01 X2.4526 Y-0.7305
G01 X2.4563 Y-0.7342
G01 X2.8827 Y-1.4445
G01 X2.8884 Y-1.4521
G01 X2.8944 Y-1.4582
G01 X2.9011 Y-1.4636
G01 X2.9084 Y-1.4681
G01 X2.9162 Y-1.4717
G01 X2.9252 Y-1.4745
G01 X2.9337 Y-1.4759
G01 X2.9422 Y-1.4763
G01 X2.9550 Y-1.4750
G01 X2.9666 Y-1.4717
G01 X2.9781 Y-1.4659
G01 X2.9877 Y-1.4588
G01 X2.9965 Y-1.4494
G01 X3.0031 Y-1.4393
G01 X3.0081 Y-1.4275
G01 X3.0107 Y-1.4158
G01 X3.0114 Y-1.4063
G01 X3.0114 Y-0.7437
G01 X3.0124 Y-0.7387
G01 X3.0154 Y-0.7335
G01 X3.0199 Y-0.7296
G01 X3.0246 Y-0.7276
G01 X3.0306 Y-0.7272
G01 X3.0356 Y-0.7284
G01 X3.0407 Y-0.7316
G01 X3.0439 Y-0.7356
G01 X3.0459 Y-0.7403
G01 X3.0464 Y-0.7455
G01 X3.0464 Y-1.7215
G01 X3.0459 Y-1.7267
G01 X3.0444 Y-1.7307
G01 X3.0413 Y-1.7348
G01 X3.0379 Y-1.7374
G01 X3.0315 Y-1.7397
G01 X3.0246 Y-1.7394
G01 X3.0185 Y-1.7365
G01 X3.0134 Y-1.7307
G01 X2.5874 Y-1.0210
G01 X2.5767 Y-1.0088
G01 X2.5700 Y-1.0034
G01 X2.5627 Y-0.9989
G01 X2.5476 Y-0.9930
G01 X2.5391 Y-0.9913
G01 X2.5306 Y-0.9907
G01 X2.5186 Y-0.9915
G01 X2.5061 Y-0.9947
G01 X2.4945 Y-1.0002
G01 X2.4840 Y-1.0077
G01 X2.4751 Y-1.0169
G01 X2.4680 Y-1.0277
G01 X2.4630 Y-1.0395
G01 X2.4604 Y-1.0512
G01 X2.4597 Y-1.0607
G01 X2.4597 Y-1.7233
G01 X2.4587 Y-1.7283
G01 X2.4557 Y-1.7335
G01 X2.4512 Y-1.7374
G01 X2.4465 Y-1.7394
G01 X2.4413 Y-1.7399
G01 X2.4355 Y-1.7386
G01 X2.4304 Y-1.7354
G01 X2.4272 Y-1.7314
G01 X2.4252 Y-1.7267
G01 X2.4247 Y-1.7215
G01 X2.4247 Y-0.7455
G00 Z2.0000
G00 X3.6819 Y-0.8321
G01 F70.00
G01 Z-0.0600
G01 F120.00
G01 X3.6819 Y-1.7215
G01 X3.6806 Y-1.7291
G01 X3.6768 Y-1.7348
G01 X3.6711 Y-1.7386
G01 X3.6644 Y-1.7399
G01 X3.6577 Y-1.7386
G01 X3.6520 Y-1.7348
G01 X3.6482 Y-1.7291
G01 X3.6469 Y-1.7215
G01 X3.6469 Y-0.8321
G01 X3.6461 Y-0.8219
G01 X3.6438 Y-0.8118
G01 X3.6409 Y-0.8038
G01 X3.6365 Y-0.7954
G01 X3.6310 Y-0.7877
G01 X3.6251 Y-0.7814
G01 X3.6179 Y-0.7754
G01 X3.6106 Y-0.7708
G01 X3.6028 Y-0.7671
G01 X3.5939 Y-0.7642
G01 X3.5777 Y-0.7621
G01 X3.3694 Y-0.7620
G01 X3.3621 Y-0.7596
G01 X3.3565 Y-0.7543
G01 X3.3538 Y-0.7472
G01 X3.3543 Y-0.7395
G01 X3.3570 Y-0.7342
G01 X3.3607 Y-0.7305
G01 X3.3660 Y-0.7278
G01 X3.3720 Y-0.7271
G01 X3.9569 Y-0.7271
G01 X3.9629 Y-0.7278
G01 X3.9682 Y-0.7305
G01 X3.9719 Y-0.7342
G01 X3.9746 Y-0.7395
G01 X3.9751 Y-0.7472
G01 X3.9724 Y-0.7543
G01 X3.9668 Y-0.7596
G01 X3.9595 Y-0.7620
G01 X3.7511 Y-0.7621
G01 X3.7408 Y-0.7630
G01 X3.7308 Y-0.7654
G01 X3.7205 Y-0.7696
G01 X3.7109 Y-0.7754
G01 X3.7024 Y-0.7826
G01 X3.6952 Y-0.7911
G01 X3.6894 Y-0.8007
G01 X3.6852 Y-0.8110
G01 X3.6828 Y-0.8210
G01 X3.6819 Y-0.8321
G00 Z2.0000
G00 X5.1598 Y-1.1583
G01 F70.00
G01 Z-0.0600
G01 F120.00
G01 X5.1668 Y-1.1552
G01 X5.1736 Y-1.1552
G01 X5.3250 Y-1.1935
G01 X5.3308 Y-1.1982
G01 X5.4030 Y-1.2825
G01 X5.4063 Y-1.2877
G01 X5.4077 Y-1.2955
G01 X5.4077 Y-1.7215
G01 X5.4067 Y-1.7283
G01 X5.4032 Y-1.7342
G01 X5.3992 Y-1.7374
G01 X5.3945 Y-1.7394
G01 X5.3902 Y-1.7399
G01 X5.3851 Y-1.7392
G01 X5.3805 Y-1.7370
G01 X5.3767 Y-1.7335
G01 X5.3740 Y-1.7291
G01 X5.3728 Y-1.7241
G01 X5.3727 Y-1.3270
G01 X5.3716 Y-1.3151
G01 X5.3674 Y-1.3003
G01 X5.3600 Y-1.2868
G01 X5.3218 Y-1.2416
G01 X5.3157 Y-1.2354
G01 X5.3024 Y-1.2259
G01 X5.2946 Y-1.2222
G01 X5.2864 Y-1.2195
G01 X5.2002 Y-1.1980
G01 X5.1874 Y-1.1967
G01 X5.1746 Y-1.1977
G01 X5.1622 Y-1.2011
G01 X5.1506 Y-1.2066
G01 X5.0716 Y-1.2592
G01 X5.0599 Y-1.2693
G01 X5.0507 Y-1.2817
G01 X5.0468 Y-1.2893
G01 X5.0439 Y-1.2974
G01 X5.0420 Y-1.3058
G01 X5.0412 Y-1.3152
G01 X5.0411 Y-1.7233
G01 X5.0394 Y-1.7299
G01 X5.0354 Y-1.7354
G01 X5.0295 Y-1.7389
G01 X5.0219 Y-1.7398
G01 X5.0153 Y-1.7379
G01 X5.0106 Y-1.7342
G01 X5.0074 Y-1.7291
G01 X5.0061 Y-1.7233
G01 X5.0061 Y-1.3261
G01 X5.0049 Y-1.3142
G01 X5.0017 Y-1.3027
G01 X4.9962 Y-1.2911
G01 X4.9892 Y-1.2814
G01 X4.9527 Y-1.2390
G01 X4.9451 Y-1.2321
G01 X4.9372 Y-1.2267
G01 X4.9279 Y-1.2222
G01 X4.9189 Y-1.2193
G01 X4.8352 Y-1.1984
G01 X4.8199 Y-1.1967
G01 X4.8114 Y-1.1972
G01 X4.8030 Y-1.1988
G01 X4.7940 Y-1.2017
G01 X4.7863 Y-1.2053
G01 X4.7049 Y-1.2592
G01 X4.6962 Y-1.2662
G01 X4.6883 Y-1.2752
G01 X4.6823 Y-1.2847
G01 X4.6780 Y-1.2950
G01 X4.6753 Y-1.3058
G01 X4.6744 Y-1.3161
G01 X4.6743 Y-1.7241
G01 X4.6731 Y-1.7291
G01 X4.6710 Y-1.7328
G01 X4.6680 Y-1.7359
G01 X4.6636 Y-1.7386
G01 X4.6586 Y-1.7398
G01 X4.6543 Y-1.7397
G01 X4.6494 Y-1.7382
G01 X4.6451 Y-1.7354
G01 X4.6407 Y-1.7291
G01 X4.6394 Y-1.7215
G01 X4.6394 Y-1.1733
G01 X4.6404 Y-1.1665
G01 X4.6439 Y-1.1606
G01 X4.6479 Y-1.1574
G01 X4.6526 Y-1.1554
G01 X4.6578 Y-1.1549
G01 X4.6628 Y-1.1559
G01 X4.6687 Y-1.1594
G01 X4.6760 Y-1.1677
G01 X4.6824 Y-1.1735
G01 X4.6946 Y-1.1813
G01 X4.7033 Y-1.1850
G01 X4.7116 Y-1.1873
G01 X4.7200 Y-1.1886
G01 X4.7286 Y-1.1888
G01 X4.7414 Y-1.1871
G01 X4.7536 Y-1.1832
G01 X4.7635 Y-1.1780
G01 X4.7954 Y-1.1569
G01 X4.8010 Y-1.1551
G01 X4.8070 Y-1.1552
G01 X4.9560 Y-1.1925
G01 X4.9624 Y-1.1964
G01 X4.9797 Y-1.2155
G01 X4.9916 Y-1.2240
G01 X5.0001 Y-1.2281
G01 X5.0082 Y-1.2308
G01 X5.0175 Y-1.2326
G01 X5.0269 Y-1.2332
G01 X5.0355 Y-1.2325
G01 X5.0439 Y-1.2309
G01 X5.0529 Y-1.2279
G01 X5.0606 Y-1.2241
G01 X5.1598 Y-1.1583
G00 Z2.0000
G00 X5.7149 Y-1.5382
G01 F70.00
G01 Z-0.0600
G01 F120.00
G01 X5.7149 Y-1.3321
G01 X5.7154 Y-1.3269
G01 X5.7178 Y-1.3214
G01 X5.7902 Y-1.2007
G01 X5.7933 Y-1.1966
G01 X5.7975 Y-1.1935
G01 X5.8023 Y-1.1918
G01 X5.9473 Y-1.1556
G01 X5.9524 Y-1.1549
G01 X5.9575 Y-1.1556
G01 X6.1025 Y-1.1918
G01 X6.1080 Y-1.1939
G01 X6.1130 Y-1.1982
G01 X6.1877 Y-1.2861
G01 X6.1894 Y-1.2902
G01 X6.1899 Y-1.2955
G01 X6.1899 Y-1.4177
G01 X6.1892 Y-1.4219
G01 X6.1870 Y-1.4265
G01 X6.1842 Y-1.4298
G01 X6.1799 Y-1.4326
G01 X6.1758 Y-1.4340
G01 X6.1715 Y-1.4343
G01 X5.8199 Y-1.4343
G01 X5.8088 Y-1.4352
G01 X5.7972 Y-1.4382
G01 X5.7862 Y-1.4430
G01 X5.7762 Y-1.4497
G01 X5.7669 Y-1.4586
G01 X5.7599 Y-1.4684
G01 X5.7546 Y-1.4792
G01 X5.7513 Y-1.4907
G01 X5.7500 Y-1.5026
G01 X5.7500 Y-1.5313
G01 X5.7517 Y-1.5441
G01 X5.7695 Y-1.6180
G01 X5.7744 Y-1.6298
G01 X5.7808 Y-1.6399
G01 X5.7920 Y-1.6516
G01 X5.8049 Y-1.6600
G01 X5.8998 Y-1.6998
G01 X5.9113 Y-1.7033
G01 X5.9242 Y-1.7048
G01 X6.0345 Y-1.7049
G01 X6.0482 Y-1.7033
G01 X6.0565 Y-1.7010
G01 X6.0645 Y-1.6977
G01 X6.1635 Y-1.6460
G01 X6.1709 Y-1.6437
G01 X6.1768 Y-1.6442
G01 X6.1823 Y-1.6467
G01 X6.1866 Y-1.6509
G01 X6.1892 Y-1.6563
G01 X6.1899 Y-1.6622
G01 X6.1885 Y-1.6681
G01 X6.1853 Y-1.6731
G01 X6.1798 Y-1.6772
G01 X6.0640 Y-1.7376
G01 X6.0593 Y-1.7394
G01 X6.0543 Y-1.7399
G01 X5.9093 Y-1.7399
G01 X5.9033 Y-1.7392
G01 X5.7557 Y-1.6777
G01 X5.7519 Y-1.6757
G01 X5.7486 Y-1.6729
G01 X5.7462 Y-1.6693
G01 X5.7444 Y-1.6644
G01 X5.7155 Y-1.5439
G01 X5.7149 Y-1.5382
G00 Z2.0000
G00 X5.8357 Y-1.3993
G01 F70.00
G01 Z-0.0600
G01 F120.00
G01 X6.0857 Y-1.3993
G01 X6.0951 Y-1.3985
G01 X6.1044 Y-1.3965
G01 X6.1171 Y-1.3914
G01 X6.1286 Y-1.3839
G01 X6.1384 Y-1.3743
G01 X6.1466 Y-1.3623
G01 X6.1518 Y-1.3496
G01 X6.1545 Y-1.3361
G01 X6.1546 Y-1.3210
G01 X6.1521 Y-1.3076
G01 X6.1475 Y-1.2956
G01 X6.1412 Y-1.2854
G01 X6.1016 Y-1.2391
G01 X6.0946 Y-1.2326
G01 X6.0868 Y-1.2272
G01 X6.0784 Y-1.2228
G01 X6.0702 Y-1.2199
G01 X5.9685 Y-1.1945
G01 X5.9533 Y-1.1926
G01 X5.9371 Y-1.1943
G01 X5.8427 Y-1.2179
G01 X5.8315 Y-1.2222
G01 X5.8211 Y-1.2284
G01 X5.8120 Y-1.2362
G01 X5.8049 Y-1.2448
G01 X5.7724 Y-1.2993
G01 X5.7676 Y-1.3131
G01 X5.7657 Y-1.3267
G01 X5.7667 Y-1.3412
G01 X5.7703 Y-1.3544
G01 X5.7765 Y-1.3667
G01 X5.7855 Y-1.3781
G01 X5.7960 Y-1.3870
G01 X5.8081 Y-1.3936
G01 X5.8212 Y-1.3977
G01 X5.8357 Y-1.3993
G00 Z2.0000
G00 X6.7040 Y-1.6740
G01 F70.00
G01 Z-0.0600
G01 F120.00
G01 X6.7145 Y-1.6822
G01 X6.7251 Y-1.6880
G01 X6.7364 Y-1.6918
G01 X6.7492 Y-1.6938
G01 X6.7577 Y-1.6937
G01 X6.7671 Y-1.6925
G01 X6.8032 Y-1.6810
G01 X6.8074 Y-1.6804
G01 X6.8117 Y-1.6808
G01 X6.8179 Y-1.6835
G01 X6.8227 Y-1.6885
G01 X6.8252 Y-1.6948
G01 X6.8250 Y-1.7017
G01 X6.8236 Y-1.7057
G01 X6.8212 Y-1.7093
G01 X6.8180 Y-1.7122
G01 X6.8143 Y-1.7142
G01 X6.7410 Y-1.7388
G01 X6.7360 Y-1.7399
G01 X6.7318 Y-1.7397
G01 X6.7269 Y-1.7382
G01 X6.7227 Y-1.7353
G01 X6.6507 Y-1.6752
G01 X6.6462 Y-1.6701
G01 X6.6443 Y-1.6654
G01 X6.6438 Y-1.6603
G01 X6.6438 Y-1.2591
G01 X6.6430 Y-1.2497
G01 X6.6407 Y-1.2396
G01 X6.6351 Y-1.2262
G01 X6.6262 Y-1.2136
G01 X6.6155 Y-1.2037
G01 X6.6029 Y-1.1963
G01 X6.5908 Y-1.1920
G01 X6.5789 Y-1.1901
G01 X6.5112 Y-1.1896
G01 X6.5063 Y-1.1879
G01 X6.5016 Y-1.1842
G01 X6.4984 Y-1.1791
G01 X6.4971 Y-1.1733
G01 X6.4978 Y-1.1673
G01 X6.5005 Y-1.1620
G01 X6.5049 Y-1.1578
G01 X6.5103 Y-1.1554
G01 X6.5789 Y-1.1547
G01 X6.5908 Y-1.1528
G01 X6.6021 Y-1.1489
G01 X6.6141 Y-1.1421
G01 X6.6245 Y-1.1331
G01 X6.6329 Y-1.1223
G01 X6.6394 Y-1.1092
G01 X6.6426 Y-1.0977
G01 X6.6438 Y-1.0857
G01 X6.6438 Y-0.7437
G01 X6.6451 Y-0.7379
G01 X6.6489 Y-0.7322
G01 X6.6538 Y-0.7288
G01 X6.6604 Y-0.7271
G01 X6.6672 Y-0.7281
G01 X6.6731 Y-0.7316
G01 X6.6771 Y-0.7371
G01 X6.6788 Y-0.7437
G01 X6.6788 Y-1.0857
G01 X6.6800 Y-1.0977
G01 X6.6832 Y-1.1092
G01 X6.6892 Y-1.1216
G01 X6.6976 Y-1.1325
G01 X6.7085 Y-1.1421
G01 X6.7205 Y-1.1489
G01 X6.7318 Y-1.1528
G01 X6.7437 Y-1.1547
G01 X6.8113 Y-1.1552
G01 X6.8162 Y-1.1569
G01 X6.8209 Y-1.1606
G01 X6.8241 Y-1.1657
G01 X6.8254 Y-1.1715
G01 X6.8247 Y-1.1775
G01 X6.8220 Y-1.1828
G01 X6.8176 Y-1.1870
G01 X6.8122 Y-1.1894
G01 X6.7428 Y-1.1902
G01 X6.7302 Y-1.1925
G01 X6.7174 Y-1.1974
G01 X6.7051 Y-1.2053
G01 X6.6942 Y-1.2162
G01 X6.6859 Y-1.2292
G01 X6.6807 Y-1.2438
G01 X6.6788 Y-1.2599
G01 X6.6789 Y-1.6237
G01 X6.6810 Y-1.6373
G01 X6.6860 Y-1.6511
G01 X6.6938 Y-1.6635
G01 X6.7040 Y-1.6740
G00 Z2.0000
G00 X7.1326 Y-1.5382
G01 F70.00
G01 Z-0.0600
G01 F120.00
G01 X7.1326 Y-1.3321
G01 X7.1331 Y-1.3269
G01 X7.1355 Y-1.3214
G01 X7.2079 Y-1.2007
G01 X7.2110 Y-1.1966
G01 X7.2152 Y-1.1935
G01 X7.2200 Y-1.1918
G01 X7.3650 Y-1.1556
G01 X7.3701 Y-1.1549
G01 X7.3752 Y-1.1556
G01 X7.5202 Y-1.1918
G01 X7.5257 Y-1.1939
G01 X7.5307 Y-1.1982
G01 X7.6054 Y-1.2861
G01 X7.6071 Y-1.2902
G01 X7.6076 Y-1.2955
G01 X7.6076 Y-1.4177
G01 X7.6069 Y-1.4219
G01 X7.6047 Y-1.4265
G01 X7.6019 Y-1.4298
G01 X7.5976 Y-1.4326
G01 X7.5935 Y-1.4340
G01 X7.5892 Y-1.4343
G01 X7.2376 Y-1.4343
G01 X7.2265 Y-1.4352
G01 X7.2149 Y-1.4382
G01 X7.2039 Y-1.4430
G01 X7.1939 Y-1.4497
G01 X7.1846 Y-1.4586
G01 X7.1776 Y-1.4684
G01 X7.1723 Y-1.4792
G01 X7.1690 Y-1.4907
G01 X7.1677 Y-1.5026
G01 X7.1677 Y-1.5313
G01 X7.1694 Y-1.5441
G01 X7.1872 Y-1.6180
G01 X7.1921 Y-1.6298
G01 X7.1985 Y-1.6399
G01 X7.2097 Y-1.6516
G01 X7.2226 Y-1.6600
G01 X7.3175 Y-1.6998
G01 X7.3290 Y-1.7033
G01 X7.3419 Y-1.7048
G01 X7.4522 Y-1.7049
G01 X7.4659 Y-1.7033
G01 X7.4742 Y-1.7010
G01 X7.4822 Y-1.6977
G01 X7.5812 Y-1.6460
G01 X7.5886 Y-1.6437
G01 X7.5945 Y-1.6442
G01 X7.6000 Y-1.6467
G01 X7.6043 Y-1.6509
G01 X7.6069 Y-1.6563
G01 X7.6076 Y-1.6622
G01 X7.6062 Y-1.6681
G01 X7.6030 Y-1.6731
G01 X7.5975 Y-1.6772
G01 X7.4817 Y-1.7376
G01 X7.4770 Y-1.7394
G01 X7.4720 Y-1.7399
G01 X7.3270 Y-1.7399
G01 X7.3210 Y-1.7392
G01 X7.1734 Y-1.6777
G01 X7.1696 Y-1.6757
G01 X7.1663 Y-1.6729
G01 X7.1639 Y-1.6693
G01 X7.1621 Y-1.6644
G01 X7.1332 Y-1.5439
G01 X7.1326 Y-1.5382
G00 Z2.0000
G00 X7.2534 Y-1.3993
G01 F70.00
G01 Z-0.0600
G01 F120.00
G01 X7.5034 Y-1.3993
G01 X7.5128 Y-1.3985
G01 X7.5221 Y-1.3965
G01 X7.5348 Y-1.3914
G01 X7.5463 Y-1.3839
G01 X7.5561 Y-1.3743
G01 X7.5643 Y-1.3623
G01 X7.5695 Y-1.3496
G01 X7.5722 Y-1.3361
G01 X7.5723 Y-1.3210
G01 X7.5698 Y-1.3076
G01 X7.5652 Y-1.2956
G01 X7.5589 Y-1.2854
G01 X7.5193 Y-1.2391
G01 X7.5123 Y-1.2326
G01 X7.5045 Y-1.2272
G01 X7.4961 Y-1.2228
G01 X7.4879 Y-1.2199
G01 X7.3862 Y-1.1945
G01 X7.3710 Y-1.1926
G01 X7.3548 Y-1.1943
G01 X7.2604 Y-1.2179
G01 X7.2492 Y-1.2222
G01 X7.2388 Y-1.2284
G01 X7.2297 Y-1.2362
G01 X7.2226 Y-1.2448
G01 X7.1901 Y-1.2993
G01 X7.1853 Y-1.3131
G01 X7.1834 Y-1.3267
G01 X7.1844 Y-1.3412
G01 X7.1880 Y-1.3544
G01 X7.1942 Y-1.3667
G01 X7.2032 Y-1.3781
G01 X7.2137 Y-1.3870
G01 X7.2258 Y-1.3936
G01 X7.2389 Y-1.3977
G01 X7.2534 Y-1.3993
G00 Z2.0000
G00 X7.9148 Y-1.1733
G01 F70.00
G01 Z-0.0600
G01 F120.00
G01 X7.9151 Y-1.1690
G01 X7.9165 Y-1.1649
G01 X7.9212 Y-1.1589
G01 X7.9280 Y-1.1554
G01 X7.9357 Y-1.1552
G01 X7.9398 Y-1.1566
G01 X7.9434 Y-1.1589
G01 X7.9564 Y-1.1732
G01 X7.9631 Y-1.1786
G01 X7.9703 Y-1.1831
G01 X7.9789 Y-1.1870
G01 X7.9871 Y-1.1895
G01 X7.9955 Y-1.1910
G01 X8.0041 Y-1.1914
G01 X8.0194 Y-1.1896
G01 X8.0346 Y-1.1841
G01 X8.0455 Y-1.1773
G01 X8.0692 Y-1.1579
G01 X8.0730 Y-1.1559
G01 X8.0773 Y-1.1550
G01 X8.2273 Y-1.1550
G01 X8.2331 Y-1.1566
G01 X8.2386 Y-1.1606
G01 X8.2418 Y-1.1657
G01 X8.2431 Y-1.1715
G01 X8.2424 Y-1.1775
G01 X8.2391 Y-1.1835
G01 X8.2346 Y-1.1874
G01 X8.2282 Y-1.1897
G01 X8.1073 Y-1.1900
G01 X8.0938 Y-1.1920
G01 X8.0817 Y-1.1962
G01 X8.0742 Y-1.2002
G01 X8.0665 Y-1.2056
G01 X7.9744 Y-1.2824
G01 X7.9654 Y-1.2917
G01 X7.9582 Y-1.3024
G01 X7.9522 Y-1.3177
G01 X7.9499 Y-1.3339
G01 X7.9498 Y-1.7233
G01 X7.9481 Y-1.7299
G01 X7.9447 Y-1.7348
G01 X7.9390 Y-1.7386
G01 X7.9332 Y-1.7399
G01 X7.9264 Y-1.7389
G01 X7.9205 Y-1.7354
G01 X7.9165 Y-1.7299
G01 X7.9148 Y-1.7233
G01 X7.9148 Y-1.1733
G00 Z2.0000
G00 X9.2486 Y-1.4275
G01 F70.00
G01 Z-0.0600
G01 F120.00
G01 X9.1553 Y-1.4120
G01 X9.1409 Y-1.4113
G01 X9.0366 Y-1.4283
G01 X9.0221 Y-1.4333
G01 X9.0084 Y-1.4420
G01 X9.0004 Y-1.4496
G01 X8.9941 Y-1.4576
G01 X8.9581 Y-1.5174
G01 X8.9525 Y-1.5290
G01 X8.9490 Y-1.5423
G01 X8.9482 Y-1.5535
G01 X8.9491 Y-1.5646
G01 X8.9620 Y-1.6192
G01 X8.9673 Y-1.6335
G01 X8.9752 Y-1.6457
G01 X8.9841 Y-1.6550
G01 X8.9937 Y-1.6620
G01 X9.0613 Y-1.6973
G01 X9.0766 Y-1.7029
G01 X9.0920 Y-1.7049
G01 X9.1551 Y-1.7048
G01 X9.1637 Y-1.7040
G01 X9.1730 Y-1.7018
G01 X9.1841 Y-1.6973
G01 X9.2614 Y-1.6571
G01 X9.2728 Y-1.6496
G01 X9.2809 Y-1.6420
G01 X9.2872 Y-1.6339
G01 X9.3251 Y-1.5705
G01 X9.3291 Y-1.5610
G01 X9.3316 Y-1.5510
G01 X9.3326 Y-1.5407
G01 X9.3322 Y-1.5313
G01 X9.3296 Y-1.5187
G01 X9.3247 Y-1.5067
G01 X9.2967 Y-1.4598
G01 X9.2918 Y-1.4528
G01 X9.2829 Y-1.4436
G01 X9.2726 Y-1.4361
G01 X9.2610 Y-1.4307
G01 X9.2486 Y-1.4275
G00 Z2.0000
G00 X9.2545 Y-1.7002
G01 F70.00
G01 Z-0.0600
G01 F120.00
G01 X9.1829 Y-1.7376
G01 X9.1773 Y-1.7396
G01 X9.0722 Y-1.7399
G01 X9.0641 Y-1.7383
G01 X8.9467 Y-1.6772
G01 X8.9430 Y-1.6748
G01 X8.9399 Y-1.6716
G01 X8.9367 Y-1.6644
G01 X8.9078 Y-1.5439
G01 X8.9075 Y-1.5355
G01 X8.9101 Y-1.5292
G01 X8.9825 Y-1.4085
G01 X8.9868 Y-1.4033
G01 X8.9919 Y-1.4004
G01 X9.1435 Y-1.3749
G01 X9.2678 Y-1.3947
G01 X9.2781 Y-1.3947
G01 X9.2882 Y-1.3931
G01 X9.2980 Y-1.3900
G01 X9.3081 Y-1.3852
G01 X9.3198 Y-1.3765
G01 X9.3294 Y-1.3656
G01 X9.3366 Y-1.3529
G01 X9.3408 Y-1.3399
G01 X9.3424 Y-1.3254
G01 X9.3410 Y-1.3109
G01 X9.3366 Y-1.2970
G01 X9.3295 Y-1.2843
G01 X9.3229 Y-1.2764
G01 X9.2556 Y-1.2068
G01 X9.2481 Y-1.2012
G01 X9.2399 Y-1.1966
G01 X9.2303 Y-1.1929
G01 X9.2211 Y-1.1908
G01 X9.2109 Y-1.1899
G01 X9.0889 Y-1.1899
G01 X9.0752 Y-1.1913
G01 X9.0628 Y-1.1950
G01 X8.9322 Y-1.2494
G01 X8.9265 Y-1.2509
G01 X8.9213 Y-1.2507
G01 X8.9157 Y-1.2485
G01 X8.9112 Y-1.2446
G01 X8.9082 Y-1.2394
G01 X8.9072 Y-1.2335
G01 X8.9082 Y-1.2276
G01 X8.9106 Y-1.2231
G01 X8.9149 Y-1.2189
G01 X9.0680 Y-1.1552
G01 X9.2500 Y-1.1551
G01 X9.2559 Y-1.1571
G01 X9.2607 Y-1.1609
G01 X9.3789 Y-1.2844
G01 X9.3815 Y-1.2896
G01 X9.3822 Y-1.2954
G01 X9.3822 Y-1.7215
G01 X9.3815 Y-1.7275
G01 X9.3777 Y-1.7342
G01 X9.3722 Y-1.7382
G01 X9.3647 Y-1.7399
G01 X9.3580 Y-1.7386
G01 X9.3517 Y-1.7342
G01 X9.3415 Y-1.7186
G01 X9.3298 Y-1.7071
G01 X9.3167 Y-1.6990
G01 X9.3012 Y-1.6938
G01 X9.2893 Y-1.6924
G01 X9.2773 Y-1.6930
G01 X9.2656 Y-1.6956
G01 X9.2545 Y-1.7002
G00 Z2.0000
G00 X10.0739 Y-1.7156
G01 F70.00
G01 Z-0.0600
G01 F120.00
G01 X9.9265 Y-1.7399
G01 X9.7781 Y-1.7153
G01 X9.7725 Y-1.7136
G01 X9.7677 Y-1.7102
G01 X9.7647 Y-1.7062
G01 X9.6923 Y-1.5855
G01 X9.6897 Y-1.5791
G01 X9.6895 Y-1.3295
G01 X9.6904 Y-1.3253
G01 X9.6923 Y-1.3214
G01 X9.7647 Y-1.2007
G01 X9.7684 Y-1.1960
G01 X9.7735 Y-1.1928
G01 X9.9260 Y-1.1549
G01 X9.9320 Y-1.1556
G01 X10.0449 Y-1.1837
G01 X10.0560 Y-1.1851
G01 X10.0663 Y-1.1849
G01 X10.0805 Y-1.1819
G01 X10.0939 Y-1.1761
G01 X10.1051 Y-1.1682
G01 X10.1151 Y-1.1576
G01 X10.1207 Y-1.1490
G01 X10.1253 Y-1.1388
G01 X10.1282 Y-1.1280
G01 X10.1293 Y-1.1178
G01 X10.1295 Y-0.7429
G01 X10.1314 Y-0.7363
G01 X10.1358 Y-0.7311
G01 X10.1418 Y-0.7278
G01 X10.1486 Y-0.7272
G01 X10.1552 Y-0.7291
G01 X10.1599 Y-0.7328
G01 X10.1634 Y-0.7387
G01 X10.1644 Y-0.7455
G01 X10.1643 Y-1.7241
G01 X10.1624 Y-1.7307
G01 X10.1580 Y-1.7359
G01 X10.1520 Y-1.7392
G01 X10.1452 Y-1.7398
G01 X10.1379 Y-1.7374
G01 X10.1228 Y-1.7255
G01 X10.1080 Y-1.7184
G01 X10.0997 Y-1.7162
G01 X10.0911 Y-1.7149
G01 X10.0825 Y-1.7147
G01 X10.0739 Y-1.7156
G00 Z2.0000
G00 X10.0341 Y-1.2172
G01 F70.00
G01 Z-0.0600
G01 F120.00
G01 X9.9422 Y-1.1943
G01 X9.9260 Y-1.1926
G01 X9.9108 Y-1.1945
G01 X9.8131 Y-1.2192
G01 X9.8044 Y-1.2230
G01 X9.7956 Y-1.2284
G01 X9.7884 Y-1.2344
G01 X9.7814 Y-1.2421
G01 X9.7319 Y-1.3240
G01 X9.7265 Y-1.3384
G01 X9.7245 Y-1.3537
G01 X9.7244 Y-1.5523
G01 X9.7258 Y-1.5651
G01 X9.7288 Y-1.5759
G01 X9.7331 Y-1.5852
G01 X9.7763 Y-1.6571
G01 X9.7821 Y-1.6647
G01 X9.7882 Y-1.6708
G01 X9.7958 Y-1.6765
G01 X9.8033 Y-1.6809
G01 X9.8129 Y-1.6848
G01 X9.8221 Y-1.6871
G01 X9.9162 Y-1.7028
G01 X9.9256 Y-1.7036
G01 X9.9384 Y-1.7027
G01 X10.0317 Y-1.6871
G01 X10.0401 Y-1.6851
G01 X10.0497 Y-1.6812
G01 X10.0587 Y-1.6761
G01 X10.0668 Y-1.6696
G01 X10.0739 Y-1.6620
G01 X10.0793 Y-1.6542
G01 X10.1219 Y-1.5829
G01 X10.1273 Y-1.5685
G01 X10.1293 Y-1.5532
G01 X10.1294 Y-1.3546
G01 X10.1275 Y-1.3393
G01 X10.1247 Y-1.3302
G01 X10.1203 Y-1.3209
G01 X10.0729 Y-1.2427
G01 X10.0654 Y-1.2344
G01 X10.0560 Y-1.2269
G01 X10.0455 Y-1.2211
G01 X10.0341 Y-1.2172
G00 Z2.0000
G00 X10.5746 Y-1.9213
G01 F70.00
G01 Z-0.0600
G01 F120.00
G01 X10.6090 Y-1.8746
G01 X10.6149 Y-1.8611
G01 X10.6180 Y-1.8459
G01 X10.6183 Y-1.1715
G01 X10.6200 Y-1.1649
G01 X10.6247 Y-1.1589
G01 X10.6307 Y-1.1556
G01 X10.6375 Y-1.1550
G01 X10.6433 Y-1.1566
G01 X10.6488 Y-1.1606
G01 X10.6523 Y-1.1665
G01 X10.6533 Y-1.1733
G01 X10.6530 Y-1.8724
G01 X10.6516 Y-1.8766
G01 X10.6493 Y-1.8802
G01 X10.5769 Y-1.9766
G01 X10.5714 Y-1.9819
G01 X10.5675 Y-1.9836
G01 X10.5633 Y-1.9843
G01 X10.4882 Y-1.9843
G01 X10.4840 Y-1.9836
G01 X10.4794 Y-1.9814
G01 X10.4761 Y-1.9786
G01 X10.4736 Y-1.9751
G01 X10.4717 Y-1.9685
G01 X10.4723 Y-1.9617
G01 X10.4756 Y-1.9557
G01 X10.4808 Y-1.9513
G01 X10.4882 Y-1.9493
G01 X10.5246 Y-1.9490
G01 X10.5397 Y-1.9460
G01 X10.5499 Y-1.9419
G01 X10.5587 Y-1.9366
G01 X10.5673 Y-1.9296
G01 X10.5746 Y-1.9213
G00 Z2.0000
G00 X10.2854 Y-6.9420
G01 F70.00
G01 Z-0.0600
G01 F120.00
G01 X10.2854 Y-6.8820
G01 X10.9288 Y-6.8820
G01 X10.9288 Y-7.3753
G01 X10.8688 Y-7.3753
G01 X10.8686 Y-7.0069
G01 X10.8658 Y-6.9917
G01 X10.8593 Y-6.9768
G01 X10.8495 Y-6.9637
G01 X10.8377 Y-6.9538
G01 X10.8295 Y-6.9491
G01 X10.8199 Y-6.9453
G01 X10.8099 Y-6.9429
G01 X10.8005 Y-6.9420
G01 X10.2854 Y-6.9420
G00 Z2.0000
G00 X9.1288 Y-7.3754
G01 F70.00
G01 Z-0.0600
G01 F120.00
G01 X9.0688 Y-7.3754
G01 X9.0688 Y-6.8820
G01 X9.7121 Y-6.8820
G01 X9.7121 Y-6.9420
G01 X9.1971 Y-6.9420
G01 X9.1860 Y-6.9432
G01 X9.1744 Y-6.9464
G01 X9.1636 Y-6.9515
G01 X9.1537 Y-6.9584
G01 X9.1441 Y-6.9683
G01 X9.1363 Y-6.9805
G01 X9.1313 Y-6.9933
G01 X9.1289 Y-7.0077
G01 X9.1288 Y-7.3754
G00 Z2.0000
G00 X9.1288 Y-7.9487
G01 F70.00
G01 Z-0.0600
G01 F120.00
G01 X9.1288 Y-8.3120
G01 X9.1293 Y-8.3206
G01 X9.1313 Y-8.3307
G01 X9.1348 Y-8.3404
G01 X9.1397 Y-8.3494
G01 X9.1464 Y-8.3584
G01 X9.1537 Y-8.3656
G01 X9.1621 Y-8.3716
G01 X9.1712 Y-8.3763
G01 X9.1810 Y-8.3797
G01 X9.1894 Y-8.3814
G01 X9.1988 Y-8.3820
G01 X10.7988 Y-8.3820
G01 X10.8116 Y-8.3808
G01 X10.8232 Y-8.3776
G01 X10.8340 Y-8.3725
G01 X10.8439 Y-8.3656
G01 X10.8529 Y-8.3564
G01 X10.8597 Y-8.3465
G01 X10.8650 Y-8.3348
G01 X10.8679 Y-8.3231
G01 X10.8688 Y-8.3120
G01 X10.8688 Y-7.9486
G01 X10.9288 Y-7.9486
G01 X10.9288 Y-8.4420
G01 X9.0688 Y-8.4420
G01 X9.0688 Y-7.9487
G01 X9.1288 Y-7.9487
G00 Z2.0000
G00 X8.4385 Y-11.6217
G01 F70.00
G01 Z-0.0600
G01 F120.00
G01 X8.4484 Y-11.7016
G01 X8.4613 Y-11.7758
G01 X8.4786 Y-11.8526
G01 X8.4987 Y-11.9252
G01 X8.5230 Y-11.9986
G01 X8.5506 Y-12.0702
G01 X8.5826 Y-12.1423
G01 X8.6165 Y-12.2096
G01 X8.6545 Y-12.2767
G01 X8.6957 Y-12.3417
G01 X8.7401 Y-12.4047
G01 X8.7876 Y-12.4656
G01 X8.8378 Y-12.5238
G01 X8.8909 Y-12.5797
G01 X8.9468 Y-12.6329
G01 X9.0051 Y-12.6831
G01 X9.0659 Y-12.7306
G01 X9.1289 Y-12.7749
G01 X9.1939 Y-12.8161
G01 X9.2610 Y-12.8541
G01 X9.3296 Y-12.8887
G01 X9.4002 Y-12.9199
G01 X9.4706 Y-12.9471
G01 X9.5454 Y-12.9719
G01 X9.6180 Y-12.9920
G01 X9.6965 Y-13.0096
G01 X9.7707 Y-13.0225
G01 X9.8472 Y-13.0319
G01 X9.9241 Y-13.0376
G01 X10.0020 Y-13.0395
G01 X10.0781 Y-13.0376
G01 X10.1550 Y-13.0319
G01 X10.2315 Y-13.0225
G01 X10.3057 Y-13.0096
G01 X10.3842 Y-12.9920
G01 X10.4568 Y-12.9719
G01 X10.5302 Y-12.9476
G01 X10.6018 Y-12.9200
G01 X10.6721 Y-12.8889
G01 X10.7412 Y-12.8541
G01 X10.8068 Y-12.8170
G01 X10.8748 Y-12.7739
G01 X10.9363 Y-12.7305
G01 X10.9972 Y-12.6830
G01 X11.0554 Y-12.6328
G01 X11.1113 Y-12.5797
G01 X11.1645 Y-12.5238
G01 X11.2136 Y-12.4668
G01 X11.2631 Y-12.4034
G01 X11.3065 Y-12.3417
G01 X11.3477 Y-12.2767
G01 X11.3857 Y-12.2096
G01 X11.4196 Y-12.1423
G01 X11.4522 Y-12.0687
G01 X11.4793 Y-11.9986
G01 X11.5035 Y-11.9252
G01 X11.5240 Y-11.8510
G01 X11.5378 Y-11.7896
G01 X12.7291 Y-11.7896
G01 X12.7337 Y-11.8097
G01 X12.7472 Y-11.8587
G01 X12.7637 Y-11.9086
G01 X12.7828 Y-11.9584
G01 X12.8040 Y-12.0061
G01 X12.8279 Y-12.0536
G01 X12.8537 Y-12.0991
G01 X12.8817 Y-12.1433
G01 X12.9115 Y-12.1856
G01 X12.9444 Y-12.2278
G01 X12.9786 Y-12.2675
G01 X13.0148 Y-12.3055
G01 X13.0528 Y-12.3417
G01 X13.0926 Y-12.3760
G01 X13.1340 Y-12.4083
G01 X13.1769 Y-12.4386
G01 X13.2219 Y-12.4670
G01 X13.2670 Y-12.4926
G01 X13.3137 Y-12.5161
G01 X13.3619 Y-12.5375
G01 X13.4126 Y-12.5569
G01 X13.4608 Y-12.5728
G01 X13.5131 Y-12.5872
G01 X13.5627 Y-12.5983
G01 X13.6127 Y-12.6070
G01 X13.6648 Y-12.6136
G01 X13.7189 Y-12.6176
G01 X13.7714 Y-12.6189
G01 X13.8239 Y-12.6176
G01 X13.8763 Y-12.6137
G01 X13.9284 Y-12.6073
G01 X13.9801 Y-12.5983
G01 X14.0314 Y-12.5868
G01 X14.0820 Y-12.5728
G01 X14.1319 Y-12.5564
G01 X14.1793 Y-12.5381
G01 X14.2304 Y-12.5154
G01 X14.2761 Y-12.4924
G01 X14.3216 Y-12.4666
G01 X14.3658 Y-12.4386
G01 X14.4074 Y-12.4093
G01 X14.4515 Y-12.3749
G01 X14.4900 Y-12.3417
G01 X14.5280 Y-12.3055
G01 X14.5642 Y-12.2675
G01 X14.5974 Y-12.2290
G01 X14.6308 Y-12.1863
G01 X14.6611 Y-12.1434
G01 X14.6883 Y-12.1005
G01 X14.7158 Y-12.0518
G01 X14.7386 Y-12.0066
G01 X14.7600 Y-11.9584
G01 X14.7789 Y-11.9094
G01 X14.7948 Y-11.8611
G01 X14.8097 Y-11.8072
G01 X14.8208 Y-11.7576
G01 X14.8298 Y-11.7059
G01 X14.8362 Y-11.6538
G01 X14.8400 Y-11.6031
G01 X14.8414 Y-11.5480
G01 X14.8401 Y-11.4964
G01 X14.8362 Y-11.4440
G01 X14.8298 Y-11.3919
G01 X14.8208 Y-11.3402
G01 X14.8093 Y-11.2889
G01 X14.7953 Y-11.2383
G01 X14.7789 Y-11.1884
G01 X14.7606 Y-11.1410
G01 X14.7379 Y-11.0899
G01 X14.7149 Y-11.0442
G01 X14.6883 Y-10.9973
G01 X14.6611 Y-10.9545
G01 X14.6308 Y-10.9115
G01 X14.5984 Y-10.8700
G01 X14.5642 Y-10.8303
G01 X14.5280 Y-10.7923
G01 X14.4900 Y-10.7561
G01 X14.4502 Y-10.7218
G01 X14.4102 Y-10.6905
G01 X14.3659 Y-10.6592
G01 X14.3230 Y-10.6320
G01 X14.2743 Y-10.6045
G01 X14.2291 Y-10.5817
G01 X14.1809 Y-10.5603
G01 X14.1319 Y-10.5414
G01 X14.0820 Y-10.5250
G01 X14.0314 Y-10.5110
G01 X13.9801 Y-10.4995
G01 X13.9284 Y-10.4905
G01 X13.8780 Y-10.4842
G01 X13.8222 Y-10.4801
G01 X13.7714 Y-10.4789
G01 X13.7189 Y-10.4802
G01 X13.6665 Y-10.4841
G01 X13.6161 Y-10.4903
G01 X13.5610 Y-10.4998
G01 X13.5114 Y-10.5110
G01 X13.4608 Y-10.5250
G01 X13.4109 Y-10.5414
G01 X13.3635 Y-10.5597
G01 X13.3124 Y-10.5824
G01 X13.2667 Y-10.6054
G01 X13.2212 Y-10.6312
G01 X13.1770 Y-10.6592
G01 X13.1354 Y-10.6885
G01 X13.0913 Y-10.7229
G01 X13.0528 Y-10.7561
G01 X13.0148 Y-10.7923
G01 X12.9786 Y-10.8303
G01 X12.9454 Y-10.8688
G01 X12.9110 Y-10.9129
G01 X12.8817 Y-10.9544
G01 X12.8536 Y-10.9988
G01 X12.8277 Y-11.0445
G01 X12.8049 Y-11.0899
G01 X12.7790 Y-11.1494
G01 X11.5378 Y-11.1494
G01 X11.5240 Y-11.0880
G01 X11.5035 Y-11.0138
G01 X11.4792 Y-10.9404
G01 X11.4516 Y-10.8688
G01 X11.4205 Y-10.7985
G01 X11.3857 Y-10.7294
G01 X11.3477 Y-10.6623
G01 X11.3065 Y-10.5973
G01 X11.2621 Y-10.5343
G01 X11.2146 Y-10.4734
G01 X11.1644 Y-10.4152
G01 X11.1113 Y-10.3593
G01 X11.0554 Y-10.3061
G01 X10.9971 Y-10.2559
G01 X10.9363 Y-10.2084
G01 X10.8688 Y-10.1612
G01 X10.8688 Y-8.9111
G01 X10.8673 Y-8.8975
G01 X10.8631 Y-8.8844
G01 X10.8565 Y-8.8724
G01 X10.8477 Y-8.8619
G01 X10.8377 Y-8.8538
G01 X10.8256 Y-8.8473
G01 X10.8125 Y-8.8433
G01 X10.7997 Y-8.8420
G01 X9.1979 Y-8.8420
G01 X9.1851 Y-8.8433
G01 X9.1720 Y-8.8473
G01 X9.1606 Y-8.8533
G01 X9.1499 Y-8.8619
G01 X9.1416 Y-8.8717
G01 X9.1352 Y-8.8829
G01 X9.1309 Y-8.8950
G01 X9.1289 Y-8.9086
G01 X9.1288 Y-10.1641
G01 X9.0645 Y-10.2095
G01 X9.0050 Y-10.2560
G01 X8.9480 Y-10.3051
G01 X8.8909 Y-10.3593
G01 X8.8367 Y-10.4164
G01 X8.7875 Y-10.4735
G01 X8.7411 Y-10.5329
G01 X8.6957 Y-10.5973
G01 X8.6536 Y-10.6638
G01 X8.6165 Y-10.7294
G01 X8.5819 Y-10.7980
G01 X8.5500 Y-10.8703
G01 X8.5229 Y-10.9404
G01 X8.4992 Y-11.0121
G01 X8.4782 Y-11.0880
G01 X8.4610 Y-11.1649
G01 X8.4481 Y-11.2391
G01 X8.4388 Y-11.3139
G01 X8.4330 Y-11.3925
G01 X8.4311 Y-11.4712
G01 X8.4330 Y-11.5465
G01 X8.4385 Y-11.6217
G00 Z2.0000
G00 X6.4997 Y-11.9446
G01 F70.00
G01 Z-0.0600
G01 F120.00
G01 X6.4997 Y-12.8339
G01 X6.4984 Y-12.8415
G01 X6.4946 Y-12.8472
G01 X6.4889 Y-12.8510
G01 X6.4822 Y-12.8523
G01 X6.4755 Y-12.8510
G01 X6.4698 Y-12.8472
G01 X6.4660 Y-12.8415
G01 X6.4647 Y-12.8339
G01 X6.4647 Y-11.9446
G01 X6.4639 Y-11.9344
G01 X6.4616 Y-11.9243
G01 X6.4587 Y-11.9163
G01 X6.4543 Y-11.9079
G01 X6.4488 Y-11.9002
G01 X6.4429 Y-11.8939
G01 X6.4364 Y-11.8884
G01 X6.4284 Y-11.8833
G01 X6.4206 Y-11.8796
G01 X6.4117 Y-11.8767
G01 X6.3955 Y-11.8746
G01 X6.1872 Y-11.8745
G01 X6.1799 Y-11.8721
G01 X6.1743 Y-11.8668
G01 X6.1716 Y-11.8597
G01 X6.1721 Y-11.8520
G01 X6.1743 Y-11.8474
G01 X6.1785 Y-11.8430
G01 X6.1838 Y-11.8403
G01 X6.1898 Y-11.8396
G01 X6.7747 Y-11.8396
G01 X6.7807 Y-11.8403
G01 X6.7860 Y-11.8430
G01 X6.7902 Y-11.8474
G01 X6.7924 Y-11.8520
G01 X6.7929 Y-11.8597
G01 X6.7902 Y-11.8668
G01 X6.7846 Y-11.8721
G01 X6.7773 Y-11.8745
G01 X6.5689 Y-11.8746
G01 X6.5586 Y-11.8755
G01 X6.5486 Y-11.8779
G01 X6.5383 Y-11.8821
G01 X6.5287 Y-11.8879
G01 X6.5202 Y-11.8951
G01 X6.5130 Y-11.9036
G01 X6.5076 Y-11.9124
G01 X6.5033 Y-11.9227
G01 X6.5006 Y-11.9335
G01 X6.4997 Y-11.9446
G00 Z2.0000
G00 X5.2425 Y-11.8580
G01 F70.00
G01 Z-0.0600
G01 F120.00
G01 X5.2432 Y-11.8520
G01 X5.2454 Y-11.8474
G01 X5.2496 Y-11.8430
G01 X5.2541 Y-11.8406
G01 X5.2600 Y-11.8396
G01 X5.2651 Y-11.8403
G01 X5.2697 Y-11.8425
G01 X5.2741 Y-11.8467
G01 X5.7005 Y-12.5570
G01 X5.7056 Y-12.5639
G01 X5.7115 Y-12.5701
G01 X5.7189 Y-12.5760
G01 X5.7262 Y-12.5805
G01 X5.7340 Y-12.5841
G01 X5.7422 Y-12.5867
G01 X5.7506 Y-12.5883
G01 X5.7600 Y-12.5888
G01 X5.7720 Y-12.5876
G01 X5.7844 Y-12.5841
G01 X5.7952 Y-12.5788
G01 X5.8055 Y-12.5712
G01 X5.8143 Y-12.5618
G01 X5.8209 Y-12.5518
G01 X5.8256 Y-12.5407
G01 X5.8285 Y-12.5282
G01 X5.8292 Y-12.5188
G01 X5.8292 Y-11.8562
G01 X5.8302 Y-11.8512
G01 X5.8332 Y-11.8460
G01 X5.8370 Y-11.8425
G01 X5.8424 Y-11.8401
G01 X5.8484 Y-11.8397
G01 X5.8534 Y-11.8409
G01 X5.8585 Y-11.8441
G01 X5.8617 Y-11.8481
G01 X5.8637 Y-11.8528
G01 X5.8642 Y-11.8580
G01 X5.8642 Y-12.8339
G01 X5.8637 Y-12.8391
G01 X5.8622 Y-12.8431
G01 X5.8591 Y-12.8472
G01 X5.8557 Y-12.8498
G01 X5.8493 Y-12.8521
G01 X5.8424 Y-12.8518
G01 X5.8363 Y-12.8489
G01 X5.8312 Y-12.8431
G01 X5.4052 Y-12.1335
G01 X5.3945 Y-12.1212
G01 X5.3878 Y-12.1159
G01 X5.3805 Y-12.1114
G01 X5.3654 Y-12.1054
G01 X5.3569 Y-12.1038
G01 X5.3484 Y-12.1031
G01 X5.3356 Y-12.1042
G01 X5.3231 Y-12.1075
G01 X5.3123 Y-12.1127
G01 X5.3018 Y-12.1201
G01 X5.2934 Y-12.1287
G01 X5.2862 Y-12.1394
G01 X5.2811 Y-12.1512
G01 X5.2782 Y-12.1637
G01 X5.2775 Y-12.1731
G01 X5.2775 Y-12.8357
G01 X5.2765 Y-12.8407
G01 X5.2735 Y-12.8459
G01 X5.2697 Y-12.8494
G01 X5.2643 Y-12.8518
G01 X5.2583 Y-12.8522
G01 X5.2533 Y-12.8510
G01 X5.2489 Y-12.8483
G01 X5.2450 Y-12.8438
G01 X5.2430 Y-12.8391
G01 X5.2425 Y-12.8339
G01 X5.2425 Y-11.8580
G00 Z2.0000
G00 X4.7197 Y-12.4857
G01 F70.00
G01 Z-0.0600
G01 F120.00
G01 X4.3809 Y-12.4858
G01 X4.3716 Y-12.4866
G01 X4.3624 Y-12.4887
G01 X4.3536 Y-12.4921
G01 X4.3446 Y-12.4970
G01 X4.3364 Y-12.5032
G01 X4.3286 Y-12.5112
G01 X4.3227 Y-12.5196
G01 X4.3181 Y-12.5288
G01 X4.2002 Y-12.8425
G01 X4.1979 Y-12.8461
G01 X4.1940 Y-12.8495
G01 X4.1902 Y-12.8514
G01 X4.1860 Y-12.8523
G01 X4.1817 Y-12.8521
G01 X4.1768 Y-12.8505
G01 X4.1725 Y-12.8476
G01 X4.1698 Y-12.8443
G01 X4.1679 Y-12.8405
G01 X4.1670 Y-12.8363
G01 X4.1672 Y-12.8320
G01 X4.1684 Y-12.8278
G01 X4.5345 Y-11.8517
G01 X4.5363 Y-11.8478
G01 X4.5390 Y-11.8445
G01 X4.5425 Y-11.8419
G01 X4.5465 Y-11.8402
G01 X4.5534 Y-11.8397
G01 X4.5591 Y-11.8415
G01 X4.5645 Y-11.8457
G01 X4.5679 Y-11.8518
G01 X4.9339 Y-12.8278
G01 X4.9353 Y-12.8345
G01 X4.9344 Y-12.8405
G01 X4.9315 Y-12.8457
G01 X4.9263 Y-12.8501
G01 X4.9198 Y-12.8522
G01 X4.9121 Y-12.8514
G01 X4.9056 Y-12.8474
G01 X4.9017 Y-12.8417
G01 X4.7852 Y-12.5312
G01 X4.7805 Y-12.5211
G01 X4.7758 Y-12.5139
G01 X4.7697 Y-12.5068
G01 X4.7626 Y-12.5005
G01 X4.7548 Y-12.4952
G01 X4.7464 Y-12.4910
G01 X4.7375 Y-12.4880
G01 X4.7282 Y-12.4863
G01 X4.7197 Y-12.4857
G00 Z2.0000
G00 X4.4483 Y-12.4507
G01 F70.00
G01 Z-0.0600
G01 F120.00
G01 X4.6540 Y-12.4507
G01 X4.6668 Y-12.4495
G01 X4.6760 Y-12.4471
G01 X4.6848 Y-12.4435
G01 X4.6937 Y-12.4383
G01 X4.7011 Y-12.4325
G01 X4.7076 Y-12.4257
G01 X4.7132 Y-12.4180
G01 X4.7177 Y-12.4097
G01 X4.7210 Y-12.4008
G01 X4.7233 Y-12.3908
G01 X4.7240 Y-12.3796
G01 X4.7230 Y-12.3685
G01 X4.7204 Y-12.3585
G01 X4.6158 Y-12.0795
G01 X4.6083 Y-12.0660
G01 X4.5981 Y-12.0545
G01 X4.5856 Y-12.0455
G01 X4.5715 Y-12.0394
G01 X4.5597 Y-12.0369
G01 X4.5478 Y-12.0365
G01 X4.5367 Y-12.0379
G01 X4.5253 Y-12.0414
G01 X4.5145 Y-12.0468
G01 X4.5056 Y-12.0533
G01 X4.4977 Y-12.0612
G01 X4.4908 Y-12.0710
G01 X4.4856 Y-12.0818
G01 X4.3812 Y-12.3610
G01 X4.3784 Y-12.3770
G01 X4.3795 Y-12.3933
G01 X4.3843 Y-12.4089
G01 X4.3926 Y-12.4230
G01 X4.4039 Y-12.4347
G01 X4.4176 Y-12.4435
G01 X4.4330 Y-12.4490
G01 X4.4483 Y-12.4507
G00 Z2.0000
G00 X0.4385 Y-11.6217
G01 F70.00
G01 Z-0.0600
G01 F120.00
G01 X0.4484 Y-11.7016
G01 X0.4613 Y-11.7758
G01 X0.4782 Y-11.8510
G01 X0.4992 Y-11.9269
G01 X0.5230 Y-11.9986
G01 X0.5506 Y-12.0702
G01 X0.5817 Y-12.1405
G01 X0.6157 Y-12.2081
G01 X0.6545 Y-12.2767
G01 X0.6957 Y-12.3417
G01 X0.7391 Y-12.4034
G01 X0.7876 Y-12.4656
G01 X0.8378 Y-12.5238
G01 X0.8897 Y-12.5784
G01 X0.9468 Y-12.6328
G01 X1.0064 Y-12.6842
G01 X1.0659 Y-12.7305
G01 X1.1289 Y-12.7749
G01 X1.1954 Y-12.8170
G01 X1.2610 Y-12.8541
G01 X1.3298 Y-12.8888
G01 X1.4004 Y-12.9200
G01 X1.4706 Y-12.9471
G01 X1.5454 Y-12.9719
G01 X1.6213 Y-12.9928
G01 X1.6948 Y-13.0093
G01 X1.7707 Y-13.0225
G01 X1.8489 Y-13.0321
G01 X1.9241 Y-13.0376
G01 X2.0011 Y-13.0395
G01 X2.0781 Y-13.0376
G01 X2.1533 Y-13.0321
G01 X2.2315 Y-13.0225
G01 X2.3074 Y-13.0093
G01 X2.3809 Y-12.9928
G01 X2.4568 Y-12.9719
G01 X2.5316 Y-12.9471
G01 X2.6018 Y-12.9200
G01 X2.6721 Y-12.8889
G01 X2.7427 Y-12.8533
G01 X2.8083 Y-12.8161
G01 X2.8733 Y-12.7749
G01 X2.9363 Y-12.7305
G01 X2.9958 Y-12.6842
G01 X3.0554 Y-12.6328
G01 X3.1125 Y-12.5784
G01 X3.1645 Y-12.5238
G01 X3.2142 Y-12.4662
G01 X3.2622 Y-12.4047
G01 X3.3065 Y-12.3417
G01 X3.3477 Y-12.2767
G01 X3.3857 Y-12.2096
G01 X3.4203 Y-12.1410
G01 X3.4515 Y-12.0704
G01 X3.4793 Y-11.9986
G01 X3.5040 Y-11.9236
G01 X3.5244 Y-11.8493
G01 X3.5409 Y-11.7758
G01 X3.5538 Y-11.7016
G01 X3.5635 Y-11.6234
G01 X3.5691 Y-11.5483
G01 X3.5711 Y-11.4695
G01 X3.5692 Y-11.3925
G01 X3.5635 Y-11.3156
G01 X3.5542 Y-11.2400
G01 X3.5409 Y-11.1632
G01 X3.5236 Y-11.0864
G01 X3.5035 Y-11.0138
G01 X3.4799 Y-10.9422
G01 X3.4522 Y-10.8703
G01 X3.4205 Y-10.7985
G01 X3.3857 Y-10.7294
G01 X3.3477 Y-10.6623
G01 X3.3055 Y-10.5958
G01 X3.2621 Y-10.5343
G01 X3.2158 Y-10.4748
G01 X3.1655 Y-10.4164
G01 X3.1113 Y-10.3593
G01 X3.0554 Y-10.3061
G01 X2.9971 Y-10.2559
G01 X2.9350 Y-10.2075
G01 X2.8719 Y-10.1632
G01 X2.8083 Y-10.1229
G01 X2.7518 Y-10.0909
G01 X2.7518 Y-8.9500
G01 X2.7499 Y-8.9355
G01 X2.7451 Y-8.9218
G01 X2.7375 Y-8.9093
G01 X2.7269 Y-8.8981
G01 X2.7170 Y-8.8912
G01 X2.7062 Y-8.8861
G01 X2.6946 Y-8.8829
G01 X2.6827 Y-8.8817
G01 X1.2818 Y-8.8817
G01 X1.2665 Y-8.8834
G01 X1.2519 Y-8.8884
G01 X1.2387 Y-8.8965
G01 X1.2282 Y-8.9066
G01 X1.2213 Y-8.9165
G01 X1.2162 Y-8.9273
G01 X1.2130 Y-8.9389
G01 X1.2118 Y-8.9508
G01 X1.2118 Y-10.1127
G01 X1.1932 Y-10.1233
G01 X1.1296 Y-10.1636
G01 X1.0652 Y-10.2090
G01 X1.0050 Y-10.2560
G01 X0.9480 Y-10.3051
G01 X0.8903 Y-10.3600
G01 X0.8378 Y-10.4152
G01 X0.7886 Y-10.4722
G01 X0.7400 Y-10.5343
G01 X0.6957 Y-10.5973
G01 X0.6554 Y-10.6609
G01 X0.6161 Y-10.7302
G01 X0.5819 Y-10.7980
G01 X0.5513 Y-10.8671
G01 X0.5229 Y-10.9404
G01 X0.4982 Y-11.0154
G01 X0.4782 Y-11.0880
G01 X0.4613 Y-11.1632
G01 X0.4479 Y-11.2408
G01 X0.4387 Y-11.3156
G01 X0.4330 Y-11.3925
G01 X0.4311 Y-11.4712
G01 X0.4330 Y-11.5465
G01 X0.4385 Y-11.6217
G00 Z2.0000
G00 X0.3687 Y-11.6268
G01 F70.00
G01 Z-0.0600
G01 F120.00
G01 X0.3789 Y-11.7101
G01 X0.3933 Y-11.7928
G01 X0.4103 Y-11.8681
G01 X0.4308 Y-11.9423
G01 X0.4582 Y-12.0252
G01 X0.4859 Y-12.0969
G01 X0.5171 Y-12.1676
G01 X0.5547 Y-12.2426
G01 X0.5945 Y-12.3128
G01 X0.6356 Y-12.3778
G01 X0.6859 Y-12.4492
G01 X0.7336 Y-12.5101
G01 X0.7837 Y-12.5683
G01 X0.8414 Y-12.6292
G01 X0.8997 Y-12.6847
G01 X0.9581 Y-12.7350
G01 X1.0242 Y-12.7868
G01 X1.0900 Y-12.8331
G01 X1.1550 Y-12.8744
G01 X1.2280 Y-12.9159
G01 X1.2999 Y-12.9520
G01 X1.3703 Y-12.9833
G01 X1.4518 Y-13.0147
G01 X1.5250 Y-13.0389
G01 X1.5993 Y-13.0595
G01 X1.6812 Y-13.0780
G01 X1.7639 Y-13.0922
G01 X1.8404 Y-13.1016
G01 X1.9206 Y-13.1075
G01 X2.0045 Y-13.1095
G01 X2.0816 Y-13.1075
G01 X2.1618 Y-13.1016
G01 X2.2417 Y-13.0917
G01 X2.3177 Y-13.0786
G01 X2.3997 Y-13.0603
G01 X2.4804 Y-13.0378
G01 X2.5540 Y-13.0135
G01 X2.6285 Y-12.9847
G01 X2.7018 Y-12.9523
G01 X2.7711 Y-12.9174
G01 X2.8444 Y-12.8761
G01 X2.9122 Y-12.8331
G01 X2.9753 Y-12.7888
G01 X3.0417 Y-12.7370
G01 X3.1025 Y-12.6847
G01 X3.1583 Y-12.6316
G01 X3.2185 Y-12.5683
G01 X3.2688 Y-12.5099
G01 X3.3184 Y-12.4463
G01 X3.3647 Y-12.3806
G01 X3.4095 Y-12.3097
G01 X3.4475 Y-12.2426
G01 X3.4821 Y-12.1738
G01 X3.5149 Y-12.1003
G01 X3.5451 Y-12.0224
G01 X3.5694 Y-11.9488
G01 X3.5920 Y-11.8680
G01 X3.6096 Y-11.7894
G01 X3.6233 Y-11.7101
G01 X3.6332 Y-11.6302
G01 X3.6391 Y-11.5500
G01 X3.6411 Y-11.4695
G01 X3.6391 Y-11.3890
G01 X3.6328 Y-11.3053
G01 X3.6228 Y-11.2255
G01 X3.6096 Y-11.1496
G01 X3.5927 Y-11.0744
G01 X3.5705 Y-10.9934
G01 X3.5451 Y-10.9166
G01 X3.5163 Y-10.8421
G01 X3.4821 Y-10.7652
G01 X3.4475 Y-10.6964
G01 X3.4095 Y-10.6293
G01 X3.3657 Y-10.5598
G01 X3.3184 Y-10.4926
G01 X3.2666 Y-10.4265
G01 X3.2163 Y-10.3681
G01 X3.1632 Y-10.3123
G01 X3.1036 Y-10.2554
G01 X3.0415 Y-10.2018
G01 X2.9765 Y-10.1511
G01 X2.9108 Y-10.1049
G01 X2.8458 Y-10.0638
G01 X2.8218 Y-10.0501
G01 X2.8217 Y-8.9465
G01 X2.8205 Y-8.9329
G01 X2.8176 Y-8.9177
G01 X2.8136 Y-8.9045
G01 X2.8084 Y-8.8918
G01 X2.8019 Y-8.8797
G01 X2.7932 Y-8.8669
G01 X2.7832 Y-8.8552
G01 X2.7732 Y-8.8457
G01 X2.7638 Y-8.8382
G01 X2.7538 Y-8.8316
G01 X2.7432 Y-8.8259
G01 X2.7322 Y-8.8211
G01 X2.7208 Y-8.8172
G01 X2.7091 Y-8.8144
G01 X2.6972 Y-8.8126
G01 X2.6852 Y-8.8117
G01 X1.2801 Y-8.8117
G01 X1.2664 Y-8.8126
G01 X1.2511 Y-8.8151
G01 X1.2363 Y-8.8193
G01 X1.2235 Y-8.8244
G01 X1.2098 Y-8.8316
G01 X1.1970 Y-8.8403
G01 X1.1865 Y-8.8491
G01 X1.1758 Y-8.8603
G01 X1.1683 Y-8.8697
G01 X1.1617 Y-8.8797
G01 X1.1560 Y-8.8903
G01 X1.1512 Y-8.9013
G01 X1.1473 Y-8.9127
G01 X1.1445 Y-8.9244
G01 X1.1427 Y-8.9363
G01 X1.1418 Y-8.9483
G01 X1.1418 Y-10.0730
G01 X1.0900 Y-10.1059
G01 X1.0269 Y-10.1502
G01 X0.9605 Y-10.2020
G01 X0.8997 Y-10.2543
G01 X0.8439 Y-10.3074
G01 X0.7859 Y-10.3681
G01 X0.7312 Y-10.4318
G01 X0.6838 Y-10.4927
G01 X0.6375 Y-10.5584
G01 X0.5927 Y-10.6293
G01 X0.5547 Y-10.6964
G01 X0.5201 Y-10.7652
G01 X0.4860 Y-10.8417
G01 X0.4559 Y-10.9202
G01 X0.4317 Y-10.9934
G01 X0.4111 Y-11.0677
G01 X0.3920 Y-11.1529
G01 X0.3789 Y-11.2289
G01 X0.3694 Y-11.3053
G01 X0.3631 Y-11.3890
G01 X0.3611 Y-11.4729
G01 X0.3631 Y-11.5500
G01 X0.3687 Y-11.6268
G00 Z2.0000
G00 X1.0518 Y-8.6517
G01 F70.00
G01 Z-0.0600
G01 F120.00
G01 X1.0518 Y-7.9884
G01 X1.2118 Y-7.9884
G01 X1.2118 Y-8.3517
G01 X1.2127 Y-8.3628
G01 X1.2159 Y-8.3753
G01 X1.2209 Y-8.3862
G01 X1.2277 Y-8.3961
G01 X1.2361 Y-8.4047
G01 X1.2466 Y-8.4122
G01 X1.2574 Y-8.4173
G01 X1.2690 Y-8.4205
G01 X1.2818 Y-8.4217
G01 X2.6818 Y-8.4217
G01 X2.6912 Y-8.4211
G01 X2.6996 Y-8.4194
G01 X2.7094 Y-8.4160
G01 X2.7185 Y-8.4113
G01 X2.7269 Y-8.4053
G01 X2.7348 Y-8.3974
G01 X2.7409 Y-8.3891
G01 X2.7458 Y-8.3801
G01 X2.7493 Y-8.3704
G01 X2.7513 Y-8.3603
G01 X2.7518 Y-8.3517
G01 X2.7518 Y-7.9884
G01 X2.9118 Y-7.9884
G01 X2.9118 Y-9.9606
G01 X2.9135 Y-9.9760
G01 X2.9168 Y-9.9866
G01 X2.9213 Y-9.9959
G01 X2.9271 Y-10.0044
G01 X2.9348 Y-10.0125
G01 X2.9415 Y-10.0178
G01 X2.9622 Y-10.0311
G01 X3.0316 Y-10.0800
G01 X3.0986 Y-10.1322
G01 X3.1629 Y-10.1877
G01 X3.2244 Y-10.2462
G01 X3.2829 Y-10.3077
G01 X3.3384 Y-10.3720
G01 X3.3906 Y-10.4390
G01 X3.4395 Y-10.5084
G01 X3.4850 Y-10.5801
G01 X3.5268 Y-10.6540
G01 X3.5650 Y-10.7298
G01 X3.5994 Y-10.8075
G01 X3.6300 Y-10.8867
G01 X3.6566 Y-10.9673
G01 X3.6792 Y-11.0491
G01 X3.6978 Y-11.1320
G01 X3.7124 Y-11.2157
G01 X3.7227 Y-11.2999
G01 X3.7290 Y-11.3846
G01 X3.7311 Y-11.4695
G01 X3.7290 Y-11.5544
G01 X3.7227 Y-11.6391
G01 X3.7124 Y-11.7233
G01 X3.6978 Y-11.8070
G01 X3.6792 Y-11.8899
G01 X3.6566 Y-11.9717
G01 X3.6300 Y-12.0523
G01 X3.5994 Y-12.1315
G01 X3.5650 Y-12.2092
G01 X3.5268 Y-12.2850
G01 X3.4850 Y-12.3589
G01 X3.4395 Y-12.4306
G01 X3.3906 Y-12.5000
G01 X3.3384 Y-12.5670
G01 X3.2829 Y-12.6313
G01 X3.2244 Y-12.6928
G01 X3.1629 Y-12.7513
G01 X3.0986 Y-12.8068
G01 X3.0316 Y-12.8590
G01 X2.9622 Y-12.9079
G01 X2.8905 Y-12.9534
G01 X2.8166 Y-12.9952
G01 X2.7408 Y-13.0334
G01 X2.6631 Y-13.0678
G01 X2.5839 Y-13.0984
G01 X2.5033 Y-13.1250
G01 X2.4215 Y-13.1476
G01 X2.3386 Y-13.1662
G01 X2.2549 Y-13.1808
G01 X2.1707 Y-13.1911
G01 X2.0860 Y-13.1974
G01 X2.0011 Y-13.1995
G01 X1.9162 Y-13.1974
G01 X1.8315 Y-13.1911
G01 X1.7473 Y-13.1808
G01 X1.6636 Y-13.1662
G01 X1.5807 Y-13.1476
G01 X1.4989 Y-13.1250
G01 X1.4183 Y-13.0984
G01 X1.3391 Y-13.0678
G01 X1.2614 Y-13.0334
G01 X1.1856 Y-12.9952
G01 X1.1117 Y-12.9534
G01 X1.0400 Y-12.9079
G01 X0.9706 Y-12.8590
G01 X0.9036 Y-12.8068
G01 X0.8393 Y-12.7513
G01 X0.7778 Y-12.6928
G01 X0.7193 Y-12.6313
G01 X0.6638 Y-12.5670
G01 X0.6116 Y-12.5000
G01 X0.5627 Y-12.4306
G01 X0.5172 Y-12.3589
G01 X0.4754 Y-12.2850
G01 X0.4372 Y-12.2092
G01 X0.4028 Y-12.1315
G01 X0.3722 Y-12.0523
G01 X0.3456 Y-11.9717
G01 X0.3230 Y-11.8899
G01 X0.3044 Y-11.8070
G01 X0.2898 Y-11.7233
G01 X0.2795 Y-11.6391
G01 X0.2732 Y-11.5544
G01 X0.2711 Y-11.4695
G01 X0.2732 Y-11.3846
G01 X0.2795 Y-11.2999
G01 X0.2898 Y-11.2157
G01 X0.3044 Y-11.1320
G01 X0.3230 Y-11.0491
G01 X0.3456 Y-10.9673
G01 X0.3722 Y-10.8867
G01 X0.4028 Y-10.8075
G01 X0.4372 Y-10.7298
G01 X0.4754 Y-10.6540
G01 X0.5172 Y-10.5801
G01 X0.5627 Y-10.5084
G01 X0.6116 Y-10.4390
G01 X0.6638 Y-10.3720
G01 X0.7193 Y-10.3077
G01 X0.7778 Y-10.2462
G01 X0.8393 Y-10.1877
G01 X0.9036 Y-10.1322
G01 X0.9706 Y-10.0800
G01 X1.0288 Y-10.0383
G01 X1.0365 Y-10.0302
G01 X1.0427 Y-10.0209
G01 X1.0474 Y-10.0108
G01 X1.0505 Y-10.0001
G01 X1.0518 Y-9.9864
G01 X1.0518 Y-8.6517
G00 Z2.0000
G00 X1.1218 Y-8.6517
G01 F70.00
G01 Z-0.0600
G01 F120.00
G01 X1.1218 Y-8.0584
G01 X1.1418 Y-8.0584
G01 X1.1418 Y-8.3551
G01 X1.1427 Y-8.3671
G01 X1.1445 Y-8.3790
G01 X1.1506 Y-8.4005
G01 X1.1592 Y-8.4192
G01 X1.1714 Y-8.4378
G01 X1.1865 Y-8.4543
G01 X1.2026 Y-8.4671
G01 X1.2204 Y-8.4775
G01 X1.2412 Y-8.4857
G01 X1.2613 Y-8.4902
G01 X1.2818 Y-8.4917
G01 X2.6818 Y-8.4917
G01 X2.7006 Y-8.4904
G01 X2.7191 Y-8.4866
G01 X2.7354 Y-8.4810
G01 X2.7523 Y-8.4727
G01 X2.7666 Y-8.4631
G01 X2.7808 Y-8.4507
G01 X2.7922 Y-8.4378
G01 X2.8028 Y-8.4222
G01 X2.8105 Y-8.4069
G01 X2.8163 Y-8.3907
G01 X2.8203 Y-8.3722
G01 X2.8218 Y-8.3534
G01 X2.8218 Y-8.0584
G01 X2.8418 Y-8.0584
G01 X2.8418 Y-9.9606
G01 X2.8427 Y-9.9760
G01 X2.8456 Y-9.9930
G01 X2.8518 Y-10.0126
G01 X2.8608 Y-10.0311
G01 X2.8725 Y-10.0481
G01 X2.8865 Y-10.0632
G01 X2.9012 Y-10.0751
G01 X2.9233 Y-10.0893
G01 X2.9899 Y-10.1362
G01 X3.0542 Y-10.1863
G01 X3.1159 Y-10.2396
G01 X3.1749 Y-10.2957
G01 X3.2310 Y-10.3547
G01 X3.2843 Y-10.4164
G01 X3.3344 Y-10.4807
G01 X3.3813 Y-10.5473
G01 X3.4249 Y-10.6161
G01 X3.4651 Y-10.6870
G01 X3.5017 Y-10.7598
G01 X3.5347 Y-10.8343
G01 X3.5640 Y-10.9103
G01 X3.5896 Y-10.9876
G01 X3.6113 Y-11.0662
G01 X3.6292 Y-11.1457
G01 X3.6431 Y-11.2259
G01 X3.6531 Y-11.3068
G01 X3.6591 Y-11.3880
G01 X3.6611 Y-11.4695
G01 X3.6591 Y-11.5510
G01 X3.6531 Y-11.6322
G01 X3.6431 Y-11.7131
G01 X3.6292 Y-11.7933
G01 X3.6113 Y-11.8728
G01 X3.5896 Y-11.9514
G01 X3.5640 Y-12.0287
G01 X3.5347 Y-12.1047
G01 X3.5017 Y-12.1792
G01 X3.4651 Y-12.2520
G01 X3.4249 Y-12.3229
G01 X3.3813 Y-12.3917
G01 X3.3344 Y-12.4583
G01 X3.2843 Y-12.5226
G01 X3.2310 Y-12.5843
G01 X3.1749 Y-12.6433
G01 X3.1159 Y-12.6994
G01 X3.0542 Y-12.7527
G01 X2.9899 Y-12.8028
G01 X2.9233 Y-12.8497
G01 X2.8545 Y-12.8933
G01 X2.7836 Y-12.9335
G01 X2.7108 Y-12.9701
G01 X2.6363 Y-13.0031
G01 X2.5603 Y-13.0324
G01 X2.4830 Y-13.0580
G01 X2.4044 Y-13.0797
G01 X2.3249 Y-13.0976
G01 X2.2447 Y-13.1115
G01 X2.1638 Y-13.1215
G01 X2.0826 Y-13.1275
G01 X2.0011 Y-13.1295
G01 X1.9196 Y-13.1275
G01 X1.8384 Y-13.1215
G01 X1.7575 Y-13.1115
G01 X1.6773 Y-13.0976
G01 X1.5978 Y-13.0797
G01 X1.5192 Y-13.0580
G01 X1.4419 Y-13.0324
G01 X1.3659 Y-13.0031
G01 X1.2914 Y-12.9701
G01 X1.2186 Y-12.9335
G01 X1.1477 Y-12.8933
G01 X1.0789 Y-12.8497
G01 X1.0123 Y-12.8028
G01 X0.9480 Y-12.7527
G01 X0.8863 Y-12.6994
G01 X0.8273 Y-12.6433
G01 X0.7712 Y-12.5843
G01 X0.7179 Y-12.5226
G01 X0.6678 Y-12.4583
G01 X0.6209 Y-12.3917
G01 X0.5773 Y-12.3229
G01 X0.5371 Y-12.2520
G01 X0.5005 Y-12.1792
G01 X0.4675 Y-12.1047
G01 X0.4382 Y-12.0287
G01 X0.4126 Y-11.9514
G01 X0.3909 Y-11.8728
G01 X0.3730 Y-11.7933
G01 X0.3591 Y-11.7131
G01 X0.3491 Y-11.6322
G01 X0.3431 Y-11.5510
G01 X0.3411 Y-11.4695
G01 X0.3431 Y-11.3880
G01 X0.3491 Y-11.3068
G01 X0.3591 Y-11.2259
G01 X0.3730 Y-11.1457
G01 X0.3909 Y-11.0662
G01 X0.4126 Y-10.9876
G01 X0.4382 Y-10.9103
G01 X0.4675 Y-10.8343
G01 X0.5005 Y-10.7598
G01 X0.5371 Y-10.6870
G01 X0.5773 Y-10.6161
G01 X0.6209 Y-10.5473
G01 X0.6678 Y-10.4807
G01 X0.7179 Y-10.4164
G01 X0.7712 Y-10.3547
G01 X0.8273 Y-10.2957
G01 X0.8863 Y-10.2396
G01 X0.9480 Y-10.1863
G01 X1.0123 Y-10.1362
G01 X1.0666 Y-10.0978
G01 X1.0820 Y-10.0842
G01 X1.0953 Y-10.0684
G01 X1.1053 Y-10.0524
G01 X1.1136 Y-10.0336
G01 X1.1188 Y-10.0154
G01 X1.1211 Y-10.0002
G01 X1.1218 Y-9.9864
G01 X1.1218 Y-8.6517
G00 Z2.0000
G00 X1.1918 Y-8.6517
G01 F70.00
G01 Z-0.0600
G01 F120.00
G01 X1.1918 Y-8.5414
G01 X1.2111 Y-8.5494
G01 X1.2333 Y-8.5560
G01 X1.2561 Y-8.5601
G01 X1.2792 Y-8.5617
G01 X2.6818 Y-8.5617
G01 X2.7049 Y-8.5604
G01 X2.7278 Y-8.5566
G01 X2.7501 Y-8.5503
G01 X2.7718 Y-8.5414
G01 X2.7718 Y-8.7620
G01 X2.7525 Y-8.7540
G01 X2.7303 Y-8.7474
G01 X2.7075 Y-8.7433
G01 X2.6844 Y-8.7417
G01 X1.2818 Y-8.7417
G01 X1.2587 Y-8.7430
G01 X1.2358 Y-8.7468
G01 X1.2135 Y-8.7531
G01 X1.1918 Y-8.7620
G01 X1.1918 Y-8.6517
G00 Z2.0000
G00 X1.2618 Y-8.6517
G01 F70.00
G01 Z-0.0600
G01 F120.00
G01 X1.2618 Y-8.6310
G01 X1.2818 Y-8.6317
G01 X2.6818 Y-8.6317
G01 X2.7018 Y-8.6310
G01 X2.7018 Y-8.6724
G01 X2.6818 Y-8.6717
G01 X1.2818 Y-8.6717
G01 X1.2618 Y-8.6724
G01 X1.2618 Y-8.6517
G00 Z2.0000
G00 X1.2118 Y-7.4151
G01 F70.00
G01 Z-0.0600
G01 F120.00
G01 X1.0518 Y-7.4151
G01 X1.0518 Y-6.8217
G01 X1.6951 Y-6.8217
G01 X1.6951 Y-6.9817
G01 X1.2784 Y-6.9818
G01 X1.2640 Y-6.9840
G01 X1.2503 Y-6.9892
G01 X1.2381 Y-6.9970
G01 X1.2277 Y-7.0073
G01 X1.2213 Y-7.0165
G01 X1.2165 Y-7.0265
G01 X1.2131 Y-7.0380
G01 X1.2118 Y-7.0491
G01 X1.2118 Y-7.4151
G00 Z2.0000
G00 X1.1418 Y-7.3451
G01 F70.00
G01 Z-0.0600
G01 F120.00
G01 X1.1218 Y-7.3451
G01 X1.1218 Y-6.8917
G01 X1.6251 Y-6.8917
G01 X1.6251 Y-6.9117
G01 X1.2818 Y-6.9117
G01 X1.2630 Y-6.9130
G01 X1.2428 Y-6.9172
G01 X1.2219 Y-6.9251
G01 X1.2026 Y-6.9363
G01 X1.1865 Y-6.9491
G01 X1.1769 Y-6.9590
G01 X1.1694 Y-6.9683
G01 X1.1626 Y-6.9783
G01 X1.1567 Y-6.9888
G01 X1.1512 Y-7.0013
G01 X1.1473 Y-7.0127
G01 X1.1445 Y-7.0244
G01 X1.1427 Y-7.0363
G01 X1.1418 Y-7.0517
G01 X1.1418 Y-7.3451
G00 Z2.0000
G00 X2.2684 Y-6.9817
G01 F70.00
G01 Z-0.0600
G01 F120.00
G01 X2.2684 Y-6.8217
G01 X2.8321 Y-6.8217
G01 X2.8777 Y-6.8650
G01 X2.9118 Y-6.8945
G01 X2.9118 Y-7.4151
G01 X2.7518 Y-7.4151
G01 X2.7516 Y-7.0466
G01 X2.7488 Y-7.0314
G01 X2.7423 Y-7.0165
G01 X2.7331 Y-7.0041
G01 X2.7207 Y-6.9935
G01 X2.7125 Y-6.9888
G01 X2.7029 Y-6.9850
G01 X2.6929 Y-6.9826
G01 X2.6835 Y-6.9817
G01 X2.2684 Y-6.9817
G00 Z2.0000
G00 X2.3384 Y-6.9117
G01 F70.00
G01 Z-0.0600
G01 F120.00
G01 X2.3384 Y-6.8917
G01 X2.8041 Y-6.8917
G01 X2.8418 Y-6.9266
G01 X2.8418 Y-7.3451
G01 X2.8218 Y-7.3451
G01 X2.8218 Y-7.0500
G01 X2.8197 Y-7.0278
G01 X2.8172 Y-7.0160
G01 X2.8136 Y-7.0045
G01 X2.8091 Y-6.9934
G01 X2.8036 Y-6.9827
G01 X2.7972 Y-6.9725
G01 X2.7900 Y-6.9629
G01 X2.7820 Y-6.9539
G01 X2.7732 Y-6.9457
G01 X2.7552 Y-6.9325
G01 X2.7354 Y-6.9224
G01 X2.7141 Y-6.9155
G01 X2.6921 Y-6.9121
G01 X2.3384 Y-6.9117
G00 Z2.0000
G00 X15.1040 Y-11.4734
G01 F70.00
G01 Z-0.0600
G01 F120.00
G01 X15.1027 Y-11.4921
G01 X15.1014 Y-11.5489
G01 X15.1027 Y-11.6057
G01 X15.1040 Y-11.6244
G01 X15.0874 Y-11.6200
G01 X15.0722 Y-11.6171
G01 X15.0568 Y-11.6154
G01 X15.0414 Y-11.6149
G01 X15.0260 Y-11.6154
G01 X15.0106 Y-11.6171
G01 X14.9954 Y-11.6200
G01 X14.9788 Y-11.6244
G01 X14.9801 Y-11.6057
G01 X14.9814 Y-11.5489
G01 X14.9801 Y-11.4921
G01 X14.9788 Y-11.4734
G01 X14.9954 Y-11.4778
G01 X15.0106 Y-11.4807
G01 X15.0260 Y-11.4824
G01 X15.0414 Y-11.4829
G01 X15.0568 Y-11.4824
G01 X15.0722 Y-11.4807
G01 X15.0874 Y-11.4778
G01 X15.1040 Y-11.4734
G00 Z2.0000
G00 X15.2464 Y-11.6521
G01 F70.00
G01 Z-0.0600
G01 F120.00
G01 X15.2530 Y-11.7059
G01 X15.2623 Y-11.7593
G01 X15.2739 Y-11.8106
G01 X15.2875 Y-11.8595
G01 X15.3034 Y-11.9077
G01 X15.3228 Y-11.9584
G01 X15.3440 Y-12.0061
G01 X15.3679 Y-12.0536
G01 X15.3945 Y-12.1005
G01 X15.4217 Y-12.1433
G01 X15.4510 Y-12.1849
G01 X15.4832 Y-12.2264
G01 X15.5186 Y-12.2675
G01 X15.5548 Y-12.3055
G01 X15.5941 Y-12.3428
G01 X15.6326 Y-12.3760
G01 X15.6726 Y-12.4073
G01 X15.7169 Y-12.4386
G01 X15.7628 Y-12.4675
G01 X15.8070 Y-12.4926
G01 X15.8524 Y-12.5154
G01 X15.9003 Y-12.5368
G01 X15.9509 Y-12.5564
G01 X16.0008 Y-12.5728
G01 X16.0531 Y-12.5872
G01 X16.1027 Y-12.5983
G01 X16.1527 Y-12.6070
G01 X16.2065 Y-12.6137
G01 X16.2589 Y-12.6176
G01 X16.3131 Y-12.6189
G01 X16.3639 Y-12.6176
G01 X16.4146 Y-12.6139
G01 X16.4684 Y-12.6073
G01 X16.5201 Y-12.5983
G01 X16.5714 Y-12.5868
G01 X16.6236 Y-12.5723
G01 X16.6719 Y-12.5564
G01 X16.7193 Y-12.5381
G01 X16.7677 Y-12.5167
G01 X16.8173 Y-12.4917
G01 X16.8616 Y-12.4666
G01 X16.9058 Y-12.4386
G01 X16.9502 Y-12.4073
G01 X16.9903 Y-12.3759
G01 X17.0300 Y-12.3417
G01 X17.0680 Y-12.3055
G01 X17.1030 Y-12.2687
G01 X17.1385 Y-12.2277
G01 X17.1718 Y-12.1849
G01 X17.2011 Y-12.1434
G01 X17.2291 Y-12.0991
G01 X17.2558 Y-12.0518
G01 X17.2786 Y-12.0066
G01 X17.3000 Y-11.9584
G01 X17.3194 Y-11.9077
G01 X17.3353 Y-11.8595
G01 X17.3493 Y-11.8089
G01 X17.3608 Y-11.7576
G01 X17.3695 Y-11.7076
G01 X17.3762 Y-11.6538
G01 X17.3801 Y-11.6014
G01 X17.3814 Y-11.5506
G01 X17.3801 Y-11.4955
G01 X17.3762 Y-11.4440
G01 X17.3700 Y-11.3936
G01 X17.3608 Y-11.3402
G01 X17.3489 Y-11.2872
G01 X17.3353 Y-11.2383
G01 X17.3189 Y-11.1884
G01 X17.3000 Y-11.1394
G01 X17.2794 Y-11.0930
G01 X17.2549 Y-11.0442
G01 X17.2291 Y-10.9987
G01 X17.2020 Y-10.9559
G01 X17.1703 Y-10.9108
G01 X17.1384 Y-10.8700
G01 X17.1054 Y-10.8316
G01 X17.0680 Y-10.7923
G01 X17.0300 Y-10.7561
G01 X16.9915 Y-10.7229
G01 X16.9481 Y-10.6890
G01 X16.9059 Y-10.6592
G01 X16.8630 Y-10.6320
G01 X16.8150 Y-10.6048
G01 X16.7691 Y-10.5817
G01 X16.7217 Y-10.5607
G01 X16.6727 Y-10.5417
G01 X16.6465 Y-10.5330
G01 X17.5933 Y-9.5863
G01 X19.8318 Y-9.5863
G01 X21.5444 Y-11.2988
G01 X21.5444 Y-12.4490
G01 X21.5463 Y-12.4635
G01 X21.5508 Y-12.4764
G01 X21.5582 Y-12.4890
G01 X21.5674 Y-12.4992
G01 X21.5770 Y-12.5064
G01 X21.5884 Y-12.5123
G01 X21.6007 Y-12.5160
G01 X21.6135 Y-12.5173
G01 X22.9170 Y-12.5173
G01 X22.9289 Y-12.5158
G01 X22.9412 Y-12.5120
G01 X22.9526 Y-12.5060
G01 X22.9627 Y-12.4980
G01 X22.9706 Y-12.4890
G01 X22.9773 Y-12.4780
G01 X22.9816 Y-12.4668
G01 X22.9841 Y-12.4542
G01 X22.9844 Y-11.0464
G01 X22.9831 Y-11.0336
G01 X22.9794 Y-11.0213
G01 X22.9735 Y-11.0099
G01 X22.9657 Y-10.9997
G01 X22.9554 Y-10.9906
G01 X22.9428 Y-10.9833
G01 X22.9297 Y-10.9790
G01 X22.9161 Y-10.9773
G01 X21.8453 Y-10.9773
G01 X20.0774 Y-9.2094
G01 X20.0626 Y-9.1961
G01 X20.0467 Y-9.1842
G01 X20.0347 Y-9.1766
G01 X20.0171 Y-9.1673
G01 X19.9971 Y-9.1590
G01 X19.9781 Y-9.1532
G01 X19.9645 Y-9.1501
G01 X19.9446 Y-9.1472
G01 X19.9230 Y-9.1461
G01 X17.5012 Y-9.1461
G01 X17.4715 Y-9.1483
G01 X17.4486 Y-9.1527
G01 X17.4366 Y-9.1561
G01 X17.4195 Y-9.1622
G01 X17.3981 Y-9.1723
G01 X17.3813 Y-9.1823
G01 X17.3710 Y-9.1894
G01 X17.3556 Y-9.2020
G01 X17.3465 Y-9.2106
G01 X16.0765 Y-10.4806
G01 X16.0625 Y-10.4959
G01 X16.0511 Y-10.5110
G01 X16.0008 Y-10.5250
G01 X15.9526 Y-10.5409
G01 X15.9019 Y-10.5603
G01 X15.8542 Y-10.5815
G01 X15.8085 Y-10.6045
G01 X15.7612 Y-10.6312
G01 X15.7170 Y-10.6592
G01 X15.6754 Y-10.6885
G01 X15.6325 Y-10.7219
G01 X15.5928 Y-10.7561
G01 X15.5560 Y-10.7911
G01 X15.5175 Y-10.8316
G01 X15.4843 Y-10.8701
G01 X15.4520 Y-10.9115
G01 X15.4217 Y-10.9544
G01 X15.3936 Y-10.9988
G01 X15.3677 Y-11.0445
G01 X15.3441 Y-11.0914
G01 X15.3228 Y-11.1394
G01 X15.3034 Y-11.1901
G01 X15.2875 Y-11.2383
G01 X15.2731 Y-11.2906
G01 X15.2620 Y-11.3402
G01 X15.2533 Y-11.3902
G01 X15.2467 Y-11.4423
G01 X15.2427 Y-11.4964
G01 X15.2414 Y-11.5489
G01 X15.2427 Y-11.6014
G01 X15.2464 Y-11.6521
G00 Z2.0000
G00 X17.6441 Y-11.4736
G01 F70.00
G01 Z-0.0600
G01 F120.00
G01 X17.6428 Y-11.4921
G01 X17.6415 Y-11.5489
G01 X17.6428 Y-11.6057
G01 X17.6441 Y-11.6242
G01 X17.6275 Y-11.6198
G01 X17.6123 Y-11.6169
G01 X17.5969 Y-11.6152
G01 X17.5815 Y-11.6147
G01 X17.5660 Y-11.6152
G01 X17.5506 Y-11.6169
G01 X17.5354 Y-11.6198
G01 X17.5188 Y-11.6242
G01 X17.5201 Y-11.6057
G01 X17.5214 Y-11.5489
G01 X17.5201 Y-11.4921
G01 X17.5188 Y-11.4736
G01 X17.5354 Y-11.4780
G01 X17.5506 Y-11.4809
G01 X17.5660 Y-11.4826
G01 X17.5814 Y-11.4831
G01 X17.5969 Y-11.4826
G01 X17.6123 Y-11.4809
G01 X17.6275 Y-11.4780
G01 X17.6441 Y-11.4736
G00 Z2.0000
G00 X17.7167 Y-11.6572
G01 F70.00
G01 Z-0.0600
G01 F120.00
G01 X17.7244 Y-11.7196
G01 X17.7334 Y-11.7713
G01 X17.7449 Y-11.8226
G01 X17.7611 Y-11.8815
G01 X17.7776 Y-11.9313
G01 X17.7837 Y-11.9474
G01 X17.7683 Y-11.9628
G01 X17.7593 Y-11.9397
G01 X17.7415 Y-11.8856
G01 X17.7263 Y-11.8307
G01 X17.7173 Y-11.7906
G01 X17.7127 Y-11.7759
G01 X17.7073 Y-11.7632
G01 X17.6997 Y-11.7498
G01 X17.6908 Y-11.7372
G01 X17.6817 Y-11.7269
G01 X17.6648 Y-11.7122
G01 X17.6459 Y-11.7004
G01 X17.6254 Y-11.6917
G01 X17.6138 Y-11.6884
G01 X17.6020 Y-11.6862
G01 X17.5797 Y-11.6847
G01 X17.5575 Y-11.6867
G01 X17.5359 Y-11.6923
G01 X17.5155 Y-11.7012
G01 X17.4967 Y-11.7132
G01 X17.4801 Y-11.7281
G01 X17.4660 Y-11.7455
G01 X17.4549 Y-11.7648
G01 X17.4502 Y-11.7759
G01 X17.4465 Y-11.7873
G01 X17.4366 Y-11.8307
G01 X17.4214 Y-11.8856
G01 X17.4036 Y-11.9397
G01 X17.3831 Y-11.9928
G01 X17.3600 Y-12.0448
G01 X17.3344 Y-12.0957
G01 X17.3063 Y-12.1452
G01 X17.2759 Y-12.1933
G01 X17.2431 Y-12.2399
G01 X17.2081 Y-12.2848
G01 X17.1709 Y-12.3279
G01 X17.1316 Y-12.3691
G01 X17.0904 Y-12.4084
G01 X17.0473 Y-12.4456
G01 X17.0024 Y-12.4806
G01 X16.9558 Y-12.5134
G01 X16.9077 Y-12.5438
G01 X16.8582 Y-12.5719
G01 X16.8073 Y-12.5975
G01 X16.7553 Y-12.6206
G01 X16.7022 Y-12.6411
G01 X16.6481 Y-12.6589
G01 X16.5932 Y-12.6741
G01 X16.5377 Y-12.6866
G01 X16.4816 Y-12.6963
G01 X16.4251 Y-12.7033
G01 X16.3683 Y-12.7075
G01 X16.3114 Y-12.7089
G01 X16.2545 Y-12.7075
G01 X16.1977 Y-12.7033
G01 X16.1412 Y-12.6963
G01 X16.0851 Y-12.6866
G01 X16.0296 Y-12.6741
G01 X15.9747 Y-12.6589
G01 X15.9206 Y-12.6411
G01 X15.8675 Y-12.6206
G01 X15.8155 Y-12.5975
G01 X15.7646 Y-12.5719
G01 X15.7151 Y-12.5438
G01 X15.6670 Y-12.5134
G01 X15.6204 Y-12.4806
G01 X15.5755 Y-12.4456
G01 X15.5324 Y-12.4084
G01 X15.4912 Y-12.3691
G01 X15.4519 Y-12.3279
G01 X15.4147 Y-12.2848
G01 X15.3797 Y-12.2399
G01 X15.3469 Y-12.1933
G01 X15.3165 Y-12.1452
G01 X15.2884 Y-12.0957
G01 X15.2628 Y-12.0448
G01 X15.2397 Y-11.9928
G01 X15.2192 Y-11.9397
G01 X15.2014 Y-11.8856
G01 X15.1862 Y-11.8307
G01 X15.1759 Y-11.7859
G01 X15.1707 Y-11.7713
G01 X15.1640 Y-11.7574
G01 X15.1568 Y-11.7457
G01 X15.1474 Y-11.7334
G01 X15.1379 Y-11.7235
G01 X15.1262 Y-11.7135
G01 X15.1134 Y-11.7048
G01 X15.0997 Y-11.6976
G01 X15.0853 Y-11.6919
G01 X15.0721 Y-11.6883
G01 X15.0534 Y-11.6854
G01 X15.0328 Y-11.6851
G01 X15.0124 Y-11.6879
G01 X14.9926 Y-11.6936
G01 X14.9739 Y-11.7022
G01 X14.9580 Y-11.7124
G01 X14.9424 Y-11.7259
G01 X14.9290 Y-11.7415
G01 X14.9171 Y-11.7604
G01 X14.9090 Y-11.7793
G01 X14.9052 Y-11.7925
G01 X14.8966 Y-11.8307
G01 X14.8814 Y-11.8856
G01 X14.8636 Y-11.9397
G01 X14.8431 Y-11.9928
G01 X14.8200 Y-12.0448
G01 X14.7944 Y-12.0957
G01 X14.7663 Y-12.1452
G01 X14.7359 Y-12.1933
G01 X14.7031 Y-12.2399
G01 X14.6681 Y-12.2848
G01 X14.6309 Y-12.3279
G01 X14.5916 Y-12.3691
G01 X14.5504 Y-12.4084
G01 X14.5073 Y-12.4456
G01 X14.4624 Y-12.4806
G01 X14.4158 Y-12.5134
G01 X14.3677 Y-12.5438
G01 X14.3182 Y-12.5719
G01 X14.2673 Y-12.5975
G01 X14.2153 Y-12.6206
G01 X14.1622 Y-12.6411
G01 X14.1081 Y-12.6589
G01 X14.0532 Y-12.6741
G01 X13.9977 Y-12.6866
G01 X13.9416 Y-12.6963
G01 X13.8851 Y-12.7033
G01 X13.8283 Y-12.7075
G01 X13.7714 Y-12.7089
G01 X13.7145 Y-12.7075
G01 X13.6577 Y-12.7033
G01 X13.6012 Y-12.6963
G01 X13.5451 Y-12.6866
G01 X13.4896 Y-12.6741
G01 X13.4347 Y-12.6589
G01 X13.3806 Y-12.6411
G01 X13.3275 Y-12.6206
G01 X13.2755 Y-12.5975
G01 X13.2246 Y-12.5719
G01 X13.1751 Y-12.5438
G01 X13.1270 Y-12.5134
G01 X13.0804 Y-12.4806
G01 X13.0355 Y-12.4456
G01 X12.9924 Y-12.4084
G01 X12.9512 Y-12.3691
G01 X12.9119 Y-12.3279
G01 X12.8747 Y-12.2848
G01 X12.8397 Y-12.2399
G01 X12.8069 Y-12.1933
G01 X12.7765 Y-12.1452
G01 X12.7484 Y-12.0957
G01 X12.7228 Y-12.0448
G01 X12.6997 Y-11.9928
G01 X12.6792 Y-11.9397
G01 X12.6580 Y-11.8742
G01 X12.6520 Y-11.8596
G01 X12.6749 Y-11.8596
G01 X12.6810 Y-11.8815
G01 X12.6986 Y-11.9346
G01 X12.7182 Y-11.9852
G01 X12.7406 Y-12.0358
G01 X12.7677 Y-12.0893
G01 X12.7937 Y-12.1352
G01 X12.8234 Y-12.1821
G01 X12.8557 Y-12.2280
G01 X12.8924 Y-12.2747
G01 X12.9267 Y-12.3145
G01 X12.9629 Y-12.3525
G01 X13.0058 Y-12.3935
G01 X13.0509 Y-12.4323
G01 X13.0923 Y-12.4646
G01 X13.1380 Y-12.4968
G01 X13.1883 Y-12.5284
G01 X13.2340 Y-12.5543
G01 X13.2809 Y-12.5779
G01 X13.3351 Y-12.6021
G01 X13.3906 Y-12.6234
G01 X13.4405 Y-12.6398
G01 X13.4911 Y-12.6539
G01 X13.5507 Y-12.6673
G01 X13.6041 Y-12.6766
G01 X13.6562 Y-12.6830
G01 X13.7155 Y-12.6875
G01 X13.7748 Y-12.6889
G01 X13.8273 Y-12.6875
G01 X13.8831 Y-12.6834
G01 X13.9421 Y-12.6760
G01 X13.9938 Y-12.6670
G01 X14.0484 Y-12.6547
G01 X14.1056 Y-12.6388
G01 X14.1555 Y-12.6223
G01 X14.2045 Y-12.6034
G01 X14.2619 Y-12.5779
G01 X14.3093 Y-12.5540
G01 X14.3545 Y-12.5284
G01 X14.4046 Y-12.4969
G01 X14.4532 Y-12.4625
G01 X14.4949 Y-12.4299
G01 X14.5344 Y-12.3959
G01 X14.5775 Y-12.3550
G01 X14.6160 Y-12.3145
G01 X14.6504 Y-12.2747
G01 X14.6881 Y-12.2266
G01 X14.7193 Y-12.1823
G01 X14.7491 Y-12.1352
G01 X14.7768 Y-12.0863
G01 X14.8034 Y-12.0332
G01 X14.8246 Y-11.9852
G01 X14.8459 Y-11.9297
G01 X14.8623 Y-11.8798
G01 X14.8764 Y-11.8292
G01 X14.8888 Y-11.7747
G01 X14.8991 Y-11.7162
G01 X14.9059 Y-11.6606
G01 X14.9100 Y-11.6048
G01 X14.9114 Y-11.5489
G01 X14.9100 Y-11.4930
G01 X14.9059 Y-11.4372
G01 X14.8991 Y-11.3816
G01 X14.8895 Y-11.3265
G01 X14.8772 Y-11.2719
G01 X14.8623 Y-11.2180
G01 X14.8448 Y-11.1648
G01 X14.8233 Y-11.1095
G01 X14.8004 Y-11.0584
G01 X14.7765 Y-11.0110
G01 X14.7509 Y-10.9658
G01 X14.7194 Y-10.9157
G01 X14.6891 Y-10.8726
G01 X14.6524 Y-10.8254
G01 X14.6161 Y-10.7833
G01 X14.5775 Y-10.7428
G01 X14.5370 Y-10.7043
G01 X14.4946 Y-10.6677
G01 X14.4505 Y-10.6332
G01 X14.4048 Y-10.6010
G01 X14.3563 Y-10.5704
G01 X14.3088 Y-10.5435
G01 X14.2593 Y-10.5186
G01 X14.2077 Y-10.4957
G01 X14.1522 Y-10.4744
G01 X14.1023 Y-10.4580
G01 X14.0451 Y-10.4423
G01 X13.9938 Y-10.4308
G01 X13.9421 Y-10.4218
G01 X13.8866 Y-10.4148
G01 X13.8273 Y-10.4103
G01 X13.7714 Y-10.4089
G01 X13.7155 Y-10.4103
G01 X13.6597 Y-10.4144
G01 X13.6041 Y-10.4212
G01 X13.5490 Y-10.4308
G01 X13.4944 Y-10.4431
G01 X13.4405 Y-10.4580
G01 X13.3873 Y-10.4755
G01 X13.3351 Y-10.4957
G01 X13.2845 Y-10.5181
G01 X13.2335 Y-10.5438
G01 X13.1851 Y-10.5712
G01 X13.1382 Y-10.6009
G01 X13.0923 Y-10.6332
G01 X13.0465 Y-10.6691
G01 X13.0058 Y-10.7042
G01 X12.9653 Y-10.7428
G01 X12.9268 Y-10.7833
G01 X12.8902 Y-10.8257
G01 X12.8537 Y-10.8726
G01 X12.8235 Y-10.9155
G01 X12.7945 Y-10.9614
G01 X12.7652 Y-11.0130
G01 X12.7416 Y-11.0599
G01 X12.7329 Y-11.0794
G01 X12.7110 Y-11.0794
G01 X12.7228 Y-11.0530
G01 X12.7484 Y-11.0021
G01 X12.7765 Y-10.9526
G01 X12.8069 Y-10.9045
G01 X12.8397 Y-10.8579
G01 X12.8747 Y-10.8130
G01 X12.9119 Y-10.7699
G01 X12.9512 Y-10.7287
G01 X12.9924 Y-10.6894
G01 X13.0355 Y-10.6522
G01 X13.0804 Y-10.6172
G01 X13.1270 Y-10.5844
G01 X13.1751 Y-10.5540
G01 X13.2246 Y-10.5259
G01 X13.2755 Y-10.5003
G01 X13.3275 Y-10.4772
G01 X13.3806 Y-10.4567
G01 X13.4347 Y-10.4389
G01 X13.4896 Y-10.4237
G01 X13.5451 Y-10.4112
G01 X13.6012 Y-10.4015
G01 X13.6577 Y-10.3945
G01 X13.7145 Y-10.3903
G01 X13.7714 Y-10.3889
G01 X13.8283 Y-10.3903
G01 X13.8851 Y-10.3945
G01 X13.9416 Y-10.4015
G01 X13.9977 Y-10.4112
G01 X14.0532 Y-10.4237
G01 X14.1081 Y-10.4389
G01 X14.1622 Y-10.4567
G01 X14.2153 Y-10.4772
G01 X14.2673 Y-10.5003
G01 X14.3182 Y-10.5259
G01 X14.3677 Y-10.5540
G01 X14.4158 Y-10.5844
G01 X14.4624 Y-10.6172
G01 X14.5073 Y-10.6522
G01 X14.5504 Y-10.6894
G01 X14.5916 Y-10.7287
G01 X14.6309 Y-10.7699
G01 X14.6681 Y-10.8130
G01 X14.7031 Y-10.8579
G01 X14.7359 Y-10.9045
G01 X14.7663 Y-10.9526
G01 X14.7944 Y-11.0021
G01 X14.8200 Y-11.0530
G01 X14.8431 Y-11.1050
G01 X14.8636 Y-11.1581
G01 X14.8814 Y-11.2122
G01 X14.8966 Y-11.2671
G01 X14.9052 Y-11.3053
G01 X14.9090 Y-11.3185
G01 X14.9171 Y-11.3374
G01 X14.9279 Y-11.3549
G01 X14.9388 Y-11.3682
G01 X14.9500 Y-11.3789
G01 X14.9622 Y-11.3884
G01 X14.9769 Y-11.3972
G01 X14.9926 Y-11.4042
G01 X15.0074 Y-11.4087
G01 X15.0243 Y-11.4119
G01 X15.0397 Y-11.4129
G01 X15.0568 Y-11.4121
G01 X15.0737 Y-11.4091
G01 X15.0902 Y-11.4042
G01 X15.1059 Y-11.3972
G01 X15.1206 Y-11.3884
G01 X15.1341 Y-11.3778
G01 X15.1474 Y-11.3644
G01 X15.1578 Y-11.3507
G01 X15.1672 Y-11.3343
G01 X15.1749 Y-11.3152
G01 X15.1862 Y-11.2671
G01 X15.2014 Y-11.2122
G01 X15.2192 Y-11.1581
G01 X15.2397 Y-11.1050
G01 X15.2628 Y-11.0530
G01 X15.2884 Y-11.0021
G01 X15.3165 Y-10.9526
G01 X15.3469 Y-10.9045
G01 X15.3797 Y-10.8579
G01 X15.4147 Y-10.8130
G01 X15.4519 Y-10.7699
G01 X15.4912 Y-10.7287
G01 X15.5324 Y-10.6894
G01 X15.5755 Y-10.6522
G01 X15.6204 Y-10.6172
G01 X15.6670 Y-10.5844
G01 X15.7151 Y-10.5540
G01 X15.7646 Y-10.5259
G01 X15.8155 Y-10.5003
G01 X15.8675 Y-10.4772
G01 X15.9206 Y-10.4567
G01 X15.9747 Y-10.4389
G01 X16.0358 Y-10.4223
G01 X16.0099 Y-10.4498
G01 X15.9788 Y-10.4585
G01 X15.9257 Y-10.4761
G01 X15.8751 Y-10.4957
G01 X15.8263 Y-10.5173
G01 X15.7710 Y-10.5452
G01 X15.7251 Y-10.5712
G01 X15.6782 Y-10.6009
G01 X15.6296 Y-10.6353
G01 X15.5879 Y-10.6679
G01 X15.5458 Y-10.7042
G01 X15.5053 Y-10.7428
G01 X15.4691 Y-10.7808
G01 X15.4291 Y-10.8270
G01 X15.3957 Y-10.8698
G01 X15.3655 Y-10.9127
G01 X15.3319 Y-10.9658
G01 X15.3060 Y-11.0115
G01 X15.2809 Y-11.0615
G01 X15.2582 Y-11.1126
G01 X15.2392 Y-11.1616
G01 X15.2195 Y-11.2213
G01 X15.2056 Y-11.2719
G01 X15.1933 Y-11.3265
G01 X15.1837 Y-11.3816
G01 X15.1773 Y-11.4337
G01 X15.1726 Y-11.4964
G01 X15.1714 Y-11.5489
G01 X15.1728 Y-11.6048
G01 X15.1769 Y-11.6606
G01 X15.1833 Y-11.7128
G01 X15.1940 Y-11.7747
G01 X15.2056 Y-11.8259
G01 X15.2205 Y-11.8798
G01 X15.2380 Y-11.9330
G01 X15.2569 Y-11.9820
G01 X15.2824 Y-12.0394
G01 X15.3063 Y-12.0868
G01 X15.3337 Y-12.1352
G01 X15.3634 Y-12.1821
G01 X15.3937 Y-12.2252
G01 X15.4324 Y-12.2747
G01 X15.4667 Y-12.3145
G01 X15.5053 Y-12.3550
G01 X15.5458 Y-12.3935
G01 X15.5856 Y-12.4279
G01 X15.6351 Y-12.4666
G01 X15.6780 Y-12.4968
G01 X15.7251 Y-12.5266
G01 X15.7740 Y-12.5543
G01 X15.8209 Y-12.5779
G01 X15.8783 Y-12.6034
G01 X15.9273 Y-12.6223
G01 X15.9788 Y-12.6393
G01 X16.0344 Y-12.6547
G01 X16.0890 Y-12.6670
G01 X16.1441 Y-12.6766
G01 X16.1997 Y-12.6834
G01 X16.2555 Y-12.6875
G01 X16.3114 Y-12.6889
G01 X16.3673 Y-12.6875
G01 X16.4197 Y-12.6837
G01 X16.4821 Y-12.6760
G01 X16.5338 Y-12.6670
G01 X16.5917 Y-12.6539
G01 X16.6423 Y-12.6398
G01 X16.6955 Y-12.6223
G01 X16.7477 Y-12.6021
G01 X16.8019 Y-12.5779
G01 X16.8493 Y-12.5540
G01 X16.8977 Y-12.5266
G01 X16.9446 Y-12.4969
G01 X16.9905 Y-12.4646
G01 X17.0349 Y-12.4299
G01 X17.0770 Y-12.3936
G01 X17.1175 Y-12.3550
G01 X17.1560 Y-12.3145
G01 X17.1926 Y-12.2721
G01 X17.2271 Y-12.2280
G01 X17.2593 Y-12.1823
G01 X17.2891 Y-12.1352
G01 X17.3168 Y-12.0863
G01 X17.3417 Y-12.0368
G01 X17.3646 Y-11.9852
G01 X17.3836 Y-11.9362
G01 X17.4023 Y-11.8798
G01 X17.4164 Y-11.8292
G01 X17.4301 Y-11.7679
G01 X17.4391 Y-11.7162
G01 X17.4459 Y-11.6606
G01 X17.4500 Y-11.6048
G01 X17.4514 Y-11.5489
G01 X17.4500 Y-11.4930
G01 X17.4459 Y-11.4372
G01 X17.4391 Y-11.3816
G01 X17.4301 Y-11.3299
G01 X17.4164 Y-11.2686
G01 X17.4023 Y-11.2180
G01 X17.3836 Y-11.1616
G01 X17.3646 Y-11.1126
G01 X17.3422 Y-11.0620
G01 X17.3165 Y-11.0110
G01 X17.2909 Y-10.9658
G01 X17.2576 Y-10.9131
G01 X17.2271 Y-10.8698
G01 X17.1936 Y-10.8269
G01 X17.1561 Y-10.7833
G01 X17.1150 Y-10.7404
G01 X17.0770 Y-10.7043
G01 X17.0372 Y-10.6699
G01 X16.9919 Y-10.6343
G01 X16.9448 Y-10.6010
G01 X16.8963 Y-10.5704
G01 X16.8473 Y-10.5427
G01 X16.7993 Y-10.5186
G01 X16.7721 Y-10.5065
G01 X16.8159 Y-10.4627
G01 X16.8235 Y-10.4802
G01 X16.8333 Y-10.4964
G01 X16.8452 Y-10.5110
G01 X16.8590 Y-10.5240
G01 X16.8743 Y-10.5349
G01 X16.9077 Y-10.5540
G01 X16.9558 Y-10.5844
G01 X17.0024 Y-10.6172
G01 X17.0473 Y-10.6522
G01 X17.0904 Y-10.6894
G01 X17.1316 Y-10.7287
G01 X17.1709 Y-10.7699
G01 X17.2081 Y-10.8130
G01 X17.2431 Y-10.8579
G01 X17.2759 Y-10.9045
G01 X17.3063 Y-10.9526
G01 X17.3344 Y-11.0021
G01 X17.3600 Y-11.0530
G01 X17.3831 Y-11.1050
G01 X17.4036 Y-11.1581
G01 X17.4214 Y-11.2122
G01 X17.4366 Y-11.2671
G01 X17.4461 Y-11.3088
G01 X17.4521 Y-11.3267
G01 X17.4614 Y-11.3451
G01 X17.4721 Y-11.3606
G01 X17.4862 Y-11.3757
G01 X17.5008 Y-11.3876
G01 X17.5200 Y-11.3990
G01 X17.5311 Y-11.4038
G01 X17.5425 Y-11.4076
G01 X17.5541 Y-11.4105
G01 X17.5660 Y-11.4123
G01 X17.5883 Y-11.4130
G01 X17.6104 Y-11.4101
G01 X17.6318 Y-11.4038
G01 X17.6429 Y-11.3990
G01 X17.6534 Y-11.3932
G01 X17.6716 Y-11.3803
G01 X17.6840 Y-11.3684
G01 X17.6949 Y-11.3552
G01 X17.7041 Y-11.3407
G01 X17.7114 Y-11.3251
G01 X17.7168 Y-11.3088
G01 X17.7263 Y-11.2671
G01 X17.7415 Y-11.2122
G01 X17.7593 Y-11.1581
G01 X17.7683 Y-11.1350
G01 X17.7837 Y-11.1504
G01 X17.7776 Y-11.1665
G01 X17.7611 Y-11.2163
G01 X17.7461 Y-11.2702
G01 X17.7334 Y-11.3265
G01 X17.7236 Y-11.3833
G01 X17.7170 Y-11.4372
G01 X17.7127 Y-11.4964
G01 X17.7115 Y-11.5489
G01 X17.7127 Y-11.6014
G01 X17.7167 Y-11.6572
G00 Z2.0000
G00 X17.7448 Y-12.0852
G01 F70.00
G01 Z-0.0600
G01 F120.00
G01 X17.7151 Y-12.0196
G01 X17.6934 Y-11.9633
G01 X17.6745 Y-11.9059
G01 X17.6584 Y-11.8478
G01 X17.6487 Y-11.8052
G01 X17.6458 Y-11.7971
G01 X17.6419 Y-11.7894
G01 X17.6345 Y-11.7789
G01 X17.6252 Y-11.7700
G01 X17.6144 Y-11.7629
G01 X17.6026 Y-11.7579
G01 X17.5900 Y-11.7552
G01 X17.5772 Y-11.7548
G01 X17.5644 Y-11.7568
G01 X17.5531 Y-11.7607
G01 X17.5418 Y-11.7669
G01 X17.5320 Y-11.7752
G01 X17.5242 Y-11.7843
G01 X17.5178 Y-11.7955
G01 X17.5138 Y-11.8068
G01 X17.5045 Y-11.8478
G01 X17.4884 Y-11.9059
G01 X17.4695 Y-11.9633
G01 X17.4478 Y-12.0196
G01 X17.4233 Y-12.0748
G01 X17.3961 Y-12.1287
G01 X17.3664 Y-12.1812
G01 X17.3341 Y-12.2322
G01 X17.2993 Y-12.2816
G01 X17.2622 Y-12.3292
G01 X17.2228 Y-12.3749
G01 X17.1811 Y-12.4186
G01 X17.1374 Y-12.4603
G01 X17.0917 Y-12.4997
G01 X17.0441 Y-12.5368
G01 X16.9947 Y-12.5716
G01 X16.9437 Y-12.6039
G01 X16.8912 Y-12.6336
G01 X16.8373 Y-12.6608
G01 X16.7821 Y-12.6853
G01 X16.7258 Y-12.7070
G01 X16.6684 Y-12.7259
G01 X16.6103 Y-12.7420
G01 X16.5514 Y-12.7552
G01 X16.4919 Y-12.7656
G01 X16.4320 Y-12.7730
G01 X16.3718 Y-12.7774
G01 X16.3114 Y-12.7789
G01 X16.2510 Y-12.7774
G01 X16.1908 Y-12.7730
G01 X16.1309 Y-12.7656
G01 X16.0714 Y-12.7552
G01 X16.0125 Y-12.7420
G01 X15.9544 Y-12.7259
G01 X15.8970 Y-12.7070
G01 X15.8407 Y-12.6853
G01 X15.7855 Y-12.6608
G01 X15.7316 Y-12.6336
G01 X15.6791 Y-12.6039
G01 X15.6281 Y-12.5716
G01 X15.5787 Y-12.5368
G01 X15.5311 Y-12.4997
G01 X15.4854 Y-12.4603
G01 X15.4417 Y-12.4186
G01 X15.4000 Y-12.3749
G01 X15.3606 Y-12.3292
G01 X15.3235 Y-12.2816
G01 X15.2887 Y-12.2322
G01 X15.2564 Y-12.1812
G01 X15.2267 Y-12.1287
G01 X15.1995 Y-12.0748
G01 X15.1750 Y-12.0196
G01 X15.1533 Y-11.9633
G01 X15.1344 Y-11.9059
G01 X15.1183 Y-11.8478
G01 X15.1086 Y-11.8054
G01 X15.1050 Y-11.7957
G01 X15.1001 Y-11.7867
G01 X15.0944 Y-11.7792
G01 X15.0871 Y-11.7719
G01 X15.0788 Y-11.7657
G01 X15.0698 Y-11.7609
G01 X15.0601 Y-11.7574
G01 X15.0500 Y-11.7554
G01 X15.0397 Y-11.7549
G01 X15.0294 Y-11.7559
G01 X15.0211 Y-11.7579
G01 X15.0130 Y-11.7609
G01 X14.9990 Y-11.7692
G01 X14.9873 Y-11.7805
G01 X14.9785 Y-11.7942
G01 X14.9737 Y-11.8070
G01 X14.9645 Y-11.8478
G01 X14.9484 Y-11.9059
G01 X14.9295 Y-11.9633
G01 X14.9078 Y-12.0196
G01 X14.8833 Y-12.0748
G01 X14.8561 Y-12.1287
G01 X14.8264 Y-12.1812
G01 X14.7941 Y-12.2322
G01 X14.7593 Y-12.2816
G01 X14.7222 Y-12.3292
G01 X14.6828 Y-12.3749
G01 X14.6411 Y-12.4186
G01 X14.5974 Y-12.4603
G01 X14.5517 Y-12.4997
G01 X14.5041 Y-12.5368
G01 X14.4547 Y-12.5716
G01 X14.4037 Y-12.6039
G01 X14.3512 Y-12.6336
G01 X14.2973 Y-12.6608
G01 X14.2421 Y-12.6853
G01 X14.1858 Y-12.7070
G01 X14.1284 Y-12.7259
G01 X14.0703 Y-12.7420
G01 X14.0114 Y-12.7552
G01 X13.9519 Y-12.7656
G01 X13.8920 Y-12.7730
G01 X13.8318 Y-12.7774
G01 X13.7714 Y-12.7789
G01 X13.7110 Y-12.7774
G01 X13.6508 Y-12.7730
G01 X13.5909 Y-12.7656
G01 X13.5314 Y-12.7552
G01 X13.4725 Y-12.7420
G01 X13.4144 Y-12.7259
G01 X13.3570 Y-12.7070
G01 X13.3007 Y-12.6853
G01 X13.2455 Y-12.6608
G01 X13.1916 Y-12.6336
G01 X13.1391 Y-12.6039
G01 X13.0881 Y-12.5716
G01 X13.0387 Y-12.5368
G01 X12.9911 Y-12.4997
G01 X12.9454 Y-12.4603
G01 X12.9017 Y-12.4186
G01 X12.8600 Y-12.3749
G01 X12.8206 Y-12.3292
G01 X12.7835 Y-12.2816
G01 X12.7487 Y-12.2322
G01 X12.7164 Y-12.1812
G01 X12.6867 Y-12.1287
G01 X12.6595 Y-12.0748
G01 X12.6350 Y-12.0196
G01 X12.6133 Y-11.9633
G01 X12.5918 Y-11.8970
G01 X12.5877 Y-11.8875
G01 X12.5818 Y-11.8780
G01 X12.5738 Y-11.8690
G01 X12.5645 Y-11.8615
G01 X12.5539 Y-11.8557
G01 X12.5401 Y-11.8512
G01 X12.5256 Y-11.8497
G01 X11.6399 Y-11.8497
G01 X11.6313 Y-11.8503
G01 X11.6155 Y-11.8541
G01 X11.6076 Y-11.8576
G01 X11.6003 Y-11.8620
G01 X11.5880 Y-11.8727
G01 X11.5785 Y-11.8860
G01 X11.5731 Y-11.8986
G01 X11.5609 Y-11.9427
G01 X11.5358 Y-12.0186
G01 X11.5070 Y-12.0933
G01 X11.4746 Y-12.1664
G01 X11.4386 Y-12.2379
G01 X11.3992 Y-12.3075
G01 X11.3564 Y-12.3751
G01 X11.3103 Y-12.4405
G01 X11.2611 Y-12.5035
G01 X11.2088 Y-12.5641
G01 X11.1537 Y-12.6221
G01 X11.0957 Y-12.6772
G01 X11.0351 Y-12.7295
G01 X10.9721 Y-12.7787
G01 X10.9067 Y-12.8248
G01 X10.8391 Y-12.8676
G01 X10.7695 Y-12.9070
G01 X10.6980 Y-12.9430
G01 X10.6249 Y-12.9754
G01 X10.5502 Y-13.0042
G01 X10.4743 Y-13.0293
G01 X10.3972 Y-13.0506
G01 X10.3191 Y-13.0682
G01 X10.2403 Y-13.0818
G01 X10.1609 Y-13.0916
G01 X10.0811 Y-13.0975
G01 X10.0011 Y-13.0995
G01 X9.9211 Y-13.0975
G01 X9.8413 Y-13.0916
G01 X9.7619 Y-13.0818
G01 X9.6831 Y-13.0682
G01 X9.6050 Y-13.0506
G01 X9.5279 Y-13.0293
G01 X9.4520 Y-13.0042
G01 X9.3773 Y-12.9754
G01 X9.3042 Y-12.9430
G01 X9.2327 Y-12.9070
G01 X9.1631 Y-12.8676
G01 X9.0955 Y-12.8248
G01 X9.0301 Y-12.7787
G01 X8.9671 Y-12.7295
G01 X8.9065 Y-12.6772
G01 X8.8485 Y-12.6221
G01 X8.7934 Y-12.5641
G01 X8.7411 Y-12.5035
G01 X8.6919 Y-12.4405
G01 X8.6458 Y-12.3751
G01 X8.6030 Y-12.3075
G01 X8.5636 Y-12.2379
G01 X8.5276 Y-12.1664
G01 X8.4952 Y-12.0933
G01 X8.4664 Y-12.0186
G01 X8.4413 Y-11.9427
G01 X8.4200 Y-11.8656
G01 X8.4024 Y-11.7875
G01 X8.3888 Y-11.7087
G01 X8.3790 Y-11.6293
G01 X8.3731 Y-11.5495
G01 X8.3711 Y-11.4695
G01 X8.3731 Y-11.3895
G01 X8.3790 Y-11.3097
G01 X8.3888 Y-11.2303
G01 X8.4024 Y-11.1515
G01 X8.4200 Y-11.0734
G01 X8.4413 Y-10.9963
G01 X8.4664 Y-10.9204
G01 X8.4952 Y-10.8457
G01 X8.5276 Y-10.7726
G01 X8.5636 Y-10.7011
G01 X8.6030 Y-10.6315
G01 X8.6458 Y-10.5639
G01 X8.6919 Y-10.4985
G01 X8.7411 Y-10.4355
G01 X8.7934 Y-10.3749
G01 X8.8485 Y-10.3169
G01 X8.9065 Y-10.2618
G01 X8.9671 Y-10.2095
G01 X9.0471 Y-10.1474
G01 X9.0535 Y-10.1405
G01 X9.0588 Y-10.1327
G01 X9.0631 Y-10.1243
G01 X9.0663 Y-10.1154
G01 X9.0682 Y-10.1062
G01 X9.0688 Y-10.0967
G01 X9.0688 Y-8.7820
G01 X10.9288 Y-8.7820
G01 X10.9288 Y-10.0935
G01 X10.9296 Y-10.1038
G01 X10.9318 Y-10.1138
G01 X10.9352 Y-10.1226
G01 X10.9397 Y-10.1309
G01 X10.9452 Y-10.1386
G01 X10.9518 Y-10.1454
G01 X10.9721 Y-10.1603
G01 X11.0351 Y-10.2095
G01 X11.0957 Y-10.2618
G01 X11.1537 Y-10.3169
G01 X11.2088 Y-10.3749
G01 X11.2611 Y-10.4355
G01 X11.3103 Y-10.4985
G01 X11.3564 Y-10.5639
G01 X11.3992 Y-10.6315
G01 X11.4386 Y-10.7011
G01 X11.4746 Y-10.7726
G01 X11.5070 Y-10.8457
G01 X11.5358 Y-10.9204
G01 X11.5609 Y-10.9963
G01 X11.5731 Y-11.0404
G01 X11.5781 Y-11.0523
G01 X11.5874 Y-11.0656
G01 X11.5996 Y-11.0765
G01 X11.6139 Y-11.0843
G01 X11.6296 Y-11.0885
G01 X11.6399 Y-11.0893
G01 X12.5846 Y-11.0893
G01 X12.5966 Y-11.0882
G01 X12.6074 Y-11.0855
G01 X12.6176 Y-11.0810
G01 X12.6263 Y-11.0755
G01 X12.6347 Y-11.0682
G01 X12.6418 Y-11.0596
G01 X12.6475 Y-11.0500
G01 X12.6595 Y-11.0230
G01 X12.6867 Y-10.9691
G01 X12.7164 Y-10.9166
G01 X12.7487 Y-10.8656
G01 X12.7835 Y-10.8162
G01 X12.8206 Y-10.7686
G01 X12.8600 Y-10.7229
G01 X12.9017 Y-10.6792
G01 X12.9454 Y-10.6375
G01 X12.9911 Y-10.5981
G01 X13.0387 Y-10.5610
G01 X13.0881 Y-10.5262
G01 X13.1391 Y-10.4939
G01 X13.1916 Y-10.4642
G01 X13.2455 Y-10.4370
G01 X13.3007 Y-10.4125
G01 X13.3570 Y-10.3908
G01 X13.4144 Y-10.3719
G01 X13.4725 Y-10.3558
G01 X13.5314 Y-10.3426
G01 X13.5909 Y-10.3322
G01 X13.6508 Y-10.3248
G01 X13.7110 Y-10.3204
G01 X13.7714 Y-10.3189
G01 X13.8318 Y-10.3204
G01 X13.8920 Y-10.3248
G01 X13.9519 Y-10.3322
G01 X14.0114 Y-10.3426
G01 X14.0703 Y-10.3558
G01 X14.1284 Y-10.3719
G01 X14.1858 Y-10.3908
G01 X14.2421 Y-10.4125
G01 X14.2973 Y-10.4370
G01 X14.3512 Y-10.4642
G01 X14.4037 Y-10.4939
G01 X14.4547 Y-10.5262
G01 X14.5041 Y-10.5610
G01 X14.5517 Y-10.5981
G01 X14.5974 Y-10.6375
G01 X14.6411 Y-10.6792
G01 X14.6828 Y-10.7229
G01 X14.7222 Y-10.7686
G01 X14.7593 Y-10.8162
G01 X14.7941 Y-10.8656
G01 X14.8264 Y-10.9166
G01 X14.8561 Y-10.9691
G01 X14.8833 Y-11.0230
G01 X14.9078 Y-11.0782
G01 X14.9295 Y-11.1345
G01 X14.9484 Y-11.1919
G01 X14.9645 Y-11.2500
G01 X14.9742 Y-11.2924
G01 X14.9781 Y-11.3029
G01 X14.9837 Y-11.3125
G01 X14.9907 Y-11.3212
G01 X14.9990 Y-11.3286
G01 X15.0084 Y-11.3347
G01 X15.0194 Y-11.3394
G01 X15.0311 Y-11.3422
G01 X15.0423 Y-11.3429
G01 X15.0534 Y-11.3419
G01 X15.0642 Y-11.3391
G01 X15.0766 Y-11.3334
G01 X15.0884 Y-11.3248
G01 X15.0976 Y-11.3146
G01 X15.1050 Y-11.3021
G01 X15.1091 Y-11.2908
G01 X15.1183 Y-11.2500
G01 X15.1344 Y-11.1919
G01 X15.1533 Y-11.1345
G01 X15.1750 Y-11.0782
G01 X15.1995 Y-11.0230
G01 X15.2267 Y-10.9691
G01 X15.2564 Y-10.9166
G01 X15.2887 Y-10.8656
G01 X15.3235 Y-10.8162
G01 X15.3606 Y-10.7686
G01 X15.4000 Y-10.7229
G01 X15.4417 Y-10.6792
G01 X15.4854 Y-10.6375
G01 X15.5311 Y-10.5981
G01 X15.5787 Y-10.5610
G01 X15.6281 Y-10.5262
G01 X15.6791 Y-10.4939
G01 X15.7316 Y-10.4642
G01 X15.7855 Y-10.4370
G01 X15.8407 Y-10.4125
G01 X15.8970 Y-10.3908
G01 X15.9544 Y-10.3719
G01 X16.0125 Y-10.3558
G01 X16.0714 Y-10.3426
G01 X16.1257 Y-10.3329
G01 X16.1386 Y-10.3281
G01 X16.1503 Y-10.3209
G01 X16.1574 Y-10.3147
G01 X17.3140 Y-9.1586
G01 X17.3352 Y-9.1412
G01 X17.3581 Y-9.1259
G01 X17.3823 Y-9.1129
G01 X17.4077 Y-9.1024
G01 X17.4340 Y-9.0944
G01 X17.4610 Y-9.0891
G01 X17.4884 Y-9.0864
G01 X17.5030 Y-9.0860
G01 X19.9221 Y-9.0860
G01 X19.9367 Y-9.0864
G01 X19.9641 Y-9.0891
G01 X19.9911 Y-9.0944
G01 X20.0174 Y-9.1024
G01 X20.0428 Y-9.1129
G01 X20.0670 Y-9.1259
G01 X20.0786 Y-9.1333
G01 X20.1007 Y-9.1496
G01 X20.1217 Y-9.1687
G01 X21.8498 Y-10.8968
G01 X21.8563 Y-10.9025
G01 X21.8633 Y-10.9073
G01 X21.8710 Y-10.9113
G01 X21.8798 Y-10.9145
G01 X21.8891 Y-10.9165
G01 X21.8985 Y-10.9173
G01 X23.0444 Y-10.9173
G01 X23.0444 Y-12.5773
G01 X21.4844 Y-12.5773
G01 X21.4844 Y-11.3520
G01 X21.4836 Y-11.3426
G01 X21.4819 Y-11.3342
G01 X21.4791 Y-11.3260
G01 X21.4753 Y-11.3183
G01 X21.4701 Y-11.3104
G01 X21.4639 Y-11.3033
G01 X19.8275 Y-9.6669
G01 X19.8203 Y-9.6607
G01 X19.8110 Y-9.6546
G01 X19.8007 Y-9.6502
G01 X19.7891 Y-9.6473
G01 X19.7780 Y-9.6464
G01 X17.6471 Y-9.6464
G01 X17.6318 Y-9.6481
G01 X17.6220 Y-9.6511
G01 X17.6134 Y-9.6551
G01 X17.6054 Y-9.6602
G01 X17.5983 Y-9.6663
G01 X16.8977 Y-10.3669
G01 X16.8886 Y-10.3783
G01 X16.8822 Y-10.3914
G01 X16.8787 Y-10.4046
G01 X16.8779 Y-10.4192
G01 X16.8799 Y-10.4328
G01 X16.8841 Y-10.4449
G01 X16.8910 Y-10.4568
G01 X16.8995 Y-10.4664
G01 X16.9103 Y-10.4749
G01 X16.9437 Y-10.4939
G01 X16.9947 Y-10.5262
G01 X17.0441 Y-10.5610
G01 X17.0917 Y-10.5981
G01 X17.1374 Y-10.6375
G01 X17.1811 Y-10.6792
G01 X17.2228 Y-10.7229
G01 X17.2622 Y-10.7686
G01 X17.2993 Y-10.8162
G01 X17.3341 Y-10.8656
G01 X17.3664 Y-10.9166
G01 X17.3961 Y-10.9691
G01 X17.4233 Y-11.0230
G01 X17.4478 Y-11.0782
G01 X17.4695 Y-11.1345
G01 X17.4884 Y-11.1919
G01 X17.5045 Y-11.2500
G01 X17.5133 Y-11.2893
G01 X17.5161 Y-11.2983
G01 X17.5205 Y-11.3076
G01 X17.5263 Y-11.3162
G01 X17.5332 Y-11.3238
G01 X17.5404 Y-11.3299
G01 X17.5523 Y-11.3368
G01 X17.5661 Y-11.3414
G01 X17.5797 Y-11.3431
G01 X17.5943 Y-11.3420
G01 X17.6074 Y-11.3381
G01 X17.6203 Y-11.3313
G01 X17.6316 Y-11.3220
G01 X17.6401 Y-11.3113
G01 X17.6447 Y-11.3031
G01 X17.6484 Y-11.2935
G01 X17.6584 Y-11.2500
G01 X17.6745 Y-11.1919
G01 X17.6934 Y-11.1345
G01 X17.7151 Y-11.0782
G01 X17.7448 Y-11.0126
G01 X17.8656 Y-11.1334
G01 X17.8440 Y-11.1884
G01 X17.8276 Y-11.2383
G01 X17.8136 Y-11.2889
G01 X17.8021 Y-11.3402
G01 X17.7931 Y-11.3919
G01 X17.7867 Y-11.4440
G01 X17.7828 Y-11.4964
G01 X17.7815 Y-11.5489
G01 X17.7828 Y-11.6014
G01 X17.7867 Y-11.6538
G01 X17.7931 Y-11.7059
G01 X17.8021 Y-11.7576
G01 X17.8136 Y-11.8089
G01 X17.8276 Y-11.8595
G01 X17.8440 Y-11.9094
G01 X17.8656 Y-11.9644
G01 X17.7448 Y-12.0852
G00 Z2.0000
G00 X18.3152 Y-12.6556
G01 F70.00
G01 Z-0.0600
G01 F120.00
G01 X18.4360 Y-12.5348
G01 X18.4910 Y-12.5564
G01 X18.5409 Y-12.5728
G01 X18.5915 Y-12.5868
G01 X18.6428 Y-12.5983
G01 X18.6945 Y-12.6073
G01 X18.7466 Y-12.6137
G01 X18.7990 Y-12.6176
G01 X18.8515 Y-12.6189
G01 X18.9040 Y-12.6176
G01 X18.9564 Y-12.6137
G01 X19.0085 Y-12.6073
G01 X19.0602 Y-12.5983
G01 X19.1115 Y-12.5868
G01 X19.1621 Y-12.5728
G01 X19.2120 Y-12.5564
G01 X19.2670 Y-12.5348
G01 X19.3877 Y-12.6556
G01 X19.3222 Y-12.6853
G01 X19.2659 Y-12.7070
G01 X19.2085 Y-12.7259
G01 X19.1504 Y-12.7420
G01 X19.0915 Y-12.7552
G01 X19.0320 Y-12.7656
G01 X18.9721 Y-12.7730
G01 X18.9119 Y-12.7774
G01 X18.8515 Y-12.7789
G01 X18.7911 Y-12.7774
G01 X18.7309 Y-12.7730
G01 X18.6710 Y-12.7656
G01 X18.6115 Y-12.7552
G01 X18.5526 Y-12.7420
G01 X18.4945 Y-12.7259
G01 X18.4371 Y-12.7070
G01 X18.3808 Y-12.6853
G01 X18.3152 Y-12.6556
G00 Z2.0000
G00 X18.4376 Y-12.6321
G01 F70.00
G01 Z-0.0600
G01 F120.00
G01 X18.4530 Y-12.6167
G01 X18.4691 Y-12.6228
G01 X18.5222 Y-12.6403
G01 X18.5745 Y-12.6547
G01 X18.6308 Y-12.6673
G01 X18.6842 Y-12.6766
G01 X18.7398 Y-12.6834
G01 X18.7956 Y-12.6875
G01 X18.8515 Y-12.6889
G01 X18.9074 Y-12.6875
G01 X18.9632 Y-12.6834
G01 X19.0188 Y-12.6766
G01 X19.0722 Y-12.6673
G01 X19.1285 Y-12.6547
G01 X19.1808 Y-12.6403
G01 X19.2339 Y-12.6228
G01 X19.2499 Y-12.6168
G01 X19.2653 Y-12.6322
G01 X19.2423 Y-12.6411
G01 X19.1882 Y-12.6589
G01 X19.1333 Y-12.6741
G01 X19.0778 Y-12.6866
G01 X19.0217 Y-12.6963
G01 X18.9652 Y-12.7033
G01 X18.9084 Y-12.7075
G01 X18.8515 Y-12.7089
G01 X18.7946 Y-12.7075
G01 X18.7378 Y-12.7033
G01 X18.6813 Y-12.6963
G01 X18.6252 Y-12.6866
G01 X18.5697 Y-12.6741
G01 X18.5148 Y-12.6589
G01 X18.4607 Y-12.6411
G01 X18.4376 Y-12.6321
G00 Z2.0000
G00 X19.8374 Y-11.9644
G01 F70.00
G01 Z-0.0600
G01 F120.00
G01 X19.8590 Y-11.9094
G01 X19.8754 Y-11.8595
G01 X19.8894 Y-11.8089
G01 X19.9009 Y-11.7576
G01 X19.9099 Y-11.7059
G01 X19.9163 Y-11.6538
G01 X19.9202 Y-11.6014
G01 X19.9215 Y-11.5489
G01 X19.9202 Y-11.4964
G01 X19.9163 Y-11.4440
G01 X19.9099 Y-11.3919
G01 X19.9009 Y-11.3402
G01 X19.8894 Y-11.2889
G01 X19.8754 Y-11.2383
G01 X19.8590 Y-11.1884
G01 X19.8374 Y-11.1334
G01 X19.9582 Y-11.0126
G01 X19.9879 Y-11.0782
G01 X20.0096 Y-11.1345
G01 X20.0285 Y-11.1919
G01 X20.0446 Y-11.2500
G01 X20.0578 Y-11.3089
G01 X20.0682 Y-11.3684
G01 X20.0756 Y-11.4283
G01 X20.0800 Y-11.4885
G01 X20.0815 Y-11.5489
G01 X20.0800 Y-11.6093
G01 X20.0756 Y-11.6695
G01 X20.0682 Y-11.7294
G01 X20.0578 Y-11.7889
G01 X20.0446 Y-11.8478
G01 X20.0285 Y-11.9059
G01 X20.0096 Y-11.9633
G01 X19.9879 Y-12.0196
G01 X19.9582 Y-12.0852
G01 X19.8374 Y-11.9644
G00 Z2.0000
G00 X19.9193 Y-11.9474
G01 F70.00
G01 Z-0.0600
G01 F120.00
G01 X19.9254 Y-11.9313
G01 X19.9429 Y-11.8782
G01 X19.9573 Y-11.8259
G01 X19.9699 Y-11.7696
G01 X19.9792 Y-11.7162
G01 X19.9860 Y-11.6606
G01 X19.9901 Y-11.6048
G01 X19.9915 Y-11.5523
G01 X19.9901 Y-11.4930
G01 X19.9860 Y-11.4372
G01 X19.9792 Y-11.3816
G01 X19.9702 Y-11.3299
G01 X19.9573 Y-11.2719
G01 X19.9429 Y-11.2196
G01 X19.9254 Y-11.1665
G01 X19.9193 Y-11.1504
G01 X19.9347 Y-11.1350
G01 X19.9437 Y-11.1581
G01 X19.9615 Y-11.2122
G01 X19.9767 Y-11.2671
G01 X19.9892 Y-11.3226
G01 X19.9989 Y-11.3787
G01 X20.0059 Y-11.4352
G01 X20.0101 Y-11.4920
G01 X20.0115 Y-11.5489
G01 X20.0101 Y-11.6058
G01 X20.0059 Y-11.6626
G01 X19.9989 Y-11.7191
G01 X19.9892 Y-11.7752
G01 X19.9767 Y-11.8307
G01 X19.9615 Y-11.8856
G01 X19.9437 Y-11.9397
G01 X19.9347 Y-11.9628
G01 X19.9193 Y-11.9474
G00 Z2.0000
G00 X18.4376 Y-10.4657
G01 F70.00
G01 Z-0.0600
G01 F120.00
G01 X18.4607 Y-10.4567
G01 X18.5148 Y-10.4389
G01 X18.5697 Y-10.4237
G01 X18.6252 Y-10.4112
G01 X18.6813 Y-10.4015
G01 X18.7378 Y-10.3945
G01 X18.7946 Y-10.3903
G01 X18.8515 Y-10.3889
G01 X18.9084 Y-10.3903
G01 X18.9652 Y-10.3945
G01 X19.0217 Y-10.4015
G01 X19.0778 Y-10.4112
G01 X19.1333 Y-10.4237
G01 X19.1882 Y-10.4389
G01 X19.2423 Y-10.4567
G01 X19.2653 Y-10.4656
G01 X19.2499 Y-10.4810
G01 X19.2339 Y-10.4750
G01 X19.1808 Y-10.4575
G01 X19.1285 Y-10.4431
G01 X19.0722 Y-10.4305
G01 X19.0188 Y-10.4212
G01 X18.9632 Y-10.4144
G01 X18.9074 Y-10.4103
G01 X18.8515 Y-10.4089
G01 X18.7956 Y-10.4103
G01 X18.7398 Y-10.4144
G01 X18.6842 Y-10.4212
G01 X18.6308 Y-10.4305
G01 X18.5745 Y-10.4431
G01 X18.5222 Y-10.4575
G01 X18.4691 Y-10.4750
G01 X18.4530 Y-10.4811
G01 X18.4376 Y-10.4657
G00 Z2.0000
G00 X18.3152 Y-10.4422
G01 F70.00
G01 Z-0.0600
G01 F120.00
G01 X18.3808 Y-10.4125
G01 X18.4371 Y-10.3908
G01 X18.4945 Y-10.3719
G01 X18.5526 Y-10.3558
G01 X18.6115 Y-10.3426
G01 X18.6710 Y-10.3322
G01 X18.7309 Y-10.3248
G01 X18.7911 Y-10.3204
G01 X18.8515 Y-10.3189
G01 X18.9119 Y-10.3204
G01 X18.9721 Y-10.3248
G01 X19.0320 Y-10.3322
G01 X19.0915 Y-10.3426
G01 X19.1504 Y-10.3558
G01 X19.2085 Y-10.3719
G01 X19.2659 Y-10.3908
G01 X19.3222 Y-10.4125
G01 X19.3877 Y-10.4422
G01 X19.2670 Y-10.5630
G01 X19.2120 Y-10.5414
G01 X19.1621 Y-10.5250
G01 X19.1115 Y-10.5110
G01 X19.0602 Y-10.4995
G01 X19.0085 Y-10.4905
G01 X18.9564 Y-10.4841
G01 X18.9040 Y-10.4802
G01 X18.8515 Y-10.4789
G01 X18.7990 Y-10.4802
G01 X18.7466 Y-10.4841
G01 X18.6945 Y-10.4905
G01 X18.6428 Y-10.4995
G01 X18.5915 Y-10.5110
G01 X18.5409 Y-10.5250
G01 X18.4910 Y-10.5414
G01 X18.4360 Y-10.5630
G01 X18.3152 Y-10.4422
G00 Z2.0000
G00 X22.2892 Y-8.3900
G01 F70.00
G01 Z-0.0600
G01 F120.00
G01 X22.6145 Y-8.7153
G01 X22.6003 Y-8.7294
G01 X22.1619 Y-8.2910
G01 X22.6003 Y-7.8526
G01 X22.6145 Y-7.8668
G01 X22.2880 Y-8.1932
G01 X22.2768 Y-8.2062
G01 X22.2672 Y-8.2205
G01 X22.2616 Y-8.2311
G01 X22.2570 Y-8.2422
G01 X22.2509 Y-8.2637
G01 X22.2483 Y-8.2858
G01 X22.2493 Y-8.3081
G01 X22.2512 Y-8.3200
G01 X22.2542 Y-8.3316
G01 X22.2624 Y-8.3524
G01 X22.2681 Y-8.3630
G01 X22.2747 Y-8.3730
G01 X22.2892 Y-8.3900
G00 Z2.0000
G00 X22.3387 Y-8.3405
G01 F70.00
G01 Z-0.0600
G01 F120.00
G01 X22.7135 Y-8.7153
G01 X22.6003 Y-8.8284
G01 X22.0629 Y-8.2910
G01 X22.6003 Y-7.7536
G01 X22.7135 Y-7.8668
G01 X22.3335 Y-8.2473
G01 X22.3265 Y-8.2580
G01 X22.3215 Y-8.2699
G01 X22.3187 Y-8.2824
G01 X22.3183 Y-8.2953
G01 X22.3203 Y-8.3080
G01 X22.3246 Y-8.3202
G01 X22.3310 Y-8.3313
G01 X22.3387 Y-8.3405
G00 Z2.0000
G00 X23.1235 Y-9.3516
G01 F70.00
G01 Z-0.0600
G01 F120.00
G01 X23.2367 Y-9.2385
G01 X23.6134 Y-9.6151
G01 X23.6236 Y-9.6229
G01 X23.6350 Y-9.6288
G01 X23.6482 Y-9.6326
G01 X23.6610 Y-9.6338
G01 X23.6738 Y-9.6326
G01 X23.6862 Y-9.6291
G01 X23.6977 Y-9.6234
G01 X23.7086 Y-9.6151
G01 X24.0853 Y-9.2385
G01 X24.1984 Y-9.3517
G01 X23.6610 Y-9.8891
G01 X23.1235 Y-9.3516
G00 Z2.0000
G00 X23.2225 Y-9.3516
G01 F70.00
G01 Z-0.0600
G01 F120.00
G01 X23.2367 Y-9.3375
G01 X23.5620 Y-9.6628
G01 X23.5735 Y-9.6731
G01 X23.5832 Y-9.6802
G01 X23.5935 Y-9.6864
G01 X23.6138 Y-9.6956
G01 X23.6253 Y-9.6992
G01 X23.6371 Y-9.7017
G01 X23.6490 Y-9.7033
G01 X23.6610 Y-9.7038
G01 X23.6730 Y-9.7033
G01 X23.6849 Y-9.7017
G01 X23.7065 Y-9.6962
G01 X23.7177 Y-9.6918
G01 X23.7285 Y-9.6864
G01 X23.7388 Y-9.6802
G01 X23.7485 Y-9.6731
G01 X23.7600 Y-9.6628
G01 X24.0853 Y-9.3375
G01 X24.0994 Y-9.3517
G01 X23.6610 Y-9.7901
G01 X23.2225 Y-9.3516
G00 Z2.0000
G00 X24.6085 Y-8.7153
G01 F70.00
G01 Z-0.0600
G01 F120.00
G01 X24.9845 Y-8.3393
G01 X24.9915 Y-8.3306
G01 X24.9971 Y-8.3209
G01 X25.0010 Y-8.3105
G01 X25.0033 Y-8.2996
G01 X25.0035 Y-8.2850
G01 X25.0005 Y-8.2699
G01 X24.9947 Y-8.2565
G01 X24.9857 Y-8.2440
G01 X24.6085 Y-7.8667
G01 X24.7216 Y-7.7536
G01 X25.2590 Y-8.2910
G01 X24.7216 Y-8.8284
G01 X24.6085 Y-8.7153
G00 Z2.0000
G00 X24.7075 Y-8.7153
G01 F70.00
G01 Z-0.0600
G01 F120.00
G01 X25.0398 Y-8.3824
G01 X25.0473 Y-8.3730
G01 X25.0539 Y-8.3630
G01 X25.0596 Y-8.3524
G01 X25.0644 Y-8.3414
G01 X25.0683 Y-8.3300
G01 X25.0711 Y-8.3183
G01 X25.0729 Y-8.3064
G01 X25.0738 Y-8.2927
G01 X25.0734 Y-8.2807
G01 X25.0720 Y-8.2688
G01 X25.0696 Y-8.2570
G01 X25.0662 Y-8.2455
G01 X25.0618 Y-8.2343
G01 X25.0564 Y-8.2235
G01 X25.0502 Y-8.2132
G01 X25.0431 Y-8.2035
G01 X25.0328 Y-8.1920
G01 X24.7075 Y-7.8667
G01 X24.7216 Y-7.8526
G01 X25.1600 Y-8.2910
G01 X24.7216 Y-8.7294
G01 X24.7075 Y-8.7153
G00 Z2.0000
G00 X23.2367 Y-7.3435
G01 F70.00
G01 Z-0.0600
G01 F120.00
G01 X23.1235 Y-7.2303
G01 X23.4004 Y-6.9530
G01 X23.4064 Y-6.9446
G01 X23.4107 Y-6.9362
G01 X23.4138 Y-6.9272
G01 X23.4158 Y-6.9171
G01 X23.4163 Y-6.9069
G01 X23.4154 Y-6.8975
G01 X23.4131 Y-6.8874
G01 X23.4096 Y-6.8786
G01 X23.4036 Y-6.8683
G01 X23.3964 Y-6.8597
G01 X23.3873 Y-6.8518
G01 X23.3778 Y-6.8460
G01 X23.3675 Y-6.8418
G01 X23.3329 Y-6.8322
G01 X23.2802 Y-6.8148
G01 X23.2285 Y-6.7949
G01 X23.1778 Y-6.7724
G01 X23.1282 Y-6.7475
G01 X23.0800 Y-6.7201
G01 X23.0331 Y-6.6904
G01 X22.9878 Y-6.6585
G01 X22.9440 Y-6.6244
G01 X22.9021 Y-6.5882
G01 X22.8619 Y-6.5499
G01 X22.8236 Y-6.5097
G01 X22.7874 Y-6.4678
G01 X22.7533 Y-6.4240
G01 X22.7214 Y-6.3787
G01 X22.6917 Y-6.3318
G01 X22.6643 Y-6.2836
G01 X22.6394 Y-6.2340
G01 X22.6169 Y-6.1833
G01 X22.5970 Y-6.1316
G01 X22.5796 Y-6.0789
G01 X22.5648 Y-6.0255
G01 X22.5526 Y-5.9713
G01 X22.5432 Y-5.9167
G01 X22.5364 Y-5.8617
G01 X22.5323 Y-5.8063
G01 X22.5309 Y-5.7509
G01 X22.5323 Y-5.6955
G01 X22.5364 Y-5.6401
G01 X22.5432 Y-5.5851
G01 X22.5526 Y-5.5305
G01 X22.5648 Y-5.4763
G01 X22.5796 Y-5.4229
G01 X22.5970 Y-5.3702
G01 X22.6169 Y-5.3185
G01 X22.6394 Y-5.2678
G01 X22.6643 Y-5.2182
G01 X22.6917 Y-5.1700
G01 X22.7214 Y-5.1231
G01 X22.7533 Y-5.0778
G01 X22.7874 Y-5.0340
G01 X22.8236 Y-4.9921
G01 X22.8619 Y-4.9519
G01 X22.9021 Y-4.9136
G01 X22.9440 Y-4.8774
G01 X22.9878 Y-4.8433
G01 X23.0331 Y-4.8114
G01 X23.0800 Y-4.7817
G01 X23.1282 Y-4.7543
G01 X23.1778 Y-4.7294
G01 X23.2285 Y-4.7069
G01 X23.2802 Y-4.6870
G01 X23.3329 Y-4.6696
G01 X23.3863 Y-4.6548
G01 X23.4405 Y-4.6426
G01 X23.4951 Y-4.6332
G01 X23.5501 Y-4.6264
G01 X23.6055 Y-4.6223
G01 X23.6609 Y-4.6209
G01 X23.7163 Y-4.6223
G01 X23.7717 Y-4.6264
G01 X23.8267 Y-4.6332
G01 X23.8813 Y-4.6426
G01 X23.9355 Y-4.6548
G01 X23.9889 Y-4.6696
G01 X24.0416 Y-4.6870
G01 X24.0933 Y-4.7069
G01 X24.1440 Y-4.7294
G01 X24.1936 Y-4.7543
G01 X24.2418 Y-4.7817
G01 X24.2887 Y-4.8114
G01 X24.3340 Y-4.8433
G01 X24.3778 Y-4.8774
G01 X24.4197 Y-4.9136
G01 X24.4599 Y-4.9519
G01 X24.4982 Y-4.9921
G01 X24.5344 Y-5.0340
G01 X24.5685 Y-5.0778
G01 X24.6004 Y-5.1231
G01 X24.6301 Y-5.1700
G01 X24.6575 Y-5.2182
G01 X24.6824 Y-5.2678
G01 X24.7097 Y-5.3302
G01 X24.7174 Y-5.3425
G01 X24.7282 Y-5.3536
G01 X24.7419 Y-5.3624
G01 X24.7573 Y-5.3678
G01 X24.7726 Y-5.3695
G01 X24.8571 Y-5.3693
G01 X24.8673 Y-5.3682
G01 X24.8772 Y-5.3655
G01 X24.8852 Y-5.3623
G01 X24.8926 Y-5.3580
G01 X24.9051 Y-5.3476
G01 X24.9149 Y-5.3346
G01 X24.9187 Y-5.3269
G01 X24.9216 Y-5.3189
G01 X24.9236 Y-5.3096
G01 X24.9244 Y-5.2994
G01 X24.9244 Y-4.8530
G01 X26.5844 Y-4.8530
G01 X26.5844 Y-6.4130
G01 X26.1971 Y-6.4130
G01 X26.1877 Y-6.4136
G01 X26.1768 Y-6.4160
G01 X26.1656 Y-6.4205
G01 X26.1554 Y-6.4268
G01 X26.1464 Y-6.4347
G01 X26.1394 Y-6.4434
G01 X26.1335 Y-6.4539
G01 X26.1296 Y-6.4643
G01 X26.1274 Y-6.4761
G01 X26.1271 Y-9.1608
G01 X26.1281 Y-9.1728
G01 X26.1312 Y-9.1844
G01 X26.1380 Y-9.1983
G01 X26.1476 Y-9.2103
G01 X29.2469 Y-12.3096
G01 X29.2547 Y-12.3163
G01 X29.2634 Y-12.3218
G01 X29.2736 Y-12.3263
G01 X29.2836 Y-12.3289
G01 X29.2964 Y-12.3301
G01 X40.0773 Y-12.3301
G01 X40.0868 Y-12.3295
G01 X40.0968 Y-12.3273
G01 X40.1049 Y-12.3244
G01 X40.1126 Y-12.3206
G01 X40.1197 Y-12.3158
G01 X40.1268 Y-12.3096
G01 X41.2604 Y-11.1761
G01 X41.2687 Y-11.1662
G01 X41.2763 Y-11.1518
G01 X41.2788 Y-11.1436
G01 X41.2804 Y-11.1351
G01 X41.2809 Y-11.1266
G01 X41.2804 Y-11.1180
G01 X41.2789 Y-11.1096
G01 X41.2763 Y-11.1014
G01 X41.2714 Y-11.0913
G01 X41.2645 Y-11.0815
G01 X41.2285 Y-11.0448
G01 X41.2167 Y-11.0297
G01 X41.2102 Y-11.0188
G01 X41.2047 Y-11.0072
G01 X41.1987 Y-10.9891
G01 X41.1962 Y-10.9766
G01 X41.1948 Y-10.9566
G01 X41.1948 Y-10.7585
G01 X41.1962 Y-10.7385
G01 X41.2004 Y-10.7198
G01 X41.2060 Y-10.7049
G01 X41.2133 Y-10.6907
G01 X41.2243 Y-10.6751
G01 X41.2335 Y-10.6650
G01 X41.3688 Y-10.5296
G01 X41.3778 Y-10.5181
G01 X41.3820 Y-10.5106
G01 X41.3854 Y-10.5018
G01 X41.3877 Y-10.4926
G01 X41.3886 Y-10.4833
G01 X41.3883 Y-10.4738
G01 X41.3868 Y-10.4645
G01 X41.3840 Y-10.4555
G01 X41.3800 Y-10.4469
G01 X41.3717 Y-10.4350
G01 X41.3604 Y-10.4245
G01 X41.3470 Y-10.4167
G01 X41.3323 Y-10.4120
G01 X41.3195 Y-10.4107
G01 X41.2299 Y-10.4107
G01 X41.2205 Y-10.4115
G01 X41.2103 Y-10.4138
G01 X40.3474 Y-10.7493
G01 X40.3346 Y-10.7561
G01 X40.3234 Y-10.7654
G01 X40.3149 Y-10.7761
G01 X40.3089 Y-10.7875
G01 X40.3051 Y-10.7998
G01 X40.3036 Y-10.8125
G01 X40.3036 Y-11.5455
G01 X38.7436 Y-11.5455
G01 X38.7436 Y-9.8855
G01 X40.3036 Y-9.8855
G01 X40.3038 Y-9.9605
G01 X40.3061 Y-9.9741
G01 X40.3115 Y-9.9876
G01 X40.3164 Y-9.9957
G01 X40.3230 Y-10.0037
G01 X40.3306 Y-10.0106
G01 X40.3384 Y-10.0159
G01 X40.3469 Y-10.0201
G01 X40.3567 Y-10.0233
G01 X40.3669 Y-10.0250
G01 X40.3772 Y-10.0253
G01 X40.3874 Y-10.0240
G01 X40.3982 Y-10.0209
G01 X41.0352 Y-9.7731
G01 X41.0650 Y-9.7630
G01 X41.0948 Y-9.7560
G01 X41.1099 Y-9.7535
G01 X41.1404 Y-9.7507
G01 X41.3208 Y-9.7503
G01 X41.3327 Y-9.7490
G01 X41.3450 Y-9.7453
G01 X41.3558 Y-9.7399
G01 X41.3661 Y-9.7322
G01 X41.3931 Y-9.7051
G01 X41.4014 Y-9.6942
G01 X41.4074 Y-9.6819
G01 X41.4111 Y-9.6678
G01 X41.4117 Y-9.6541
G01 X41.4097 Y-9.6405
G01 X41.4040 Y-9.6253
G01 X41.3995 Y-9.6179
G01 X41.3943 Y-9.6111
G01 X41.2284 Y-9.4449
G01 X41.2203 Y-9.4350
G01 X41.2132 Y-9.4244
G01 X41.2046 Y-9.4073
G01 X41.2003 Y-9.3953
G01 X41.1972 Y-9.3829
G01 X41.1949 Y-9.3639
G01 X41.1949 Y-9.1511
G01 X41.1972 Y-9.1321
G01 X41.2003 Y-9.1197
G01 X41.2046 Y-9.1079
G01 X41.2132 Y-9.0906
G01 X41.2242 Y-9.0750
G01 X41.2334 Y-9.0649
G01 X41.3919 Y-8.9064
G01 X41.4009 Y-8.8950
G01 X41.4054 Y-8.8867
G01 X41.4088 Y-8.8778
G01 X41.4109 Y-8.8686
G01 X41.4118 Y-8.8592
G01 X41.4114 Y-8.8498
G01 X41.4097 Y-8.8405
G01 X41.4068 Y-8.8315
G01 X41.4030 Y-8.8234
G01 X41.5013 Y-8.8235
G01 X41.5128 Y-8.8265
G01 X41.5248 Y-8.8275
G01 X42.6248 Y-8.8275
G01 X42.6368 Y-8.8265
G01 X42.6483 Y-8.8234
G01 X42.7467 Y-8.8234
G01 X42.7404 Y-8.8388
G01 X42.7379 Y-8.8549
G01 X42.7391 Y-8.8712
G01 X42.7413 Y-8.8795
G01 X42.7445 Y-8.8875
G01 X42.7496 Y-8.8964
G01 X42.7559 Y-8.9045
G01 X42.8162 Y-8.9650
G01 X42.8254 Y-8.9751
G01 X42.8330 Y-8.9854
G01 X42.8424 Y-9.0020
G01 X42.8493 Y-9.0199
G01 X42.8535 Y-9.0385
G01 X42.8547 Y-9.0512
G01 X42.8549 Y-9.4566
G01 X42.8543 Y-9.4702
G01 X42.8524 Y-9.4829
G01 X42.8493 Y-9.4953
G01 X42.8450 Y-9.5073
G01 X42.8364 Y-9.5244
G01 X42.8293 Y-9.5350
G01 X42.8162 Y-9.5501
G01 X42.7571 Y-9.6092
G01 X42.7491 Y-9.6193
G01 X42.7441 Y-9.6283
G01 X42.7406 Y-9.6380
G01 X42.7385 Y-9.6472
G01 X42.7378 Y-9.6575
G01 X42.7387 Y-9.6686
G01 X42.7413 Y-9.6795
G01 X42.7456 Y-9.6897
G01 X42.7516 Y-9.6992
G01 X42.7577 Y-9.7064
G01 X42.8212 Y-9.7701
G01 X42.8293 Y-9.7800
G01 X42.8364 Y-9.7906
G01 X42.8450 Y-9.8077
G01 X42.8493 Y-9.8197
G01 X42.8524 Y-9.8321
G01 X42.8543 Y-9.8448
G01 X42.8549 Y-9.8584
G01 X42.8549 Y-10.2566
G01 X42.8543 Y-10.2702
G01 X42.8524 Y-10.2829
G01 X42.8493 Y-10.2953
G01 X42.8450 Y-10.3073
G01 X42.8364 Y-10.3244
G01 X42.8293 Y-10.3350
G01 X42.8162 Y-10.3501
G01 X42.7571 Y-10.4092
G01 X42.7491 Y-10.4193
G01 X42.7441 Y-10.4283
G01 X42.7408 Y-10.4372
G01 X42.7385 Y-10.4472
G01 X42.7378 Y-10.4575
G01 X42.7385 Y-10.4678
G01 X42.7408 Y-10.4778
G01 X42.7441 Y-10.4867
G01 X42.7491 Y-10.4957
G01 X42.7571 Y-10.5058
G01 X42.8162 Y-10.5649
G01 X42.8293 Y-10.5800
G01 X42.8364 Y-10.5906
G01 X42.8450 Y-10.6077
G01 X42.8493 Y-10.6197
G01 X42.8524 Y-10.6321
G01 X42.8543 Y-10.6448
G01 X42.8549 Y-10.6584
G01 X42.8549 Y-11.0566
G01 X42.8543 Y-11.0702
G01 X42.8524 Y-11.0829
G01 X42.8473 Y-11.1013
G01 X42.8395 Y-11.1188
G01 X42.8293 Y-11.1350
G01 X42.8162 Y-11.1501
G01 X42.7174 Y-11.2489
G01 X42.7073 Y-11.2581
G01 X42.6971 Y-11.2657
G01 X42.6861 Y-11.2722
G01 X42.6746 Y-11.2777
G01 X42.6626 Y-11.2820
G01 X42.6439 Y-11.2862
G01 X42.6240 Y-11.2876
G01 X42.1092 Y-11.2877
G01 X42.0990 Y-11.2888
G01 X42.0890 Y-11.2915
G01 X42.0788 Y-11.2959
G01 X42.0701 Y-11.3014
G01 X42.0623 Y-11.3081
G01 X40.4648 Y-12.9050
G01 X40.4398 Y-12.9255
G01 X40.4265 Y-12.9348
G01 X40.3987 Y-12.9515
G01 X40.3843 Y-12.9588
G01 X40.3694 Y-12.9653
G01 X40.3389 Y-12.9763
G01 X40.3075 Y-12.9841
G01 X40.2915 Y-12.9869
G01 X40.2593 Y-12.9901
G01 X40.2422 Y-12.9905
G01 X29.1315 Y-12.9905
G01 X29.0982 Y-12.9889
G01 X29.0662 Y-12.9841
G01 X29.0348 Y-12.9763
G01 X29.0194 Y-12.9712
G01 X29.0042 Y-12.9653
G01 X28.9750 Y-12.9515
G01 X28.9472 Y-12.9348
G01 X28.9339 Y-12.9255
G01 X28.9089 Y-12.9049
G01 X28.8965 Y-12.8932
G01 X25.5640 Y-9.5607
G01 X25.5523 Y-9.5483
G01 X25.5317 Y-9.5233
G01 X25.5224 Y-9.5100
G01 X25.5057 Y-9.4822
G01 X25.4919 Y-9.4530
G01 X25.4809 Y-9.4224
G01 X25.4766 Y-9.4068
G01 X25.4703 Y-9.3750
G01 X25.4683 Y-9.3590
G01 X25.4667 Y-9.3257
G01 X25.4667 Y-6.4821
G01 X25.4652 Y-6.4685
G01 X25.4610 Y-6.4554
G01 X25.4544 Y-6.4434
G01 X25.4456 Y-6.4329
G01 X25.4356 Y-6.4248
G01 X25.4243 Y-6.4187
G01 X25.4120 Y-6.4147
G01 X25.3993 Y-6.4130
G01 X24.9244 Y-6.4130
G01 X24.9243 Y-6.1964
G01 X24.9234 Y-6.1878
G01 X24.9211 Y-6.1787
G01 X24.9177 Y-6.1699
G01 X24.9135 Y-6.1624
G01 X24.9045 Y-6.1509
G01 X24.8933 Y-6.1416
G01 X24.8795 Y-6.1345
G01 X24.8655 Y-6.1307
G01 X24.8552 Y-6.1298
G01 X24.7708 Y-6.1300
G01 X24.7581 Y-6.1316
G01 X24.7467 Y-6.1353
G01 X24.7375 Y-6.1399
G01 X24.7284 Y-6.1464
G01 X24.7205 Y-6.1542
G01 X24.7139 Y-6.1632
G01 X24.7095 Y-6.1715
G01 X24.6824 Y-6.2340
G01 X24.6575 Y-6.2836
G01 X24.6301 Y-6.3318
G01 X24.6004 Y-6.3787
G01 X24.5685 Y-6.4240
G01 X24.5344 Y-6.4678
G01 X24.4982 Y-6.5097
G01 X24.4599 Y-6.5499
G01 X24.4197 Y-6.5882
G01 X24.3778 Y-6.6244
G01 X24.3340 Y-6.6585
G01 X24.2887 Y-6.6904
G01 X24.2418 Y-6.7201
G01 X24.1936 Y-6.7475
G01 X24.1440 Y-6.7724
G01 X24.0933 Y-6.7949
G01 X24.0416 Y-6.8148
G01 X23.9889 Y-6.8322
G01 X23.9553 Y-6.8415
G01 X23.9457 Y-6.8453
G01 X23.9360 Y-6.8508
G01 X23.9280 Y-6.8572
G01 X23.9204 Y-6.8655
G01 X23.9143 Y-6.8748
G01 X23.9100 Y-6.8841
G01 X23.9071 Y-6.8940
G01 X23.9057 Y-6.9042
G01 X23.9059 Y-6.9145
G01 X23.9075 Y-6.9247
G01 X23.9106 Y-6.9345
G01 X23.9151 Y-6.9438
G01 X23.9210 Y-6.9523
G01 X24.1984 Y-7.2303
G01 X24.0852 Y-7.3435
G01 X23.7086 Y-6.9669
G01 X23.6984 Y-6.9591
G01 X23.6870 Y-6.9532
G01 X23.6747 Y-6.9495
G01 X23.6610 Y-6.9482
G01 X23.6482 Y-6.9494
G01 X23.6358 Y-6.9529
G01 X23.6243 Y-6.9586
G01 X23.6134 Y-6.9669
G01 X23.2367 Y-7.3435
G00 Z2.0000
G00 X23.2367 Y-7.2445
G01 F70.00
G01 Z-0.0600
G01 F120.00
G01 X23.2225 Y-7.2303
G01 X23.4465 Y-7.0063
G01 X23.4556 Y-6.9961
G01 X23.4646 Y-6.9835
G01 X23.4721 Y-6.9700
G01 X23.4781 Y-6.9557
G01 X23.4825 Y-6.9409
G01 X23.4853 Y-6.9257
G01 X23.4863 Y-6.9103
G01 X23.4857 Y-6.8949
G01 X23.4833 Y-6.8796
G01 X23.4793 Y-6.8647
G01 X23.4750 Y-6.8534
G01 X23.4690 Y-6.8411
G01 X23.4627 Y-6.8308
G01 X23.4556 Y-6.8211
G01 X23.4477 Y-6.8120
G01 X23.4378 Y-6.8026
G01 X23.4283 Y-6.7951
G01 X23.4183 Y-6.7885
G01 X23.4062 Y-6.7820
G01 X23.3935 Y-6.7768
G01 X23.3532 Y-6.7652
G01 X23.3038 Y-6.7489
G01 X23.2553 Y-6.7302
G01 X23.2077 Y-6.7091
G01 X23.1612 Y-6.6857
G01 X23.1160 Y-6.6601
G01 X23.0720 Y-6.6322
G01 X23.0295 Y-6.6023
G01 X22.9885 Y-6.5703
G01 X22.9491 Y-6.5363
G01 X22.9114 Y-6.5004
G01 X22.8755 Y-6.4627
G01 X22.8415 Y-6.4233
G01 X22.8095 Y-6.3823
G01 X22.7796 Y-6.3398
G01 X22.7517 Y-6.2958
G01 X22.7261 Y-6.2506
G01 X22.7027 Y-6.2041
G01 X22.6816 Y-6.1565
G01 X22.6629 Y-6.1080
G01 X22.6466 Y-6.0586
G01 X22.6327 Y-6.0084
G01 X22.6213 Y-5.9577
G01 X22.6124 Y-5.9064
G01 X22.6060 Y-5.8548
G01 X22.6022 Y-5.8029
G01 X22.6009 Y-5.7509
G01 X22.6022 Y-5.6989
G01 X22.6060 Y-5.6470
G01 X22.6124 Y-5.5954
G01 X22.6213 Y-5.5441
G01 X22.6327 Y-5.4934
G01 X22.6466 Y-5.4432
G01 X22.6629 Y-5.3938
G01 X22.6816 Y-5.3453
G01 X22.7027 Y-5.2977
G01 X22.7261 Y-5.2512
G01 X22.7517 Y-5.2060
G01 X22.7796 Y-5.1620
G01 X22.8095 Y-5.1195
G01 X22.8415 Y-5.0785
G01 X22.8755 Y-5.0391
G01 X22.9114 Y-5.0014
G01 X22.9491 Y-4.9655
G01 X22.9885 Y-4.9315
G01 X23.0295 Y-4.8995
G01 X23.0720 Y-4.8696
G01 X23.1160 Y-4.8417
G01 X23.1612 Y-4.8161
G01 X23.2077 Y-4.7927
G01 X23.2553 Y-4.7716
G01 X23.3038 Y-4.7529
G01 X23.3532 Y-4.7366
G01 X23.4034 Y-4.7227
G01 X23.4541 Y-4.7113
G01 X23.5054 Y-4.7024
G01 X23.5570 Y-4.6960
G01 X23.6089 Y-4.6922
G01 X23.6609 Y-4.6909
G01 X23.7129 Y-4.6922
G01 X23.7648 Y-4.6960
G01 X23.8164 Y-4.7024
G01 X23.8677 Y-4.7113
G01 X23.9184 Y-4.7227
G01 X23.9686 Y-4.7366
G01 X24.0180 Y-4.7529
G01 X24.0665 Y-4.7716
G01 X24.1141 Y-4.7927
G01 X24.1606 Y-4.8161
G01 X24.2058 Y-4.8417
G01 X24.2498 Y-4.8696
G01 X24.2923 Y-4.8995
G01 X24.3333 Y-4.9315
G01 X24.3727 Y-4.9655
G01 X24.4104 Y-5.0014
G01 X24.4463 Y-5.0391
G01 X24.4803 Y-5.0785
G01 X24.5123 Y-5.1195
G01 X24.5422 Y-5.1620
G01 X24.5701 Y-5.2060
G01 X24.5957 Y-5.2512
G01 X24.6191 Y-5.2977
G01 X24.6462 Y-5.3597
G01 X24.6244 Y-5.3597
G01 X24.5995 Y-5.3032
G01 X24.5781 Y-5.2606
G01 X24.5511 Y-5.2133
G01 X24.5257 Y-5.1732
G01 X24.4962 Y-5.1314
G01 X24.4648 Y-5.0911
G01 X24.4315 Y-5.0525
G01 X24.3938 Y-5.0131
G01 X24.3593 Y-4.9803
G01 X24.3207 Y-4.9470
G01 X24.2776 Y-4.9136
G01 X24.2387 Y-4.8862
G01 X24.1985 Y-4.8607
G01 X24.1481 Y-4.8321
G01 X24.1060 Y-4.8110
G01 X24.0589 Y-4.7901
G01 X24.0116 Y-4.7718
G01 X23.9661 Y-4.7567
G01 X23.9136 Y-4.7421
G01 X23.8604 Y-4.7303
G01 X23.8135 Y-4.7222
G01 X23.7628 Y-4.7159
G01 X23.7085 Y-4.7120
G01 X23.6609 Y-4.7109
G01 X23.6099 Y-4.7122
G01 X23.5590 Y-4.7159
G01 X23.5117 Y-4.7217
G01 X23.4580 Y-4.7309
G01 X23.4082 Y-4.7421
G01 X23.3623 Y-4.7547
G01 X23.3073 Y-4.7729
G01 X23.2631 Y-4.7900
G01 X23.2168 Y-4.8105
G01 X23.1706 Y-4.8337
G01 X23.1292 Y-4.8571
G01 X23.0805 Y-4.8879
G01 X23.0414 Y-4.9156
G01 X23.0038 Y-4.9448
G01 X22.9600 Y-4.9826
G01 X22.9255 Y-5.0155
G01 X22.8903 Y-5.0525
G01 X22.8570 Y-5.0911
G01 X22.8276 Y-5.1286
G01 X22.7962 Y-5.1731
G01 X22.7671 Y-5.2192
G01 X22.7437 Y-5.2606
G01 X22.7210 Y-5.3058
G01 X22.7001 Y-5.3529
G01 X22.6829 Y-5.3973
G01 X22.6652 Y-5.4505
G01 X22.6521 Y-5.4982
G01 X22.6409 Y-5.5480
G01 X22.6322 Y-5.5983
G01 X22.6259 Y-5.6490
G01 X22.6222 Y-5.6999
G01 X22.6209 Y-5.7509
G01 X22.6222 Y-5.8019
G01 X22.6259 Y-5.8528
G01 X22.6322 Y-5.9035
G01 X22.6409 Y-5.9538
G01 X22.6521 Y-6.0036
G01 X22.6657 Y-6.0528
G01 X22.6819 Y-6.1017
G01 X22.7000 Y-6.1487
G01 X22.7205 Y-6.1950
G01 X22.7421 Y-6.2381
G01 X22.7690 Y-6.2858
G01 X22.7961 Y-6.3286
G01 X22.8256 Y-6.3704
G01 X22.8548 Y-6.4080
G01 X22.8903 Y-6.4493
G01 X22.9231 Y-6.4838
G01 X22.9651 Y-6.5238
G01 X23.0011 Y-6.5548
G01 X23.0414 Y-6.5862
G01 X23.0831 Y-6.6156
G01 X23.1265 Y-6.6431
G01 X23.1706 Y-6.6681
G01 X23.2158 Y-6.6908
G01 X23.2629 Y-6.7117
G01 X23.3120 Y-6.7306
G01 X23.3589 Y-6.7461
G01 X23.4082 Y-6.7597
G01 X23.4580 Y-6.7709
G01 X23.5083 Y-6.7796
G01 X23.5590 Y-6.7859
G01 X23.6099 Y-6.7896
G01 X23.6609 Y-6.7909
G01 X23.7085 Y-6.7898
G01 X23.7628 Y-6.7859
G01 X23.8135 Y-6.7796
G01 X23.8638 Y-6.7709
G01 X23.9103 Y-6.7605
G01 X23.9661 Y-6.7451
G01 X24.0117 Y-6.7299
