(G-CODE GENERATED BY FLATCAM v8.993 - www.flatcam.org - Version Date: 2020/06/05)

(Name: 133u02_Ф2_низ.gbr_iso_combined_cutoff_cnc)
(Type: G-code from Geometry)
(Units: MM)

(Created on Wednesday, 11 November 2020 at 00:35)

(This preprocessor is the default preprocessor used by FlatCAM.)
(It is made to work with MACH3 compatible motion controllers.)

(TOOL DIAMETER: 2.0 mm)
(Feedrate_XY: 120.0 mm/min)
(Feedrate_Z: 70.0 mm/min)
(Feedrate rapids 1500.0 mm/min)

(Z_Cut: -1.7 mm)
(DepthPerCut: 0.1 mm <=>17 passes)
(Z_Move: 2.0 mm)
(Z Start: None mm)
(Z End: 25.0 mm)
(Steps per circle: 128)
(Preprocessor Geometry: default)

(X range:  -99.2792 ...    0.9208  mm)
(Y range:  -34.1396 ...    0.9604  mm)

(Spindle Speed: 10000 RPM)
G21
G90
G94



G01 F120.00
G00 Z2.0000

M03 S10000
G00 X-98.2792 Y-14.6611
G01 F70.00
G01 Z-0.1000
G01 F120.00
G01 X-72.8607 Y-14.6611
G01 X-71.3899 Y-14.9186
G01 X-70.1233 Y-15.2804
G01 X-68.4249 Y-16.1479
G01 X-67.5994 Y-16.8705
G01 X-66.3875 Y-18.3027
G01 X-65.7543 Y-19.4634
G01 X-65.3609 Y-20.7159
G01 X-65.1437 Y-22.0566
G01 X-65.1437 Y-33.1396
G01 X-65.1430 Y-33.1764
G01 X-65.1410 Y-33.2132
G01 X-65.1376 Y-33.2498
G01 X-65.1329 Y-33.2863
G01 X-65.1268 Y-33.3226
G01 X-65.1194 Y-33.3587
G01 X-65.1107 Y-33.3945
G01 X-65.0970 Y-33.4416
G01 X-65.0853 Y-33.4765
G01 X-65.0722 Y-33.5109
G01 X-65.0579 Y-33.5448
G01 X-65.0424 Y-33.5782
G01 X-65.0256 Y-33.6110
G01 X-65.0077 Y-33.6431
G01 X-64.9886 Y-33.6746
G01 X-64.9683 Y-33.7053
G01 X-64.9469 Y-33.7353
G01 X-64.9167 Y-33.7740
G01 X-64.8929 Y-33.8020
G01 X-64.8680 Y-33.8291
G01 X-64.8421 Y-33.8553
G01 X-64.8153 Y-33.8806
G01 X-64.7876 Y-33.9048
G01 X-64.7492 Y-33.9354
G01 X-64.7195 Y-33.9572
G01 X-64.6890 Y-33.9778
G01 X-64.6578 Y-33.9973
G01 X-64.6259 Y-34.0157
G01 X-64.5933 Y-34.0328
G01 X-64.5602 Y-34.0488
G01 X-64.5264 Y-34.0635
G01 X-64.4921 Y-34.0769
G01 X-64.4574 Y-34.0891
G01 X-64.4104 Y-34.1034
G01 X-64.3748 Y-34.1125
G01 X-64.3388 Y-34.1204
G01 X-64.2783 Y-34.1305
G01 X-64.2173 Y-34.1369
G01 X-64.1805 Y-34.1389
G01 X-64.1437 Y-34.1396
G01 X-29.0823 Y-34.1396
G01 X-29.0455 Y-34.1389
G01 X-29.0087 Y-34.1369
G01 X-28.9721 Y-34.1335
G01 X-28.9355 Y-34.1288
G01 X-28.8872 Y-34.1204
G01 X-28.8512 Y-34.1125
G01 X-28.8156 Y-34.1034
G01 X-28.7803 Y-34.0929
G01 X-28.7454 Y-34.0811
G01 X-28.6996 Y-34.0635
G01 X-28.6659 Y-34.0488
G01 X-28.6217 Y-34.0272
G01 X-28.5894 Y-34.0097
G01 X-28.5473 Y-33.9845
G01 X-28.5065 Y-33.9572
G01 X-28.4768 Y-33.9354
G01 X-28.4479 Y-33.9126
G01 X-28.4107 Y-33.8806
G01 X-28.3752 Y-33.8467
G01 X-28.3496 Y-33.8202
G01 X-28.3251 Y-33.7928
G01 X-28.2939 Y-33.7548
G01 X-28.2647 Y-33.7154
G01 X-28.2441 Y-33.6849
G01 X-28.2246 Y-33.6537
G01 X-28.2004 Y-33.6110
G01 X-28.1836 Y-33.5782
G01 X-28.1681 Y-33.5449
G01 X-28.1493 Y-33.4995
G01 X-28.1367 Y-33.4649
G01 X-28.1253 Y-33.4299
G01 X-28.1122 Y-33.3826
G01 X-28.1015 Y-33.3347
G01 X-28.0950 Y-33.2985
G01 X-28.0884 Y-33.2498
G01 X-28.0850 Y-33.2132
G01 X-28.0830 Y-33.1764
G01 X-28.0823 Y-33.1396
G01 X-28.0821 Y-22.0541
G01 X-27.8646 Y-20.7138
G01 X-27.4716 Y-19.4635
G01 X-26.8384 Y-18.3027
G01 X-25.6249 Y-16.8688
G01 X-24.7999 Y-16.1471
G01 X-23.1027 Y-15.2804
G01 X-21.8361 Y-14.9186
G01 X-20.3653 Y-14.6611
G01 X-0.0669 Y-14.6610
G01 X-0.0179 Y-14.6592
G01 X0.0432 Y-14.6536
G01 X0.0918 Y-14.6464
G01 X0.1519 Y-14.6341
G01 X0.1993 Y-14.6216
G01 X0.2577 Y-14.6027
G01 X0.3035 Y-14.5850
G01 X0.3484 Y-14.5651
G01 X0.4030 Y-14.5372
G01 X0.4454 Y-14.5125
G01 X0.4865 Y-14.4857
G01 X0.5263 Y-14.4570
G01 X0.5646 Y-14.4263
G01 X0.6014 Y-14.3938
G01 X0.6450 Y-14.3507
G01 X0.6780 Y-14.3143
G01 X0.7091 Y-14.2764
G01 X0.7313 Y-14.2469
G01 X0.7590 Y-14.2064
G01 X0.7848 Y-14.1647
G01 X0.8084 Y-14.1217
G01 X0.8248 Y-14.0887
G01 X0.8447 Y-14.0438
G01 X0.8581 Y-14.0095
G01 X0.8703 Y-13.9748
G01 X0.8846 Y-13.9278
G01 X0.8937 Y-13.8922
G01 X0.9039 Y-13.8442
G01 X0.9117 Y-13.7957
G01 X0.9160 Y-13.7591
G01 X0.9189 Y-13.7224
G01 X0.9207 Y-13.6734
G01 X0.9208 Y-0.0396
G01 X0.9201 Y-0.0028
G01 X0.9181 Y0.0340
G01 X0.9147 Y0.0706
G01 X0.9100 Y0.1071
G01 X0.9016 Y0.1555
G01 X0.8937 Y0.1915
G01 X0.8846 Y0.2271
G01 X0.8703 Y0.2741
G01 X0.8581 Y0.3088
G01 X0.8399 Y0.3544
G01 X0.8248 Y0.3880
G01 X0.8027 Y0.4318
G01 X0.7785 Y0.4745
G01 X0.7590 Y0.5057
G01 X0.7313 Y0.5462
G01 X0.7015 Y0.5853
G01 X0.6699 Y0.6228
G01 X0.6450 Y0.6499
G01 X0.6192 Y0.6761
G01 X0.5832 Y0.7095
G01 X0.5552 Y0.7334
G01 X0.5165 Y0.7636
G01 X0.4764 Y0.7919
G01 X0.4454 Y0.8118
G01 X0.4030 Y0.8365
G01 X0.3704 Y0.8536
G01 X0.3260 Y0.8746
G01 X0.2807 Y0.8934
G01 X0.2345 Y0.9099
G01 X0.1875 Y0.9242
G01 X0.1399 Y0.9361
G01 X0.1038 Y0.9435
G01 X0.0554 Y0.9513
G01 X0.0188 Y0.9556
G01 X-0.0179 Y0.9585
G01 X-0.0669 Y0.9603
G01 X-98.2792 Y0.9604
G01 X-98.3160 Y0.9597
G01 X-98.3528 Y0.9577
G01 X-98.3894 Y0.9543
G01 X-98.4259 Y0.9496
G01 X-98.4743 Y0.9412
G01 X-98.5103 Y0.9333
G01 X-98.5459 Y0.9242
G01 X-98.5929 Y0.9099
G01 X-98.6391 Y0.8934
G01 X-98.6732 Y0.8795
G01 X-98.7068 Y0.8644
G01 X-98.7506 Y0.8423
G01 X-98.7933 Y0.8181
G01 X-98.8245 Y0.7986
G01 X-98.8550 Y0.7780
G01 X-98.8944 Y0.7487
G01 X-98.9230 Y0.7256
G01 X-98.9598 Y0.6931
G01 X-98.9949 Y0.6588
G01 X-99.0202 Y0.6320
G01 X-99.0444 Y0.6042
G01 X-99.0750 Y0.5659
G01 X-99.1038 Y0.5261
G01 X-99.1241 Y0.4954
G01 X-99.1432 Y0.4639
G01 X-99.1668 Y0.4209
G01 X-99.1884 Y0.3768
G01 X-99.2031 Y0.3431
G01 X-99.2165 Y0.3088
G01 X-99.2325 Y0.2624
G01 X-99.2462 Y0.2153
G01 X-99.2549 Y0.1795
G01 X-99.2623 Y0.1434
G01 X-99.2684 Y0.1071
G01 X-99.2744 Y0.0584
G01 X-99.2773 Y0.0217
G01 X-99.2792 Y-0.0396
G01 X-99.2791 Y-13.6734
G01 X-99.2773 Y-13.7224
G01 X-99.2731 Y-13.7713
G01 X-99.2665 Y-13.8200
G01 X-99.2575 Y-13.8682
G01 X-99.2462 Y-13.9160
G01 X-99.2325 Y-13.9631
G01 X-99.2165 Y-14.0095
G01 X-99.1983 Y-14.0551
G01 X-99.1779 Y-14.0997
G01 X-99.1553 Y-14.1433
G01 X-99.1306 Y-14.1857
G01 X-99.1038 Y-14.2269
G01 X-99.0750 Y-14.2666
G01 X-99.0522 Y-14.2955
G01 X-99.0202 Y-14.3327
G01 X-98.9863 Y-14.3682
G01 X-98.9508 Y-14.4021
G01 X-98.9136 Y-14.4341
G01 X-98.8749 Y-14.4643
G01 X-98.8348 Y-14.4926
G01 X-98.7933 Y-14.5189
G01 X-98.7506 Y-14.5430
G01 X-98.7068 Y-14.5651
G01 X-98.6619 Y-14.5850
G01 X-98.6161 Y-14.6027
G01 X-98.5695 Y-14.6181
G01 X-98.5222 Y-14.6312
G01 X-98.4743 Y-14.6419
G01 X-98.4259 Y-14.6503
G01 X-98.3772 Y-14.6563
G01 X-98.3283 Y-14.6599
G01 X-98.2792 Y-14.6611
G00 X-98.2792 Y-14.6611
G01 F70.00
G01 Z-0.2000
G01 F120.00
G01 X-72.8607 Y-14.6611
G01 X-71.3899 Y-14.9186
G01 X-70.1233 Y-15.2804
G01 X-68.4249 Y-16.1479
G01 X-67.5994 Y-16.8705
G01 X-66.3875 Y-18.3027
G01 X-65.7543 Y-19.4634
G01 X-65.3609 Y-20.7159
G01 X-65.1437 Y-22.0566
G01 X-65.1437 Y-33.1396
G01 X-65.1430 Y-33.1764
G01 X-65.1410 Y-33.2132
G01 X-65.1376 Y-33.2498
G01 X-65.1329 Y-33.2863
G01 X-65.1268 Y-33.3226
G01 X-65.1194 Y-33.3587
G01 X-65.1107 Y-33.3945
G01 X-65.0970 Y-33.4416
G01 X-65.0853 Y-33.4765
G01 X-65.0722 Y-33.5109
G01 X-65.0579 Y-33.5448
G01 X-65.0424 Y-33.5782
G01 X-65.0256 Y-33.6110
G01 X-65.0077 Y-33.6431
G01 X-64.9886 Y-33.6746
G01 X-64.9683 Y-33.7053
G01 X-64.9469 Y-33.7353
G01 X-64.9167 Y-33.7740
G01 X-64.8929 Y-33.8020
G01 X-64.8680 Y-33.8291
G01 X-64.8421 Y-33.8553
G01 X-64.8153 Y-33.8806
G01 X-64.7876 Y-33.9048
G01 X-64.7492 Y-33.9354
G01 X-64.7195 Y-33.9572
G01 X-64.6890 Y-33.9778
G01 X-64.6578 Y-33.9973
G01 X-64.6259 Y-34.0157
G01 X-64.5933 Y-34.0328
G01 X-64.5602 Y-34.0488
G01 X-64.5264 Y-34.0635
G01 X-64.4921 Y-34.0769
G01 X-64.4574 Y-34.0891
G01 X-64.4104 Y-34.1034
G01 X-64.3748 Y-34.1125
G01 X-64.3388 Y-34.1204
G01 X-64.2783 Y-34.1305
G01 X-64.2173 Y-34.1369
G01 X-64.1805 Y-34.1389
G01 X-64.1437 Y-34.1396
G01 X-29.0823 Y-34.1396
G01 X-29.0455 Y-34.1389
G01 X-29.0087 Y-34.1369
G01 X-28.9721 Y-34.1335
G01 X-28.9355 Y-34.1288
G01 X-28.8872 Y-34.1204
G01 X-28.8512 Y-34.1125
G01 X-28.8156 Y-34.1034
G01 X-28.7803 Y-34.0929
G01 X-28.7454 Y-34.0811
G01 X-28.6996 Y-34.0635
G01 X-28.6659 Y-34.0488
G01 X-28.6217 Y-34.0272
G01 X-28.5894 Y-34.0097
G01 X-28.5473 Y-33.9845
G01 X-28.5065 Y-33.9572
G01 X-28.4768 Y-33.9354
G01 X-28.4479 Y-33.9126
G01 X-28.4107 Y-33.8806
G01 X-28.3752 Y-33.8467
G01 X-28.3496 Y-33.8202
G01 X-28.3251 Y-33.7928
G01 X-28.2939 Y-33.7548
G01 X-28.2647 Y-33.7154
G01 X-28.2441 Y-33.6849
G01 X-28.2246 Y-33.6537
G01 X-28.2004 Y-33.6110
G01 X-28.1836 Y-33.5782
G01 X-28.1681 Y-33.5449
G01 X-28.1493 Y-33.4995
G01 X-28.1367 Y-33.4649
G01 X-28.1253 Y-33.4299
G01 X-28.1122 Y-33.3826
G01 X-28.1015 Y-33.3347
G01 X-28.0950 Y-33.2985
G01 X-28.0884 Y-33.2498
G01 X-28.0850 Y-33.2132
G01 X-28.0830 Y-33.1764
G01 X-28.0823 Y-33.1396
G01 X-28.0821 Y-22.0541
G01 X-27.8646 Y-20.7138
G01 X-27.4716 Y-19.4635
G01 X-26.8384 Y-18.3027
G01 X-25.6249 Y-16.8688
G01 X-24.7999 Y-16.1471
G01 X-23.1027 Y-15.2804
G01 X-21.8361 Y-14.9186
G01 X-20.3653 Y-14.6611
G01 X-0.0669 Y-14.6610
G01 X-0.0179 Y-14.6592
G01 X0.0432 Y-14.6536
G01 X0.0918 Y-14.6464
G01 X0.1519 Y-14.6341
G01 X0.1993 Y-14.6216
G01 X0.2577 Y-14.6027
G01 X0.3035 Y-14.5850
G01 X0.3484 Y-14.5651
G01 X0.4030 Y-14.5372
G01 X0.4454 Y-14.5125
G01 X0.4865 Y-14.4857
G01 X0.5263 Y-14.4570
G01 X0.5646 Y-14.4263
G01 X0.6014 Y-14.3938
G01 X0.6450 Y-14.3507
G01 X0.6780 Y-14.3143
G01 X0.7091 Y-14.2764
G01 X0.7313 Y-14.2469
G01 X0.7590 Y-14.2064
G01 X0.7848 Y-14.1647
G01 X0.8084 Y-14.1217
G01 X0.8248 Y-14.0887
G01 X0.8447 Y-14.0438
G01 X0.8581 Y-14.0095
G01 X0.8703 Y-13.9748
G01 X0.8846 Y-13.9278
G01 X0.8937 Y-13.8922
G01 X0.9039 Y-13.8442
G01 X0.9117 Y-13.7957
G01 X0.9160 Y-13.7591
G01 X0.9189 Y-13.7224
G01 X0.9207 Y-13.6734
G01 X0.9208 Y-0.0396
G01 X0.9201 Y-0.0028
G01 X0.9181 Y0.0340
G01 X0.9147 Y0.0706
G01 X0.9100 Y0.1071
G01 X0.9016 Y0.1555
G01 X0.8937 Y0.1915
G01 X0.8846 Y0.2271
G01 X0.8703 Y0.2741
G01 X0.8581 Y0.3088
G01 X0.8399 Y0.3544
G01 X0.8248 Y0.3880
G01 X0.8027 Y0.4318
G01 X0.7785 Y0.4745
G01 X0.7590 Y0.5057
G01 X0.7313 Y0.5462
G01 X0.7015 Y0.5853
G01 X0.6699 Y0.6228
G01 X0.6450 Y0.6499
G01 X0.6192 Y0.6761
G01 X0.5832 Y0.7095
G01 X0.5552 Y0.7334
G01 X0.5165 Y0.7636
G01 X0.4764 Y0.7919
G01 X0.4454 Y0.8118
G01 X0.4030 Y0.8365
G01 X0.3704 Y0.8536
G01 X0.3260 Y0.8746
G01 X0.2807 Y0.8934
G01 X0.2345 Y0.9099
G01 X0.1875 Y0.9242
G01 X0.1399 Y0.9361
G01 X0.1038 Y0.9435
G01 X0.0554 Y0.9513
G01 X0.0188 Y0.9556
G01 X-0.0179 Y0.9585
G01 X-0.0669 Y0.9603
G01 X-98.2792 Y0.9604
G01 X-98.3160 Y0.9597
G01 X-98.3528 Y0.9577
G01 X-98.3894 Y0.9543
G01 X-98.4259 Y0.9496
G01 X-98.4743 Y0.9412
G01 X-98.5103 Y0.9333
G01 X-98.5459 Y0.9242
G01 X-98.5929 Y0.9099
G01 X-98.6391 Y0.8934
G01 X-98.6732 Y0.8795
G01 X-98.7068 Y0.8644
G01 X-98.7506 Y0.8423
G01 X-98.7933 Y0.8181
G01 X-98.8245 Y0.7986
G01 X-98.8550 Y0.7780
G01 X-98.8944 Y0.7487
G01 X-98.9230 Y0.7256
G01 X-98.9598 Y0.6931
G01 X-98.9949 Y0.6588
G01 X-99.0202 Y0.6320
G01 X-99.0444 Y0.6042
G01 X-99.0750 Y0.5659
G01 X-99.1038 Y0.5261
G01 X-99.1241 Y0.4954
G01 X-99.1432 Y0.4639
G01 X-99.1668 Y0.4209
G01 X-99.1884 Y0.3768
G01 X-99.2031 Y0.3431
G01 X-99.2165 Y0.3088
G01 X-99.2325 Y0.2624
G01 X-99.2462 Y0.2153
G01 X-99.2549 Y0.1795
G01 X-99.2623 Y0.1434
G01 X-99.2684 Y0.1071
G01 X-99.2744 Y0.0584
G01 X-99.2773 Y0.0217
G01 X-99.2792 Y-0.0396
G01 X-99.2791 Y-13.6734
G01 X-99.2773 Y-13.7224
G01 X-99.2731 Y-13.7713
G01 X-99.2665 Y-13.8200
G01 X-99.2575 Y-13.8682
G01 X-99.2462 Y-13.9160
G01 X-99.2325 Y-13.9631
G01 X-99.2165 Y-14.0095
G01 X-99.1983 Y-14.0551
G01 X-99.1779 Y-14.0997
G01 X-99.1553 Y-14.1433
G01 X-99.1306 Y-14.1857
G01 X-99.1038 Y-14.2269
G01 X-99.0750 Y-14.2666
G01 X-99.0522 Y-14.2955
G01 X-99.0202 Y-14.3327
G01 X-98.9863 Y-14.3682
G01 X-98.9508 Y-14.4021
G01 X-98.9136 Y-14.4341
G01 X-98.8749 Y-14.4643
G01 X-98.8348 Y-14.4926
G01 X-98.7933 Y-14.5189
G01 X-98.7506 Y-14.5430
G01 X-98.7068 Y-14.5651
G01 X-98.6619 Y-14.5850
G01 X-98.6161 Y-14.6027
G01 X-98.5695 Y-14.6181
G01 X-98.5222 Y-14.6312
G01 X-98.4743 Y-14.6419
G01 X-98.4259 Y-14.6503
G01 X-98.3772 Y-14.6563
G01 X-98.3283 Y-14.6599
G01 X-98.2792 Y-14.6611
G00 X-98.2792 Y-14.6611
G01 F70.00
G01 Z-0.3000
G01 F120.00
G01 X-72.8607 Y-14.6611
G01 X-71.3899 Y-14.9186
G01 X-70.1233 Y-15.2804
G01 X-68.4249 Y-16.1479
G01 X-67.5994 Y-16.8705
G01 X-66.3875 Y-18.3027
G01 X-65.7543 Y-19.4634
G01 X-65.3609 Y-20.7159
G01 X-65.1437 Y-22.0566
G01 X-65.1437 Y-33.1396
G01 X-65.1430 Y-33.1764
G01 X-65.1410 Y-33.2132
G01 X-65.1376 Y-33.2498
G01 X-65.1329 Y-33.2863
G01 X-65.1268 Y-33.3226
G01 X-65.1194 Y-33.3587
G01 X-65.1107 Y-33.3945
G01 X-65.0970 Y-33.4416
G01 X-65.0853 Y-33.4765
G01 X-65.0722 Y-33.5109
G01 X-65.0579 Y-33.5448
G01 X-65.0424 Y-33.5782
G01 X-65.0256 Y-33.6110
G01 X-65.0077 Y-33.6431
G01 X-64.9886 Y-33.6746
G01 X-64.9683 Y-33.7053
G01 X-64.9469 Y-33.7353
G01 X-64.9167 Y-33.7740
G01 X-64.8929 Y-33.8020
G01 X-64.8680 Y-33.8291
G01 X-64.8421 Y-33.8553
G01 X-64.8153 Y-33.8806
G01 X-64.7876 Y-33.9048
G01 X-64.7492 Y-33.9354
G01 X-64.7195 Y-33.9572
G01 X-64.6890 Y-33.9778
G01 X-64.6578 Y-33.9973
G01 X-64.6259 Y-34.0157
G01 X-64.5933 Y-34.0328
G01 X-64.5602 Y-34.0488
G01 X-64.5264 Y-34.0635
G01 X-64.4921 Y-34.0769
G01 X-64.4574 Y-34.0891
G01 X-64.4104 Y-34.1034
G01 X-64.3748 Y-34.1125
G01 X-64.3388 Y-34.1204
G01 X-64.2783 Y-34.1305
G01 X-64.2173 Y-34.1369
G01 X-64.1805 Y-34.1389
G01 X-64.1437 Y-34.1396
G01 X-29.0823 Y-34.1396
G01 X-29.0455 Y-34.1389
G01 X-29.0087 Y-34.1369
G01 X-28.9721 Y-34.1335
G01 X-28.9355 Y-34.1288
G01 X-28.8872 Y-34.1204
G01 X-28.8512 Y-34.1125
G01 X-28.8156 Y-34.1034
G01 X-28.7803 Y-34.0929
G01 X-28.7454 Y-34.0811
G01 X-28.6996 Y-34.0635
G01 X-28.6659 Y-34.0488
G01 X-28.6217 Y-34.0272
G01 X-28.5894 Y-34.0097
G01 X-28.5473 Y-33.9845
G01 X-28.5065 Y-33.9572
G01 X-28.4768 Y-33.9354
G01 X-28.4479 Y-33.9126
G01 X-28.4107 Y-33.8806
G01 X-28.3752 Y-33.8467
G01 X-28.3496 Y-33.8202
G01 X-28.3251 Y-33.7928
G01 X-28.2939 Y-33.7548
G01 X-28.2647 Y-33.7154
G01 X-28.2441 Y-33.6849
G01 X-28.2246 Y-33.6537
G01 X-28.2004 Y-33.6110
G01 X-28.1836 Y-33.5782
G01 X-28.1681 Y-33.5449
G01 X-28.1493 Y-33.4995
G01 X-28.1367 Y-33.4649
G01 X-28.1253 Y-33.4299
G01 X-28.1122 Y-33.3826
G01 X-28.1015 Y-33.3347
G01 X-28.0950 Y-33.2985
G01 X-28.0884 Y-33.2498
G01 X-28.0850 Y-33.2132
G01 X-28.0830 Y-33.1764
G01 X-28.0823 Y-33.1396
G01 X-28.0821 Y-22.0541
G01 X-27.8646 Y-20.7138
G01 X-27.4716 Y-19.4635
G01 X-26.8384 Y-18.3027
G01 X-25.6249 Y-16.8688
G01 X-24.7999 Y-16.1471
G01 X-23.1027 Y-15.2804
G01 X-21.8361 Y-14.9186
G01 X-20.3653 Y-14.6611
G01 X-0.0669 Y-14.6610
G01 X-0.0179 Y-14.6592
G01 X0.0432 Y-14.6536
G01 X0.0918 Y-14.6464
G01 X0.1519 Y-14.6341
G01 X0.1993 Y-14.6216
G01 X0.2577 Y-14.6027
G01 X0.3035 Y-14.5850
G01 X0.3484 Y-14.5651
G01 X0.4030 Y-14.5372
G01 X0.4454 Y-14.5125
G01 X0.4865 Y-14.4857
G01 X0.5263 Y-14.4570
G01 X0.5646 Y-14.4263
G01 X0.6014 Y-14.3938
G01 X0.6450 Y-14.3507
G01 X0.6780 Y-14.3143
G01 X0.7091 Y-14.2764
G01 X0.7313 Y-14.2469
G01 X0.7590 Y-14.2064
G01 X0.7848 Y-14.1647
G01 X0.8084 Y-14.1217
G01 X0.8248 Y-14.0887
G01 X0.8447 Y-14.0438
G01 X0.8581 Y-14.0095
G01 X0.8703 Y-13.9748
G01 X0.8846 Y-13.9278
G01 X0.8937 Y-13.8922
G01 X0.9039 Y-13.8442
G01 X0.9117 Y-13.7957
G01 X0.9160 Y-13.7591
G01 X0.9189 Y-13.7224
G01 X0.9207 Y-13.6734
G01 X0.9208 Y-0.0396
G01 X0.9201 Y-0.0028
G01 X0.9181 Y0.0340
G01 X0.9147 Y0.0706
G01 X0.9100 Y0.1071
G01 X0.9016 Y0.1555
G01 X0.8937 Y0.1915
G01 X0.8846 Y0.2271
G01 X0.8703 Y0.2741
G01 X0.8581 Y0.3088
G01 X0.8399 Y0.3544
G01 X0.8248 Y0.3880
G01 X0.8027 Y0.4318
G01 X0.7785 Y0.4745
G01 X0.7590 Y0.5057
G01 X0.7313 Y0.5462
G01 X0.7015 Y0.5853
G01 X0.6699 Y0.6228
G01 X0.6450 Y0.6499
G01 X0.6192 Y0.6761
G01 X0.5832 Y0.7095
G01 X0.5552 Y0.7334
G01 X0.5165 Y0.7636
G01 X0.4764 Y0.7919
G01 X0.4454 Y0.8118
G01 X0.4030 Y0.8365
G01 X0.3704 Y0.8536
G01 X0.3260 Y0.8746
G01 X0.2807 Y0.8934
G01 X0.2345 Y0.9099
G01 X0.1875 Y0.9242
G01 X0.1399 Y0.9361
G01 X0.1038 Y0.9435
G01 X0.0554 Y0.9513
G01 X0.0188 Y0.9556
G01 X-0.0179 Y0.9585
G01 X-0.0669 Y0.9603
G01 X-98.2792 Y0.9604
G01 X-98.3160 Y0.9597
G01 X-98.3528 Y0.9577
G01 X-98.3894 Y0.9543
G01 X-98.4259 Y0.9496
G01 X-98.4743 Y0.9412
G01 X-98.5103 Y0.9333
G01 X-98.5459 Y0.9242
G01 X-98.5929 Y0.9099
G01 X-98.6391 Y0.8934
G01 X-98.6732 Y0.8795
G01 X-98.7068 Y0.8644
G01 X-98.7506 Y0.8423
G01 X-98.7933 Y0.8181
G01 X-98.8245 Y0.7986
G01 X-98.8550 Y0.7780
G01 X-98.8944 Y0.7487
G01 X-98.9230 Y0.7256
G01 X-98.9598 Y0.6931
G01 X-98.9949 Y0.6588
G01 X-99.0202 Y0.6320
G01 X-99.0444 Y0.6042
G01 X-99.0750 Y0.5659
G01 X-99.1038 Y0.5261
G01 X-99.1241 Y0.4954
G01 X-99.1432 Y0.4639
G01 X-99.1668 Y0.4209
G01 X-99.1884 Y0.3768
G01 X-99.2031 Y0.3431
G01 X-99.2165 Y0.3088
G01 X-99.2325 Y0.2624
G01 X-99.2462 Y0.2153
G01 X-99.2549 Y0.1795
G01 X-99.2623 Y0.1434
G01 X-99.2684 Y0.1071
G01 X-99.2744 Y0.0584
G01 X-99.2773 Y0.0217
G01 X-99.2792 Y-0.0396
G01 X-99.2791 Y-13.6734
G01 X-99.2773 Y-13.7224
G01 X-99.2731 Y-13.7713
G01 X-99.2665 Y-13.8200
G01 X-99.2575 Y-13.8682
G01 X-99.2462 Y-13.9160
G01 X-99.2325 Y-13.9631
G01 X-99.2165 Y-14.0095
G01 X-99.1983 Y-14.0551
G01 X-99.1779 Y-14.0997
G01 X-99.1553 Y-14.1433
G01 X-99.1306 Y-14.1857
G01 X-99.1038 Y-14.2269
G01 X-99.0750 Y-14.2666
G01 X-99.0522 Y-14.2955
G01 X-99.0202 Y-14.3327
G01 X-98.9863 Y-14.3682
G01 X-98.9508 Y-14.4021
G01 X-98.9136 Y-14.4341
G01 X-98.8749 Y-14.4643
G01 X-98.8348 Y-14.4926
G01 X-98.7933 Y-14.5189
G01 X-98.7506 Y-14.5430
G01 X-98.7068 Y-14.5651
G01 X-98.6619 Y-14.5850
G01 X-98.6161 Y-14.6027
G01 X-98.5695 Y-14.6181
G01 X-98.5222 Y-14.6312
G01 X-98.4743 Y-14.6419
G01 X-98.4259 Y-14.6503
G01 X-98.3772 Y-14.6563
G01 X-98.3283 Y-14.6599
G01 X-98.2792 Y-14.6611
G00 X-98.2792 Y-14.6611
G01 F70.00
G01 Z-0.4000
G01 F120.00
G01 X-72.8607 Y-14.6611
G01 X-71.3899 Y-14.9186
G01 X-70.1233 Y-15.2804
G01 X-68.4249 Y-16.1479
G01 X-67.5994 Y-16.8705
G01 X-66.3875 Y-18.3027
G01 X-65.7543 Y-19.4634
G01 X-65.3609 Y-20.7159
G01 X-65.1437 Y-22.0566
G01 X-65.1437 Y-33.1396
G01 X-65.1430 Y-33.1764
G01 X-65.1410 Y-33.2132
G01 X-65.1376 Y-33.2498
G01 X-65.1329 Y-33.2863
G01 X-65.1268 Y-33.3226
G01 X-65.1194 Y-33.3587
G01 X-65.1107 Y-33.3945
G01 X-65.0970 Y-33.4416
G01 X-65.0853 Y-33.4765
G01 X-65.0722 Y-33.5109
G01 X-65.0579 Y-33.5448
G01 X-65.0424 Y-33.5782
G01 X-65.0256 Y-33.6110
G01 X-65.0077 Y-33.6431
G01 X-64.9886 Y-33.6746
G01 X-64.9683 Y-33.7053
G01 X-64.9469 Y-33.7353
G01 X-64.9167 Y-33.7740
G01 X-64.8929 Y-33.8020
G01 X-64.8680 Y-33.8291
G01 X-64.8421 Y-33.8553
G01 X-64.8153 Y-33.8806
G01 X-64.7876 Y-33.9048
G01 X-64.7492 Y-33.9354
G01 X-64.7195 Y-33.9572
G01 X-64.6890 Y-33.9778
G01 X-64.6578 Y-33.9973
G01 X-64.6259 Y-34.0157
G01 X-64.5933 Y-34.0328
G01 X-64.5602 Y-34.0488
G01 X-64.5264 Y-34.0635
G01 X-64.4921 Y-34.0769
G01 X-64.4574 Y-34.0891
G01 X-64.4104 Y-34.1034
G01 X-64.3748 Y-34.1125
G01 X-64.3388 Y-34.1204
G01 X-64.2783 Y-34.1305
G01 X-64.2173 Y-34.1369
G01 X-64.1805 Y-34.1389
G01 X-64.1437 Y-34.1396
G01 X-29.0823 Y-34.1396
G01 X-29.0455 Y-34.1389
G01 X-29.0087 Y-34.1369
G01 X-28.9721 Y-34.1335
G01 X-28.9355 Y-34.1288
G01 X-28.8872 Y-34.1204
G01 X-28.8512 Y-34.1125
G01 X-28.8156 Y-34.1034
G01 X-28.7803 Y-34.0929
G01 X-28.7454 Y-34.0811
G01 X-28.6996 Y-34.0635
G01 X-28.6659 Y-34.0488
G01 X-28.6217 Y-34.0272
G01 X-28.5894 Y-34.0097
G01 X-28.5473 Y-33.9845
G01 X-28.5065 Y-33.9572
G01 X-28.4768 Y-33.9354
G01 X-28.4479 Y-33.9126
G01 X-28.4107 Y-33.8806
G01 X-28.3752 Y-33.8467
G01 X-28.3496 Y-33.8202
G01 X-28.3251 Y-33.7928
G01 X-28.2939 Y-33.7548
G01 X-28.2647 Y-33.7154
G01 X-28.2441 Y-33.6849
G01 X-28.2246 Y-33.6537
G01 X-28.2004 Y-33.6110
G01 X-28.1836 Y-33.5782
G01 X-28.1681 Y-33.5449
G01 X-28.1493 Y-33.4995
G01 X-28.1367 Y-33.4649
G01 X-28.1253 Y-33.4299
G01 X-28.1122 Y-33.3826
G01 X-28.1015 Y-33.3347
G01 X-28.0950 Y-33.2985
G01 X-28.0884 Y-33.2498
G01 X-28.0850 Y-33.2132
G01 X-28.0830 Y-33.1764
G01 X-28.0823 Y-33.1396
G01 X-28.0821 Y-22.0541
G01 X-27.8646 Y-20.7138
G01 X-27.4716 Y-19.4635
G01 X-26.8384 Y-18.3027
G01 X-25.6249 Y-16.8688
G01 X-24.7999 Y-16.1471
G01 X-23.1027 Y-15.2804
G01 X-21.8361 Y-14.9186
G01 X-20.3653 Y-14.6611
G01 X-0.0669 Y-14.6610
G01 X-0.0179 Y-14.6592
G01 X0.0432 Y-14.6536
G01 X0.0918 Y-14.6464
G01 X0.1519 Y-14.6341
G01 X0.1993 Y-14.6216
G01 X0.2577 Y-14.6027
G01 X0.3035 Y-14.5850
G01 X0.3484 Y-14.5651
G01 X0.4030 Y-14.5372
G01 X0.4454 Y-14.5125
G01 X0.4865 Y-14.4857
G01 X0.5263 Y-14.4570
G01 X0.5646 Y-14.4263
G01 X0.6014 Y-14.3938
G01 X0.6450 Y-14.3507
G01 X0.6780 Y-14.3143
G01 X0.7091 Y-14.2764
G01 X0.7313 Y-14.2469
G01 X0.7590 Y-14.2064
G01 X0.7848 Y-14.1647
G01 X0.8084 Y-14.1217
G01 X0.8248 Y-14.0887
G01 X0.8447 Y-14.0438
G01 X0.8581 Y-14.0095
G01 X0.8703 Y-13.9748
G01 X0.8846 Y-13.9278
G01 X0.8937 Y-13.8922
G01 X0.9039 Y-13.8442
G01 X0.9117 Y-13.7957
G01 X0.9160 Y-13.7591
G01 X0.9189 Y-13.7224
G01 X0.9207 Y-13.6734
G01 X0.9208 Y-0.0396
G01 X0.9201 Y-0.0028
G01 X0.9181 Y0.0340
G01 X0.9147 Y0.0706
G01 X0.9100 Y0.1071
G01 X0.9016 Y0.1555
G01 X0.8937 Y0.1915
G01 X0.8846 Y0.2271
G01 X0.8703 Y0.2741
G01 X0.8581 Y0.3088
G01 X0.8399 Y0.3544
G01 X0.8248 Y0.3880
G01 X0.8027 Y0.4318
G01 X0.7785 Y0.4745
G01 X0.7590 Y0.5057
G01 X0.7313 Y0.5462
G01 X0.7015 Y0.5853
G01 X0.6699 Y0.6228
G01 X0.6450 Y0.6499
G01 X0.6192 Y0.6761
G01 X0.5832 Y0.7095
G01 X0.5552 Y0.7334
G01 X0.5165 Y0.7636
G01 X0.4764 Y0.7919
G01 X0.4454 Y0.8118
G01 X0.4030 Y0.8365
G01 X0.3704 Y0.8536
G01 X0.3260 Y0.8746
G01 X0.2807 Y0.8934
G01 X0.2345 Y0.9099
G01 X0.1875 Y0.9242
G01 X0.1399 Y0.9361
G01 X0.1038 Y0.9435
G01 X0.0554 Y0.9513
G01 X0.0188 Y0.9556
G01 X-0.0179 Y0.9585
G01 X-0.0669 Y0.9603
G01 X-98.2792 Y0.9604
G01 X-98.3160 Y0.9597
G01 X-98.3528 Y0.9577
G01 X-98.3894 Y0.9543
G01 X-98.4259 Y0.9496
G01 X-98.4743 Y0.9412
G01 X-98.5103 Y0.9333
G01 X-98.5459 Y0.9242
G01 X-98.5929 Y0.9099
G01 X-98.6391 Y0.8934
G01 X-98.6732 Y0.8795
G01 X-98.7068 Y0.8644
G01 X-98.7506 Y0.8423
G01 X-98.7933 Y0.8181
G01 X-98.8245 Y0.7986
G01 X-98.8550 Y0.7780
G01 X-98.8944 Y0.7487
G01 X-98.9230 Y0.7256
G01 X-98.9598 Y0.6931
G01 X-98.9949 Y0.6588
G01 X-99.0202 Y0.6320
G01 X-99.0444 Y0.6042
G01 X-99.0750 Y0.5659
G01 X-99.1038 Y0.5261
G01 X-99.1241 Y0.4954
G01 X-99.1432 Y0.4639
G01 X-99.1668 Y0.4209
G01 X-99.1884 Y0.3768
G01 X-99.2031 Y0.3431
G01 X-99.2165 Y0.3088
G01 X-99.2325 Y0.2624
G01 X-99.2462 Y0.2153
G01 X-99.2549 Y0.1795
G01 X-99.2623 Y0.1434
G01 X-99.2684 Y0.1071
G01 X-99.2744 Y0.0584
G01 X-99.2773 Y0.0217
G01 X-99.2792 Y-0.0396
G01 X-99.2791 Y-13.6734
G01 X-99.2773 Y-13.7224
G01 X-99.2731 Y-13.7713
G01 X-99.2665 Y-13.8200
G01 X-99.2575 Y-13.8682
G01 X-99.2462 Y-13.9160
G01 X-99.2325 Y-13.9631
G01 X-99.2165 Y-14.0095
G01 X-99.1983 Y-14.0551
G01 X-99.1779 Y-14.0997
G01 X-99.1553 Y-14.1433
G01 X-99.1306 Y-14.1857
G01 X-99.1038 Y-14.2269
G01 X-99.0750 Y-14.2666
G01 X-99.0522 Y-14.2955
G01 X-99.0202 Y-14.3327
G01 X-98.9863 Y-14.3682
G01 X-98.9508 Y-14.4021
G01 X-98.9136 Y-14.4341
G01 X-98.8749 Y-14.4643
G01 X-98.8348 Y-14.4926
G01 X-98.7933 Y-14.5189
G01 X-98.7506 Y-14.5430
G01 X-98.7068 Y-14.5651
G01 X-98.6619 Y-14.5850
G01 X-98.6161 Y-14.6027
G01 X-98.5695 Y-14.6181
G01 X-98.5222 Y-14.6312
G01 X-98.4743 Y-14.6419
G01 X-98.4259 Y-14.6503
G01 X-98.3772 Y-14.6563
G01 X-98.3283 Y-14.6599
G01 X-98.2792 Y-14.6611
G00 X-98.2792 Y-14.6611
G01 F70.00
G01 Z-0.5000
G01 F120.00
G01 X-72.8607 Y-14.6611
G01 X-71.3899 Y-14.9186
G01 X-70.1233 Y-15.2804
G01 X-68.4249 Y-16.1479
G01 X-67.5994 Y-16.8705
G01 X-66.3875 Y-18.3027
G01 X-65.7543 Y-19.4634
G01 X-65.3609 Y-20.7159
G01 X-65.1437 Y-22.0566
G01 X-65.1437 Y-33.1396
G01 X-65.1430 Y-33.1764
G01 X-65.1410 Y-33.2132
G01 X-65.1376 Y-33.2498
G01 X-65.1329 Y-33.2863
G01 X-65.1268 Y-33.3226
G01 X-65.1194 Y-33.3587
G01 X-65.1107 Y-33.3945
G01 X-65.0970 Y-33.4416
G01 X-65.0853 Y-33.4765
G01 X-65.0722 Y-33.5109
G01 X-65.0579 Y-33.5448
G01 X-65.0424 Y-33.5782
G01 X-65.0256 Y-33.6110
G01 X-65.0077 Y-33.6431
G01 X-64.9886 Y-33.6746
G01 X-64.9683 Y-33.7053
G01 X-64.9469 Y-33.7353
G01 X-64.9167 Y-33.7740
G01 X-64.8929 Y-33.8020
G01 X-64.8680 Y-33.8291
G01 X-64.8421 Y-33.8553
G01 X-64.8153 Y-33.8806
G01 X-64.7876 Y-33.9048
G01 X-64.7492 Y-33.9354
G01 X-64.7195 Y-33.9572
G01 X-64.6890 Y-33.9778
G01 X-64.6578 Y-33.9973
G01 X-64.6259 Y-34.0157
G01 X-64.5933 Y-34.0328
G01 X-64.5602 Y-34.0488
G01 X-64.5264 Y-34.0635
G01 X-64.4921 Y-34.0769
G01 X-64.4574 Y-34.0891
G01 X-64.4104 Y-34.1034
G01 X-64.3748 Y-34.1125
G01 X-64.3388 Y-34.1204
G01 X-64.2783 Y-34.1305
G01 X-64.2173 Y-34.1369
G01 X-64.1805 Y-34.1389
G01 X-64.1437 Y-34.1396
G01 X-29.0823 Y-34.1396
G01 X-29.0455 Y-34.1389
G01 X-29.0087 Y-34.1369
G01 X-28.9721 Y-34.1335
G01 X-28.9355 Y-34.1288
G01 X-28.8872 Y-34.1204
G01 X-28.8512 Y-34.1125
G01 X-28.8156 Y-34.1034
G01 X-28.7803 Y-34.0929
G01 X-28.7454 Y-34.0811
G01 X-28.6996 Y-34.0635
G01 X-28.6659 Y-34.0488
G01 X-28.6217 Y-34.0272
G01 X-28.5894 Y-34.0097
G01 X-28.5473 Y-33.9845
G01 X-28.5065 Y-33.9572
G01 X-28.4768 Y-33.9354
G01 X-28.4479 Y-33.9126
G01 X-28.4107 Y-33.8806
G01 X-28.3752 Y-33.8467
G01 X-28.3496 Y-33.8202
G01 X-28.3251 Y-33.7928
G01 X-28.2939 Y-33.7548
G01 X-28.2647 Y-33.7154
G01 X-28.2441 Y-33.6849
G01 X-28.2246 Y-33.6537
G01 X-28.2004 Y-33.6110
G01 X-28.1836 Y-33.5782
G01 X-28.1681 Y-33.5449
G01 X-28.1493 Y-33.4995
G01 X-28.1367 Y-33.4649
G01 X-28.1253 Y-33.4299
G01 X-28.1122 Y-33.3826
G01 X-28.1015 Y-33.3347
G01 X-28.0950 Y-33.2985
G01 X-28.0884 Y-33.2498
G01 X-28.0850 Y-33.2132
G01 X-28.0830 Y-33.1764
G01 X-28.0823 Y-33.1396
G01 X-28.0821 Y-22.0541
G01 X-27.8646 Y-20.7138
G01 X-27.4716 Y-19.4635
G01 X-26.8384 Y-18.3027
G01 X-25.6249 Y-16.8688
G01 X-24.7999 Y-16.1471
G01 X-23.1027 Y-15.2804
G01 X-21.8361 Y-14.9186
G01 X-20.3653 Y-14.6611
G01 X-0.0669 Y-14.6610
G01 X-0.0179 Y-14.6592
G01 X0.0432 Y-14.6536
G01 X0.0918 Y-14.6464
G01 X0.1519 Y-14.6341
G01 X0.1993 Y-14.6216
G01 X0.2577 Y-14.6027
G01 X0.3035 Y-14.5850
G01 X0.3484 Y-14.5651
G01 X0.4030 Y-14.5372
G01 X0.4454 Y-14.5125
G01 X0.4865 Y-14.4857
G01 X0.5263 Y-14.4570
G01 X0.5646 Y-14.4263
G01 X0.6014 Y-14.3938
G01 X0.6450 Y-14.3507
G01 X0.6780 Y-14.3143
G01 X0.7091 Y-14.2764
G01 X0.7313 Y-14.2469
G01 X0.7590 Y-14.2064
G01 X0.7848 Y-14.1647
G01 X0.8084 Y-14.1217
G01 X0.8248 Y-14.0887
G01 X0.8447 Y-14.0438
G01 X0.8581 Y-14.0095
G01 X0.8703 Y-13.9748
G01 X0.8846 Y-13.9278
G01 X0.8937 Y-13.8922
G01 X0.9039 Y-13.8442
G01 X0.9117 Y-13.7957
G01 X0.9160 Y-13.7591
G01 X0.9189 Y-13.7224
G01 X0.9207 Y-13.6734
G01 X0.9208 Y-0.0396
G01 X0.9201 Y-0.0028
G01 X0.9181 Y0.0340
G01 X0.9147 Y0.0706
G01 X0.9100 Y0.1071
G01 X0.9016 Y0.1555
G01 X0.8937 Y0.1915
G01 X0.8846 Y0.2271
G01 X0.8703 Y0.2741
G01 X0.8581 Y0.3088
G01 X0.8399 Y0.3544
G01 X0.8248 Y0.3880
G01 X0.8027 Y0.4318
G01 X0.7785 Y0.4745
G01 X0.7590 Y0.5057
G01 X0.7313 Y0.5462
G01 X0.7015 Y0.5853
G01 X0.6699 Y0.6228
G01 X0.6450 Y0.6499
G01 X0.6192 Y0.6761
G01 X0.5832 Y0.7095
G01 X0.5552 Y0.7334
G01 X0.5165 Y0.7636
G01 X0.4764 Y0.7919
G01 X0.4454 Y0.8118
G01 X0.4030 Y0.8365
G01 X0.3704 Y0.8536
G01 X0.3260 Y0.8746
G01 X0.2807 Y0.8934
G01 X0.2345 Y0.9099
G01 X0.1875 Y0.9242
G01 X0.1399 Y0.9361
G01 X0.1038 Y0.9435
G01 X0.0554 Y0.9513
G01 X0.0188 Y0.9556
G01 X-0.0179 Y0.9585
G01 X-0.0669 Y0.9603
G01 X-98.2792 Y0.9604
G01 X-98.3160 Y0.9597
G01 X-98.3528 Y0.9577
G01 X-98.3894 Y0.9543
G01 X-98.4259 Y0.9496
G01 X-98.4743 Y0.9412
G01 X-98.5103 Y0.9333
G01 X-98.5459 Y0.9242
G01 X-98.5929 Y0.9099
G01 X-98.6391 Y0.8934
G01 X-98.6732 Y0.8795
G01 X-98.7068 Y0.8644
G01 X-98.7506 Y0.8423
G01 X-98.7933 Y0.8181
G01 X-98.8245 Y0.7986
G01 X-98.8550 Y0.7780
G01 X-98.8944 Y0.7487
G01 X-98.9230 Y0.7256
G01 X-98.9598 Y0.6931
G01 X-98.9949 Y0.6588
G01 X-99.0202 Y0.6320
G01 X-99.0444 Y0.6042
G01 X-99.0750 Y0.5659
G01 X-99.1038 Y0.5261
G01 X-99.1241 Y0.4954
G01 X-99.1432 Y0.4639
G01 X-99.1668 Y0.4209
G01 X-99.1884 Y0.3768
G01 X-99.2031 Y0.3431
G01 X-99.2165 Y0.3088
G01 X-99.2325 Y0.2624
G01 X-99.2462 Y0.2153
G01 X-99.2549 Y0.1795
G01 X-99.2623 Y0.1434
G01 X-99.2684 Y0.1071
G01 X-99.2744 Y0.0584
G01 X-99.2773 Y0.0217
G01 X-99.2792 Y-0.0396
G01 X-99.2791 Y-13.6734
G01 X-99.2773 Y-13.7224
G01 X-99.2731 Y-13.7713
G01 X-99.2665 Y-13.8200
G01 X-99.2575 Y-13.8682
G01 X-99.2462 Y-13.9160
G01 X-99.2325 Y-13.9631
G01 X-99.2165 Y-14.0095
G01 X-99.1983 Y-14.0551
G01 X-99.1779 Y-14.0997
G01 X-99.1553 Y-14.1433
G01 X-99.1306 Y-14.1857
G01 X-99.1038 Y-14.2269
G01 X-99.0750 Y-14.2666
G01 X-99.0522 Y-14.2955
G01 X-99.0202 Y-14.3327
G01 X-98.9863 Y-14.3682
G01 X-98.9508 Y-14.4021
G01 X-98.9136 Y-14.4341
G01 X-98.8749 Y-14.4643
G01 X-98.8348 Y-14.4926
G01 X-98.7933 Y-14.5189
G01 X-98.7506 Y-14.5430
G01 X-98.7068 Y-14.5651
G01 X-98.6619 Y-14.5850
G01 X-98.6161 Y-14.6027
G01 X-98.5695 Y-14.6181
G01 X-98.5222 Y-14.6312
G01 X-98.4743 Y-14.6419
G01 X-98.4259 Y-14.6503
G01 X-98.3772 Y-14.6563
G01 X-98.3283 Y-14.6599
G01 X-98.2792 Y-14.6611
G00 X-98.2792 Y-14.6611
G01 F70.00
G01 Z-0.6000
G01 F120.00
G01 X-72.8607 Y-14.6611
G01 X-71.3899 Y-14.9186
G01 X-70.1233 Y-15.2804
G01 X-68.4249 Y-16.1479
G01 X-67.5994 Y-16.8705
G01 X-66.3875 Y-18.3027
G01 X-65.7543 Y-19.4634
G01 X-65.3609 Y-20.7159
G01 X-65.1437 Y-22.0566
G01 X-65.1437 Y-33.1396
G01 X-65.1430 Y-33.1764
G01 X-65.1410 Y-33.2132
G01 X-65.1376 Y-33.2498
G01 X-65.1329 Y-33.2863
G01 X-65.1268 Y-33.3226
G01 X-65.1194 Y-33.3587
G01 X-65.1107 Y-33.3945
G01 X-65.0970 Y-33.4416
G01 X-65.0853 Y-33.4765
G01 X-65.0722 Y-33.5109
G01 X-65.0579 Y-33.5448
G01 X-65.0424 Y-33.5782
G01 X-65.0256 Y-33.6110
G01 X-65.0077 Y-33.6431
G01 X-64.9886 Y-33.6746
G01 X-64.9683 Y-33.7053
G01 X-64.9469 Y-33.7353
G01 X-64.9167 Y-33.7740
G01 X-64.8929 Y-33.8020
G01 X-64.8680 Y-33.8291
G01 X-64.8421 Y-33.8553
G01 X-64.8153 Y-33.8806
G01 X-64.7876 Y-33.9048
G01 X-64.7492 Y-33.9354
G01 X-64.7195 Y-33.9572
G01 X-64.6890 Y-33.9778
G01 X-64.6578 Y-33.9973
G01 X-64.6259 Y-34.0157
G01 X-64.5933 Y-34.0328
G01 X-64.5602 Y-34.0488
G01 X-64.5264 Y-34.0635
G01 X-64.4921 Y-34.0769
G01 X-64.4574 Y-34.0891
G01 X-64.4104 Y-34.1034
G01 X-64.3748 Y-34.1125
G01 X-64.3388 Y-34.1204
G01 X-64.2783 Y-34.1305
G01 X-64.2173 Y-34.1369
G01 X-64.1805 Y-34.1389
G01 X-64.1437 Y-34.1396
G01 X-29.0823 Y-34.1396
G01 X-29.0455 Y-34.1389
G01 X-29.0087 Y-34.1369
G01 X-28.9721 Y-34.1335
G01 X-28.9355 Y-34.1288
G01 X-28.8872 Y-34.1204
G01 X-28.8512 Y-34.1125
G01 X-28.8156 Y-34.1034
G01 X-28.7803 Y-34.0929
G01 X-28.7454 Y-34.0811
G01 X-28.6996 Y-34.0635
G01 X-28.6659 Y-34.0488
G01 X-28.6217 Y-34.0272
G01 X-28.5894 Y-34.0097
G01 X-28.5473 Y-33.9845
G01 X-28.5065 Y-33.9572
G01 X-28.4768 Y-33.9354
G01 X-28.4479 Y-33.9126
G01 X-28.4107 Y-33.8806
G01 X-28.3752 Y-33.8467
G01 X-28.3496 Y-33.8202
G01 X-28.3251 Y-33.7928
G01 X-28.2939 Y-33.7548
G01 X-28.2647 Y-33.7154
G01 X-28.2441 Y-33.6849
G01 X-28.2246 Y-33.6537
G01 X-28.2004 Y-33.6110
G01 X-28.1836 Y-33.5782
G01 X-28.1681 Y-33.5449
G01 X-28.1493 Y-33.4995
G01 X-28.1367 Y-33.4649
G01 X-28.1253 Y-33.4299
G01 X-28.1122 Y-33.3826
G01 X-28.1015 Y-33.3347
G01 X-28.0950 Y-33.2985
G01 X-28.0884 Y-33.2498
G01 X-28.0850 Y-33.2132
G01 X-28.0830 Y-33.1764
G01 X-28.0823 Y-33.1396
G01 X-28.0821 Y-22.0541
G01 X-27.8646 Y-20.7138
G01 X-27.4716 Y-19.4635
G01 X-26.8384 Y-18.3027
G01 X-25.6249 Y-16.8688
G01 X-24.7999 Y-16.1471
G01 X-23.1027 Y-15.2804
G01 X-21.8361 Y-14.9186
G01 X-20.3653 Y-14.6611
G01 X-0.0669 Y-14.6610
G01 X-0.0179 Y-14.6592
G01 X0.0432 Y-14.6536
G01 X0.0918 Y-14.6464
G01 X0.1519 Y-14.6341
G01 X0.1993 Y-14.6216
G01 X0.2577 Y-14.6027
G01 X0.3035 Y-14.5850
G01 X0.3484 Y-14.5651
G01 X0.4030 Y-14.5372
G01 X0.4454 Y-14.5125
G01 X0.4865 Y-14.4857
G01 X0.5263 Y-14.4570
G01 X0.5646 Y-14.4263
G01 X0.6014 Y-14.3938
G01 X0.6450 Y-14.3507
G01 X0.6780 Y-14.3143
G01 X0.7091 Y-14.2764
G01 X0.7313 Y-14.2469
G01 X0.7590 Y-14.2064
G01 X0.7848 Y-14.1647
G01 X0.8084 Y-14.1217
G01 X0.8248 Y-14.0887
G01 X0.8447 Y-14.0438
G01 X0.8581 Y-14.0095
G01 X0.8703 Y-13.9748
G01 X0.8846 Y-13.9278
G01 X0.8937 Y-13.8922
G01 X0.9039 Y-13.8442
G01 X0.9117 Y-13.7957
G01 X0.9160 Y-13.7591
G01 X0.9189 Y-13.7224
G01 X0.9207 Y-13.6734
G01 X0.9208 Y-0.0396
G01 X0.9201 Y-0.0028
G01 X0.9181 Y0.0340
G01 X0.9147 Y0.0706
G01 X0.9100 Y0.1071
G01 X0.9016 Y0.1555
G01 X0.8937 Y0.1915
G01 X0.8846 Y0.2271
G01 X0.8703 Y0.2741
G01 X0.8581 Y0.3088
G01 X0.8399 Y0.3544
G01 X0.8248 Y0.3880
G01 X0.8027 Y0.4318
G01 X0.7785 Y0.4745
G01 X0.7590 Y0.5057
G01 X0.7313 Y0.5462
G01 X0.7015 Y0.5853
G01 X0.6699 Y0.6228
G01 X0.6450 Y0.6499
G01 X0.6192 Y0.6761
G01 X0.5832 Y0.7095
G01 X0.5552 Y0.7334
G01 X0.5165 Y0.7636
G01 X0.4764 Y0.7919
G01 X0.4454 Y0.8118
G01 X0.4030 Y0.8365
G01 X0.3704 Y0.8536
G01 X0.3260 Y0.8746
G01 X0.2807 Y0.8934
G01 X0.2345 Y0.9099
G01 X0.1875 Y0.9242
G01 X0.1399 Y0.9361
G01 X0.1038 Y0.9435
G01 X0.0554 Y0.9513
G01 X0.0188 Y0.9556
G01 X-0.0179 Y0.9585
G01 X-0.0669 Y0.9603
G01 X-98.2792 Y0.9604
G01 X-98.3160 Y0.9597
G01 X-98.3528 Y0.9577
G01 X-98.3894 Y0.9543
G01 X-98.4259 Y0.9496
G01 X-98.4743 Y0.9412
G01 X-98.5103 Y0.9333
G01 X-98.5459 Y0.9242
G01 X-98.5929 Y0.9099
G01 X-98.6391 Y0.8934
G01 X-98.6732 Y0.8795
G01 X-98.7068 Y0.8644
G01 X-98.7506 Y0.8423
G01 X-98.7933 Y0.8181
G01 X-98.8245 Y0.7986
G01 X-98.8550 Y0.7780
G01 X-98.8944 Y0.7487
G01 X-98.9230 Y0.7256
G01 X-98.9598 Y0.6931
G01 X-98.9949 Y0.6588
G01 X-99.0202 Y0.6320
G01 X-99.0444 Y0.6042
G01 X-99.0750 Y0.5659
G01 X-99.1038 Y0.5261
G01 X-99.1241 Y0.4954
G01 X-99.1432 Y0.4639
G01 X-99.1668 Y0.4209
G01 X-99.1884 Y0.3768
G01 X-99.2031 Y0.3431
G01 X-99.2165 Y0.3088
G01 X-99.2325 Y0.2624
G01 X-99.2462 Y0.2153
G01 X-99.2549 Y0.1795
G01 X-99.2623 Y0.1434
G01 X-99.2684 Y0.1071
G01 X-99.2744 Y0.0584
G01 X-99.2773 Y0.0217
G01 X-99.2792 Y-0.0396
G01 X-99.2791 Y-13.6734
G01 X-99.2773 Y-13.7224
G01 X-99.2731 Y-13.7713
G01 X-99.2665 Y-13.8200
G01 X-99.2575 Y-13.8682
G01 X-99.2462 Y-13.9160
G01 X-99.2325 Y-13.9631
G01 X-99.2165 Y-14.0095
G01 X-99.1983 Y-14.0551
G01 X-99.1779 Y-14.0997
G01 X-99.1553 Y-14.1433
G01 X-99.1306 Y-14.1857
G01 X-99.1038 Y-14.2269
G01 X-99.0750 Y-14.2666
G01 X-99.0522 Y-14.2955
G01 X-99.0202 Y-14.3327
G01 X-98.9863 Y-14.3682
G01 X-98.9508 Y-14.4021
G01 X-98.9136 Y-14.4341
G01 X-98.8749 Y-14.4643
G01 X-98.8348 Y-14.4926
G01 X-98.7933 Y-14.5189
G01 X-98.7506 Y-14.5430
G01 X-98.7068 Y-14.5651
G01 X-98.6619 Y-14.5850
G01 X-98.6161 Y-14.6027
G01 X-98.5695 Y-14.6181
G01 X-98.5222 Y-14.6312
G01 X-98.4743 Y-14.6419
G01 X-98.4259 Y-14.6503
G01 X-98.3772 Y-14.6563
G01 X-98.3283 Y-14.6599
G01 X-98.2792 Y-14.6611
G00 X-98.2792 Y-14.6611
G01 F70.00
G01 Z-0.7000
G01 F120.00
G01 X-72.8607 Y-14.6611
G01 X-71.3899 Y-14.9186
G01 X-70.1233 Y-15.2804
G01 X-68.4249 Y-16.1479
G01 X-67.5994 Y-16.8705
G01 X-66.3875 Y-18.3027
G01 X-65.7543 Y-19.4634
G01 X-65.3609 Y-20.7159
G01 X-65.1437 Y-22.0566
G01 X-65.1437 Y-33.1396
G01 X-65.1430 Y-33.1764
G01 X-65.1410 Y-33.2132
G01 X-65.1376 Y-33.2498
G01 X-65.1329 Y-33.2863
G01 X-65.1268 Y-33.3226
G01 X-65.1194 Y-33.3587
G01 X-65.1107 Y-33.3945
G01 X-65.0970 Y-33.4416
G01 X-65.0853 Y-33.4765
G01 X-65.0722 Y-33.5109
G01 X-65.0579 Y-33.5448
G01 X-65.0424 Y-33.5782
G01 X-65.0256 Y-33.6110
G01 X-65.0077 Y-33.6431
G01 X-64.9886 Y-33.6746
G01 X-64.9683 Y-33.7053
G01 X-64.9469 Y-33.7353
G01 X-64.9167 Y-33.7740
G01 X-64.8929 Y-33.8020
G01 X-64.8680 Y-33.8291
G01 X-64.8421 Y-33.8553
G01 X-64.8153 Y-33.8806
G01 X-64.7876 Y-33.9048
G01 X-64.7492 Y-33.9354
G01 X-64.7195 Y-33.9572
G01 X-64.6890 Y-33.9778
G01 X-64.6578 Y-33.9973
G01 X-64.6259 Y-34.0157
G01 X-64.5933 Y-34.0328
G01 X-64.5602 Y-34.0488
G01 X-64.5264 Y-34.0635
G01 X-64.4921 Y-34.0769
G01 X-64.4574 Y-34.0891
G01 X-64.4104 Y-34.1034
G01 X-64.3748 Y-34.1125
G01 X-64.3388 Y-34.1204
G01 X-64.2783 Y-34.1305
G01 X-64.2173 Y-34.1369
G01 X-64.1805 Y-34.1389
G01 X-64.1437 Y-34.1396
G01 X-29.0823 Y-34.1396
G01 X-29.0455 Y-34.1389
G01 X-29.0087 Y-34.1369
G01 X-28.9721 Y-34.1335
G01 X-28.9355 Y-34.1288
G01 X-28.8872 Y-34.1204
G01 X-28.8512 Y-34.1125
G01 X-28.8156 Y-34.1034
G01 X-28.7803 Y-34.0929
G01 X-28.7454 Y-34.0811
G01 X-28.6996 Y-34.0635
G01 X-28.6659 Y-34.0488
G01 X-28.6217 Y-34.0272
G01 X-28.5894 Y-34.0097
G01 X-28.5473 Y-33.9845
G01 X-28.5065 Y-33.9572
G01 X-28.4768 Y-33.9354
G01 X-28.4479 Y-33.9126
G01 X-28.4107 Y-33.8806
G01 X-28.3752 Y-33.8467
G01 X-28.3496 Y-33.8202
G01 X-28.3251 Y-33.7928
G01 X-28.2939 Y-33.7548
G01 X-28.2647 Y-33.7154
G01 X-28.2441 Y-33.6849
G01 X-28.2246 Y-33.6537
G01 X-28.2004 Y-33.6110
G01 X-28.1836 Y-33.5782
G01 X-28.1681 Y-33.5449
G01 X-28.1493 Y-33.4995
G01 X-28.1367 Y-33.4649
G01 X-28.1253 Y-33.4299
G01 X-28.1122 Y-33.3826
G01 X-28.1015 Y-33.3347
G01 X-28.0950 Y-33.2985
G01 X-28.0884 Y-33.2498
G01 X-28.0850 Y-33.2132
G01 X-28.0830 Y-33.1764
G01 X-28.0823 Y-33.1396
G01 X-28.0821 Y-22.0541
G01 X-27.8646 Y-20.7138
G01 X-27.4716 Y-19.4635
G01 X-26.8384 Y-18.3027
G01 X-25.6249 Y-16.8688
G01 X-24.7999 Y-16.1471
G01 X-23.1027 Y-15.2804
G01 X-21.8361 Y-14.9186
G01 X-20.3653 Y-14.6611
G01 X-0.0669 Y-14.6610
G01 X-0.0179 Y-14.6592
G01 X0.0432 Y-14.6536
G01 X0.0918 Y-14.6464
G01 X0.1519 Y-14.6341
G01 X0.1993 Y-14.6216
G01 X0.2577 Y-14.6027
G01 X0.3035 Y-14.5850
G01 X0.3484 Y-14.5651
G01 X0.4030 Y-14.5372
G01 X0.4454 Y-14.5125
G01 X0.4865 Y-14.4857
G01 X0.5263 Y-14.4570
G01 X0.5646 Y-14.4263
G01 X0.6014 Y-14.3938
G01 X0.6450 Y-14.3507
G01 X0.6780 Y-14.3143
G01 X0.7091 Y-14.2764
G01 X0.7313 Y-14.2469
G01 X0.7590 Y-14.2064
G01 X0.7848 Y-14.1647
G01 X0.8084 Y-14.1217
G01 X0.8248 Y-14.0887
G01 X0.8447 Y-14.0438
G01 X0.8581 Y-14.0095
G01 X0.8703 Y-13.9748
G01 X0.8846 Y-13.9278
G01 X0.8937 Y-13.8922
G01 X0.9039 Y-13.8442
G01 X0.9117 Y-13.7957
G01 X0.9160 Y-13.7591
G01 X0.9189 Y-13.7224
G01 X0.9207 Y-13.6734
G01 X0.9208 Y-0.0396
G01 X0.9201 Y-0.0028
G01 X0.9181 Y0.0340
G01 X0.9147 Y0.0706
G01 X0.9100 Y0.1071
G01 X0.9016 Y0.1555
G01 X0.8937 Y0.1915
G01 X0.8846 Y0.2271
G01 X0.8703 Y0.2741
G01 X0.8581 Y0.3088
G01 X0.8399 Y0.3544
G01 X0.8248 Y0.3880
G01 X0.8027 Y0.4318
G01 X0.7785 Y0.4745
G01 X0.7590 Y0.5057
G01 X0.7313 Y0.5462
G01 X0.7015 Y0.5853
G01 X0.6699 Y0.6228
G01 X0.6450 Y0.6499
G01 X0.6192 Y0.6761
G01 X0.5832 Y0.7095
G01 X0.5552 Y0.7334
G01 X0.5165 Y0.7636
G01 X0.4764 Y0.7919
G01 X0.4454 Y0.8118
G01 X0.4030 Y0.8365
G01 X0.3704 Y0.8536
G01 X0.3260 Y0.8746
G01 X0.2807 Y0.8934
G01 X0.2345 Y0.9099
G01 X0.1875 Y0.9242
G01 X0.1399 Y0.9361
G01 X0.1038 Y0.9435
G01 X0.0554 Y0.9513
G01 X0.0188 Y0.9556
G01 X-0.0179 Y0.9585
G01 X-0.0669 Y0.9603
G01 X-98.2792 Y0.9604
G01 X-98.3160 Y0.9597
G01 X-98.3528 Y0.9577
G01 X-98.3894 Y0.9543
G01 X-98.4259 Y0.9496
G01 X-98.4743 Y0.9412
G01 X-98.5103 Y0.9333
G01 X-98.5459 Y0.9242
G01 X-98.5929 Y0.9099
G01 X-98.6391 Y0.8934
G01 X-98.6732 Y0.8795
G01 X-98.7068 Y0.8644
G01 X-98.7506 Y0.8423
G01 X-98.7933 Y0.8181
G01 X-98.8245 Y0.7986
G01 X-98.8550 Y0.7780
G01 X-98.8944 Y0.7487
G01 X-98.9230 Y0.7256
G01 X-98.9598 Y0.6931
G01 X-98.9949 Y0.6588
G01 X-99.0202 Y0.6320
G01 X-99.0444 Y0.6042
G01 X-99.0750 Y0.5659
G01 X-99.1038 Y0.5261
G01 X-99.1241 Y0.4954
G01 X-99.1432 Y0.4639
G01 X-99.1668 Y0.4209
G01 X-99.1884 Y0.3768
G01 X-99.2031 Y0.3431
G01 X-99.2165 Y0.3088
G01 X-99.2325 Y0.2624
G01 X-99.2462 Y0.2153
G01 X-99.2549 Y0.1795
G01 X-99.2623 Y0.1434
G01 X-99.2684 Y0.1071
G01 X-99.2744 Y0.0584
G01 X-99.2773 Y0.0217
G01 X-99.2792 Y-0.0396
G01 X-99.2791 Y-13.6734
G01 X-99.2773 Y-13.7224
G01 X-99.2731 Y-13.7713
G01 X-99.2665 Y-13.8200
G01 X-99.2575 Y-13.8682
G01 X-99.2462 Y-13.9160
G01 X-99.2325 Y-13.9631
G01 X-99.2165 Y-14.0095
G01 X-99.1983 Y-14.0551
G01 X-99.1779 Y-14.0997
G01 X-99.1553 Y-14.1433
G01 X-99.1306 Y-14.1857
G01 X-99.1038 Y-14.2269
G01 X-99.0750 Y-14.2666
G01 X-99.0522 Y-14.2955
G01 X-99.0202 Y-14.3327
G01 X-98.9863 Y-14.3682
G01 X-98.9508 Y-14.4021
G01 X-98.9136 Y-14.4341
G01 X-98.8749 Y-14.4643
G01 X-98.8348 Y-14.4926
G01 X-98.7933 Y-14.5189
G01 X-98.7506 Y-14.5430
G01 X-98.7068 Y-14.5651
G01 X-98.6619 Y-14.5850
G01 X-98.6161 Y-14.6027
G01 X-98.5695 Y-14.6181
G01 X-98.5222 Y-14.6312
G01 X-98.4743 Y-14.6419
G01 X-98.4259 Y-14.6503
G01 X-98.3772 Y-14.6563
G01 X-98.3283 Y-14.6599
G01 X-98.2792 Y-14.6611
G00 X-98.2792 Y-14.6611
G01 F70.00
G01 Z-0.8000
G01 F120.00
G01 X-72.8607 Y-14.6611
G01 X-71.3899 Y-14.9186
G01 X-70.1233 Y-15.2804
G01 X-68.4249 Y-16.1479
G01 X-67.5994 Y-16.8705
G01 X-66.3875 Y-18.3027
G01 X-65.7543 Y-19.4634
G01 X-65.3609 Y-20.7159
G01 X-65.1437 Y-22.0566
G01 X-65.1437 Y-33.1396
G01 X-65.1430 Y-33.1764
G01 X-65.1410 Y-33.2132
G01 X-65.1376 Y-33.2498
G01 X-65.1329 Y-33.2863
G01 X-65.1268 Y-33.3226
G01 X-65.1194 Y-33.3587
G01 X-65.1107 Y-33.3945
G01 X-65.0970 Y-33.4416
G01 X-65.0853 Y-33.4765
G01 X-65.0722 Y-33.5109
G01 X-65.0579 Y-33.5448
G01 X-65.0424 Y-33.5782
G01 X-65.0256 Y-33.6110
G01 X-65.0077 Y-33.6431
G01 X-64.9886 Y-33.6746
G01 X-64.9683 Y-33.7053
G01 X-64.9469 Y-33.7353
G01 X-64.9167 Y-33.7740
G01 X-64.8929 Y-33.8020
G01 X-64.8680 Y-33.8291
G01 X-64.8421 Y-33.8553
G01 X-64.8153 Y-33.8806
G01 X-64.7876 Y-33.9048
G01 X-64.7492 Y-33.9354
G01 X-64.7195 Y-33.9572
G01 X-64.6890 Y-33.9778
G01 X-64.6578 Y-33.9973
G01 X-64.6259 Y-34.0157
G01 X-64.5933 Y-34.0328
G01 X-64.5602 Y-34.0488
G01 X-64.5264 Y-34.0635
G01 X-64.4921 Y-34.0769
G01 X-64.4574 Y-34.0891
G01 X-64.4104 Y-34.1034
G01 X-64.3748 Y-34.1125
G01 X-64.3388 Y-34.1204
G01 X-64.2783 Y-34.1305
G01 X-64.2173 Y-34.1369
G01 X-64.1805 Y-34.1389
G01 X-64.1437 Y-34.1396
G01 X-29.0823 Y-34.1396
G01 X-29.0455 Y-34.1389
G01 X-29.0087 Y-34.1369
G01 X-28.9721 Y-34.1335
G01 X-28.9355 Y-34.1288
G01 X-28.8872 Y-34.1204
G01 X-28.8512 Y-34.1125
G01 X-28.8156 Y-34.1034
G01 X-28.7803 Y-34.0929
G01 X-28.7454 Y-34.0811
G01 X-28.6996 Y-34.0635
G01 X-28.6659 Y-34.0488
G01 X-28.6217 Y-34.0272
G01 X-28.5894 Y-34.0097
G01 X-28.5473 Y-33.9845
G01 X-28.5065 Y-33.9572
G01 X-28.4768 Y-33.9354
G01 X-28.4479 Y-33.9126
G01 X-28.4107 Y-33.8806
G01 X-28.3752 Y-33.8467
G01 X-28.3496 Y-33.8202
G01 X-28.3251 Y-33.7928
G01 X-28.2939 Y-33.7548
G01 X-28.2647 Y-33.7154
G01 X-28.2441 Y-33.6849
G01 X-28.2246 Y-33.6537
G01 X-28.2004 Y-33.6110
G01 X-28.1836 Y-33.5782
G01 X-28.1681 Y-33.5449
G01 X-28.1493 Y-33.4995
G01 X-28.1367 Y-33.4649
G01 X-28.1253 Y-33.4299
G01 X-28.1122 Y-33.3826
G01 X-28.1015 Y-33.3347
G01 X-28.0950 Y-33.2985
G01 X-28.0884 Y-33.2498
G01 X-28.0850 Y-33.2132
G01 X-28.0830 Y-33.1764
G01 X-28.0823 Y-33.1396
G01 X-28.0821 Y-22.0541
G01 X-27.8646 Y-20.7138
G01 X-27.4716 Y-19.4635
G01 X-26.8384 Y-18.3027
G01 X-25.6249 Y-16.8688
G01 X-24.7999 Y-16.1471
G01 X-23.1027 Y-15.2804
G01 X-21.8361 Y-14.9186
G01 X-20.3653 Y-14.6611
G01 X-0.0669 Y-14.6610
G01 X-0.0179 Y-14.6592
G01 X0.0432 Y-14.6536
G01 X0.0918 Y-14.6464
G01 X0.1519 Y-14.6341
G01 X0.1993 Y-14.6216
G01 X0.2577 Y-14.6027
G01 X0.3035 Y-14.5850
G01 X0.3484 Y-14.5651
G01 X0.4030 Y-14.5372
G01 X0.4454 Y-14.5125
G01 X0.4865 Y-14.4857
G01 X0.5263 Y-14.4570
G01 X0.5646 Y-14.4263
G01 X0.6014 Y-14.3938
G01 X0.6450 Y-14.3507
G01 X0.6780 Y-14.3143
G01 X0.7091 Y-14.2764
G01 X0.7313 Y-14.2469
G01 X0.7590 Y-14.2064
G01 X0.7848 Y-14.1647
G01 X0.8084 Y-14.1217
G01 X0.8248 Y-14.0887
G01 X0.8447 Y-14.0438
G01 X0.8581 Y-14.0095
G01 X0.8703 Y-13.9748
G01 X0.8846 Y-13.9278
G01 X0.8937 Y-13.8922
G01 X0.9039 Y-13.8442
G01 X0.9117 Y-13.7957
G01 X0.9160 Y-13.7591
G01 X0.9189 Y-13.7224
G01 X0.9207 Y-13.6734
G01 X0.9208 Y-0.0396
G01 X0.9201 Y-0.0028
G01 X0.9181 Y0.0340
G01 X0.9147 Y0.0706
G01 X0.9100 Y0.1071
G01 X0.9016 Y0.1555
G01 X0.8937 Y0.1915
G01 X0.8846 Y0.2271
G01 X0.8703 Y0.2741
G01 X0.8581 Y0.3088
G01 X0.8399 Y0.3544
G01 X0.8248 Y0.3880
G01 X0.8027 Y0.4318
G01 X0.7785 Y0.4745
G01 X0.7590 Y0.5057
G01 X0.7313 Y0.5462
G01 X0.7015 Y0.5853
G01 X0.6699 Y0.6228
G01 X0.6450 Y0.6499
G01 X0.6192 Y0.6761
G01 X0.5832 Y0.7095
G01 X0.5552 Y0.7334
G01 X0.5165 Y0.7636
G01 X0.4764 Y0.7919
G01 X0.4454 Y0.8118
G01 X0.4030 Y0.8365
G01 X0.3704 Y0.8536
G01 X0.3260 Y0.8746
G01 X0.2807 Y0.8934
G01 X0.2345 Y0.9099
G01 X0.1875 Y0.9242
G01 X0.1399 Y0.9361
G01 X0.1038 Y0.9435
G01 X0.0554 Y0.9513
G01 X0.0188 Y0.9556
G01 X-0.0179 Y0.9585
G01 X-0.0669 Y0.9603
G01 X-98.2792 Y0.9604
G01 X-98.3160 Y0.9597
G01 X-98.3528 Y0.9577
G01 X-98.3894 Y0.9543
G01 X-98.4259 Y0.9496
G01 X-98.4743 Y0.9412
G01 X-98.5103 Y0.9333
G01 X-98.5459 Y0.9242
G01 X-98.5929 Y0.9099
G01 X-98.6391 Y0.8934
G01 X-98.6732 Y0.8795
G01 X-98.7068 Y0.8644
G01 X-98.7506 Y0.8423
G01 X-98.7933 Y0.8181
G01 X-98.8245 Y0.7986
G01 X-98.8550 Y0.7780
G01 X-98.8944 Y0.7487
G01 X-98.9230 Y0.7256
G01 X-98.9598 Y0.6931
G01 X-98.9949 Y0.6588
G01 X-99.0202 Y0.6320
G01 X-99.0444 Y0.6042
G01 X-99.0750 Y0.5659
G01 X-99.1038 Y0.5261
G01 X-99.1241 Y0.4954
G01 X-99.1432 Y0.4639
G01 X-99.1668 Y0.4209
G01 X-99.1884 Y0.3768
G01 X-99.2031 Y0.3431
G01 X-99.2165 Y0.3088
G01 X-99.2325 Y0.2624
G01 X-99.2462 Y0.2153
G01 X-99.2549 Y0.1795
G01 X-99.2623 Y0.1434
G01 X-99.2684 Y0.1071
G01 X-99.2744 Y0.0584
G01 X-99.2773 Y0.0217
G01 X-99.2792 Y-0.0396
G01 X-99.2791 Y-13.6734
G01 X-99.2773 Y-13.7224
G01 X-99.2731 Y-13.7713
G01 X-99.2665 Y-13.8200
G01 X-99.2575 Y-13.8682
G01 X-99.2462 Y-13.9160
G01 X-99.2325 Y-13.9631
G01 X-99.2165 Y-14.0095
G01 X-99.1983 Y-14.0551
G01 X-99.1779 Y-14.0997
G01 X-99.1553 Y-14.1433
G01 X-99.1306 Y-14.1857
G01 X-99.1038 Y-14.2269
G01 X-99.0750 Y-14.2666
G01 X-99.0522 Y-14.2955
G01 X-99.0202 Y-14.3327
G01 X-98.9863 Y-14.3682
G01 X-98.9508 Y-14.4021
G01 X-98.9136 Y-14.4341
G01 X-98.8749 Y-14.4643
G01 X-98.8348 Y-14.4926
G01 X-98.7933 Y-14.5189
G01 X-98.7506 Y-14.5430
G01 X-98.7068 Y-14.5651
G01 X-98.6619 Y-14.5850
G01 X-98.6161 Y-14.6027
G01 X-98.5695 Y-14.6181
G01 X-98.5222 Y-14.6312
G01 X-98.4743 Y-14.6419
G01 X-98.4259 Y-14.6503
G01 X-98.3772 Y-14.6563
G01 X-98.3283 Y-14.6599
G01 X-98.2792 Y-14.6611
G00 X-98.2792 Y-14.6611
G01 F70.00
G01 Z-0.9000
G01 F120.00
G01 X-72.8607 Y-14.6611
G01 X-71.3899 Y-14.9186
G01 X-70.1233 Y-15.2804
G01 X-68.4249 Y-16.1479
G01 X-67.5994 Y-16.8705
G01 X-66.3875 Y-18.3027
G01 X-65.7543 Y-19.4634
G01 X-65.3609 Y-20.7159
G01 X-65.1437 Y-22.0566
G01 X-65.1437 Y-33.1396
G01 X-65.1430 Y-33.1764
G01 X-65.1410 Y-33.2132
G01 X-65.1376 Y-33.2498
G01 X-65.1329 Y-33.2863
G01 X-65.1268 Y-33.3226
G01 X-65.1194 Y-33.3587
G01 X-65.1107 Y-33.3945
G01 X-65.0970 Y-33.4416
G01 X-65.0853 Y-33.4765
G01 X-65.0722 Y-33.5109
G01 X-65.0579 Y-33.5448
G01 X-65.0424 Y-33.5782
G01 X-65.0256 Y-33.6110
G01 X-65.0077 Y-33.6431
G01 X-64.9886 Y-33.6746
G01 X-64.9683 Y-33.7053
G01 X-64.9469 Y-33.7353
G01 X-64.9167 Y-33.7740
G01 X-64.8929 Y-33.8020
G01 X-64.8680 Y-33.8291
G01 X-64.8421 Y-33.8553
G01 X-64.8153 Y-33.8806
G01 X-64.7876 Y-33.9048
G01 X-64.7492 Y-33.9354
G01 X-64.7195 Y-33.9572
G01 X-64.6890 Y-33.9778
G01 X-64.6578 Y-33.9973
G01 X-64.6259 Y-34.0157
G01 X-64.5933 Y-34.0328
G01 X-64.5602 Y-34.0488
G01 X-64.5264 Y-34.0635
G01 X-64.4921 Y-34.0769
G01 X-64.4574 Y-34.0891
G01 X-64.4104 Y-34.1034
G01 X-64.3748 Y-34.1125
G01 X-64.3388 Y-34.1204
G01 X-64.2783 Y-34.1305
G01 X-64.2173 Y-34.1369
G01 X-64.1805 Y-34.1389
G01 X-64.1437 Y-34.1396
G01 X-29.0823 Y-34.1396
G01 X-29.0455 Y-34.1389
G01 X-29.0087 Y-34.1369
G01 X-28.9721 Y-34.1335
G01 X-28.9355 Y-34.1288
G01 X-28.8872 Y-34.1204
G01 X-28.8512 Y-34.1125
G01 X-28.8156 Y-34.1034
G01 X-28.7803 Y-34.0929
G01 X-28.7454 Y-34.0811
G01 X-28.6996 Y-34.0635
G01 X-28.6659 Y-34.0488
G01 X-28.6217 Y-34.0272
G01 X-28.5894 Y-34.0097
G01 X-28.5473 Y-33.9845
G01 X-28.5065 Y-33.9572
G01 X-28.4768 Y-33.9354
G01 X-28.4479 Y-33.9126
G01 X-28.4107 Y-33.8806
G01 X-28.3752 Y-33.8467
G01 X-28.3496 Y-33.8202
G01 X-28.3251 Y-33.7928
G01 X-28.2939 Y-33.7548
G01 X-28.2647 Y-33.7154
G01 X-28.2441 Y-33.6849
G01 X-28.2246 Y-33.6537
G01 X-28.2004 Y-33.6110
G01 X-28.1836 Y-33.5782
G01 X-28.1681 Y-33.5449
G01 X-28.1493 Y-33.4995
G01 X-28.1367 Y-33.4649
G01 X-28.1253 Y-33.4299
G01 X-28.1122 Y-33.3826
G01 X-28.1015 Y-33.3347
G01 X-28.0950 Y-33.2985
G01 X-28.0884 Y-33.2498
G01 X-28.0850 Y-33.2132
G01 X-28.0830 Y-33.1764
G01 X-28.0823 Y-33.1396
G01 X-28.0821 Y-22.0541
G01 X-27.8646 Y-20.7138
G01 X-27.4716 Y-19.4635
G01 X-26.8384 Y-18.3027
G01 X-25.6249 Y-16.8688
G01 X-24.7999 Y-16.1471
G01 X-23.1027 Y-15.2804
G01 X-21.8361 Y-14.9186
G01 X-20.3653 Y-14.6611
G01 X-0.0669 Y-14.6610
G01 X-0.0179 Y-14.6592
G01 X0.0432 Y-14.6536
G01 X0.0918 Y-14.6464
G01 X0.1519 Y-14.6341
G01 X0.1993 Y-14.6216
G01 X0.2577 Y-14.6027
G01 X0.3035 Y-14.5850
G01 X0.3484 Y-14.5651
G01 X0.4030 Y-14.5372
G01 X0.4454 Y-14.5125
G01 X0.4865 Y-14.4857
G01 X0.5263 Y-14.4570
G01 X0.5646 Y-14.4263
G01 X0.6014 Y-14.3938
G01 X0.6450 Y-14.3507
G01 X0.6780 Y-14.3143
G01 X0.7091 Y-14.2764
G01 X0.7313 Y-14.2469
G01 X0.7590 Y-14.2064
G01 X0.7848 Y-14.1647
G01 X0.8084 Y-14.1217
G01 X0.8248 Y-14.0887
G01 X0.8447 Y-14.0438
G01 X0.8581 Y-14.0095
G01 X0.8703 Y-13.9748
G01 X0.8846 Y-13.9278
G01 X0.8937 Y-13.8922
G01 X0.9039 Y-13.8442
G01 X0.9117 Y-13.7957
G01 X0.9160 Y-13.7591
G01 X0.9189 Y-13.7224
G01 X0.9207 Y-13.6734
G01 X0.9208 Y-0.0396
G01 X0.9201 Y-0.0028
G01 X0.9181 Y0.0340
G01 X0.9147 Y0.0706
G01 X0.9100 Y0.1071
G01 X0.9016 Y0.1555
G01 X0.8937 Y0.1915
G01 X0.8846 Y0.2271
G01 X0.8703 Y0.2741
G01 X0.8581 Y0.3088
G01 X0.8399 Y0.3544
G01 X0.8248 Y0.3880
G01 X0.8027 Y0.4318
G01 X0.7785 Y0.4745
G01 X0.7590 Y0.5057
G01 X0.7313 Y0.5462
G01 X0.7015 Y0.5853
G01 X0.6699 Y0.6228
G01 X0.6450 Y0.6499
G01 X0.6192 Y0.6761
G01 X0.5832 Y0.7095
G01 X0.5552 Y0.7334
G01 X0.5165 Y0.7636
G01 X0.4764 Y0.7919
G01 X0.4454 Y0.8118
G01 X0.4030 Y0.8365
G01 X0.3704 Y0.8536
G01 X0.3260 Y0.8746
G01 X0.2807 Y0.8934
G01 X0.2345 Y0.9099
G01 X0.1875 Y0.9242
G01 X0.1399 Y0.9361
G01 X0.1038 Y0.9435
G01 X0.0554 Y0.9513
G01 X0.0188 Y0.9556
G01 X-0.0179 Y0.9585
G01 X-0.0669 Y0.9603
G01 X-98.2792 Y0.9604
G01 X-98.3160 Y0.9597
G01 X-98.3528 Y0.9577
G01 X-98.3894 Y0.9543
G01 X-98.4259 Y0.9496
G01 X-98.4743 Y0.9412
G01 X-98.5103 Y0.9333
G01 X-98.5459 Y0.9242
G01 X-98.5929 Y0.9099
G01 X-98.6391 Y0.8934
G01 X-98.6732 Y0.8795
G01 X-98.7068 Y0.8644
G01 X-98.7506 Y0.8423
G01 X-98.7933 Y0.8181
G01 X-98.8245 Y0.7986
G01 X-98.8550 Y0.7780
G01 X-98.8944 Y0.7487
G01 X-98.9230 Y0.7256
G01 X-98.9598 Y0.6931
G01 X-98.9949 Y0.6588
G01 X-99.0202 Y0.6320
G01 X-99.0444 Y0.6042
G01 X-99.0750 Y0.5659
G01 X-99.1038 Y0.5261
G01 X-99.1241 Y0.4954
G01 X-99.1432 Y0.4639
G01 X-99.1668 Y0.4209
G01 X-99.1884 Y0.3768
G01 X-99.2031 Y0.3431
G01 X-99.2165 Y0.3088
G01 X-99.2325 Y0.2624
G01 X-99.2462 Y0.2153
G01 X-99.2549 Y0.1795
G01 X-99.2623 Y0.1434
G01 X-99.2684 Y0.1071
G01 X-99.2744 Y0.0584
G01 X-99.2773 Y0.0217
G01 X-99.2792 Y-0.0396
G01 X-99.2791 Y-13.6734
G01 X-99.2773 Y-13.7224
G01 X-99.2731 Y-13.7713
G01 X-99.2665 Y-13.8200
G01 X-99.2575 Y-13.8682
G01 X-99.2462 Y-13.9160
G01 X-99.2325 Y-13.9631
G01 X-99.2165 Y-14.0095
G01 X-99.1983 Y-14.0551
G01 X-99.1779 Y-14.0997
G01 X-99.1553 Y-14.1433
G01 X-99.1306 Y-14.1857
G01 X-99.1038 Y-14.2269
G01 X-99.0750 Y-14.2666
G01 X-99.0522 Y-14.2955
G01 X-99.0202 Y-14.3327
G01 X-98.9863 Y-14.3682
G01 X-98.9508 Y-14.4021
G01 X-98.9136 Y-14.4341
G01 X-98.8749 Y-14.4643
G01 X-98.8348 Y-14.4926
G01 X-98.7933 Y-14.5189
G01 X-98.7506 Y-14.5430
G01 X-98.7068 Y-14.5651
G01 X-98.6619 Y-14.5850
G01 X-98.6161 Y-14.6027
G01 X-98.5695 Y-14.6181
G01 X-98.5222 Y-14.6312
G01 X-98.4743 Y-14.6419
G01 X-98.4259 Y-14.6503
G01 X-98.3772 Y-14.6563
G01 X-98.3283 Y-14.6599
G01 X-98.2792 Y-14.6611
G00 X-98.2792 Y-14.6611
G01 F70.00
G01 Z-1.0000
G01 F120.00
G01 X-72.8607 Y-14.6611
G01 X-71.3899 Y-14.9186
G01 X-70.1233 Y-15.2804
G01 X-68.4249 Y-16.1479
G01 X-67.5994 Y-16.8705
G01 X-66.3875 Y-18.3027
G01 X-65.7543 Y-19.4634
G01 X-65.3609 Y-20.7159
G01 X-65.1437 Y-22.0566
G01 X-65.1437 Y-33.1396
G01 X-65.1430 Y-33.1764
G01 X-65.1410 Y-33.2132
G01 X-65.1376 Y-33.2498
G01 X-65.1329 Y-33.2863
G01 X-65.1268 Y-33.3226
G01 X-65.1194 Y-33.3587
G01 X-65.1107 Y-33.3945
G01 X-65.0970 Y-33.4416
G01 X-65.0853 Y-33.4765
G01 X-65.0722 Y-33.5109
G01 X-65.0579 Y-33.5448
G01 X-65.0424 Y-33.5782
G01 X-65.0256 Y-33.6110
G01 X-65.0077 Y-33.6431
G01 X-64.9886 Y-33.6746
G01 X-64.9683 Y-33.7053
G01 X-64.9469 Y-33.7353
G01 X-64.9167 Y-33.7740
G01 X-64.8929 Y-33.8020
G01 X-64.8680 Y-33.8291
G01 X-64.8421 Y-33.8553
G01 X-64.8153 Y-33.8806
G01 X-64.7876 Y-33.9048
G01 X-64.7492 Y-33.9354
G01 X-64.7195 Y-33.9572
G01 X-64.6890 Y-33.9778
G01 X-64.6578 Y-33.9973
G01 X-64.6259 Y-34.0157
G01 X-64.5933 Y-34.0328
G01 X-64.5602 Y-34.0488
G01 X-64.5264 Y-34.0635
G01 X-64.4921 Y-34.0769
G01 X-64.4574 Y-34.0891
G01 X-64.4104 Y-34.1034
G01 X-64.3748 Y-34.1125
G01 X-64.3388 Y-34.1204
G01 X-64.2783 Y-34.1305
G01 X-64.2173 Y-34.1369
G01 X-64.1805 Y-34.1389
G01 X-64.1437 Y-34.1396
G01 X-29.0823 Y-34.1396
G01 X-29.0455 Y-34.1389
G01 X-29.0087 Y-34.1369
G01 X-28.9721 Y-34.1335
G01 X-28.9355 Y-34.1288
G01 X-28.8872 Y-34.1204
G01 X-28.8512 Y-34.1125
G01 X-28.8156 Y-34.1034
G01 X-28.7803 Y-34.0929
G01 X-28.7454 Y-34.0811
G01 X-28.6996 Y-34.0635
G01 X-28.6659 Y-34.0488
G01 X-28.6217 Y-34.0272
G01 X-28.5894 Y-34.0097
G01 X-28.5473 Y-33.9845
G01 X-28.5065 Y-33.9572
G01 X-28.4768 Y-33.9354
G01 X-28.4479 Y-33.9126
G01 X-28.4107 Y-33.8806
G01 X-28.3752 Y-33.8467
G01 X-28.3496 Y-33.8202
G01 X-28.3251 Y-33.7928
G01 X-28.2939 Y-33.7548
G01 X-28.2647 Y-33.7154
G01 X-28.2441 Y-33.6849
G01 X-28.2246 Y-33.6537
G01 X-28.2004 Y-33.6110
G01 X-28.1836 Y-33.5782
G01 X-28.1681 Y-33.5449
G01 X-28.1493 Y-33.4995
G01 X-28.1367 Y-33.4649
G01 X-28.1253 Y-33.4299
G01 X-28.1122 Y-33.3826
G01 X-28.1015 Y-33.3347
G01 X-28.0950 Y-33.2985
G01 X-28.0884 Y-33.2498
G01 X-28.0850 Y-33.2132
G01 X-28.0830 Y-33.1764
G01 X-28.0823 Y-33.1396
G01 X-28.0821 Y-22.0541
G01 X-27.8646 Y-20.7138
G01 X-27.4716 Y-19.4635
G01 X-26.8384 Y-18.3027
G01 X-25.6249 Y-16.8688
G01 X-24.7999 Y-16.1471
G01 X-23.1027 Y-15.2804
G01 X-21.8361 Y-14.9186
G01 X-20.3653 Y-14.6611
G01 X-0.0669 Y-14.6610
G01 X-0.0179 Y-14.6592
G01 X0.0432 Y-14.6536
G01 X0.0918 Y-14.6464
G01 X0.1519 Y-14.6341
G01 X0.1993 Y-14.6216
G01 X0.2577 Y-14.6027
G01 X0.3035 Y-14.5850
G01 X0.3484 Y-14.5651
G01 X0.4030 Y-14.5372
G01 X0.4454 Y-14.5125
G01 X0.4865 Y-14.4857
G01 X0.5263 Y-14.4570
G01 X0.5646 Y-14.4263
G01 X0.6014 Y-14.3938
G01 X0.6450 Y-14.3507
G01 X0.6780 Y-14.3143
G01 X0.7091 Y-14.2764
G01 X0.7313 Y-14.2469
G01 X0.7590 Y-14.2064
G01 X0.7848 Y-14.1647
G01 X0.8084 Y-14.1217
G01 X0.8248 Y-14.0887
G01 X0.8447 Y-14.0438
G01 X0.8581 Y-14.0095
G01 X0.8703 Y-13.9748
G01 X0.8846 Y-13.9278
G01 X0.8937 Y-13.8922
G01 X0.9039 Y-13.8442
G01 X0.9117 Y-13.7957
G01 X0.9160 Y-13.7591
G01 X0.9189 Y-13.7224
G01 X0.9207 Y-13.6734
G01 X0.9208 Y-0.0396
G01 X0.9201 Y-0.0028
G01 X0.9181 Y0.0340
G01 X0.9147 Y0.0706
G01 X0.9100 Y0.1071
G01 X0.9016 Y0.1555
G01 X0.8937 Y0.1915
G01 X0.8846 Y0.2271
G01 X0.8703 Y0.2741
G01 X0.8581 Y0.3088
G01 X0.8399 Y0.3544
G01 X0.8248 Y0.3880
G01 X0.8027 Y0.4318
G01 X0.7785 Y0.4745
G01 X0.7590 Y0.5057
G01 X0.7313 Y0.5462
G01 X0.7015 Y0.5853
G01 X0.6699 Y0.6228
G01 X0.6450 Y0.6499
G01 X0.6192 Y0.6761
G01 X0.5832 Y0.7095
G01 X0.5552 Y0.7334
G01 X0.5165 Y0.7636
G01 X0.4764 Y0.7919
G01 X0.4454 Y0.8118
G01 X0.4030 Y0.8365
G01 X0.3704 Y0.8536
G01 X0.3260 Y0.8746
G01 X0.2807 Y0.8934
G01 X0.2345 Y0.9099
G01 X0.1875 Y0.9242
G01 X0.1399 Y0.9361
G01 X0.1038 Y0.9435
G01 X0.0554 Y0.9513
G01 X0.0188 Y0.9556
G01 X-0.0179 Y0.9585
G01 X-0.0669 Y0.9603
G01 X-98.2792 Y0.9604
G01 X-98.3160 Y0.9597
G01 X-98.3528 Y0.9577
G01 X-98.3894 Y0.9543
G01 X-98.4259 Y0.9496
G01 X-98.4743 Y0.9412
G01 X-98.5103 Y0.9333
G01 X-98.5459 Y0.9242
G01 X-98.5929 Y0.9099
G01 X-98.6391 Y0.8934
G01 X-98.6732 Y0.8795
G01 X-98.7068 Y0.8644
G01 X-98.7506 Y0.8423
G01 X-98.7933 Y0.8181
G01 X-98.8245 Y0.7986
G01 X-98.8550 Y0.7780
G01 X-98.8944 Y0.7487
G01 X-98.9230 Y0.7256
G01 X-98.9598 Y0.6931
G01 X-98.9949 Y0.6588
G01 X-99.0202 Y0.6320
G01 X-99.0444 Y0.6042
G01 X-99.0750 Y0.5659
G01 X-99.1038 Y0.5261
G01 X-99.1241 Y0.4954
G01 X-99.1432 Y0.4639
G01 X-99.1668 Y0.4209
G01 X-99.1884 Y0.3768
G01 X-99.2031 Y0.3431
G01 X-99.2165 Y0.3088
G01 X-99.2325 Y0.2624
G01 X-99.2462 Y0.2153
G01 X-99.2549 Y0.1795
G01 X-99.2623 Y0.1434
G01 X-99.2684 Y0.1071
G01 X-99.2744 Y0.0584
G01 X-99.2773 Y0.0217
G01 X-99.2792 Y-0.0396
G01 X-99.2791 Y-13.6734
G01 X-99.2773 Y-13.7224
G01 X-99.2731 Y-13.7713
G01 X-99.2665 Y-13.8200
G01 X-99.2575 Y-13.8682
G01 X-99.2462 Y-13.9160
G01 X-99.2325 Y-13.9631
G01 X-99.2165 Y-14.0095
G01 X-99.1983 Y-14.0551
G01 X-99.1779 Y-14.0997
G01 X-99.1553 Y-14.1433
G01 X-99.1306 Y-14.1857
G01 X-99.1038 Y-14.2269
G01 X-99.0750 Y-14.2666
G01 X-99.0522 Y-14.2955
G01 X-99.0202 Y-14.3327
G01 X-98.9863 Y-14.3682
G01 X-98.9508 Y-14.4021
G01 X-98.9136 Y-14.4341
G01 X-98.8749 Y-14.4643
G01 X-98.8348 Y-14.4926
G01 X-98.7933 Y-14.5189
G01 X-98.7506 Y-14.5430
G01 X-98.7068 Y-14.5651
G01 X-98.6619 Y-14.5850
G01 X-98.6161 Y-14.6027
G01 X-98.5695 Y-14.6181
G01 X-98.5222 Y-14.6312
G01 X-98.4743 Y-14.6419
G01 X-98.4259 Y-14.6503
G01 X-98.3772 Y-14.6563
G01 X-98.3283 Y-14.6599
G01 X-98.2792 Y-14.6611
G00 X-98.2792 Y-14.6611
G01 F70.00
G01 Z-1.1000
G01 F120.00
G01 X-72.8607 Y-14.6611
G01 X-71.3899 Y-14.9186
G01 X-70.1233 Y-15.2804
G01 X-68.4249 Y-16.1479
G01 X-67.5994 Y-16.8705
G01 X-66.3875 Y-18.3027
G01 X-65.7543 Y-19.4634
G01 X-65.3609 Y-20.7159
G01 X-65.1437 Y-22.0566
G01 X-65.1437 Y-33.1396
G01 X-65.1430 Y-33.1764
G01 X-65.1410 Y-33.2132
G01 X-65.1376 Y-33.2498
G01 X-65.1329 Y-33.2863
G01 X-65.1268 Y-33.3226
G01 X-65.1194 Y-33.3587
G01 X-65.1107 Y-33.3945
G01 X-65.0970 Y-33.4416
G01 X-65.0853 Y-33.4765
G01 X-65.0722 Y-33.5109
G01 X-65.0579 Y-33.5448
G01 X-65.0424 Y-33.5782
G01 X-65.0256 Y-33.6110
G01 X-65.0077 Y-33.6431
G01 X-64.9886 Y-33.6746
G01 X-64.9683 Y-33.7053
G01 X-64.9469 Y-33.7353
G01 X-64.9167 Y-33.7740
G01 X-64.8929 Y-33.8020
G01 X-64.8680 Y-33.8291
G01 X-64.8421 Y-33.8553
G01 X-64.8153 Y-33.8806
G01 X-64.7876 Y-33.9048
G01 X-64.7492 Y-33.9354
G01 X-64.7195 Y-33.9572
G01 X-64.6890 Y-33.9778
G01 X-64.6578 Y-33.9973
G01 X-64.6259 Y-34.0157
G01 X-64.5933 Y-34.0328
G01 X-64.5602 Y-34.0488
G01 X-64.5264 Y-34.0635
G01 X-64.4921 Y-34.0769
G01 X-64.4574 Y-34.0891
G01 X-64.4104 Y-34.1034
G01 X-64.3748 Y-34.1125
G01 X-64.3388 Y-34.1204
G01 X-64.2783 Y-34.1305
G01 X-64.2173 Y-34.1369
G01 X-64.1805 Y-34.1389
G01 X-64.1437 Y-34.1396
G01 X-29.0823 Y-34.1396
G01 X-29.0455 Y-34.1389
G01 X-29.0087 Y-34.1369
G01 X-28.9721 Y-34.1335
G01 X-28.9355 Y-34.1288
G01 X-28.8872 Y-34.1204
G01 X-28.8512 Y-34.1125
G01 X-28.8156 Y-34.1034
G01 X-28.7803 Y-34.0929
G01 X-28.7454 Y-34.0811
G01 X-28.6996 Y-34.0635
G01 X-28.6659 Y-34.0488
G01 X-28.6217 Y-34.0272
G01 X-28.5894 Y-34.0097
G01 X-28.5473 Y-33.9845
G01 X-28.5065 Y-33.9572
G01 X-28.4768 Y-33.9354
G01 X-28.4479 Y-33.9126
G01 X-28.4107 Y-33.8806
G01 X-28.3752 Y-33.8467
G01 X-28.3496 Y-33.8202
G01 X-28.3251 Y-33.7928
G01 X-28.2939 Y-33.7548
G01 X-28.2647 Y-33.7154
G01 X-28.2441 Y-33.6849
G01 X-28.2246 Y-33.6537
G01 X-28.2004 Y-33.6110
G01 X-28.1836 Y-33.5782
G01 X-28.1681 Y-33.5449
G01 X-28.1493 Y-33.4995
G01 X-28.1367 Y-33.4649
G01 X-28.1253 Y-33.4299
G01 X-28.1122 Y-33.3826
G01 X-28.1015 Y-33.3347
G01 X-28.0950 Y-33.2985
G01 X-28.0884 Y-33.2498
G01 X-28.0850 Y-33.2132
G01 X-28.0830 Y-33.1764
G01 X-28.0823 Y-33.1396
G01 X-28.0821 Y-22.0541
G01 X-27.8646 Y-20.7138
G01 X-27.4716 Y-19.4635
G01 X-26.8384 Y-18.3027
G01 X-25.6249 Y-16.8688
G01 X-24.7999 Y-16.1471
G01 X-23.1027 Y-15.2804
G01 X-21.8361 Y-14.9186
G01 X-20.3653 Y-14.6611
G01 X-0.0669 Y-14.6610
G01 X-0.0179 Y-14.6592
G01 X0.0432 Y-14.6536
G01 X0.0918 Y-14.6464
G01 X0.1519 Y-14.6341
G01 X0.1993 Y-14.6216
G01 X0.2577 Y-14.6027
G01 X0.3035 Y-14.5850
G01 X0.3484 Y-14.5651
G01 X0.4030 Y-14.5372
G01 X0.4454 Y-14.5125
G01 X0.4865 Y-14.4857
G01 X0.5263 Y-14.4570
G01 X0.5646 Y-14.4263
G01 X0.6014 Y-14.3938
G01 X0.6450 Y-14.3507
G01 X0.6780 Y-14.3143
G01 X0.7091 Y-14.2764
G01 X0.7313 Y-14.2469
G01 X0.7590 Y-14.2064
G01 X0.7848 Y-14.1647
G01 X0.8084 Y-14.1217
G01 X0.8248 Y-14.0887
G01 X0.8447 Y-14.0438
G01 X0.8581 Y-14.0095
G01 X0.8703 Y-13.9748
G01 X0.8846 Y-13.9278
G01 X0.8937 Y-13.8922
G01 X0.9039 Y-13.8442
G01 X0.9117 Y-13.7957
G01 X0.9160 Y-13.7591
G01 X0.9189 Y-13.7224
G01 X0.9207 Y-13.6734
G01 X0.9208 Y-0.0396
G01 X0.9201 Y-0.0028
G01 X0.9181 Y0.0340
G01 X0.9147 Y0.0706
G01 X0.9100 Y0.1071
G01 X0.9016 Y0.1555
G01 X0.8937 Y0.1915
G01 X0.8846 Y0.2271
G01 X0.8703 Y0.2741
G01 X0.8581 Y0.3088
G01 X0.8399 Y0.3544
G01 X0.8248 Y0.3880
G01 X0.8027 Y0.4318
G01 X0.7785 Y0.4745
G01 X0.7590 Y0.5057
G01 X0.7313 Y0.5462
G01 X0.7015 Y0.5853
G01 X0.6699 Y0.6228
G01 X0.6450 Y0.6499
G01 X0.6192 Y0.6761
G01 X0.5832 Y0.7095
G01 X0.5552 Y0.7334
G01 X0.5165 Y0.7636
G01 X0.4764 Y0.7919
G01 X0.4454 Y0.8118
G01 X0.4030 Y0.8365
G01 X0.3704 Y0.8536
G01 X0.3260 Y0.8746
G01 X0.2807 Y0.8934
G01 X0.2345 Y0.9099
G01 X0.1875 Y0.9242
G01 X0.1399 Y0.9361
G01 X0.1038 Y0.9435
G01 X0.0554 Y0.9513
G01 X0.0188 Y0.9556
G01 X-0.0179 Y0.9585
G01 X-0.0669 Y0.9603
G01 X-98.2792 Y0.9604
G01 X-98.3160 Y0.9597
G01 X-98.3528 Y0.9577
G01 X-98.3894 Y0.9543
G01 X-98.4259 Y0.9496
G01 X-98.4743 Y0.9412
G01 X-98.5103 Y0.9333
G01 X-98.5459 Y0.9242
G01 X-98.5929 Y0.9099
G01 X-98.6391 Y0.8934
G01 X-98.6732 Y0.8795
G01 X-98.7068 Y0.8644
G01 X-98.7506 Y0.8423
G01 X-98.7933 Y0.8181
G01 X-98.8245 Y0.7986
G01 X-98.8550 Y0.7780
G01 X-98.8944 Y0.7487
G01 X-98.9230 Y0.7256
G01 X-98.9598 Y0.6931
G01 X-98.9949 Y0.6588
G01 X-99.0202 Y0.6320
G01 X-99.0444 Y0.6042
G01 X-99.0750 Y0.5659
G01 X-99.1038 Y0.5261
G01 X-99.1241 Y0.4954
G01 X-99.1432 Y0.4639
G01 X-99.1668 Y0.4209
G01 X-99.1884 Y0.3768
G01 X-99.2031 Y0.3431
G01 X-99.2165 Y0.3088
G01 X-99.2325 Y0.2624
G01 X-99.2462 Y0.2153
G01 X-99.2549 Y0.1795
G01 X-99.2623 Y0.1434
G01 X-99.2684 Y0.1071
G01 X-99.2744 Y0.0584
G01 X-99.2773 Y0.0217
G01 X-99.2792 Y-0.0396
G01 X-99.2791 Y-13.6734
G01 X-99.2773 Y-13.7224
G01 X-99.2731 Y-13.7713
G01 X-99.2665 Y-13.8200
G01 X-99.2575 Y-13.8682
G01 X-99.2462 Y-13.9160
G01 X-99.2325 Y-13.9631
G01 X-99.2165 Y-14.0095
G01 X-99.1983 Y-14.0551
G01 X-99.1779 Y-14.0997
G01 X-99.1553 Y-14.1433
G01 X-99.1306 Y-14.1857
G01 X-99.1038 Y-14.2269
G01 X-99.0750 Y-14.2666
G01 X-99.0522 Y-14.2955
G01 X-99.0202 Y-14.3327
G01 X-98.9863 Y-14.3682
G01 X-98.9508 Y-14.4021
G01 X-98.9136 Y-14.4341
G01 X-98.8749 Y-14.4643
G01 X-98.8348 Y-14.4926
G01 X-98.7933 Y-14.5189
G01 X-98.7506 Y-14.5430
G01 X-98.7068 Y-14.5651
G01 X-98.6619 Y-14.5850
G01 X-98.6161 Y-14.6027
G01 X-98.5695 Y-14.6181
G01 X-98.5222 Y-14.6312
G01 X-98.4743 Y-14.6419
G01 X-98.4259 Y-14.6503
G01 X-98.3772 Y-14.6563
G01 X-98.3283 Y-14.6599
G01 X-98.2792 Y-14.6611
G00 X-98.2792 Y-14.6611
G01 F70.00
G01 Z-1.2000
G01 F120.00
G01 X-72.8607 Y-14.6611
G01 X-71.3899 Y-14.9186
G01 X-70.1233 Y-15.2804
G01 X-68.4249 Y-16.1479
G01 X-67.5994 Y-16.8705
G01 X-66.3875 Y-18.3027
G01 X-65.7543 Y-19.4634
G01 X-65.3609 Y-20.7159
G01 X-65.1437 Y-22.0566
G01 X-65.1437 Y-33.1396
G01 X-65.1430 Y-33.1764
G01 X-65.1410 Y-33.2132
G01 X-65.1376 Y-33.2498
G01 X-65.1329 Y-33.2863
G01 X-65.1268 Y-33.3226
G01 X-65.1194 Y-33.3587
G01 X-65.1107 Y-33.3945
G01 X-65.0970 Y-33.4416
G01 X-65.0853 Y-33.4765
G01 X-65.0722 Y-33.5109
G01 X-65.0579 Y-33.5448
G01 X-65.0424 Y-33.5782
G01 X-65.0256 Y-33.6110
G01 X-65.0077 Y-33.6431
G01 X-64.9886 Y-33.6746
G01 X-64.9683 Y-33.7053
G01 X-64.9469 Y-33.7353
G01 X-64.9167 Y-33.7740
G01 X-64.8929 Y-33.8020
G01 X-64.8680 Y-33.8291
G01 X-64.8421 Y-33.8553
G01 X-64.8153 Y-33.8806
G01 X-64.7876 Y-33.9048
G01 X-64.7492 Y-33.9354
G01 X-64.7195 Y-33.9572
G01 X-64.6890 Y-33.9778
G01 X-64.6578 Y-33.9973
G01 X-64.6259 Y-34.0157
G01 X-64.5933 Y-34.0328
G01 X-64.5602 Y-34.0488
G01 X-64.5264 Y-34.0635
G01 X-64.4921 Y-34.0769
G01 X-64.4574 Y-34.0891
G01 X-64.4104 Y-34.1034
G01 X-64.3748 Y-34.1125
G01 X-64.3388 Y-34.1204
G01 X-64.2783 Y-34.1305
G01 X-64.2173 Y-34.1369
G01 X-64.1805 Y-34.1389
G01 X-64.1437 Y-34.1396
G01 X-29.0823 Y-34.1396
G01 X-29.0455 Y-34.1389
G01 X-29.0087 Y-34.1369
G01 X-28.9721 Y-34.1335
G01 X-28.9355 Y-34.1288
G01 X-28.8872 Y-34.1204
G01 X-28.8512 Y-34.1125
G01 X-28.8156 Y-34.1034
G01 X-28.7803 Y-34.0929
G01 X-28.7454 Y-34.0811
G01 X-28.6996 Y-34.0635
G01 X-28.6659 Y-34.0488
G01 X-28.6217 Y-34.0272
G01 X-28.5894 Y-34.0097
G01 X-28.5473 Y-33.9845
G01 X-28.5065 Y-33.9572
G01 X-28.4768 Y-33.9354
G01 X-28.4479 Y-33.9126
G01 X-28.4107 Y-33.8806
G01 X-28.3752 Y-33.8467
G01 X-28.3496 Y-33.8202
G01 X-28.3251 Y-33.7928
G01 X-28.2939 Y-33.7548
G01 X-28.2647 Y-33.7154
G01 X-28.2441 Y-33.6849
G01 X-28.2246 Y-33.6537
G01 X-28.2004 Y-33.6110
G01 X-28.1836 Y-33.5782
G01 X-28.1681 Y-33.5449
G01 X-28.1493 Y-33.4995
G01 X-28.1367 Y-33.4649
G01 X-28.1253 Y-33.4299
G01 X-28.1122 Y-33.3826
G01 X-28.1015 Y-33.3347
G01 X-28.0950 Y-33.2985
G01 X-28.0884 Y-33.2498
G01 X-28.0850 Y-33.2132
G01 X-28.0830 Y-33.1764
G01 X-28.0823 Y-33.1396
G01 X-28.0821 Y-22.0541
G01 X-27.8646 Y-20.7138
G01 X-27.4716 Y-19.4635
G01 X-26.8384 Y-18.3027
G01 X-25.6249 Y-16.8688
G01 X-24.7999 Y-16.1471
G01 X-23.1027 Y-15.2804
G01 X-21.8361 Y-14.9186
G01 X-20.3653 Y-14.6611
G01 X-0.0669 Y-14.6610
G01 X-0.0179 Y-14.6592
G01 X0.0432 Y-14.6536
G01 X0.0918 Y-14.6464
G01 X0.1519 Y-14.6341
G01 X0.1993 Y-14.6216
G01 X0.2577 Y-14.6027
G01 X0.3035 Y-14.5850
G01 X0.3484 Y-14.5651
G01 X0.4030 Y-14.5372
G01 X0.4454 Y-14.5125
G01 X0.4865 Y-14.4857
G01 X0.5263 Y-14.4570
G01 X0.5646 Y-14.4263
G01 X0.6014 Y-14.3938
G01 X0.6450 Y-14.3507
G01 X0.6780 Y-14.3143
G01 X0.7091 Y-14.2764
G01 X0.7313 Y-14.2469
G01 X0.7590 Y-14.2064
G01 X0.7848 Y-14.1647
G01 X0.8084 Y-14.1217
G01 X0.8248 Y-14.0887
G01 X0.8447 Y-14.0438
G01 X0.8581 Y-14.0095
G01 X0.8703 Y-13.9748
G01 X0.8846 Y-13.9278
G01 X0.8937 Y-13.8922
G01 X0.9039 Y-13.8442
G01 X0.9117 Y-13.7957
G01 X0.9160 Y-13.7591
G01 X0.9189 Y-13.7224
G01 X0.9207 Y-13.6734
G01 X0.9208 Y-0.0396
G01 X0.9201 Y-0.0028
G01 X0.9181 Y0.0340
G01 X0.9147 Y0.0706
G01 X0.9100 Y0.1071
G01 X0.9016 Y0.1555
G01 X0.8937 Y0.1915
G01 X0.8846 Y0.2271
G01 X0.8703 Y0.2741
G01 X0.8581 Y0.3088
G01 X0.8399 Y0.3544
G01 X0.8248 Y0.3880
G01 X0.8027 Y0.4318
G01 X0.7785 Y0.4745
G01 X0.7590 Y0.5057
G01 X0.7313 Y0.5462
G01 X0.7015 Y0.5853
G01 X0.6699 Y0.6228
G01 X0.6450 Y0.6499
G01 X0.6192 Y0.6761
G01 X0.5832 Y0.7095
G01 X0.5552 Y0.7334
G01 X0.5165 Y0.7636
G01 X0.4764 Y0.7919
G01 X0.4454 Y0.8118
G01 X0.4030 Y0.8365
G01 X0.3704 Y0.8536
G01 X0.3260 Y0.8746
G01 X0.2807 Y0.8934
G01 X0.2345 Y0.9099
G01 X0.1875 Y0.9242
G01 X0.1399 Y0.9361
G01 X0.1038 Y0.9435
G01 X0.0554 Y0.9513
G01 X0.0188 Y0.9556
G01 X-0.0179 Y0.9585
G01 X-0.0669 Y0.9603
G01 X-98.2792 Y0.9604
G01 X-98.3160 Y0.9597
G01 X-98.3528 Y0.9577
G01 X-98.3894 Y0.9543
G01 X-98.4259 Y0.9496
G01 X-98.4743 Y0.9412
G01 X-98.5103 Y0.9333
G01 X-98.5459 Y0.9242
G01 X-98.5929 Y0.9099
G01 X-98.6391 Y0.8934
G01 X-98.6732 Y0.8795
G01 X-98.7068 Y0.8644
G01 X-98.7506 Y0.8423
G01 X-98.7933 Y0.8181
G01 X-98.8245 Y0.7986
G01 X-98.8550 Y0.7780
G01 X-98.8944 Y0.7487
G01 X-98.9230 Y0.7256
G01 X-98.9598 Y0.6931
G01 X-98.9949 Y0.6588
G01 X-99.0202 Y0.6320
G01 X-99.0444 Y0.6042
G01 X-99.0750 Y0.5659
G01 X-99.1038 Y0.5261
G01 X-99.1241 Y0.4954
G01 X-99.1432 Y0.4639
G01 X-99.1668 Y0.4209
G01 X-99.1884 Y0.3768
G01 X-99.2031 Y0.3431
G01 X-99.2165 Y0.3088
G01 X-99.2325 Y0.2624
G01 X-99.2462 Y0.2153
G01 X-99.2549 Y0.1795
G01 X-99.2623 Y0.1434
G01 X-99.2684 Y0.1071
G01 X-99.2744 Y0.0584
G01 X-99.2773 Y0.0217
G01 X-99.2792 Y-0.0396
G01 X-99.2791 Y-13.6734
G01 X-99.2773 Y-13.7224
G01 X-99.2731 Y-13.7713
G01 X-99.2665 Y-13.8200
G01 X-99.2575 Y-13.8682
G01 X-99.2462 Y-13.9160
G01 X-99.2325 Y-13.9631
G01 X-99.2165 Y-14.0095
G01 X-99.1983 Y-14.0551
G01 X-99.1779 Y-14.0997
G01 X-99.1553 Y-14.1433
G01 X-99.1306 Y-14.1857
G01 X-99.1038 Y-14.2269
G01 X-99.0750 Y-14.2666
G01 X-99.0522 Y-14.2955
G01 X-99.0202 Y-14.3327
G01 X-98.9863 Y-14.3682
G01 X-98.9508 Y-14.4021
G01 X-98.9136 Y-14.4341
G01 X-98.8749 Y-14.4643
G01 X-98.8348 Y-14.4926
G01 X-98.7933 Y-14.5189
G01 X-98.7506 Y-14.5430
G01 X-98.7068 Y-14.5651
G01 X-98.6619 Y-14.5850
G01 X-98.6161 Y-14.6027
G01 X-98.5695 Y-14.6181
G01 X-98.5222 Y-14.6312
G01 X-98.4743 Y-14.6419
G01 X-98.4259 Y-14.6503
G01 X-98.3772 Y-14.6563
G01 X-98.3283 Y-14.6599
G01 X-98.2792 Y-14.6611
G00 X-98.2792 Y-14.6611
G01 F70.00
G01 Z-1.3000
G01 F120.00
G01 X-72.8607 Y-14.6611
G01 X-71.3899 Y-14.9186
G01 X-70.1233 Y-15.2804
G01 X-68.4249 Y-16.1479
G01 X-67.5994 Y-16.8705
G01 X-66.3875 Y-18.3027
G01 X-65.7543 Y-19.4634
G01 X-65.3609 Y-20.7159
G01 X-65.1437 Y-22.0566
G01 X-65.1437 Y-33.1396
G01 X-65.1430 Y-33.1764
G01 X-65.1410 Y-33.2132
G01 X-65.1376 Y-33.2498
G01 X-65.1329 Y-33.2863
G01 X-65.1268 Y-33.3226
G01 X-65.1194 Y-33.3587
G01 X-65.1107 Y-33.3945
G01 X-65.0970 Y-33.4416
G01 X-65.0853 Y-33.4765
G01 X-65.0722 Y-33.5109
G01 X-65.0579 Y-33.5448
G01 X-65.0424 Y-33.5782
G01 X-65.0256 Y-33.6110
G01 X-65.0077 Y-33.6431
G01 X-64.9886 Y-33.6746
G01 X-64.9683 Y-33.7053
G01 X-64.9469 Y-33.7353
G01 X-64.9167 Y-33.7740
G01 X-64.8929 Y-33.8020
G01 X-64.8680 Y-33.8291
G01 X-64.8421 Y-33.8553
G01 X-64.8153 Y-33.8806
G01 X-64.7876 Y-33.9048
G01 X-64.7492 Y-33.9354
G01 X-64.7195 Y-33.9572
G01 X-64.6890 Y-33.9778
G01 X-64.6578 Y-33.9973
G01 X-64.6259 Y-34.0157
G01 X-64.5933 Y-34.0328
G01 X-64.5602 Y-34.0488
G01 X-64.5264 Y-34.0635
G01 X-64.4921 Y-34.0769
G01 X-64.4574 Y-34.0891
G01 X-64.4104 Y-34.1034
G01 X-64.3748 Y-34.1125
G01 X-64.3388 Y-34.1204
G01 X-64.2783 Y-34.1305
G01 X-64.2173 Y-34.1369
G01 X-64.1805 Y-34.1389
G01 X-64.1437 Y-34.1396
G01 X-29.0823 Y-34.1396
G01 X-29.0455 Y-34.1389
G01 X-29.0087 Y-34.1369
G01 X-28.9721 Y-34.1335
G01 X-28.9355 Y-34.1288
G01 X-28.8872 Y-34.1204
G01 X-28.8512 Y-34.1125
G01 X-28.8156 Y-34.1034
G01 X-28.7803 Y-34.0929
G01 X-28.7454 Y-34.0811
G01 X-28.6996 Y-34.0635
G01 X-28.6659 Y-34.0488
G01 X-28.6217 Y-34.0272
G01 X-28.5894 Y-34.0097
G01 X-28.5473 Y-33.9845
G01 X-28.5065 Y-33.9572
G01 X-28.4768 Y-33.9354
G01 X-28.4479 Y-33.9126
G01 X-28.4107 Y-33.8806
G01 X-28.3752 Y-33.8467
G01 X-28.3496 Y-33.8202
G01 X-28.3251 Y-33.7928
G01 X-28.2939 Y-33.7548
G01 X-28.2647 Y-33.7154
G01 X-28.2441 Y-33.6849
G01 X-28.2246 Y-33.6537
G01 X-28.2004 Y-33.6110
G01 X-28.1836 Y-33.5782
G01 X-28.1681 Y-33.5449
G01 X-28.1493 Y-33.4995
G01 X-28.1367 Y-33.4649
G01 X-28.1253 Y-33.4299
G01 X-28.1122 Y-33.3826
G01 X-28.1015 Y-33.3347
G01 X-28.0950 Y-33.2985
G01 X-28.0884 Y-33.2498
G01 X-28.0850 Y-33.2132
G01 X-28.0830 Y-33.1764
G01 X-28.0823 Y-33.1396
G01 X-28.0821 Y-22.0541
G01 X-27.8646 Y-20.7138
G01 X-27.4716 Y-19.4635
G01 X-26.8384 Y-18.3027
G01 X-25.6249 Y-16.8688
G01 X-24.7999 Y-16.1471
G01 X-23.1027 Y-15.2804
G01 X-21.8361 Y-14.9186
G01 X-20.3653 Y-14.6611
G01 X-0.0669 Y-14.6610
G01 X-0.0179 Y-14.6592
G01 X0.0432 Y-14.6536
G01 X0.0918 Y-14.6464
G01 X0.1519 Y-14.6341
G01 X0.1993 Y-14.6216
G01 X0.2577 Y-14.6027
G01 X0.3035 Y-14.5850
G01 X0.3484 Y-14.5651
G01 X0.4030 Y-14.5372
G01 X0.4454 Y-14.5125
G01 X0.4865 Y-14.4857
G01 X0.5263 Y-14.4570
G01 X0.5646 Y-14.4263
G01 X0.6014 Y-14.3938
G01 X0.6450 Y-14.3507
G01 X0.6780 Y-14.3143
G01 X0.7091 Y-14.2764
G01 X0.7313 Y-14.2469
G01 X0.7590 Y-14.2064
G01 X0.7848 Y-14.1647
G01 X0.8084 Y-14.1217
G01 X0.8248 Y-14.0887
G01 X0.8447 Y-14.0438
G01 X0.8581 Y-14.0095
G01 X0.8703 Y-13.9748
G01 X0.8846 Y-13.9278
G01 X0.8937 Y-13.8922
G01 X0.9039 Y-13.8442
G01 X0.9117 Y-13.7957
G01 X0.9160 Y-13.7591
G01 X0.9189 Y-13.7224
G01 X0.9207 Y-13.6734
G01 X0.9208 Y-0.0396
G01 X0.9201 Y-0.0028
G01 X0.9181 Y0.0340
G01 X0.9147 Y0.0706
G01 X0.9100 Y0.1071
G01 X0.9016 Y0.1555
G01 X0.8937 Y0.1915
G01 X0.8846 Y0.2271
G01 X0.8703 Y0.2741
G01 X0.8581 Y0.3088
G01 X0.8399 Y0.3544
G01 X0.8248 Y0.3880
G01 X0.8027 Y0.4318
G01 X0.7785 Y0.4745
G01 X0.7590 Y0.5057
G01 X0.7313 Y0.5462
G01 X0.7015 Y0.5853
G01 X0.6699 Y0.6228
G01 X0.6450 Y0.6499
G01 X0.6192 Y0.6761
G01 X0.5832 Y0.7095
G01 X0.5552 Y0.7334
G01 X0.5165 Y0.7636
G01 X0.4764 Y0.7919
G01 X0.4454 Y0.8118
G01 X0.4030 Y0.8365
G01 X0.3704 Y0.8536
G01 X0.3260 Y0.8746
G01 X0.2807 Y0.8934
G01 X0.2345 Y0.9099
G01 X0.1875 Y0.9242
G01 X0.1399 Y0.9361
G01 X0.1038 Y0.9435
G01 X0.0554 Y0.9513
G01 X0.0188 Y0.9556
G01 X-0.0179 Y0.9585
G01 X-0.0669 Y0.9603
G01 X-98.2792 Y0.9604
G01 X-98.3160 Y0.9597
G01 X-98.3528 Y0.9577
G01 X-98.3894 Y0.9543
G01 X-98.4259 Y0.9496
G01 X-98.4743 Y0.9412
G01 X-98.5103 Y0.9333
G01 X-98.5459 Y0.9242
G01 X-98.5929 Y0.9099
G01 X-98.6391 Y0.8934
G01 X-98.6732 Y0.8795
G01 X-98.7068 Y0.8644
G01 X-98.7506 Y0.8423
G01 X-98.7933 Y0.8181
G01 X-98.8245 Y0.7986
G01 X-98.8550 Y0.7780
G01 X-98.8944 Y0.7487
G01 X-98.9230 Y0.7256
G01 X-98.9598 Y0.6931
G01 X-98.9949 Y0.6588
G01 X-99.0202 Y0.6320
G01 X-99.0444 Y0.6042
G01 X-99.0750 Y0.5659
G01 X-99.1038 Y0.5261
G01 X-99.1241 Y0.4954
G01 X-99.1432 Y0.4639
G01 X-99.1668 Y0.4209
G01 X-99.1884 Y0.3768
G01 X-99.2031 Y0.3431
G01 X-99.2165 Y0.3088
G01 X-99.2325 Y0.2624
G01 X-99.2462 Y0.2153
G01 X-99.2549 Y0.1795
G01 X-99.2623 Y0.1434
G01 X-99.2684 Y0.1071
G01 X-99.2744 Y0.0584
G01 X-99.2773 Y0.0217
G01 X-99.2792 Y-0.0396
G01 X-99.2791 Y-13.6734
G01 X-99.2773 Y-13.7224
G01 X-99.2731 Y-13.7713
G01 X-99.2665 Y-13.8200
G01 X-99.2575 Y-13.8682
G01 X-99.2462 Y-13.9160
G01 X-99.2325 Y-13.9631
G01 X-99.2165 Y-14.0095
G01 X-99.1983 Y-14.0551
G01 X-99.1779 Y-14.0997
G01 X-99.1553 Y-14.1433
G01 X-99.1306 Y-14.1857
G01 X-99.1038 Y-14.2269
G01 X-99.0750 Y-14.2666
G01 X-99.0522 Y-14.2955
G01 X-99.0202 Y-14.3327
G01 X-98.9863 Y-14.3682
G01 X-98.9508 Y-14.4021
G01 X-98.9136 Y-14.4341
G01 X-98.8749 Y-14.4643
G01 X-98.8348 Y-14.4926
G01 X-98.7933 Y-14.5189
G01 X-98.7506 Y-14.5430
G01 X-98.7068 Y-14.5651
G01 X-98.6619 Y-14.5850
G01 X-98.6161 Y-14.6027
G01 X-98.5695 Y-14.6181
G01 X-98.5222 Y-14.6312
G01 X-98.4743 Y-14.6419
G01 X-98.4259 Y-14.6503
G01 X-98.3772 Y-14.6563
G01 X-98.3283 Y-14.6599
G01 X-98.2792 Y-14.6611
G00 X-98.2792 Y-14.6611
G01 F70.00
G01 Z-1.4000
G01 F120.00
G01 X-72.8607 Y-14.6611
G01 X-71.3899 Y-14.9186
G01 X-70.1233 Y-15.2804
G01 X-68.4249 Y-16.1479
G01 X-67.5994 Y-16.8705
G01 X-66.3875 Y-18.3027
G01 X-65.7543 Y-19.4634
G01 X-65.3609 Y-20.7159
G01 X-65.1437 Y-22.0566
G01 X-65.1437 Y-33.1396
G01 X-65.1430 Y-33.1764
G01 X-65.1410 Y-33.2132
G01 X-65.1376 Y-33.2498
G01 X-65.1329 Y-33.2863
G01 X-65.1268 Y-33.3226
G01 X-65.1194 Y-33.3587
G01 X-65.1107 Y-33.3945
G01 X-65.0970 Y-33.4416
G01 X-65.0853 Y-33.4765
G01 X-65.0722 Y-33.5109
G01 X-65.0579 Y-33.5448
G01 X-65.0424 Y-33.5782
G01 X-65.0256 Y-33.6110
G01 X-65.0077 Y-33.6431
G01 X-64.9886 Y-33.6746
G01 X-64.9683 Y-33.7053
G01 X-64.9469 Y-33.7353
G01 X-64.9167 Y-33.7740
G01 X-64.8929 Y-33.8020
G01 X-64.8680 Y-33.8291
G01 X-64.8421 Y-33.8553
G01 X-64.8153 Y-33.8806
G01 X-64.7876 Y-33.9048
G01 X-64.7492 Y-33.9354
G01 X-64.7195 Y-33.9572
G01 X-64.6890 Y-33.9778
G01 X-64.6578 Y-33.9973
G01 X-64.6259 Y-34.0157
G01 X-64.5933 Y-34.0328
G01 X-64.5602 Y-34.0488
G01 X-64.5264 Y-34.0635
G01 X-64.4921 Y-34.0769
G01 X-64.4574 Y-34.0891
G01 X-64.4104 Y-34.1034
G01 X-64.3748 Y-34.1125
G01 X-64.3388 Y-34.1204
G01 X-64.2783 Y-34.1305
G01 X-64.2173 Y-34.1369
G01 X-64.1805 Y-34.1389
G01 X-64.1437 Y-34.1396
G01 X-29.0823 Y-34.1396
G01 X-29.0455 Y-34.1389
G01 X-29.0087 Y-34.1369
G01 X-28.9721 Y-34.1335
G01 X-28.9355 Y-34.1288
G01 X-28.8872 Y-34.1204
G01 X-28.8512 Y-34.1125
G01 X-28.8156 Y-34.1034
G01 X-28.7803 Y-34.0929
G01 X-28.7454 Y-34.0811
G01 X-28.6996 Y-34.0635
G01 X-28.6659 Y-34.0488
G01 X-28.6217 Y-34.0272
G01 X-28.5894 Y-34.0097
G01 X-28.5473 Y-33.9845
G01 X-28.5065 Y-33.9572
G01 X-28.4768 Y-33.9354
G01 X-28.4479 Y-33.9126
G01 X-28.4107 Y-33.8806
G01 X-28.3752 Y-33.8467
G01 X-28.3496 Y-33.8202
G01 X-28.3251 Y-33.7928
G01 X-28.2939 Y-33.7548
G01 X-28.2647 Y-33.7154
G01 X-28.2441 Y-33.6849
G01 X-28.2246 Y-33.6537
G01 X-28.2004 Y-33.6110
G01 X-28.1836 Y-33.5782
G01 X-28.1681 Y-33.5449
G01 X-28.1493 Y-33.4995
G01 X-28.1367 Y-33.4649
G01 X-28.1253 Y-33.4299
G01 X-28.1122 Y-33.3826
G01 X-28.1015 Y-33.3347
G01 X-28.0950 Y-33.2985
G01 X-28.0884 Y-33.2498
G01 X-28.0850 Y-33.2132
G01 X-28.0830 Y-33.1764
G01 X-28.0823 Y-33.1396
G01 X-28.0821 Y-22.0541
G01 X-27.8646 Y-20.7138
G01 X-27.4716 Y-19.4635
G01 X-26.8384 Y-18.3027
G01 X-25.6249 Y-16.8688
G01 X-24.7999 Y-16.1471
G01 X-23.1027 Y-15.2804
G01 X-21.8361 Y-14.9186
G01 X-20.3653 Y-14.6611
G01 X-0.0669 Y-14.6610
G01 X-0.0179 Y-14.6592
G01 X0.0432 Y-14.6536
G01 X0.0918 Y-14.6464
G01 X0.1519 Y-14.6341
G01 X0.1993 Y-14.6216
G01 X0.2577 Y-14.6027
G01 X0.3035 Y-14.5850
G01 X0.3484 Y-14.5651
G01 X0.4030 Y-14.5372
G01 X0.4454 Y-14.5125
G01 X0.4865 Y-14.4857
G01 X0.5263 Y-14.4570
G01 X0.5646 Y-14.4263
G01 X0.6014 Y-14.3938
G01 X0.6450 Y-14.3507
G01 X0.6780 Y-14.3143
G01 X0.7091 Y-14.2764
G01 X0.7313 Y-14.2469
G01 X0.7590 Y-14.2064
G01 X0.7848 Y-14.1647
G01 X0.8084 Y-14.1217
G01 X0.8248 Y-14.0887
G01 X0.8447 Y-14.0438
G01 X0.8581 Y-14.0095
G01 X0.8703 Y-13.9748
G01 X0.8846 Y-13.9278
G01 X0.8937 Y-13.8922
G01 X0.9039 Y-13.8442
G01 X0.9117 Y-13.7957
G01 X0.9160 Y-13.7591
G01 X0.9189 Y-13.7224
G01 X0.9207 Y-13.6734
G01 X0.9208 Y-0.0396
G01 X0.9201 Y-0.0028
G01 X0.9181 Y0.0340
G01 X0.9147 Y0.0706
G01 X0.9100 Y0.1071
G01 X0.9016 Y0.1555
G01 X0.8937 Y0.1915
G01 X0.8846 Y0.2271
G01 X0.8703 Y0.2741
G01 X0.8581 Y0.3088
G01 X0.8399 Y0.3544
G01 X0.8248 Y0.3880
G01 X0.8027 Y0.4318
G01 X0.7785 Y0.4745
G01 X0.7590 Y0.5057
G01 X0.7313 Y0.5462
G01 X0.7015 Y0.5853
G01 X0.6699 Y0.6228
G01 X0.6450 Y0.6499
G01 X0.6192 Y0.6761
G01 X0.5832 Y0.7095
G01 X0.5552 Y0.7334
G01 X0.5165 Y0.7636
G01 X0.4764 Y0.7919
G01 X0.4454 Y0.8118
G01 X0.4030 Y0.8365
G01 X0.3704 Y0.8536
G01 X0.3260 Y0.8746
G01 X0.2807 Y0.8934
G01 X0.2345 Y0.9099
G01 X0.1875 Y0.9242
G01 X0.1399 Y0.9361
G01 X0.1038 Y0.9435
G01 X0.0554 Y0.9513
G01 X0.0188 Y0.9556
G01 X-0.0179 Y0.9585
G01 X-0.0669 Y0.9603
G01 X-98.2792 Y0.9604
G01 X-98.3160 Y0.9597
G01 X-98.3528 Y0.9577
G01 X-98.3894 Y0.9543
G01 X-98.4259 Y0.9496
G01 X-98.4743 Y0.9412
G01 X-98.5103 Y0.9333
G01 X-98.5459 Y0.9242
G01 X-98.5929 Y0.9099
G01 X-98.6391 Y0.8934
G01 X-98.6732 Y0.8795
G01 X-98.7068 Y0.8644
G01 X-98.7506 Y0.8423
G01 X-98.7933 Y0.8181
G01 X-98.8245 Y0.7986
G01 X-98.8550 Y0.7780
G01 X-98.8944 Y0.7487
G01 X-98.9230 Y0.7256
G01 X-98.9598 Y0.6931
G01 X-98.9949 Y0.6588
G01 X-99.0202 Y0.6320
G01 X-99.0444 Y0.6042
G01 X-99.0750 Y0.5659
G01 X-99.1038 Y0.5261
G01 X-99.1241 Y0.4954
G01 X-99.1432 Y0.4639
G01 X-99.1668 Y0.4209
G01 X-99.1884 Y0.3768
G01 X-99.2031 Y0.3431
G01 X-99.2165 Y0.3088
G01 X-99.2325 Y0.2624
G01 X-99.2462 Y0.2153
G01 X-99.2549 Y0.1795
G01 X-99.2623 Y0.1434
G01 X-99.2684 Y0.1071
G01 X-99.2744 Y0.0584
G01 X-99.2773 Y0.0217
G01 X-99.2792 Y-0.0396
G01 X-99.2791 Y-13.6734
G01 X-99.2773 Y-13.7224
G01 X-99.2731 Y-13.7713
G01 X-99.2665 Y-13.8200
G01 X-99.2575 Y-13.8682
G01 X-99.2462 Y-13.9160
G01 X-99.2325 Y-13.9631
G01 X-99.2165 Y-14.0095
G01 X-99.1983 Y-14.0551
G01 X-99.1779 Y-14.0997
G01 X-99.1553 Y-14.1433
G01 X-99.1306 Y-14.1857
G01 X-99.1038 Y-14.2269
G01 X-99.0750 Y-14.2666
G01 X-99.0522 Y-14.2955
G01 X-99.0202 Y-14.3327
G01 X-98.9863 Y-14.3682
G01 X-98.9508 Y-14.4021
G01 X-98.9136 Y-14.4341
G01 X-98.8749 Y-14.4643
G01 X-98.8348 Y-14.4926
G01 X-98.7933 Y-14.5189
G01 X-98.7506 Y-14.5430
G01 X-98.7068 Y-14.5651
G01 X-98.6619 Y-14.5850
G01 X-98.6161 Y-14.6027
G01 X-98.5695 Y-14.6181
G01 X-98.5222 Y-14.6312
G01 X-98.4743 Y-14.6419
G01 X-98.4259 Y-14.6503
G01 X-98.3772 Y-14.6563
G01 X-98.3283 Y-14.6599
G01 X-98.2792 Y-14.6611
G00 X-98.2792 Y-14.6611
G01 F70.00
G01 Z-1.5000
G01 F120.00
G01 X-72.8607 Y-14.6611
G01 X-71.3899 Y-14.9186
G01 X-70.1233 Y-15.2804
G01 X-68.4249 Y-16.1479
G01 X-67.5994 Y-16.8705
G01 X-66.3875 Y-18.3027
G01 X-65.7543 Y-19.4634
G01 X-65.3609 Y-20.7159
G01 X-65.1437 Y-22.0566
G01 X-65.1437 Y-33.1396
G01 X-65.1430 Y-33.1764
G01 X-65.1410 Y-33.2132
G01 X-65.1376 Y-33.2498
G01 X-65.1329 Y-33.2863
G01 X-65.1268 Y-33.3226
G01 X-65.1194 Y-33.3587
G01 X-65.1107 Y-33.3945
G01 X-65.0970 Y-33.4416
G01 X-65.0853 Y-33.4765
G01 X-65.0722 Y-33.5109
G01 X-65.0579 Y-33.5448
G01 X-65.0424 Y-33.5782
G01 X-65.0256 Y-33.6110
G01 X-65.0077 Y-33.6431
G01 X-64.9886 Y-33.6746
G01 X-64.9683 Y-33.7053
G01 X-64.9469 Y-33.7353
G01 X-64.9167 Y-33.7740
G01 X-64.8929 Y-33.8020
G01 X-64.8680 Y-33.8291
G01 X-64.8421 Y-33.8553
G01 X-64.8153 Y-33.8806
G01 X-64.7876 Y-33.9048
G01 X-64.7492 Y-33.9354
G01 X-64.7195 Y-33.9572
G01 X-64.6890 Y-33.9778
G01 X-64.6578 Y-33.9973
G01 X-64.6259 Y-34.0157
G01 X-64.5933 Y-34.0328
G01 X-64.5602 Y-34.0488
G01 X-64.5264 Y-34.0635
G01 X-64.4921 Y-34.0769
G01 X-64.4574 Y-34.0891
G01 X-64.4104 Y-34.1034
G01 X-64.3748 Y-34.1125
G01 X-64.3388 Y-34.1204
G01 X-64.2783 Y-34.1305
G01 X-64.2173 Y-34.1369
G01 X-64.1805 Y-34.1389
G01 X-64.1437 Y-34.1396
G01 X-29.0823 Y-34.1396
G01 X-29.0455 Y-34.1389
G01 X-29.0087 Y-34.1369
G01 X-28.9721 Y-34.1335
G01 X-28.9355 Y-34.1288
G01 X-28.8872 Y-34.1204
G01 X-28.8512 Y-34.1125
G01 X-28.8156 Y-34.1034
G01 X-28.7803 Y-34.0929
G01 X-28.7454 Y-34.0811
G01 X-28.6996 Y-34.0635
G01 X-28.6659 Y-34.0488
G01 X-28.6217 Y-34.0272
G01 X-28.5894 Y-34.0097
G01 X-28.5473 Y-33.9845
G01 X-28.5065 Y-33.9572
G01 X-28.4768 Y-33.9354
G01 X-28.4479 Y-33.9126
G01 X-28.4107 Y-33.8806
G01 X-28.3752 Y-33.8467
G01 X-28.3496 Y-33.8202
G01 X-28.3251 Y-33.7928
G01 X-28.2939 Y-33.7548
G01 X-28.2647 Y-33.7154
G01 X-28.2441 Y-33.6849
G01 X-28.2246 Y-33.6537
G01 X-28.2004 Y-33.6110
G01 X-28.1836 Y-33.5782
G01 X-28.1681 Y-33.5449
G01 X-28.1493 Y-33.4995
G01 X-28.1367 Y-33.4649
G01 X-28.1253 Y-33.4299
G01 X-28.1122 Y-33.3826
G01 X-28.1015 Y-33.3347
G01 X-28.0950 Y-33.2985
G01 X-28.0884 Y-33.2498
G01 X-28.0850 Y-33.2132
G01 X-28.0830 Y-33.1764
G01 X-28.0823 Y-33.1396
G01 X-28.0821 Y-22.0541
G01 X-27.8646 Y-20.7138
G01 X-27.4716 Y-19.4635
G01 X-26.8384 Y-18.3027
G01 X-25.6249 Y-16.8688
G01 X-24.7999 Y-16.1471
G01 X-23.1027 Y-15.2804
G01 X-21.8361 Y-14.9186
G01 X-20.3653 Y-14.6611
G01 X-0.0669 Y-14.6610
G01 X-0.0179 Y-14.6592
G01 X0.0432 Y-14.6536
G01 X0.0918 Y-14.6464
G01 X0.1519 Y-14.6341
G01 X0.1993 Y-14.6216
G01 X0.2577 Y-14.6027
G01 X0.3035 Y-14.5850
G01 X0.3484 Y-14.5651
G01 X0.4030 Y-14.5372
G01 X0.4454 Y-14.5125
G01 X0.4865 Y-14.4857
G01 X0.5263 Y-14.4570
G01 X0.5646 Y-14.4263
G01 X0.6014 Y-14.3938
G01 X0.6450 Y-14.3507
G01 X0.6780 Y-14.3143
G01 X0.7091 Y-14.2764
G01 X0.7313 Y-14.2469
G01 X0.7590 Y-14.2064
G01 X0.7848 Y-14.1647
G01 X0.8084 Y-14.1217
G01 X0.8248 Y-14.0887
G01 X0.8447 Y-14.0438
G01 X0.8581 Y-14.0095
G01 X0.8703 Y-13.9748
G01 X0.8846 Y-13.9278
G01 X0.8937 Y-13.8922
G01 X0.9039 Y-13.8442
G01 X0.9117 Y-13.7957
G01 X0.9160 Y-13.7591
G01 X0.9189 Y-13.7224
G01 X0.9207 Y-13.6734
G01 X0.9208 Y-0.0396
G01 X0.9201 Y-0.0028
G01 X0.9181 Y0.0340
G01 X0.9147 Y0.0706
G01 X0.9100 Y0.1071
G01 X0.9016 Y0.1555
G01 X0.8937 Y0.1915
G01 X0.8846 Y0.2271
G01 X0.8703 Y0.2741
G01 X0.8581 Y0.3088
G01 X0.8399 Y0.3544
G01 X0.8248 Y0.3880
G01 X0.8027 Y0.4318
G01 X0.7785 Y0.4745
G01 X0.7590 Y0.5057
G01 X0.7313 Y0.5462
G01 X0.7015 Y0.5853
G01 X0.6699 Y0.6228
G01 X0.6450 Y0.6499
G01 X0.6192 Y0.6761
G01 X0.5832 Y0.7095
G01 X0.5552 Y0.7334
G01 X0.5165 Y0.7636
G01 X0.4764 Y0.7919
G01 X0.4454 Y0.8118
G01 X0.4030 Y0.8365
G01 X0.3704 Y0.8536
G01 X0.3260 Y0.8746
G01 X0.2807 Y0.8934
G01 X0.2345 Y0.9099
G01 X0.1875 Y0.9242
G01 X0.1399 Y0.9361
G01 X0.1038 Y0.9435
G01 X0.0554 Y0.9513
G01 X0.0188 Y0.9556
G01 X-0.0179 Y0.9585
G01 X-0.0669 Y0.9603
G01 X-98.2792 Y0.9604
G01 X-98.3160 Y0.9597
G01 X-98.3528 Y0.9577
G01 X-98.3894 Y0.9543
G01 X-98.4259 Y0.9496
G01 X-98.4743 Y0.9412
G01 X-98.5103 Y0.9333
G01 X-98.5459 Y0.9242
G01 X-98.5929 Y0.9099
G01 X-98.6391 Y0.8934
G01 X-98.6732 Y0.8795
G01 X-98.7068 Y0.8644
G01 X-98.7506 Y0.8423
G01 X-98.7933 Y0.8181
G01 X-98.8245 Y0.7986
G01 X-98.8550 Y0.7780
G01 X-98.8944 Y0.7487
G01 X-98.9230 Y0.7256
G01 X-98.9598 Y0.6931
G01 X-98.9949 Y0.6588
G01 X-99.0202 Y0.6320
G01 X-99.0444 Y0.6042
G01 X-99.0750 Y0.5659
G01 X-99.1038 Y0.5261
G01 X-99.1241 Y0.4954
G01 X-99.1432 Y0.4639
G01 X-99.1668 Y0.4209
G01 X-99.1884 Y0.3768
G01 X-99.2031 Y0.3431
G01 X-99.2165 Y0.3088
G01 X-99.2325 Y0.2624
G01 X-99.2462 Y0.2153
G01 X-99.2549 Y0.1795
G01 X-99.2623 Y0.1434
G01 X-99.2684 Y0.1071
G01 X-99.2744 Y0.0584
G01 X-99.2773 Y0.0217
G01 X-99.2792 Y-0.0396
G01 X-99.2791 Y-13.6734
G01 X-99.2773 Y-13.7224
G01 X-99.2731 Y-13.7713
G01 X-99.2665 Y-13.8200
G01 X-99.2575 Y-13.8682
G01 X-99.2462 Y-13.9160
G01 X-99.2325 Y-13.9631
G01 X-99.2165 Y-14.0095
G01 X-99.1983 Y-14.0551
G01 X-99.1779 Y-14.0997
G01 X-99.1553 Y-14.1433
G01 X-99.1306 Y-14.1857
G01 X-99.1038 Y-14.2269
G01 X-99.0750 Y-14.2666
G01 X-99.0522 Y-14.2955
G01 X-99.0202 Y-14.3327
G01 X-98.9863 Y-14.3682
G01 X-98.9508 Y-14.4021
G01 X-98.9136 Y-14.4341
G01 X-98.8749 Y-14.4643
G01 X-98.8348 Y-14.4926
G01 X-98.7933 Y-14.5189
G01 X-98.7506 Y-14.5430
G01 X-98.7068 Y-14.5651
G01 X-98.6619 Y-14.5850
G01 X-98.6161 Y-14.6027
G01 X-98.5695 Y-14.6181
G01 X-98.5222 Y-14.6312
G01 X-98.4743 Y-14.6419
G01 X-98.4259 Y-14.6503
G01 X-98.3772 Y-14.6563
G01 X-98.3283 Y-14.6599
G01 X-98.2792 Y-14.6611
G00 X-98.2792 Y-14.6611
G01 F70.00
G01 Z-1.6000
G01 F120.00
G01 X-72.8607 Y-14.6611
G01 X-71.3899 Y-14.9186
G01 X-70.1233 Y-15.2804
G01 X-68.4249 Y-16.1479
G01 X-67.5994 Y-16.8705
G01 X-66.3875 Y-18.3027
G01 X-65.7543 Y-19.4634
G01 X-65.3609 Y-20.7159
G01 X-65.1437 Y-22.0566
G01 X-65.1437 Y-33.1396
G01 X-65.1430 Y-33.1764
G01 X-65.1410 Y-33.2132
G01 X-65.1376 Y-33.2498
G01 X-65.1329 Y-33.2863
G01 X-65.1268 Y-33.3226
G01 X-65.1194 Y-33.3587
G01 X-65.1107 Y-33.3945
G01 X-65.0970 Y-33.4416
G01 X-65.0853 Y-33.4765
G01 X-65.0722 Y-33.5109
G01 X-65.0579 Y-33.5448
G01 X-65.0424 Y-33.5782
G01 X-65.0256 Y-33.6110
G01 X-65.0077 Y-33.6431
G01 X-64.9886 Y-33.6746
G01 X-64.9683 Y-33.7053
G01 X-64.9469 Y-33.7353
G01 X-64.9167 Y-33.7740
G01 X-64.8929 Y-33.8020
G01 X-64.8680 Y-33.8291
G01 X-64.8421 Y-33.8553
G01 X-64.8153 Y-33.8806
G01 X-64.7876 Y-33.9048
G01 X-64.7492 Y-33.9354
G01 X-64.7195 Y-33.9572
G01 X-64.6890 Y-33.9778
G01 X-64.6578 Y-33.9973
G01 X-64.6259 Y-34.0157
G01 X-64.5933 Y-34.0328
G01 X-64.5602 Y-34.0488
G01 X-64.5264 Y-34.0635
G01 X-64.4921 Y-34.0769
G01 X-64.4574 Y-34.0891
G01 X-64.4104 Y-34.1034
G01 X-64.3748 Y-34.1125
G01 X-64.3388 Y-34.1204
G01 X-64.2783 Y-34.1305
G01 X-64.2173 Y-34.1369
G01 X-64.1805 Y-34.1389
G01 X-64.1437 Y-34.1396
G01 X-29.0823 Y-34.1396
G01 X-29.0455 Y-34.1389
G01 X-29.0087 Y-34.1369
G01 X-28.9721 Y-34.1335
G01 X-28.9355 Y-34.1288
G01 X-28.8872 Y-34.1204
G01 X-28.8512 Y-34.1125
G01 X-28.8156 Y-34.1034
G01 X-28.7803 Y-34.0929
G01 X-28.7454 Y-34.0811
G01 X-28.6996 Y-34.0635
G01 X-28.6659 Y-34.0488
G01 X-28.6217 Y-34.0272
G01 X-28.5894 Y-34.0097
G01 X-28.5473 Y-33.9845
G01 X-28.5065 Y-33.9572
G01 X-28.4768 Y-33.9354
G01 X-28.4479 Y-33.9126
G01 X-28.4107 Y-33.8806
G01 X-28.3752 Y-33.8467
G01 X-28.3496 Y-33.8202
G01 X-28.3251 Y-33.7928
G01 X-28.2939 Y-33.7548
G01 X-28.2647 Y-33.7154
G01 X-28.2441 Y-33.6849
G01 X-28.2246 Y-33.6537
G01 X-28.2004 Y-33.6110
G01 X-28.1836 Y-33.5782
G01 X-28.1681 Y-33.5449
G01 X-28.1493 Y-33.4995
G01 X-28.1367 Y-33.4649
G01 X-28.1253 Y-33.4299
G01 X-28.1122 Y-33.3826
G01 X-28.1015 Y-33.3347
G01 X-28.0950 Y-33.2985
G01 X-28.0884 Y-33.2498
G01 X-28.0850 Y-33.2132
G01 X-28.0830 Y-33.1764
G01 X-28.0823 Y-33.1396
G01 X-28.0821 Y-22.0541
G01 X-27.8646 Y-20.7138
G01 X-27.4716 Y-19.4635
G01 X-26.8384 Y-18.3027
G01 X-25.6249 Y-16.8688
G01 X-24.7999 Y-16.1471
G01 X-23.1027 Y-15.2804
G01 X-21.8361 Y-14.9186
G01 X-20.3653 Y-14.6611
G01 X-0.0669 Y-14.6610
G01 X-0.0179 Y-14.6592
G01 X0.0432 Y-14.6536
G01 X0.0918 Y-14.6464
G01 X0.1519 Y-14.6341
G01 X0.1993 Y-14.6216
G01 X0.2577 Y-14.6027
G01 X0.3035 Y-14.5850
G01 X0.3484 Y-14.5651
G01 X0.4030 Y-14.5372
G01 X0.4454 Y-14.5125
G01 X0.4865 Y-14.4857
G01 X0.5263 Y-14.4570
G01 X0.5646 Y-14.4263
G01 X0.6014 Y-14.3938
G01 X0.6450 Y-14.3507
G01 X0.6780 Y-14.3143
G01 X0.7091 Y-14.2764
G01 X0.7313 Y-14.2469
G01 X0.7590 Y-14.2064
G01 X0.7848 Y-14.1647
G01 X0.8084 Y-14.1217
G01 X0.8248 Y-14.0887
G01 X0.8447 Y-14.0438
G01 X0.8581 Y-14.0095
G01 X0.8703 Y-13.9748
G01 X0.8846 Y-13.9278
G01 X0.8937 Y-13.8922
G01 X0.9039 Y-13.8442
G01 X0.9117 Y-13.7957
G01 X0.9160 Y-13.7591
G01 X0.9189 Y-13.7224
G01 X0.9207 Y-13.6734
G01 X0.9208 Y-0.0396
G01 X0.9201 Y-0.0028
G01 X0.9181 Y0.0340
G01 X0.9147 Y0.0706
G01 X0.9100 Y0.1071
G01 X0.9016 Y0.1555
G01 X0.8937 Y0.1915
G01 X0.8846 Y0.2271
G01 X0.8703 Y0.2741
G01 X0.8581 Y0.3088
G01 X0.8399 Y0.3544
G01 X0.8248 Y0.3880
G01 X0.8027 Y0.4318
G01 X0.7785 Y0.4745
G01 X0.7590 Y0.5057
G01 X0.7313 Y0.5462
G01 X0.7015 Y0.5853
G01 X0.6699 Y0.6228
G01 X0.6450 Y0.6499
G01 X0.6192 Y0.6761
G01 X0.5832 Y0.7095
G01 X0.5552 Y0.7334
G01 X0.5165 Y0.7636
G01 X0.4764 Y0.7919
G01 X0.4454 Y0.8118
G01 X0.4030 Y0.8365
G01 X0.3704 Y0.8536
G01 X0.3260 Y0.8746
G01 X0.2807 Y0.8934
G01 X0.2345 Y0.9099
G01 X0.1875 Y0.9242
G01 X0.1399 Y0.9361
G01 X0.1038 Y0.9435
G01 X0.0554 Y0.9513
G01 X0.0188 Y0.9556
G01 X-0.0179 Y0.9585
G01 X-0.0669 Y0.9603
G01 X-98.2792 Y0.9604
G01 X-98.3160 Y0.9597
G01 X-98.3528 Y0.9577
G01 X-98.3894 Y0.9543
G01 X-98.4259 Y0.9496
G01 X-98.4743 Y0.9412
G01 X-98.5103 Y0.9333
G01 X-98.5459 Y0.9242
G01 X-98.5929 Y0.9099
G01 X-98.6391 Y0.8934
G01 X-98.6732 Y0.8795
G01 X-98.7068 Y0.8644
G01 X-98.7506 Y0.8423
G01 X-98.7933 Y0.8181
G01 X-98.8245 Y0.7986
G01 X-98.8550 Y0.7780
G01 X-98.8944 Y0.7487
G01 X-98.9230 Y0.7256
G01 X-98.9598 Y0.6931
G01 X-98.9949 Y0.6588
G01 X-99.0202 Y0.6320
G01 X-99.0444 Y0.6042
G01 X-99.0750 Y0.5659
G01 X-99.1038 Y0.5261
G01 X-99.1241 Y0.4954
G01 X-99.1432 Y0.4639
G01 X-99.1668 Y0.4209
G01 X-99.1884 Y0.3768
G01 X-99.2031 Y0.3431
G01 X-99.2165 Y0.3088
G01 X-99.2325 Y0.2624
G01 X-99.2462 Y0.2153
G01 X-99.2549 Y0.1795
G01 X-99.2623 Y0.1434
G01 X-99.2684 Y0.1071
G01 X-99.2744 Y0.0584
G01 X-99.2773 Y0.0217
G01 X-99.2792 Y-0.0396
G01 X-99.2791 Y-13.6734
G01 X-99.2773 Y-13.7224
G01 X-99.2731 Y-13.7713
G01 X-99.2665 Y-13.8200
G01 X-99.2575 Y-13.8682
G01 X-99.2462 Y-13.9160
G01 X-99.2325 Y-13.9631
G01 X-99.2165 Y-14.0095
G01 X-99.1983 Y-14.0551
G01 X-99.1779 Y-14.0997
G01 X-99.1553 Y-14.1433
G01 X-99.1306 Y-14.1857
G01 X-99.1038 Y-14.2269
G01 X-99.0750 Y-14.2666
G01 X-99.0522 Y-14.2955
G01 X-99.0202 Y-14.3327
G01 X-98.9863 Y-14.3682
G01 X-98.9508 Y-14.4021
G01 X-98.9136 Y-14.4341
G01 X-98.8749 Y-14.4643
G01 X-98.8348 Y-14.4926
G01 X-98.7933 Y-14.5189
G01 X-98.7506 Y-14.5430
G01 X-98.7068 Y-14.5651
G01 X-98.6619 Y-14.5850
G01 X-98.6161 Y-14.6027
G01 X-98.5695 Y-14.6181
G01 X-98.5222 Y-14.6312
G01 X-98.4743 Y-14.6419
G01 X-98.4259 Y-14.6503
G01 X-98.3772 Y-14.6563
G01 X-98.3283 Y-14.6599
G01 X-98.2792 Y-14.6611
G00 X-98.2792 Y-14.6611
G01 F70.00
G01 Z-1.7000
G01 F120.00
G01 X-72.8607 Y-14.6611
G01 X-71.3899 Y-14.9186
G01 X-70.1233 Y-15.2804
G01 X-68.4249 Y-16.1479
G01 X-67.5994 Y-16.8705
G01 X-66.3875 Y-18.3027
G01 X-65.7543 Y-19.4634
G01 X-65.3609 Y-20.7159
G01 X-65.1437 Y-22.0566
G01 X-65.1437 Y-33.1396
G01 X-65.1430 Y-33.1764
G01 X-65.1410 Y-33.2132
G01 X-65.1376 Y-33.2498
G01 X-65.1329 Y-33.2863
G01 X-65.1268 Y-33.3226
G01 X-65.1194 Y-33.3587
G01 X-65.1107 Y-33.3945
G01 X-65.0970 Y-33.4416
G01 X-65.0853 Y-33.4765
G01 X-65.0722 Y-33.5109
G01 X-65.0579 Y-33.5448
G01 X-65.0424 Y-33.5782
G01 X-65.0256 Y-33.6110
G01 X-65.0077 Y-33.6431
G01 X-64.9886 Y-33.6746
G01 X-64.9683 Y-33.7053
G01 X-64.9469 Y-33.7353
G01 X-64.9167 Y-33.7740
G01 X-64.8929 Y-33.8020
G01 X-64.8680 Y-33.8291
G01 X-64.8421 Y-33.8553
G01 X-64.8153 Y-33.8806
G01 X-64.7876 Y-33.9048
G01 X-64.7492 Y-33.9354
G01 X-64.7195 Y-33.9572
G01 X-64.6890 Y-33.9778
G01 X-64.6578 Y-33.9973
G01 X-64.6259 Y-34.0157
G01 X-64.5933 Y-34.0328
G01 X-64.5602 Y-34.0488
G01 X-64.5264 Y-34.0635
G01 X-64.4921 Y-34.0769
G01 X-64.4574 Y-34.0891
G01 X-64.4104 Y-34.1034
G01 X-64.3748 Y-34.1125
G01 X-64.3388 Y-34.1204
G01 X-64.2783 Y-34.1305
G01 X-64.2173 Y-34.1369
G01 X-64.1805 Y-34.1389
G01 X-64.1437 Y-34.1396
G01 X-29.0823 Y-34.1396
G01 X-29.0455 Y-34.1389
G01 X-29.0087 Y-34.1369
G01 X-28.9721 Y-34.1335
G01 X-28.9355 Y-34.1288
G01 X-28.8872 Y-34.1204
G01 X-28.8512 Y-34.1125
G01 X-28.8156 Y-34.1034
G01 X-28.7803 Y-34.0929
G01 X-28.7454 Y-34.0811
G01 X-28.6996 Y-34.0635
G01 X-28.6659 Y-34.0488
G01 X-28.6217 Y-34.0272
G01 X-28.5894 Y-34.0097
G01 X-28.5473 Y-33.9845
G01 X-28.5065 Y-33.9572
G01 X-28.4768 Y-33.9354
G01 X-28.4479 Y-33.9126
G01 X-28.4107 Y-33.8806
G01 X-28.3752 Y-33.8467
G01 X-28.3496 Y-33.8202
G01 X-28.3251 Y-33.7928
G01 X-28.2939 Y-33.7548
G01 X-28.2647 Y-33.7154
G01 X-28.2441 Y-33.6849
G01 X-28.2246 Y-33.6537
G01 X-28.2004 Y-33.6110
G01 X-28.1836 Y-33.5782
G01 X-28.1681 Y-33.5449
G01 X-28.1493 Y-33.4995
G01 X-28.1367 Y-33.4649
G01 X-28.1253 Y-33.4299
G01 X-28.1122 Y-33.3826
G01 X-28.1015 Y-33.3347
G01 X-28.0950 Y-33.2985
G01 X-28.0884 Y-33.2498
G01 X-28.0850 Y-33.2132
G01 X-28.0830 Y-33.1764
G01 X-28.0823 Y-33.1396
G01 X-28.0821 Y-22.0541
G01 X-27.8646 Y-20.7138
G01 X-27.4716 Y-19.4635
G01 X-26.8384 Y-18.3027
G01 X-25.6249 Y-16.8688
G01 X-24.7999 Y-16.1471
G01 X-23.1027 Y-15.2804
G01 X-21.8361 Y-14.9186
G01 X-20.3653 Y-14.6611
G01 X-0.0669 Y-14.6610
G01 X-0.0179 Y-14.6592
G01 X0.0432 Y-14.6536
G01 X0.0918 Y-14.6464
G01 X0.1519 Y-14.6341
G01 X0.1993 Y-14.6216
G01 X0.2577 Y-14.6027
G01 X0.3035 Y-14.5850
G01 X0.3484 Y-14.5651
G01 X0.4030 Y-14.5372
G01 X0.4454 Y-14.5125
G01 X0.4865 Y-14.4857
G01 X0.5263 Y-14.4570
G01 X0.5646 Y-14.4263
G01 X0.6014 Y-14.3938
G01 X0.6450 Y-14.3507
G01 X0.6780 Y-14.3143
G01 X0.7091 Y-14.2764
G01 X0.7313 Y-14.2469
G01 X0.7590 Y-14.2064
G01 X0.7848 Y-14.1647
G01 X0.8084 Y-14.1217
G01 X0.8248 Y-14.0887
G01 X0.8447 Y-14.0438
G01 X0.8581 Y-14.0095
G01 X0.8703 Y-13.9748
G01 X0.8846 Y-13.9278
G01 X0.8937 Y-13.8922
G01 X0.9039 Y-13.8442
G01 X0.9117 Y-13.7957
G01 X0.9160 Y-13.7591
G01 X0.9189 Y-13.7224
G01 X0.9207 Y-13.6734
G01 X0.9208 Y-0.0396
G01 X0.9201 Y-0.0028
G01 X0.9181 Y0.0340
G01 X0.9147 Y0.0706
G01 X0.9100 Y0.1071
G01 X0.9016 Y0.1555
G01 X0.8937 Y0.1915
G01 X0.8846 Y0.2271
G01 X0.8703 Y0.2741
G01 X0.8581 Y0.3088
G01 X0.8399 Y0.3544
G01 X0.8248 Y0.3880
G01 X0.8027 Y0.4318
G01 X0.7785 Y0.4745
G01 X0.7590 Y0.5057
G01 X0.7313 Y0.5462
G01 X0.7015 Y0.5853
G01 X0.6699 Y0.6228
G01 X0.6450 Y0.6499
G01 X0.6192 Y0.6761
G01 X0.5832 Y0.7095
G01 X0.5552 Y0.7334
G01 X0.5165 Y0.7636
G01 X0.4764 Y0.7919
G01 X0.4454 Y0.8118
G01 X0.4030 Y0.8365
G01 X0.3704 Y0.8536
G01 X0.3260 Y0.8746
G01 X0.2807 Y0.8934
G01 X0.2345 Y0.9099
G01 X0.1875 Y0.9242
G01 X0.1399 Y0.9361
G01 X0.1038 Y0.9435
G01 X0.0554 Y0.9513
G01 X0.0188 Y0.9556
G01 X-0.0179 Y0.9585
G01 X-0.0669 Y0.9603
G01 X-98.2792 Y0.9604
G01 X-98.3160 Y0.9597
G01 X-98.3528 Y0.9577
G01 X-98.3894 Y0.9543
G01 X-98.4259 Y0.9496
G01 X-98.4743 Y0.9412
G01 X-98.5103 Y0.9333
G01 X-98.5459 Y0.9242
G01 X-98.5929 Y0.9099
G01 X-98.6391 Y0.8934
G01 X-98.6732 Y0.8795
G01 X-98.7068 Y0.8644
G01 X-98.7506 Y0.8423
G01 X-98.7933 Y0.8181
G01 X-98.8245 Y0.7986
G01 X-98.8550 Y0.7780
G01 X-98.8944 Y0.7487
G01 X-98.9230 Y0.7256
G01 X-98.9598 Y0.6931
G01 X-98.9949 Y0.6588
G01 X-99.0202 Y0.6320
G01 X-99.0444 Y0.6042
G01 X-99.0750 Y0.5659
G01 X-99.1038 Y0.5261
G01 X-99.1241 Y0.4954
G01 X-99.1432 Y0.4639
G01 X-99.1668 Y0.4209
G01 X-99.1884 Y0.3768
G01 X-99.2031 Y0.3431
G01 X-99.2165 Y0.3088
G01 X-99.2325 Y0.2624
G01 X-99.2462 Y0.2153
G01 X-99.2549 Y0.1795
G01 X-99.2623 Y0.1434
G01 X-99.2684 Y0.1071
G01 X-99.2744 Y0.0584
G01 X-99.2773 Y0.0217
G01 X-99.2792 Y-0.0396
G01 X-99.2791 Y-13.6734
G01 X-99.2773 Y-13.7224
G01 X-99.2731 Y-13.7713
G01 X-99.2665 Y-13.8200
G01 X-99.2575 Y-13.8682
G01 X-99.2462 Y-13.9160
G01 X-99.2325 Y-13.9631
G01 X-99.2165 Y-14.0095
G01 X-99.1983 Y-14.0551
G01 X-99.1779 Y-14.0997
G01 X-99.1553 Y-14.1433
G01 X-99.1306 Y-14.1857
G01 X-99.1038 Y-14.2269
G01 X-99.0750 Y-14.2666
G01 X-99.0522 Y-14.2955
G01 X-99.0202 Y-14.3327
G01 X-98.9863 Y-14.3682
G01 X-98.9508 Y-14.4021
G01 X-98.9136 Y-14.4341
G01 X-98.8749 Y-14.4643
G01 X-98.8348 Y-14.4926
G01 X-98.7933 Y-14.5189
G01 X-98.7506 Y-14.5430
G01 X-98.7068 Y-14.5651
G01 X-98.6619 Y-14.5850
G01 X-98.6161 Y-14.6027
G01 X-98.5695 Y-14.6181
G01 X-98.5222 Y-14.6312
G01 X-98.4743 Y-14.6419
G01 X-98.4259 Y-14.6503
G01 X-98.3772 Y-14.6563
G01 X-98.3283 Y-14.6599
G01 X-98.2792 Y-14.6611
G00 Z2.0000
M05
G00 Z2.0000
G00 Z25.00

