(G-CODE GENERATED BY FLATCAM v8.993 - www.flatcam.org - Version Date: 2020/06/05)

(Name: 5v_Ф1_верх.gbr_iso_combined_cnc)
(Type: G-code from Geometry)
(Units: MM)

(Created on Friday, 30 October 2020 at 20:28)

(This preprocessor is the default preprocessor used by FlatCAM.)
(It is made to work with MACH3 compatible motion controllers.)

(TOOL DIAMETER: 0.15 mm)
(Feedrate_XY: 120.0 mm/min)
(Feedrate_Z: 70.0 mm/min)
(Feedrate rapids 1500.0 mm/min)

(Z_Cut: -0.07 mm)
(Z_Move: 2.0 mm)
(Z Start: None mm)
(Z End: 25.0 mm)
(Steps per circle: 128)
(Preprocessor Geometry: default)

(X range:   -0.3000 ...   10.3000  mm)
(Y range:  -20.3000 ...    0.3000  mm)

(Spindle Speed: 10000 RPM)
G21
G90
G94



G01 F120.00
G00 Z2.0000

M03 S10000
G00 X-0.0750 Y0.0000
G01 F70.00
G01 Z-0.0700
G01 F120.00
G01 X-0.0750 Y-20.0000
G01 X-0.0745 Y-20.0083
G01 X-0.0730 Y-20.0173
G01 X-0.0706 Y-20.0253
G01 X-0.0670 Y-20.0337
G01 X-0.0618 Y-20.0424
G01 X-0.0549 Y-20.0510
G01 X-0.0476 Y-20.0580
G01 X-0.0393 Y-20.0639
G01 X-0.0304 Y-20.0686
G01 X-0.0200 Y-20.0723
G01 X-0.0101 Y-20.0743
G01 X0.0000 Y-20.0750
G01 X10.0000 Y-20.0750
G01 X10.0092 Y-20.0744
G01 X10.0173 Y-20.0730
G01 X10.0261 Y-20.0703
G01 X10.0337 Y-20.0670
G01 X10.0424 Y-20.0618
G01 X10.0504 Y-20.0556
G01 X10.0574 Y-20.0483
G01 X10.0639 Y-20.0393
G01 X10.0689 Y-20.0295
G01 X10.0723 Y-20.0200
G01 X10.0743 Y-20.0101
G01 X10.0750 Y-20.0000
G01 X10.0750 Y0.0000
G01 X10.0744 Y0.0092
G01 X10.0730 Y0.0173
G01 X10.0706 Y0.0253
G01 X10.0670 Y0.0337
G01 X10.0618 Y0.0424
G01 X10.0556 Y0.0504
G01 X10.0483 Y0.0574
G01 X10.0393 Y0.0639
G01 X10.0304 Y0.0686
G01 X10.0200 Y0.0723
G01 X10.0101 Y0.0743
G01 X10.0000 Y0.0750
G01 X-0.0000 Y0.0750
G01 X-0.0146 Y0.0736
G01 X-0.0287 Y0.0693
G01 X-0.0417 Y0.0624
G01 X-0.0530 Y0.0530
G01 X-0.0624 Y0.0417
G01 X-0.0693 Y0.0287
G01 X-0.0736 Y0.0146
G01 X-0.0750 Y0.0000
G00 Z2.0000
G00 X-0.1500 Y0.0000
G01 F70.00
G01 Z-0.0700
G01 F120.00
G01 X-0.1500 Y-20.0000
G01 X-0.1489 Y-20.0184
G01 X-0.1459 Y-20.0347
G01 X-0.1406 Y-20.0523
G01 X-0.1340 Y-20.0674
G01 X-0.1237 Y-20.0849
G01 X-0.1111 Y-20.1007
G01 X-0.0966 Y-20.1148
G01 X-0.0802 Y-20.1267
G01 X-0.0625 Y-20.1364
G01 X-0.0435 Y-20.1435
G01 X-0.0220 Y-20.1484
G01 X-0.0018 Y-20.1500
G01 X10.0000 Y-20.1500
G01 X10.0165 Y-20.1491
G01 X10.0347 Y-20.1459
G01 X10.0523 Y-20.1406
G01 X10.0674 Y-20.1340
G01 X10.0864 Y-20.1226
G01 X10.1021 Y-20.1099
G01 X10.1160 Y-20.0952
G01 X10.1277 Y-20.0787
G01 X10.1371 Y-20.0608
G01 X10.1441 Y-20.0418
G01 X10.1484 Y-20.0220
G01 X10.1500 Y-20.0000
G01 X10.1500 Y0.0000
G01 X10.1491 Y0.0165
G01 X10.1459 Y0.0347
G01 X10.1412 Y0.0505
G01 X10.1340 Y0.0674
G01 X10.1237 Y0.0849
G01 X10.1111 Y0.1007
G01 X10.0966 Y0.1148
G01 X10.0802 Y0.1267
G01 X10.0625 Y0.1364
G01 X10.0418 Y0.1441
G01 X10.0220 Y0.1484
G01 X10.0018 Y0.1500
G01 X-0.0018 Y0.1500
G01 X-0.0165 Y0.1491
G01 X-0.0311 Y0.1467
G01 X-0.0453 Y0.1430
G01 X-0.0591 Y0.1379
G01 X-0.0723 Y0.1314
G01 X-0.0849 Y0.1237
G01 X-0.0952 Y0.1160
G01 X-0.1061 Y0.1061
G01 X-0.1160 Y0.0952
G01 X-0.1247 Y0.0833
G01 X-0.1323 Y0.0707
G01 X-0.1386 Y0.0574
G01 X-0.1435 Y0.0435
G01 X-0.1471 Y0.0293
G01 X-0.1493 Y0.0147
G01 X-0.1500 Y0.0000
G00 Z2.0000
G00 X-0.2250 Y0.0000
G01 F70.00
G01 Z-0.0700
G01 F120.00
G01 X-0.2250 Y-20.0000
G01 X-0.2236 Y-20.0248
G01 X-0.2189 Y-20.0520
G01 X-0.2109 Y-20.0784
G01 X-0.1997 Y-20.1036
G01 X-0.1930 Y-20.1157
G01 X-0.1840 Y-20.1296
G01 X-0.1757 Y-20.1406
G01 X-0.1648 Y-20.1531
G01 X-0.1531 Y-20.1648
G01 X-0.1427 Y-20.1739
G01 X-0.1318 Y-20.1824
G01 X-0.1180 Y-20.1916
G01 X-0.1036 Y-20.1997
G01 X-0.0912 Y-20.2057
G01 X-0.0784 Y-20.2109
G01 X-0.0627 Y-20.2161
G01 X-0.0466 Y-20.2201
G01 X-0.0330 Y-20.2226
G01 X-0.0166 Y-20.2244
G01 X-0.0028 Y-20.2250
G01 X10.0000 Y-20.2250
G01 X10.0248 Y-20.2236
G01 X10.0520 Y-20.2189
G01 X10.0784 Y-20.2109
G01 X10.1036 Y-20.1997
G01 X10.1180 Y-20.1916
G01 X10.1296 Y-20.1840
G01 X10.1406 Y-20.1757
G01 X10.1531 Y-20.1648
G01 X10.1648 Y-20.1531
G01 X10.1757 Y-20.1406
G01 X10.1840 Y-20.1296
G01 X10.1930 Y-20.1157
G01 X10.1997 Y-20.1036
G01 X10.2068 Y-20.0886
G01 X10.2128 Y-20.0732
G01 X10.2168 Y-20.0600
G01 X10.2201 Y-20.0466
G01 X10.2230 Y-20.0303
G01 X10.2246 Y-20.0138
G01 X10.2250 Y-20.0000
G01 X10.2250 Y0.0000
G01 X10.2233 Y0.0275
G01 X10.2183 Y0.0547
G01 X10.2109 Y0.0784
G01 X10.1997 Y0.1036
G01 X10.1930 Y0.1157
G01 X10.1840 Y0.1296
G01 X10.1739 Y0.1427
G01 X10.1648 Y0.1531
G01 X10.1551 Y0.1630
G01 X10.1427 Y0.1739
G01 X10.1296 Y0.1840
G01 X10.1180 Y0.1916
G01 X10.1036 Y0.1997
G01 X10.0912 Y0.2057
G01 X10.0784 Y0.2109
G01 X10.0627 Y0.2161
G01 X10.0466 Y0.2201
G01 X10.0330 Y0.2226
G01 X10.0166 Y0.2244
G01 X10.0028 Y0.2250
G01 X-0.0028 Y0.2250
G01 X-0.0248 Y0.2236
G01 X-0.0466 Y0.2201
G01 X-0.0680 Y0.2145
G01 X-0.0886 Y0.2068
G01 X-0.1085 Y0.1971
G01 X-0.1273 Y0.1855
G01 X-0.1427 Y0.1739
G01 X-0.1591 Y0.1591
G01 X-0.1739 Y0.1427
G01 X-0.1871 Y0.1250
G01 X-0.1984 Y0.1061
G01 X-0.2079 Y0.0861
G01 X-0.2153 Y0.0653
G01 X-0.2207 Y0.0439
G01 X-0.2239 Y0.0221
G01 X-0.2250 Y0.0000
G00 Z2.0000
G00 X-0.3000 Y0.0000
G01 F70.00
G01 Z-0.0700
G01 F120.00
G01 X-0.3000 Y-20.0000
G01 X-0.2994 Y-20.0184
G01 X-0.2977 Y-20.0367
G01 X-0.2949 Y-20.0549
G01 X-0.2910 Y-20.0729
G01 X-0.2812 Y-20.1045
G01 X-0.2743 Y-20.1216
G01 X-0.2663 Y-20.1382
G01 X-0.2573 Y-20.1542
G01 X-0.2453 Y-20.1727
G01 X-0.2342 Y-20.1875
G01 X-0.2198 Y-20.2042
G01 X-0.2042 Y-20.2198
G01 X-0.1903 Y-20.2319
G01 X-0.1727 Y-20.2453
G01 X-0.1574 Y-20.2554
G01 X-0.1382 Y-20.2663
G01 X-0.1216 Y-20.2743
G01 X-0.1011 Y-20.2825
G01 X-0.0836 Y-20.2881
G01 X-0.0657 Y-20.2927
G01 X-0.0440 Y-20.2968
G01 X-0.0257 Y-20.2989
G01 X-0.0037 Y-20.3000
G01 X10.0000 Y-20.3000
G01 X10.0184 Y-20.2994
G01 X10.0367 Y-20.2977
G01 X10.0549 Y-20.2949
G01 X10.0729 Y-20.2910
G01 X10.0906 Y-20.2860
G01 X10.1080 Y-20.2799
G01 X10.1382 Y-20.2663
G01 X10.1574 Y-20.2554
G01 X10.1727 Y-20.2453
G01 X10.1875 Y-20.2342
G01 X10.2042 Y-20.2198
G01 X10.2198 Y-20.2042
G01 X10.2319 Y-20.1903
G01 X10.2453 Y-20.1727
G01 X10.2554 Y-20.1574
G01 X10.2646 Y-20.1414
G01 X10.2743 Y-20.1216
G01 X10.2812 Y-20.1045
G01 X10.2881 Y-20.0836
G01 X10.2935 Y-20.0621
G01 X10.2968 Y-20.0440
G01 X10.2989 Y-20.0257
G01 X10.3000 Y-20.0037
G01 X10.3000 Y0.0000
G01 X10.2982 Y0.0331
G01 X10.2956 Y0.0513
G01 X10.2919 Y0.0693
G01 X10.2871 Y0.0871
G01 X10.2812 Y0.1045
G01 X10.2743 Y0.1216
G01 X10.2663 Y0.1382
G01 X10.2573 Y0.1542
G01 X10.2453 Y0.1727
G01 X10.2319 Y0.1903
G01 X10.2198 Y0.2042
G01 X10.2042 Y0.2198
G01 X10.1903 Y0.2319
G01 X10.1757 Y0.2431
G01 X10.1574 Y0.2554
G01 X10.1382 Y0.2663
G01 X10.1216 Y0.2743
G01 X10.1045 Y0.2812
G01 X10.0836 Y0.2881
G01 X10.0657 Y0.2927
G01 X10.0440 Y0.2968
G01 X10.0257 Y0.2989
G01 X10.0037 Y0.3000
G01 X-0.0037 Y0.3000
G01 X-0.0331 Y0.2982
G01 X-0.0621 Y0.2935
G01 X-0.0906 Y0.2860
G01 X-0.1182 Y0.2757
G01 X-0.1447 Y0.2628
G01 X-0.1697 Y0.2474
G01 X-0.1931 Y0.2296
G01 X-0.2121 Y0.2121
G01 X-0.2319 Y0.1903
G01 X-0.2494 Y0.1667
G01 X-0.2646 Y0.1414
G01 X-0.2772 Y0.1148
G01 X-0.2871 Y0.0871
G01 X-0.2942 Y0.0585
G01 X-0.2986 Y0.0294
G01 X-0.3000 Y0.0000
G00 Z2.0000
G00 X3.0966 Y-7.5518
G01 F70.00
G01 Z-0.0700
G01 F120.00
G01 X3.1072 Y-7.5656
G01 X3.1162 Y-7.5795
G01 X3.1254 Y-7.5965
G01 X3.1321 Y-7.6117
G01 X3.1377 Y-7.6272
G01 X3.1427 Y-7.6459
G01 X3.1458 Y-7.6622
G01 X3.1478 Y-7.6814
G01 X3.1482 Y-8.3202
G01 X3.1982 Y-8.3202
G01 X3.1982 Y-7.8271
G01 X3.1988 Y-7.8105
G01 X3.2006 Y-7.7940
G01 X3.2037 Y-7.7778
G01 X3.2079 Y-7.7617
G01 X3.2133 Y-7.7461
G01 X3.2198 Y-7.7309
G01 X3.2274 Y-7.7161
G01 X3.2346 Y-7.7044
G01 X3.2441 Y-7.6908
G01 X3.2584 Y-7.6739
G01 X3.2742 Y-7.6585
G01 X3.2914 Y-7.6447
G01 X3.3099 Y-7.6327
G01 X3.3295 Y-7.6225
G01 X3.3500 Y-7.6143
G01 X3.3712 Y-7.6081
G01 X3.3929 Y-7.6041
G01 X3.4204 Y-7.6021
G01 X3.6719 Y-7.6023
G01 X3.6912 Y-7.6041
G01 X3.7102 Y-7.6075
G01 X3.7289 Y-7.6126
G01 X3.7490 Y-7.6200
G01 X3.7563 Y-7.6019
G01 X3.7651 Y-7.5847
G01 X3.7754 Y-7.5683
G01 X3.7879 Y-7.5518
G01 X3.0966 Y-7.5518
G00 Z2.0000
G00 X4.3370 Y-7.5456
G01 F70.00
G01 Z-0.0700
G01 F120.00
G01 X3.9591 Y-7.5456
G01 X3.9425 Y-7.5467
G01 X3.9245 Y-7.5501
G01 X3.9035 Y-7.5570
G01 X3.8838 Y-7.5669
G01 X3.8657 Y-7.5796
G01 X3.8498 Y-7.5949
G01 X3.8362 Y-7.6123
G01 X3.8253 Y-7.6315
G01 X3.8168 Y-7.6538
G01 X3.8123 Y-7.6754
G01 X3.8109 Y-7.6956
G01 X3.8109 Y-11.1956
G01 X3.8118 Y-11.2121
G01 X3.8142 Y-11.2267
G01 X3.8179 Y-11.2409
G01 X3.8238 Y-11.2564
G01 X3.8332 Y-11.2743
G01 X3.8461 Y-11.2922
G01 X3.8615 Y-11.3080
G01 X3.8776 Y-11.3203
G01 X3.8951 Y-11.3304
G01 X3.9138 Y-11.3380
G01 X3.9353 Y-11.3434
G01 X3.9554 Y-11.3455
G01 X5.9627 Y-11.3456
G01 X5.9774 Y-11.3447
G01 X5.9920 Y-11.3423
G01 X6.0080 Y-11.3380
G01 X6.0217 Y-11.3327
G01 X6.0396 Y-11.3233
G01 X6.0575 Y-11.3104
G01 X6.0733 Y-11.2950
G01 X6.0856 Y-11.2789
G01 X6.0957 Y-11.2614
G01 X6.1039 Y-11.2409
G01 X6.1087 Y-11.2212
G01 X6.1109 Y-11.1993
G01 X6.1109 Y-7.6956
G01 X6.1100 Y-7.6791
G01 X6.1064 Y-7.6592
G01 X6.1002 Y-7.6399
G01 X6.0914 Y-7.6217
G01 X6.0803 Y-7.6048
G01 X6.0670 Y-7.5895
G01 X6.0517 Y-7.5762
G01 X6.0332 Y-7.5642
G01 X6.0149 Y-7.5557
G01 X6.0027 Y-7.5515
G01 X5.9902 Y-7.5485
G01 X5.9774 Y-7.5465
G01 X5.9646 Y-7.5456
G01 X5.5895 Y-7.5456
G01 X5.5895 Y-7.4768
G01 X9.2134 Y-7.4768
G01 X9.2362 Y-7.4745
G01 X9.2589 Y-7.4685
G01 X9.2807 Y-7.4590
G01 X9.3000 Y-7.4467
G01 X9.3172 Y-7.4315
G01 X9.3259 Y-7.4218
G01 X9.3329 Y-7.4125
G01 X9.3447 Y-7.3923
G01 X9.3534 Y-7.3702
G01 X9.3582 Y-7.3486
G01 X9.3598 Y-7.3268
G01 X9.3598 Y-0.7765
G01 X9.3585 Y-0.7584
G01 X9.3554 Y-0.7422
G01 X9.3503 Y-0.7257
G01 X9.3430 Y-0.7093
G01 X9.3346 Y-0.6951
G01 X9.3237 Y-0.6807
G01 X9.3118 Y-0.6683
G01 X9.2974 Y-0.6565
G01 X9.2775 Y-0.6444
G01 X9.2557 Y-0.6355
G01 X9.2330 Y-0.6301
G01 X9.2098 Y-0.6283
G01 X0.7167 Y-0.6283
G01 X0.6983 Y-0.6294
G01 X0.6804 Y-0.6328
G01 X0.6630 Y-0.6382
G01 X0.6477 Y-0.6451
G01 X0.6333 Y-0.6536
G01 X0.6191 Y-0.6644
G01 X0.6069 Y-0.6761
G01 X0.5950 Y-0.6906
G01 X0.5827 Y-0.7109
G01 X0.5738 Y-0.7327
G01 X0.5686 Y-0.7544
G01 X0.5667 Y-0.7783
G01 X0.5667 Y-7.3268
G01 X0.5678 Y-7.3448
G01 X0.5715 Y-7.3644
G01 X0.5771 Y-7.3817
G01 X0.5854 Y-7.3994
G01 X0.5955 Y-7.4151
G01 X0.6083 Y-7.4305
G01 X0.6217 Y-7.4429
G01 X0.6375 Y-7.4542
G01 X0.6555 Y-7.4638
G01 X0.6733 Y-7.4704
G01 X0.6914 Y-7.4747
G01 X0.7113 Y-7.4767
G01 X4.3370 Y-7.4768
G01 X4.3370 Y-7.5456
G00 Z2.0000
G00 X4.4120 Y-7.6206
G01 F70.00
G01 Z-0.0700
G01 F120.00
G01 X3.9609 Y-7.6206
G01 X3.9517 Y-7.6212
G01 X3.9400 Y-7.6236
G01 X3.9280 Y-7.6282
G01 X3.9177 Y-7.6343
G01 X3.9085 Y-7.6419
G01 X3.9007 Y-7.6509
G01 X3.8939 Y-7.6619
G01 X3.8894 Y-7.6729
G01 X3.8867 Y-7.6846
G01 X3.8859 Y-7.6956
G01 X3.8859 Y-11.1956
G01 X3.8873 Y-11.2102
G01 X3.8920 Y-11.2251
G01 X3.8966 Y-11.2342
G01 X3.9029 Y-11.2432
G01 X3.9105 Y-11.2512
G01 X3.9185 Y-11.2574
G01 X3.9280 Y-11.2630
G01 X3.9382 Y-11.2671
G01 X3.9481 Y-11.2695
G01 X3.9591 Y-11.2706
G01 X5.9609 Y-11.2706
G01 X5.9764 Y-11.2690
G01 X5.9904 Y-11.2645
G01 X6.0002 Y-11.2595
G01 X6.0092 Y-11.2530
G01 X6.0171 Y-11.2453
G01 X6.0233 Y-11.2373
G01 X6.0283 Y-11.2285
G01 X6.0324 Y-11.2183
G01 X6.0349 Y-11.2075
G01 X6.0359 Y-11.1965
G01 X6.0359 Y-7.6956
G01 X6.0353 Y-7.6864
G01 X6.0329 Y-7.6747
G01 X6.0283 Y-7.6627
G01 X6.0217 Y-7.6517
G01 X6.0139 Y-7.6426
G01 X6.0048 Y-7.6348
G01 X5.9938 Y-7.6282
G01 X5.9818 Y-7.6236
G01 X5.9701 Y-7.6212
G01 X5.9609 Y-7.6206
G01 X5.5145 Y-7.6206
G01 X5.5145 Y-7.4018
G01 X9.2107 Y-7.4018
G01 X9.2230 Y-7.4006
G01 X9.2343 Y-7.3977
G01 X9.2452 Y-7.3929
G01 X9.2549 Y-7.3867
G01 X9.2635 Y-7.3792
G01 X9.2709 Y-7.3703
G01 X9.2769 Y-7.3604
G01 X9.2813 Y-7.3494
G01 X9.2839 Y-7.3386
G01 X9.2848 Y-7.3268
G01 X9.2848 Y-0.7783
G01 X9.2843 Y-0.7693
G01 X9.2826 Y-0.7602
G01 X9.2800 Y-0.7520
G01 X9.2764 Y-0.7438
G01 X9.2717 Y-0.7359
G01 X9.2661 Y-0.7288
G01 X9.2600 Y-0.7226
G01 X9.2529 Y-0.7169
G01 X9.2428 Y-0.7110
G01 X9.2328 Y-0.7069
G01 X9.2214 Y-0.7042
G01 X9.2098 Y-0.7033
G01 X0.7167 Y-0.7033
G01 X0.7075 Y-0.7039
G01 X0.6985 Y-0.7055
G01 X0.6898 Y-0.7083
G01 X0.6822 Y-0.7117
G01 X0.6743 Y-0.7164
G01 X0.6671 Y-0.7220
G01 X0.6611 Y-0.7280
G01 X0.6553 Y-0.7352
G01 X0.6497 Y-0.7446
G01 X0.6452 Y-0.7555
G01 X0.6427 Y-0.7663
G01 X0.6417 Y-0.7783
G01 X0.6417 Y-7.3268
G01 X0.6422 Y-7.3358
G01 X0.6441 Y-7.3456
G01 X0.6469 Y-7.3543
G01 X0.6511 Y-7.3631
G01 X0.6561 Y-7.3710
G01 X0.6625 Y-7.3786
G01 X0.6698 Y-7.3854
G01 X0.6780 Y-7.3910
G01 X0.6869 Y-7.3956
G01 X0.6959 Y-7.3988
G01 X0.7059 Y-7.4010
G01 X0.7158 Y-7.4018
G01 X4.4120 Y-7.4018
G01 X4.4120 Y-7.6206
G00 Z2.0000
G00 X6.9923 Y-7.5456
G01 F70.00
G01 Z-0.0700
G01 F120.00
G01 X6.4612 Y-7.5456
G01 X6.4483 Y-7.5462
G01 X6.4337 Y-7.5481
G01 X6.4124 Y-7.5538
G01 X6.3921 Y-7.5625
G01 X6.3733 Y-7.5740
G01 X6.3551 Y-7.5895
G01 X6.3396 Y-7.6077
G01 X6.3281 Y-7.6265
G01 X6.3194 Y-7.6468
G01 X6.3137 Y-7.6681
G01 X6.3118 Y-7.6827
G01 X6.3112 Y-7.6956
G01 X6.3112 Y-11.1956
G01 X6.3119 Y-11.2103
G01 X6.3141 Y-11.2249
G01 X6.3177 Y-11.2391
G01 X6.3219 Y-11.2513
G01 X6.3316 Y-11.2711
G01 X6.3429 Y-11.2879
G01 X6.3578 Y-11.3042
G01 X6.3748 Y-11.3182
G01 X6.3921 Y-11.3287
G01 X6.4124 Y-11.3374
G01 X6.4337 Y-11.3431
G01 X6.4557 Y-11.3455
G01 X8.4612 Y-11.3456
G01 X8.4759 Y-11.3449
G01 X8.4905 Y-11.3427
G01 X8.5030 Y-11.3397
G01 X8.5169 Y-11.3349
G01 X8.5367 Y-11.3252
G01 X8.5535 Y-11.3139
G01 X8.5698 Y-11.2990
G01 X8.5838 Y-11.2820
G01 X8.5952 Y-11.2630
G01 X8.6036 Y-11.2427
G01 X8.6090 Y-11.2212
G01 X8.6112 Y-11.1993
G01 X8.6112 Y-7.6956
G01 X8.6105 Y-7.6809
G01 X8.6083 Y-7.6663
G01 X8.6053 Y-7.6538
G01 X8.6005 Y-7.6399
G01 X8.5908 Y-7.6201
G01 X8.5795 Y-7.6033
G01 X8.5660 Y-7.5882
G01 X8.5491 Y-7.5740
G01 X8.5319 Y-7.5633
G01 X8.5117 Y-7.5544
G01 X8.4905 Y-7.5485
G01 X8.4704 Y-7.5459
G01 X8.0032 Y-7.5452
G01 X6.9923 Y-7.5456
G00 Z2.0000
G00 X6.9955 Y-7.6206
G01 F70.00
G01 Z-0.0700
G01 F120.00
G01 X6.4538 Y-7.6210
G01 X6.4421 Y-7.6231
G01 X6.4300 Y-7.6274
G01 X6.4195 Y-7.6332
G01 X6.4102 Y-7.6407
G01 X6.4021 Y-7.6495
G01 X6.3955 Y-7.6594
G01 X6.3903 Y-7.6712
G01 X6.3873 Y-7.6828
G01 X6.3862 Y-7.6956
G01 X6.3862 Y-11.1956
G01 X6.3876 Y-11.2102
G01 X6.3919 Y-11.2243
G01 X6.3969 Y-11.2342
G01 X6.4032 Y-11.2432
G01 X6.4108 Y-11.2512
G01 X6.4188 Y-11.2574
G01 X6.4283 Y-11.2630
G01 X6.4385 Y-11.2671
G01 X6.4484 Y-11.2695
G01 X6.4594 Y-11.2706
G01 X8.4612 Y-11.2706
G01 X8.4758 Y-11.2692
G01 X8.4899 Y-11.2649
G01 X8.4998 Y-11.2599
G01 X8.5088 Y-11.2536
G01 X8.5168 Y-11.2460
G01 X8.5236 Y-11.2373
G01 X8.5290 Y-11.2277
G01 X8.5330 Y-11.2174
G01 X8.5354 Y-11.2066
G01 X8.5362 Y-11.1965
G01 X8.5362 Y-7.6956
G01 X8.5348 Y-7.6810
G01 X8.5305 Y-7.6669
G01 X8.5260 Y-7.6578
G01 X8.5198 Y-7.6487
G01 X8.5122 Y-7.6407
G01 X8.5036 Y-7.6338
G01 X8.4941 Y-7.6282
G01 X8.4839 Y-7.6241
G01 X8.4731 Y-7.6216
G01 X8.4630 Y-7.6206
G01 X6.9955 Y-7.6206
G00 Z2.0000
G00 X8.6112 Y-7.8271
G01 F70.00
G01 Z-0.0700
G01 F120.00
G01 X8.6118 Y-7.8142
G01 X8.6134 Y-7.8014
G01 X8.6194 Y-7.7783
G01 X8.6289 Y-7.7563
G01 X8.6355 Y-7.7453
G01 X8.6429 Y-7.7348
G01 X8.6513 Y-7.7250
G01 X8.6605 Y-7.7159
G01 X8.6794 Y-7.7013
G01 X8.6905 Y-7.6948
G01 X8.7021 Y-7.6892
G01 X8.7248 Y-7.6815
G01 X8.7410 Y-7.6784
G01 X8.7594 Y-7.6771
G01 X9.2270 Y-7.6766
G01 X9.2612 Y-7.6732
G01 X9.2949 Y-7.6665
G01 X9.3278 Y-7.6565
G01 X9.3595 Y-7.6434
G01 X9.3898 Y-7.6272
G01 X9.4044 Y-7.6180
G01 X9.4184 Y-7.6081
G01 X9.4450 Y-7.5863
G01 X9.4574 Y-7.5744
G01 X9.4805 Y-7.5490
G01 X9.5010 Y-7.5214
G01 X9.5187 Y-7.4919
G01 X9.5264 Y-7.4765
G01 X9.5395 Y-7.4448
G01 X9.5495 Y-7.4119
G01 X9.5562 Y-7.3782
G01 X9.5583 Y-7.3611
G01 X9.5601 Y-7.3250
G01 X9.5601 Y-0.7801
G01 X9.5583 Y-0.7440
G01 X9.5533 Y-0.7100
G01 X9.5449 Y-0.6766
G01 X9.5333 Y-0.6443
G01 X9.5187 Y-0.6132
G01 X9.5010 Y-0.5837
G01 X9.4911 Y-0.5697
G01 X9.4693 Y-0.5431
G01 X9.4450 Y-0.5188
G01 X9.4184 Y-0.4970
G01 X9.3898 Y-0.4779
G01 X9.3595 Y-0.4617
G01 X9.3278 Y-0.4486
G01 X9.2949 Y-0.4386
G01 X9.2612 Y-0.4319
G01 X9.2270 Y-0.4285
G01 X9.2080 Y-0.4280
G01 X0.7185 Y-0.4280
G01 X0.6824 Y-0.4298
G01 X0.6484 Y-0.4348
G01 X0.6150 Y-0.4432
G01 X0.5827 Y-0.4548
G01 X0.5670 Y-0.4617
G01 X0.5367 Y-0.4779
G01 X0.5081 Y-0.4970
G01 X0.4815 Y-0.5188
G01 X0.4572 Y-0.5431
G01 X0.4354 Y-0.5697
G01 X0.4163 Y-0.5983
G01 X0.4001 Y-0.6286
G01 X0.3870 Y-0.6603
G01 X0.3770 Y-0.6932
G01 X0.3703 Y-0.7269
G01 X0.3669 Y-0.7611
G01 X0.3664 Y-0.7801
G01 X0.3664 Y-7.3250
G01 X0.3669 Y-7.3440
G01 X0.3703 Y-7.3782
G01 X0.3770 Y-7.4119
G01 X0.3816 Y-7.4285
G01 X0.3932 Y-7.4608
G01 X0.4078 Y-7.4919
G01 X0.4163 Y-7.5068
G01 X0.4354 Y-7.5354
G01 X0.4460 Y-7.5490
G01 X0.4572 Y-7.5620
G01 X0.4815 Y-7.5863
G01 X0.5081 Y-7.6081
G01 X0.5221 Y-7.6180
G01 X0.5516 Y-7.6357
G01 X0.5827 Y-7.6503
G01 X0.5987 Y-7.6565
G01 X0.6316 Y-7.6665
G01 X0.6653 Y-7.6732
G01 X0.6824 Y-7.6753
G01 X0.7185 Y-7.6771
G01 X1.4306 Y-7.6772
G01 X1.4543 Y-7.6803
G01 X1.4772 Y-7.6871
G01 X1.4987 Y-7.6975
G01 X1.5184 Y-7.7111
G01 X1.5293 Y-7.7210
G01 X1.5403 Y-7.7333
G01 X1.5489 Y-7.7453
G01 X1.5563 Y-7.7580
G01 X1.5625 Y-7.7714
G01 X1.5673 Y-7.7853
G01 X1.5707 Y-7.7996
G01 X1.5726 Y-7.8142
G01 X1.5732 Y-7.8271
G01 X1.5732 Y-8.3952
G01 X1.7732 Y-8.3952
G01 X1.7732 Y-7.6952
G01 X1.7743 Y-7.6768
G01 X1.7786 Y-7.6552
G01 X1.7861 Y-7.6344
G01 X1.7965 Y-7.6150
G01 X1.8084 Y-7.5986
G01 X1.8238 Y-7.5828
G01 X1.8399 Y-7.5705
G01 X1.8591 Y-7.5596
G01 X1.8797 Y-7.5517
G01 X1.9012 Y-7.5468
G01 X1.9232 Y-7.5452
G01 X2.9269 Y-7.5452
G01 X2.9488 Y-7.5474
G01 X2.9703 Y-7.5528
G01 X2.9906 Y-7.5612
G01 X3.0096 Y-7.5726
G01 X3.0226 Y-7.5828
G01 X3.0343 Y-7.5945
G01 X3.0448 Y-7.6073
G01 X3.0537 Y-7.6213
G01 X3.0611 Y-7.6361
G01 X3.0667 Y-7.6517
G01 X3.0707 Y-7.6677
G01 X3.0728 Y-7.6842
G01 X3.0732 Y-8.3952
G01 X3.2732 Y-8.3952
G01 X3.2736 Y-7.8160
G01 X3.2754 Y-7.8014
G01 X3.2782 Y-7.7888
G01 X3.2826 Y-7.7748
G01 X3.2876 Y-7.7629
G01 X3.2936 Y-7.7515
G01 X3.3016 Y-7.7392
G01 X3.3096 Y-7.7291
G01 X3.3198 Y-7.7184
G01 X3.3383 Y-7.7034
G01 X3.3591 Y-7.6915
G01 X3.3814 Y-7.6830
G01 X3.4048 Y-7.6782
G01 X3.4232 Y-7.6771
G01 X3.6646 Y-7.6771
G01 X3.6793 Y-7.6782
G01 X3.6938 Y-7.6807
G01 X3.7080 Y-7.6846
G01 X3.7234 Y-7.6907
G01 X3.7364 Y-7.6975
G01 X3.7503 Y-7.7066
G01 X3.7630 Y-7.7172
G01 X3.7733 Y-7.7277
G01 X3.7825 Y-7.7392
G01 X3.7896 Y-7.7499
G01 X3.7957 Y-7.7613
G01 X3.8008 Y-7.7731
G01 X3.8050 Y-7.7853
G01 X3.8080 Y-7.7978
G01 X3.8100 Y-7.8105
G01 X3.8109 Y-7.8252
G01 X3.8109 Y-11.3456
G01 X8.6112 Y-11.3456
G01 X8.6112 Y-7.8271
G00 Z2.0000
G00 X8.6862 Y-7.8271
G01 F70.00
G01 Z-0.0700
G01 F120.00
G01 X8.6873 Y-7.8142
G01 X8.6906 Y-7.8018
G01 X8.6959 Y-7.7901
G01 X8.7038 Y-7.7788
G01 X8.7136 Y-7.7691
G01 X8.7242 Y-7.7618
G01 X8.7368 Y-7.7561
G01 X8.7493 Y-7.7530
G01 X8.7612 Y-7.7521
G01 X9.2089 Y-7.7521
G01 X9.2307 Y-7.7515
G01 X9.2515 Y-7.7500
G01 X9.2722 Y-7.7474
G01 X9.2928 Y-7.7439
G01 X9.3131 Y-7.7393
G01 X9.3332 Y-7.7337
G01 X9.3531 Y-7.7272
G01 X9.3725 Y-7.7197
G01 X9.3916 Y-7.7112
G01 X9.4103 Y-7.7018
G01 X9.4284 Y-7.6915
G01 X9.4460 Y-7.6804
G01 X9.4631 Y-7.6683
G01 X9.4796 Y-7.6555
G01 X9.4954 Y-7.6419
G01 X9.5105 Y-7.6275
G01 X9.5249 Y-7.6124
G01 X9.5385 Y-7.5966
G01 X9.5513 Y-7.5801
G01 X9.5634 Y-7.5630
G01 X9.5745 Y-7.5454
G01 X9.5848 Y-7.5273
G01 X9.5942 Y-7.5086
G01 X9.6027 Y-7.4895
G01 X9.6102 Y-7.4701
G01 X9.6167 Y-7.4502
G01 X9.6223 Y-7.4301
G01 X9.6269 Y-7.4098
G01 X9.6304 Y-7.3892
G01 X9.6330 Y-7.3685
G01 X9.6345 Y-7.3477
G01 X9.6351 Y-7.3259
G01 X9.6351 Y-0.7792
G01 X9.6345 Y-0.7574
G01 X9.6330 Y-0.7366
G01 X9.6304 Y-0.7159
G01 X9.6269 Y-0.6953
G01 X9.6223 Y-0.6750
G01 X9.6167 Y-0.6549
G01 X9.6102 Y-0.6350
G01 X9.6027 Y-0.6156
G01 X9.5942 Y-0.5965
G01 X9.5848 Y-0.5778
G01 X9.5745 Y-0.5597
G01 X9.5634 Y-0.5421
G01 X9.5513 Y-0.5250
G01 X9.5385 Y-0.5085
G01 X9.5249 Y-0.4927
G01 X9.5105 Y-0.4776
G01 X9.4954 Y-0.4632
G01 X9.4796 Y-0.4496
G01 X9.4631 Y-0.4368
G01 X9.4460 Y-0.4247
G01 X9.4284 Y-0.4136
G01 X9.4103 Y-0.4033
G01 X9.3916 Y-0.3939
G01 X9.3725 Y-0.3854
G01 X9.3531 Y-0.3779
G01 X9.3332 Y-0.3714
G01 X9.3131 Y-0.3658
G01 X9.2928 Y-0.3612
G01 X9.2722 Y-0.3577
G01 X9.2515 Y-0.3551
G01 X9.2307 Y-0.3536
G01 X9.2089 Y-0.3530
G01 X0.7176 Y-0.3530
G01 X0.6958 Y-0.3536
G01 X0.6750 Y-0.3551
G01 X0.6543 Y-0.3577
G01 X0.6337 Y-0.3612
G01 X0.6134 Y-0.3658
G01 X0.5933 Y-0.3714
G01 X0.5734 Y-0.3779
G01 X0.5540 Y-0.3854
G01 X0.5349 Y-0.3939
G01 X0.5162 Y-0.4033
G01 X0.4981 Y-0.4136
G01 X0.4805 Y-0.4247
G01 X0.4634 Y-0.4368
G01 X0.4469 Y-0.4496
G01 X0.4311 Y-0.4632
G01 X0.4160 Y-0.4776
G01 X0.4016 Y-0.4927
G01 X0.3880 Y-0.5085
G01 X0.3752 Y-0.5250
G01 X0.3631 Y-0.5421
G01 X0.3520 Y-0.5597
G01 X0.3417 Y-0.5778
G01 X0.3323 Y-0.5965
G01 X0.3238 Y-0.6156
G01 X0.3163 Y-0.6350
G01 X0.3098 Y-0.6549
G01 X0.3042 Y-0.6750
G01 X0.2996 Y-0.6953
G01 X0.2961 Y-0.7159
G01 X0.2935 Y-0.7366
G01 X0.2920 Y-0.7574
G01 X0.2914 Y-0.7792
G01 X0.2914 Y-7.3259
G01 X0.2920 Y-7.3477
G01 X0.2935 Y-7.3685
G01 X0.2961 Y-7.3892
G01 X0.2996 Y-7.4098
G01 X0.3042 Y-7.4301
G01 X0.3098 Y-7.4502
G01 X0.3163 Y-7.4701
G01 X0.3238 Y-7.4895
G01 X0.3323 Y-7.5086
G01 X0.3417 Y-7.5273
G01 X0.3520 Y-7.5454
G01 X0.3631 Y-7.5630
G01 X0.3752 Y-7.5801
G01 X0.3880 Y-7.5966
G01 X0.4016 Y-7.6124
G01 X0.4160 Y-7.6275
G01 X0.4311 Y-7.6419
G01 X0.4469 Y-7.6555
G01 X0.4634 Y-7.6683
G01 X0.4805 Y-7.6804
G01 X0.4981 Y-7.6915
G01 X0.5162 Y-7.7018
G01 X0.5349 Y-7.7112
G01 X0.5540 Y-7.7197
G01 X0.5734 Y-7.7272
G01 X0.5933 Y-7.7337
G01 X0.6134 Y-7.7393
G01 X0.6337 Y-7.7439
G01 X0.6543 Y-7.7474
G01 X0.6750 Y-7.7500
G01 X0.6958 Y-7.7515
G01 X0.7176 Y-7.7521
G01 X1.4260 Y-7.7521
G01 X1.4387 Y-7.7537
G01 X1.4502 Y-7.7571
G01 X1.4618 Y-7.7627
G01 X1.4722 Y-7.7703
G01 X1.4829 Y-7.7816
G01 X1.4910 Y-7.7950
G01 X1.4962 Y-7.8097
G01 X1.4981 Y-7.8243
G01 X1.4982 Y-8.4702
G01 X1.8482 Y-8.4702
G01 X1.8483 Y-7.6906
G01 X1.8498 Y-7.6797
G01 X1.8529 Y-7.6691
G01 X1.8579 Y-7.6582
G01 X1.8641 Y-7.6491
G01 X1.8722 Y-7.6403
G01 X1.8808 Y-7.6334
G01 X1.8903 Y-7.6278
G01 X1.9005 Y-7.6237
G01 X1.9113 Y-7.6212
G01 X1.9232 Y-7.6202
G01 X2.9241 Y-7.6202
G01 X2.9360 Y-7.6213
G01 X2.9476 Y-7.6243
G01 X2.9594 Y-7.6295
G01 X2.9693 Y-7.6361
G01 X2.9806 Y-7.6469
G01 X2.9898 Y-7.6607
G01 X2.9957 Y-7.6761
G01 X2.9981 Y-7.6924
G01 X2.9982 Y-8.4702
G01 X3.3482 Y-8.4702
G01 X3.3483 Y-7.8243
G01 X3.3502 Y-7.8097
G01 X3.3550 Y-7.7958
G01 X3.3624 Y-7.7831
G01 X3.3715 Y-7.7727
G01 X3.3815 Y-7.7647
G01 X3.3928 Y-7.7585
G01 X3.4050 Y-7.7543
G01 X3.4177 Y-7.7523
G01 X3.6618 Y-7.7521
G01 X3.6782 Y-7.7541
G01 X3.6930 Y-7.7593
G01 X3.7063 Y-7.7674
G01 X3.7177 Y-7.7781
G01 X3.7257 Y-7.7893
G01 X3.7312 Y-7.8009
G01 X3.7348 Y-7.8142
G01 X3.7359 Y-7.8271
G01 X3.7359 Y-11.4206
G01 X8.6862 Y-11.4206
G01 X8.6862 Y-7.8271
G00 Z2.0000
G00 X8.6731 Y-7.6200
G01 F70.00
G01 Z-0.0700
G01 F120.00
G01 X8.6932 Y-7.6126
G01 X8.7119 Y-7.6075
G01 X8.7309 Y-7.6041
G01 X8.7502 Y-7.6023
G01 X9.2070 Y-7.6021
G01 X9.2233 Y-7.6017
G01 X9.2502 Y-7.5990
G01 X9.2635 Y-7.5967
G01 X9.2897 Y-7.5901
G01 X9.3151 Y-7.5810
G01 X9.3275 Y-7.5756
G01 X9.3513 Y-7.5628
G01 X9.3627 Y-7.5556
G01 X9.3737 Y-7.5478
G01 X9.3946 Y-7.5307
G01 X9.4044 Y-7.5214
G01 X9.4225 Y-7.5014
G01 X9.4308 Y-7.4907
G01 X9.4458 Y-7.4683
G01 X9.4586 Y-7.4445
G01 X9.4640 Y-7.4321
G01 X9.4689 Y-7.4195
G01 X9.4767 Y-7.3937
G01 X9.4797 Y-7.3805
G01 X9.4837 Y-7.3538
G01 X9.4851 Y-7.3240
G01 X9.4851 Y-0.7811
G01 X9.4837 Y-0.7513
G01 X9.4797 Y-0.7246
G01 X9.4731 Y-0.6984
G01 X9.4640 Y-0.6730
G01 X9.4586 Y-0.6606
G01 X9.4458 Y-0.6368
G01 X9.4308 Y-0.6144
G01 X9.4137 Y-0.5935
G01 X9.4044 Y-0.5837
G01 X9.3844 Y-0.5656
G01 X9.3627 Y-0.5495
G01 X9.3395 Y-0.5356
G01 X9.3151 Y-0.5241
G01 X9.3025 Y-0.5192
G01 X9.2767 Y-0.5114
G01 X9.2502 Y-0.5061
G01 X9.2233 Y-0.5034
G01 X9.2070 Y-0.5030
G01 X0.7195 Y-0.5030
G01 X0.6897 Y-0.5044
G01 X0.6630 Y-0.5084
G01 X0.6498 Y-0.5114
G01 X0.6240 Y-0.5192
G01 X0.5990 Y-0.5295
G01 X0.5752 Y-0.5423
G01 X0.5638 Y-0.5495
G01 X0.5421 Y-0.5656
G01 X0.5221 Y-0.5837
G01 X0.5040 Y-0.6037
G01 X0.4957 Y-0.6144
G01 X0.4807 Y-0.6368
G01 X0.4679 Y-0.6606
G01 X0.4576 Y-0.6856
G01 X0.4498 Y-0.7114
G01 X0.4445 Y-0.7379
G01 X0.4418 Y-0.7648
G01 X0.4414 Y-0.7811
G01 X0.4414 Y-7.3240
G01 X0.4418 Y-7.3403
G01 X0.4445 Y-7.3672
G01 X0.4498 Y-7.3937
G01 X0.4534 Y-7.4067
G01 X0.4576 Y-7.4195
G01 X0.4679 Y-7.4445
G01 X0.4740 Y-7.4565
G01 X0.4879 Y-7.4797
G01 X0.4957 Y-7.4907
G01 X0.5128 Y-7.5116
G01 X0.5319 Y-7.5307
G01 X0.5421 Y-7.5395
G01 X0.5528 Y-7.5478
G01 X0.5752 Y-7.5628
G01 X0.5870 Y-7.5695
G01 X0.6114 Y-7.5810
G01 X0.6240 Y-7.5859
G01 X0.6498 Y-7.5937
G01 X0.6763 Y-7.5990
G01 X0.6897 Y-7.6007
G01 X0.7195 Y-7.6021
G01 X1.4370 Y-7.6025
G01 X1.4562 Y-7.6045
G01 X1.4725 Y-7.6075
G01 X1.4885 Y-7.6117
G01 X1.5042 Y-7.6171
G01 X1.5194 Y-7.6237
G01 X1.5341 Y-7.6313
G01 X1.5482 Y-7.6400
G01 X1.5638 Y-7.6514
G01 X1.5803 Y-7.6660
G01 X1.5954 Y-7.6822
G01 X1.6087 Y-7.6998
G01 X1.6203 Y-7.7186
G01 X1.6300 Y-7.7384
G01 X1.6377 Y-7.7591
G01 X1.6427 Y-7.7778
G01 X1.6465 Y-7.7995
G01 X1.6482 Y-7.8271
G01 X1.6482 Y-8.3202
G01 X1.6982 Y-8.3202
G01 X1.6986 Y-7.6814
G01 X1.7002 Y-7.6649
G01 X1.7037 Y-7.6459
G01 X1.7087 Y-7.6272
G01 X1.7143 Y-7.6117
G01 X1.7222 Y-7.5940
G01 X1.7302 Y-7.5795
G01 X1.7392 Y-7.5656
G01 X1.7498 Y-7.5518
G01 X0.7167 Y-7.5518
G01 X0.6977 Y-7.5510
G01 X0.6815 Y-7.5490
G01 X0.6651 Y-7.5458
G01 X0.6463 Y-7.5405
G01 X0.6299 Y-7.5344
G01 X0.6131 Y-7.5265
G01 X0.5979 Y-7.5179
G01 X0.5824 Y-7.5073
G01 X0.5681 Y-7.4957
G01 X0.5560 Y-7.4842
G01 X0.5438 Y-7.4708
G01 X0.5332 Y-7.4570
G01 X0.5237 Y-7.4424
G01 X0.5151 Y-7.4266
G01 X0.5073 Y-7.4092
G01 X0.5018 Y-7.3935
G01 X0.4971 Y-7.3756
G01 X0.4941 Y-7.3598
G01 X0.4923 Y-7.3434
G01 X0.4917 Y-7.3268
G01 X0.4917 Y-0.7752
G01 X0.4931 Y-0.7536
G01 X0.4965 Y-0.7320
G01 X0.5023 Y-0.7099
G01 X0.5099 Y-0.6897
G01 X0.5196 Y-0.6697
G01 X0.5311 Y-0.6512
G01 X0.5442 Y-0.6338
G01 X0.5576 Y-0.6192
G01 X0.5742 Y-0.6042
G01 X0.5917 Y-0.5912
G01 X0.6106 Y-0.5799
G01 X0.6308 Y-0.5703
G01 X0.6511 Y-0.5631
G01 X0.6730 Y-0.5576
G01 X0.6948 Y-0.5544
G01 X0.7167 Y-0.5533
G01 X9.2098 Y-0.5533
G01 X9.2310 Y-0.5543
G01 X9.2500 Y-0.5569
G01 X9.2700 Y-0.5615
G01 X9.2870 Y-0.5670
G01 X9.3053 Y-0.5746
G01 X9.3233 Y-0.5840
G01 X9.3412 Y-0.5956
G01 X9.3561 Y-0.6074
G01 X9.3729 Y-0.6233
G01 X9.3894 Y-0.6427
G01 X9.4028 Y-0.6627
G01 X9.4134 Y-0.6825
G01 X9.4224 Y-0.7047
G01 X9.4288 Y-0.7268
G01 X9.4332 Y-0.7512
G01 X9.4348 Y-0.7756
G01 X9.4348 Y-7.3268
G01 X9.4337 Y-7.3486
G01 X9.4316 Y-7.3649
G01 X9.4282 Y-7.3810
G01 X9.4235 Y-7.3971
G01 X9.4187 Y-7.4104
G01 X9.4122 Y-7.4251
G01 X9.4046 Y-7.4393
G01 X9.3960 Y-7.4531
G01 X9.3872 Y-7.4652
G01 X9.3768 Y-7.4776
G01 X9.3668 Y-7.4879
G01 X9.3561 Y-7.4977
G01 X9.3427 Y-7.5083
G01 X9.3307 Y-7.5166
G01 X9.3161 Y-7.5251
G01 X9.3010 Y-7.5325
G01 X9.2858 Y-7.5386
G01 X9.2699 Y-7.5436
G01 X9.2521 Y-7.5478
G01 X9.2336 Y-7.5505
G01 X9.2151 Y-7.5517
G01 X8.6342 Y-7.5518
G01 X8.6467 Y-7.5683
G01 X8.6570 Y-7.5847
G01 X8.6658 Y-7.6019
G01 X8.6731 Y-7.6200
G00 Z2.0000
G00 X6.1730 Y-11.2706
G01 F70.00
G01 Z-0.0700
G01 F120.00
G01 X6.2491 Y-11.2706
G01 X6.2436 Y-11.2529
G01 X6.2395 Y-11.2341
G01 X6.2370 Y-11.2149
G01 X6.2362 Y-11.1956
G01 X6.2362 Y-7.6928
G01 X6.2373 Y-7.6735
G01 X6.2400 Y-7.6544
G01 X6.2444 Y-7.6356
G01 X6.2503 Y-7.6172
G01 X6.2578 Y-7.5994
G01 X6.2668 Y-7.5823
G01 X6.2772 Y-7.5660
G01 X6.2882 Y-7.5518
G01 X6.1339 Y-7.5518
G01 X6.1449 Y-7.5660
G01 X6.1553 Y-7.5823
G01 X6.1643 Y-7.5994
G01 X6.1718 Y-7.6172
G01 X6.1777 Y-7.6356
G01 X6.1821 Y-7.6544
G01 X6.1848 Y-7.6735
G01 X6.1859 Y-7.6928
G01 X6.1859 Y-11.1956
G01 X6.1851 Y-11.2149
G01 X6.1826 Y-11.2341
G01 X6.1785 Y-11.2529
G01 X6.1730 Y-11.2706
G00 Z2.0000
G00 X2.8982 Y-10.1702
G01 F70.00
G01 Z-0.0700
G01 F120.00
G01 X3.1982 Y-10.1702
G01 X3.1982 Y-9.2702
G01 X3.1482 Y-9.2702
G01 X3.1482 Y-9.8980
G01 X3.1474 Y-9.9145
G01 X3.1449 Y-9.9337
G01 X3.1415 Y-9.9499
G01 X3.1368 Y-9.9658
G01 X3.1300 Y-9.9838
G01 X3.1229 Y-9.9988
G01 X3.1133 Y-10.0156
G01 X3.1023 Y-10.0314
G01 X3.0899 Y-10.0463
G01 X3.0763 Y-10.0600
G01 X3.0616 Y-10.0726
G01 X3.0459 Y-10.0838
G01 X3.0317 Y-10.0923
G01 X3.0144 Y-10.1009
G01 X2.9964 Y-10.1080
G01 X2.9779 Y-10.1135
G01 X2.9617 Y-10.1169
G01 X2.9425 Y-10.1194
G01 X2.9287 Y-10.1201
G01 X2.8982 Y-10.1202
G01 X2.8982 Y-10.1702
G00 Z2.0000
G00 X2.8232 Y-10.2452
G01 F70.00
G01 Z-0.0700
G01 F120.00
G01 X3.2732 Y-10.2452
G01 X3.2732 Y-9.1952
G01 X3.0732 Y-9.1952
G01 X3.0732 Y-9.8952
G01 X3.0723 Y-9.9117
G01 X3.0691 Y-9.9299
G01 X3.0638 Y-9.9475
G01 X3.0572 Y-9.9626
G01 X3.0489 Y-9.9770
G01 X3.0392 Y-9.9904
G01 X3.0280 Y-10.0026
G01 X3.0155 Y-10.0135
G01 X3.0019 Y-10.0229
G01 X2.9873 Y-10.0308
G01 X2.9755 Y-10.0358
G01 X2.9632 Y-10.0398
G01 X2.9488 Y-10.0430
G01 X2.9361 Y-10.0446
G01 X2.8232 Y-10.0452
G01 X2.8232 Y-10.2452
G00 Z2.0000
G00 X2.7482 Y-10.3202
G01 F70.00
G01 Z-0.0700
G01 F120.00
G01 X3.3482 Y-10.3202
G01 X3.3482 Y-9.1202
G01 X2.9982 Y-9.1202
G01 X2.9982 Y-9.8952
G01 X2.9966 Y-9.9107
G01 X2.9935 Y-9.9213
G01 X2.9893 Y-9.9306
G01 X2.9834 Y-9.9399
G01 X2.9769 Y-9.9476
G01 X2.9686 Y-9.9549
G01 X2.9602 Y-9.9605
G01 X2.9502 Y-9.9652
G01 X2.9405 Y-9.9682
G01 X2.9241 Y-9.9702
G01 X2.7482 Y-9.9702
G01 X2.7482 Y-10.3202
G00 Z2.0000
G00 X1.6482 Y-9.2702
G01 F70.00
G01 Z-0.0700
G01 F120.00
G01 X1.6482 Y-10.1702
G01 X1.9482 Y-10.1702
G01 X1.9482 Y-10.1202
G01 X1.9177 Y-10.1201
G01 X1.9039 Y-10.1194
G01 X1.8847 Y-10.1169
G01 X1.8685 Y-10.1135
G01 X1.8500 Y-10.1080
G01 X1.8320 Y-10.1009
G01 X1.8147 Y-10.0923
G01 X1.8005 Y-10.0838
G01 X1.7848 Y-10.0726
G01 X1.7701 Y-10.0600
G01 X1.7565 Y-10.0463
G01 X1.7458 Y-10.0336
G01 X1.7346 Y-10.0179
G01 X1.7248 Y-10.0013
G01 X1.7164 Y-9.9838
G01 X1.7096 Y-9.9658
G01 X1.7049 Y-9.9499
G01 X1.7015 Y-9.9337
G01 X1.6990 Y-9.9145
G01 X1.6982 Y-9.8980
G01 X1.6982 Y-9.2702
G01 X1.6482 Y-9.2702
G00 Z2.0000
G00 X1.5732 Y-9.1952
G01 F70.00
G01 Z-0.0700
G01 F120.00
G01 X1.5732 Y-10.2452
G01 X2.0232 Y-10.2452
G01 X2.0232 Y-10.0452
G01 X1.9103 Y-10.0446
G01 X1.8976 Y-10.0430
G01 X1.8832 Y-10.0398
G01 X1.8709 Y-10.0358
G01 X1.8591 Y-10.0308
G01 X1.8445 Y-10.0229
G01 X1.8309 Y-10.0135
G01 X1.8184 Y-10.0026
G01 X1.8072 Y-9.9904
G01 X1.7975 Y-9.9770
G01 X1.7892 Y-9.9626
G01 X1.7820 Y-9.9457
G01 X1.7773 Y-9.9299
G01 X1.7741 Y-9.9117
G01 X1.7732 Y-9.8952
G01 X1.7732 Y-9.1952
G01 X1.5732 Y-9.1952
G00 Z2.0000
G00 X1.4982 Y-9.1202
G01 F70.00
G01 Z-0.0700
G01 F120.00
G01 X1.4982 Y-10.3202
G01 X2.0982 Y-10.3202
G01 X2.0982 Y-9.9702
G01 X1.9223 Y-9.9702
G01 X1.9059 Y-9.9682
G01 X1.8962 Y-9.9652
G01 X1.8862 Y-9.9605
G01 X1.8778 Y-9.9549
G01 X1.8695 Y-9.9476
G01 X1.8624 Y-9.9391
G01 X1.8571 Y-9.9306
G01 X1.8526 Y-9.9205
G01 X1.8498 Y-9.9107
G01 X1.8482 Y-9.8952
G01 X1.8482 Y-9.1202
G01 X1.4982 Y-9.1202
G00 Z2.0000
G00 X6.1661 Y-15.7566
G01 F70.00
G01 Z-0.0700
G01 F120.00
G01 X6.1647 Y-15.6977
G01 X6.1603 Y-15.6390
G01 X6.1531 Y-15.5805
G01 X6.1431 Y-15.5225
G01 X6.1301 Y-15.4650
G01 X6.1144 Y-15.4083
G01 X6.0960 Y-15.3524
G01 X6.0748 Y-15.2974
G01 X6.0509 Y-15.2436
G01 X6.0244 Y-15.1910
G01 X5.9954 Y-15.1397
G01 X5.9639 Y-15.0900
G01 X5.9300 Y-15.0418
G01 X5.8937 Y-14.9954
G01 X5.8553 Y-14.9508
G01 X5.8147 Y-14.9081
G01 X5.7720 Y-14.8675
G01 X5.7274 Y-14.8291
G01 X5.6810 Y-14.7928
G01 X5.6328 Y-14.7589
G01 X5.5831 Y-14.7274
G01 X5.5318 Y-14.6984
G01 X5.4792 Y-14.6719
G01 X5.4254 Y-14.6480
G01 X5.3704 Y-14.6268
G01 X5.3145 Y-14.6084
G01 X5.2578 Y-14.5927
G01 X5.2003 Y-14.5797
G01 X5.1423 Y-14.5697
G01 X5.0838 Y-14.5625
G01 X5.0251 Y-14.5581
G01 X4.9662 Y-14.5567
G01 X4.9073 Y-14.5581
G01 X4.8486 Y-14.5625
G01 X4.7901 Y-14.5697
G01 X4.7321 Y-14.5797
G01 X4.6746 Y-14.5927
G01 X4.6179 Y-14.6084
G01 X4.5620 Y-14.6268
G01 X4.5070 Y-14.6480
G01 X4.4532 Y-14.6719
G01 X4.4006 Y-14.6984
G01 X4.3493 Y-14.7274
G01 X4.2996 Y-14.7589
G01 X4.2514 Y-14.7928
G01 X4.2050 Y-14.8291
G01 X4.1604 Y-14.8675
G01 X4.1177 Y-14.9081
G01 X4.0771 Y-14.9508
G01 X4.0387 Y-14.9954
G01 X4.0024 Y-15.0418
G01 X3.9685 Y-15.0900
G01 X3.9370 Y-15.1397
G01 X3.9080 Y-15.1910
G01 X3.8815 Y-15.2436
G01 X3.8576 Y-15.2974
G01 X3.8364 Y-15.3524
G01 X3.8180 Y-15.4083
G01 X3.8023 Y-15.4650
G01 X3.7893 Y-15.5225
G01 X3.7793 Y-15.5805
G01 X3.7721 Y-15.6390
G01 X3.7677 Y-15.6977
G01 X3.7663 Y-15.7566
G01 X3.7677 Y-15.8155
G01 X3.7721 Y-15.8742
G01 X3.7793 Y-15.9327
G01 X3.7893 Y-15.9907
G01 X3.8023 Y-16.0482
G01 X3.8180 Y-16.1049
G01 X3.8364 Y-16.1608
G01 X3.8576 Y-16.2158
G01 X3.8815 Y-16.2696
G01 X3.9080 Y-16.3222
G01 X3.9370 Y-16.3735
G01 X3.9685 Y-16.4232
G01 X4.0024 Y-16.4714
G01 X4.0387 Y-16.5178
G01 X4.0771 Y-16.5624
G01 X4.1177 Y-16.6051
G01 X4.1604 Y-16.6457
G01 X4.2050 Y-16.6841
G01 X4.2514 Y-16.7204
G01 X4.2996 Y-16.7543
G01 X4.3493 Y-16.7858
G01 X4.4006 Y-16.8148
G01 X4.4532 Y-16.8413
G01 X4.5070 Y-16.8652
G01 X4.5620 Y-16.8864
G01 X4.6179 Y-16.9048
G01 X4.6746 Y-16.9205
G01 X4.7321 Y-16.9335
G01 X4.7901 Y-16.9435
G01 X4.8486 Y-16.9507
G01 X4.9073 Y-16.9551
G01 X4.9662 Y-16.9565
G01 X5.0251 Y-16.9551
G01 X5.0838 Y-16.9507
G01 X5.1423 Y-16.9435
G01 X5.2003 Y-16.9335
G01 X5.2578 Y-16.9205
G01 X5.3145 Y-16.9048
G01 X5.3704 Y-16.8864
G01 X5.4254 Y-16.8652
G01 X5.4792 Y-16.8413
G01 X5.5318 Y-16.8148
G01 X5.5831 Y-16.7858
G01 X5.6328 Y-16.7543
G01 X5.6810 Y-16.7204
G01 X5.7274 Y-16.6841
G01 X5.7720 Y-16.6457
G01 X5.8147 Y-16.6051
G01 X5.8553 Y-16.5624
G01 X5.8937 Y-16.5178
G01 X5.9300 Y-16.4714
G01 X5.9639 Y-16.4232
G01 X5.9954 Y-16.3735
G01 X6.0244 Y-16.3222
G01 X6.0509 Y-16.2696
G01 X6.0748 Y-16.2158
G01 X6.0960 Y-16.1608
G01 X6.1144 Y-16.1049
G01 X6.1301 Y-16.0482
G01 X6.1431 Y-15.9907
G01 X6.1531 Y-15.9327
G01 X6.1603 Y-15.8742
G01 X6.1647 Y-15.8155
G01 X6.1661 Y-15.7566
G00 Z2.0000
G00 X6.2411 Y-15.7566
G01 F70.00
G01 Z-0.0700
G01 F120.00
G01 X6.2396 Y-15.6940
G01 X6.2350 Y-15.6316
G01 X6.2273 Y-15.5695
G01 X6.2166 Y-15.5079
G01 X6.2029 Y-15.4468
G01 X6.1862 Y-15.3865
G01 X6.1666 Y-15.3271
G01 X6.1441 Y-15.2687
G01 X6.1187 Y-15.2115
G01 X6.0906 Y-15.1556
G01 X6.0597 Y-15.1012
G01 X6.0263 Y-15.0483
G01 X5.9902 Y-14.9971
G01 X5.9517 Y-14.9478
G01 X5.9109 Y-14.9004
G01 X5.8677 Y-14.8551
G01 X5.8224 Y-14.8119
G01 X5.7750 Y-14.7711
G01 X5.7257 Y-14.7326
G01 X5.6745 Y-14.6965
G01 X5.6216 Y-14.6631
G01 X5.5672 Y-14.6322
G01 X5.5113 Y-14.6041
G01 X5.4541 Y-14.5787
G01 X5.3957 Y-14.5562
G01 X5.3363 Y-14.5366
G01 X5.2760 Y-14.5199
G01 X5.2149 Y-14.5062
G01 X5.1533 Y-14.4955
G01 X5.0912 Y-14.4878
G01 X5.0288 Y-14.4832
G01 X4.9662 Y-14.4817
G01 X4.9036 Y-14.4832
G01 X4.8412 Y-14.4878
G01 X4.7791 Y-14.4955
G01 X4.7175 Y-14.5062
G01 X4.6564 Y-14.5199
G01 X4.5961 Y-14.5366
G01 X4.5367 Y-14.5562
G01 X4.4783 Y-14.5787
G01 X4.4211 Y-14.6041
G01 X4.3652 Y-14.6322
G01 X4.3108 Y-14.6631
G01 X4.2579 Y-14.6965
G01 X4.2067 Y-14.7326
G01 X4.1574 Y-14.7711
G01 X4.1100 Y-14.8119
G01 X4.0647 Y-14.8551
G01 X4.0215 Y-14.9004
G01 X3.9807 Y-14.9478
G01 X3.9422 Y-14.9971
G01 X3.9061 Y-15.0483
G01 X3.8727 Y-15.1012
G01 X3.8418 Y-15.1556
G01 X3.8137 Y-15.2115
G01 X3.7883 Y-15.2687
G01 X3.7658 Y-15.3271
G01 X3.7462 Y-15.3865
G01 X3.7295 Y-15.4468
G01 X3.7158 Y-15.5079
G01 X3.7051 Y-15.5695
G01 X3.6974 Y-15.6316
G01 X3.6928 Y-15.6940
G01 X3.6913 Y-15.7566
G01 X3.6928 Y-15.8192
G01 X3.6974 Y-15.8816
G01 X3.7051 Y-15.9437
G01 X3.7158 Y-16.0053
G01 X3.7295 Y-16.0664
G01 X3.7462 Y-16.1267
G01 X3.7658 Y-16.1861
G01 X3.7883 Y-16.2445
G01 X3.8137 Y-16.3017
G01 X3.8418 Y-16.3576
G01 X3.8727 Y-16.4120
G01 X3.9061 Y-16.4649
G01 X3.9422 Y-16.5161
G01 X3.9807 Y-16.5654
G01 X4.0215 Y-16.6128
G01 X4.0647 Y-16.6581
G01 X4.1100 Y-16.7013
G01 X4.1574 Y-16.7421
G01 X4.2067 Y-16.7806
G01 X4.2579 Y-16.8167
G01 X4.3108 Y-16.8501
G01 X4.3652 Y-16.8810
G01 X4.4211 Y-16.9091
G01 X4.4783 Y-16.9345
G01 X4.5367 Y-16.9570
G01 X4.5961 Y-16.9766
G01 X4.6564 Y-16.9933
G01 X4.7175 Y-17.0070
G01 X4.7791 Y-17.0177
G01 X4.8412 Y-17.0254
G01 X4.9036 Y-17.0300
G01 X4.9662 Y-17.0315
G01 X5.0288 Y-17.0300
G01 X5.0912 Y-17.0254
G01 X5.1533 Y-17.0177
G01 X5.2149 Y-17.0070
G01 X5.2760 Y-16.9933
G01 X5.3363 Y-16.9766
G01 X5.3957 Y-16.9570
G01 X5.4541 Y-16.9345
G01 X5.5113 Y-16.9091
G01 X5.5672 Y-16.8810
G01 X5.6216 Y-16.8501
G01 X5.6745 Y-16.8167
G01 X5.7257 Y-16.7806
G01 X5.7750 Y-16.7421
G01 X5.8224 Y-16.7013
G01 X5.8677 Y-16.6581
G01 X5.9109 Y-16.6128
G01 X5.9517 Y-16.5654
G01 X5.9902 Y-16.5161
G01 X6.0263 Y-16.4649
G01 X6.0597 Y-16.4120
G01 X6.0906 Y-16.3576
G01 X6.1187 Y-16.3017
G01 X6.1441 Y-16.2445
G01 X6.1666 Y-16.1861
G01 X6.1862 Y-16.1267
G01 X6.2029 Y-16.0664
G01 X6.2166 Y-16.0053
G01 X6.2273 Y-15.9437
G01 X6.2350 Y-15.8816
G01 X6.2396 Y-15.8192
G01 X6.2411 Y-15.7566
G00 Z2.0000
G00 X6.3162 Y-15.7566
G01 F70.00
G01 Z-0.0700
G01 F120.00
G01 X6.3145 Y-15.6904
G01 X6.3097 Y-15.6243
G01 X6.3015 Y-15.5585
G01 X6.2902 Y-15.4932
G01 X6.2757 Y-15.4286
G01 X6.2580 Y-15.3647
G01 X6.2372 Y-15.3018
G01 X6.2134 Y-15.2400
G01 X6.1865 Y-15.1794
G01 X6.1568 Y-15.1202
G01 X6.1241 Y-15.0626
G01 X6.0886 Y-15.0066
G01 X6.0505 Y-14.9524
G01 X6.0097 Y-14.9002
G01 X5.9665 Y-14.8500
G01 X5.9208 Y-14.8020
G01 X5.8728 Y-14.7563
G01 X5.8226 Y-14.7131
G01 X5.7704 Y-14.6723
G01 X5.7162 Y-14.6342
G01 X5.6602 Y-14.5987
G01 X5.6026 Y-14.5660
G01 X5.5434 Y-14.5363
G01 X5.4828 Y-14.5094
G01 X5.4210 Y-14.4856
G01 X5.3581 Y-14.4648
G01 X5.2942 Y-14.4471
G01 X5.2296 Y-14.4326
G01 X5.1643 Y-14.4213
G01 X5.0985 Y-14.4131
G01 X5.0324 Y-14.4083
G01 X4.9662 Y-14.4066
G01 X4.9000 Y-14.4083
G01 X4.8339 Y-14.4131
G01 X4.7681 Y-14.4213
G01 X4.7028 Y-14.4326
G01 X4.6382 Y-14.4471
G01 X4.5743 Y-14.4648
G01 X4.5114 Y-14.4856
G01 X4.4496 Y-14.5094
G01 X4.3890 Y-14.5363
G01 X4.3298 Y-14.5660
G01 X4.2722 Y-14.5987
G01 X4.2162 Y-14.6342
G01 X4.1620 Y-14.6723
G01 X4.1098 Y-14.7131
G01 X4.0596 Y-14.7563
G01 X4.0116 Y-14.8020
G01 X3.9659 Y-14.8500
G01 X3.9227 Y-14.9002
G01 X3.8819 Y-14.9524
G01 X3.8438 Y-15.0066
G01 X3.8083 Y-15.0626
G01 X3.7756 Y-15.1202
G01 X3.7459 Y-15.1794
G01 X3.7190 Y-15.2400
G01 X3.6952 Y-15.3018
G01 X3.6744 Y-15.3647
G01 X3.6567 Y-15.4286
G01 X3.6422 Y-15.4932
G01 X3.6309 Y-15.5585
G01 X3.6227 Y-15.6243
G01 X3.6179 Y-15.6904
G01 X3.6162 Y-15.7566
G01 X3.6179 Y-15.8228
G01 X3.6227 Y-15.8889
G01 X3.6309 Y-15.9547
G01 X3.6422 Y-16.0200
G01 X3.6567 Y-16.0846
G01 X3.6744 Y-16.1485
G01 X3.6952 Y-16.2114
G01 X3.7190 Y-16.2732
G01 X3.7459 Y-16.3338
G01 X3.7756 Y-16.3930
G01 X3.8083 Y-16.4506
G01 X3.8438 Y-16.5066
G01 X3.8819 Y-16.5608
G01 X3.9227 Y-16.6130
G01 X3.9659 Y-16.6632
G01 X4.0116 Y-16.7112
G01 X4.0596 Y-16.7569
G01 X4.1098 Y-16.8001
G01 X4.1620 Y-16.8409
G01 X4.2162 Y-16.8790
G01 X4.2722 Y-16.9145
G01 X4.3298 Y-16.9472
G01 X4.3890 Y-16.9769
G01 X4.4496 Y-17.0038
G01 X4.5114 Y-17.0276
G01 X4.5743 Y-17.0484
G01 X4.6382 Y-17.0661
G01 X4.7028 Y-17.0806
G01 X4.7681 Y-17.0919
G01 X4.8339 Y-17.1001
G01 X4.9000 Y-17.1049
G01 X4.9662 Y-17.1066
G01 X5.0324 Y-17.1049
G01 X5.0985 Y-17.1001
G01 X5.1643 Y-17.0919
G01 X5.2296 Y-17.0806
G01 X5.2942 Y-17.0661
G01 X5.3581 Y-17.0484
G01 X5.4210 Y-17.0276
G01 X5.4828 Y-17.0038
G01 X5.5434 Y-16.9769
G01 X5.6026 Y-16.9472
G01 X5.6602 Y-16.9145
G01 X5.7162 Y-16.8790
G01 X5.7704 Y-16.8409
G01 X5.8226 Y-16.8001
G01 X5.8728 Y-16.7569
G01 X5.9208 Y-16.7112
G01 X5.9665 Y-16.6632
G01 X6.0097 Y-16.6130
G01 X6.0505 Y-16.5608
G01 X6.0886 Y-16.5066
G01 X6.1241 Y-16.4506
G01 X6.1568 Y-16.3930
G01 X6.1865 Y-16.3338
G01 X6.2134 Y-16.2732
G01 X6.2372 Y-16.2114
G01 X6.2580 Y-16.1485
G01 X6.2757 Y-16.0846
G01 X6.2902 Y-16.0200
G01 X6.3015 Y-15.9547
G01 X6.3097 Y-15.8889
G01 X6.3145 Y-15.8228
G01 X6.3162 Y-15.7566
G00 Z2.0000
G00 X6.3912 Y-15.7566
G01 F70.00
G01 Z-0.0700
G01 F120.00
G01 X6.3895 Y-15.6867
G01 X6.3843 Y-15.6169
G01 X6.3758 Y-15.5475
G01 X6.3638 Y-15.4786
G01 X6.3485 Y-15.4104
G01 X6.3298 Y-15.3430
G01 X6.3079 Y-15.2765
G01 X6.2827 Y-15.2113
G01 X6.2544 Y-15.1473
G01 X6.2229 Y-15.0849
G01 X6.1884 Y-15.0240
G01 X6.1510 Y-14.9649
G01 X6.1108 Y-14.9077
G01 X6.0677 Y-14.8526
G01 X6.0220 Y-14.7996
G01 X5.9738 Y-14.7490
G01 X5.9232 Y-14.7008
G01 X5.8702 Y-14.6551
G01 X5.8151 Y-14.6120
G01 X5.7579 Y-14.5718
G01 X5.6988 Y-14.5344
G01 X5.6379 Y-14.4999
G01 X5.5755 Y-14.4684
G01 X5.5115 Y-14.4401
G01 X5.4463 Y-14.4149
G01 X5.3798 Y-14.3930
G01 X5.3124 Y-14.3743
G01 X5.2442 Y-14.3590
G01 X5.1753 Y-14.3470
G01 X5.1059 Y-14.3385
G01 X5.0361 Y-14.3333
G01 X4.9662 Y-14.3316
G01 X4.8963 Y-14.3333
G01 X4.8265 Y-14.3385
G01 X4.7571 Y-14.3470
G01 X4.6882 Y-14.3590
G01 X4.6200 Y-14.3743
G01 X4.5526 Y-14.3930
G01 X4.4861 Y-14.4149
G01 X4.4209 Y-14.4401
G01 X4.3569 Y-14.4684
G01 X4.2945 Y-14.4999
G01 X4.2336 Y-14.5344
G01 X4.1745 Y-14.5718
G01 X4.1173 Y-14.6120
G01 X4.0622 Y-14.6551
G01 X4.0092 Y-14.7008
G01 X3.9586 Y-14.7490
G01 X3.9104 Y-14.7996
G01 X3.8647 Y-14.8526
G01 X3.8216 Y-14.9077
G01 X3.7814 Y-14.9649
G01 X3.7440 Y-15.0240
G01 X3.7095 Y-15.0849
G01 X3.6780 Y-15.1473
G01 X3.6497 Y-15.2113
G01 X3.6245 Y-15.2765
G01 X3.6026 Y-15.3430
G01 X3.5839 Y-15.4104
G01 X3.5686 Y-15.4786
G01 X3.5566 Y-15.5475
G01 X3.5481 Y-15.6169
G01 X3.5429 Y-15.6867
G01 X3.5412 Y-15.7566
G01 X3.5429 Y-15.8265
G01 X3.5481 Y-15.8963
G01 X3.5566 Y-15.9657
G01 X3.5686 Y-16.0346
G01 X3.5839 Y-16.1028
G01 X3.6026 Y-16.1702
G01 X3.6245 Y-16.2367
G01 X3.6497 Y-16.3019
G01 X3.6780 Y-16.3659
G01 X3.7095 Y-16.4283
G01 X3.7440 Y-16.4892
G01 X3.7814 Y-16.5483
G01 X3.8216 Y-16.6055
G01 X3.8647 Y-16.6606
G01 X3.9104 Y-16.7136
G01 X3.9586 Y-16.7642
G01 X4.0092 Y-16.8124
G01 X4.0622 Y-16.8581
G01 X4.1173 Y-16.9012
G01 X4.1745 Y-16.9414
G01 X4.2336 Y-16.9788
G01 X4.2945 Y-17.0133
G01 X4.3569 Y-17.0448
G01 X4.4209 Y-17.0731
G01 X4.4861 Y-17.0983
G01 X4.5526 Y-17.1202
G01 X4.6200 Y-17.1389
G01 X4.6882 Y-17.1542
G01 X4.7571 Y-17.1662
G01 X4.8265 Y-17.1747
G01 X4.8963 Y-17.1799
G01 X4.9662 Y-17.1816
G01 X5.0361 Y-17.1799
G01 X5.1059 Y-17.1747
G01 X5.1753 Y-17.1662
G01 X5.2442 Y-17.1542
G01 X5.3124 Y-17.1389
G01 X5.3798 Y-17.1202
G01 X5.4463 Y-17.0983
G01 X5.5115 Y-17.0731
G01 X5.5755 Y-17.0448
G01 X5.6379 Y-17.0133
G01 X5.6988 Y-16.9788
G01 X5.7579 Y-16.9414
G01 X5.8151 Y-16.9012
G01 X5.8702 Y-16.8581
G01 X5.9232 Y-16.8124
G01 X5.9738 Y-16.7642
G01 X6.0220 Y-16.7136
G01 X6.0677 Y-16.6606
G01 X6.1108 Y-16.6055
G01 X6.1510 Y-16.5483
G01 X6.1884 Y-16.4892
G01 X6.2229 Y-16.4283
G01 X6.2544 Y-16.3659
G01 X6.2827 Y-16.3019
G01 X6.3079 Y-16.2367
G01 X6.3298 Y-16.1702
G01 X6.3485 Y-16.1028
G01 X6.3638 Y-16.0346
G01 X6.3758 Y-15.9657
G01 X6.3843 Y-15.8963
G01 X6.3895 Y-15.8265
G01 X6.3912 Y-15.7566
G00 Z2.0000
M05
G00 Z2.0000
G00 Z25.00

