(G-CODE GENERATED BY FLATCAM v8.993 - www.flatcam.org - Version Date: 2020/06/05)

(Name: 5v_Ф1_верх.gbr_iso_combined_cutoff_cnc)
(Type: G-code from Geometry)
(Units: MM)

(Created on Friday, 30 October 2020 at 20:47)

(This preprocessor is the default preprocessor used by FlatCAM.)
(It is made to work with MACH3 compatible motion controllers.)

(TOOL DIAMETER: 0.8 mm)
(Feedrate_XY: 120.0 mm/min)
(Feedrate_Z: 70.0 mm/min)
(Feedrate rapids 1500.0 mm/min)

(Z_Cut: -1.7 mm)
(DepthPerCut: 0.1 mm <=>17 passes)
(Z_Move: 2.0 mm)
(Z Start: None mm)
(Z End: 25.0 mm)
(Steps per circle: 128)
(Preprocessor Geometry: default)

(X range:   -0.4000 ...   10.4000  mm)
(Y range:  -20.4000 ...    0.4000  mm)

(Spindle Speed: 10000 RPM)
G21
G90
G94



G01 F120.00
G00 Z2.0000

M03 S10000
G00 X-0.4000 Y0.0000
G01 F70.00
G01 Z-0.1000
G01 F120.00
G01 X-0.4000 Y-20.0000
G01 X-0.3992 Y-20.0245
G01 X-0.3970 Y-20.0490
G01 X-0.3932 Y-20.0732
G01 X-0.3880 Y-20.0972
G01 X-0.3813 Y-20.1208
G01 X-0.3732 Y-20.1440
G01 X-0.3657 Y-20.1621
G01 X-0.3551 Y-20.1842
G01 X-0.3405 Y-20.2098
G01 X-0.3270 Y-20.2303
G01 X-0.3092 Y-20.2538
G01 X-0.2931 Y-20.2722
G01 X-0.2722 Y-20.2931
G01 X-0.2538 Y-20.3092
G01 X-0.2343 Y-20.3242
G01 X-0.2098 Y-20.3405
G01 X-0.1842 Y-20.3551
G01 X-0.1621 Y-20.3657
G01 X-0.1348 Y-20.3766
G01 X-0.1114 Y-20.3842
G01 X-0.0828 Y-20.3913
G01 X-0.0587 Y-20.3957
G01 X-0.0294 Y-20.3989
G01 X-0.0049 Y-20.4000
G01 X10.0000 Y-20.4000
G01 X10.0245 Y-20.3992
G01 X10.0490 Y-20.3970
G01 X10.0732 Y-20.3932
G01 X10.0972 Y-20.3880
G01 X10.1208 Y-20.3813
G01 X10.1440 Y-20.3732
G01 X10.1666 Y-20.3637
G01 X10.1842 Y-20.3551
G01 X10.2098 Y-20.3405
G01 X10.2303 Y-20.3270
G01 X10.2499 Y-20.3123
G01 X10.2722 Y-20.2931
G01 X10.2897 Y-20.2758
G01 X10.3092 Y-20.2538
G01 X10.3242 Y-20.2343
G01 X10.3405 Y-20.2098
G01 X10.3551 Y-20.1842
G01 X10.3657 Y-20.1621
G01 X10.3749 Y-20.1394
G01 X10.3842 Y-20.1114
G01 X10.3903 Y-20.0876
G01 X10.3957 Y-20.0587
G01 X10.3985 Y-20.0343
G01 X10.4000 Y-20.0049
G01 X10.4000 Y0.0000
G01 X10.3992 Y0.0245
G01 X10.3970 Y0.0490
G01 X10.3932 Y0.0732
G01 X10.3880 Y0.0972
G01 X10.3813 Y0.1208
G01 X10.3732 Y0.1440
G01 X10.3637 Y0.1666
G01 X10.3551 Y0.1842
G01 X10.3405 Y0.2098
G01 X10.3270 Y0.2303
G01 X10.3123 Y0.2499
G01 X10.2931 Y0.2722
G01 X10.2722 Y0.2931
G01 X10.2538 Y0.3092
G01 X10.2303 Y0.3270
G01 X10.2098 Y0.3405
G01 X10.1842 Y0.3551
G01 X10.1621 Y0.3657
G01 X10.1348 Y0.3766
G01 X10.1114 Y0.3842
G01 X10.0876 Y0.3903
G01 X10.0635 Y0.3949
G01 X10.0343 Y0.3985
G01 X10.0098 Y0.3999
G01 X-0.0049 Y0.4000
G01 X-0.0441 Y0.3976
G01 X-0.0828 Y0.3913
G01 X-0.1208 Y0.3813
G01 X-0.1576 Y0.3676
G01 X-0.1929 Y0.3504
G01 X-0.2263 Y0.3298
G01 X-0.2538 Y0.3092
G01 X-0.2828 Y0.2828
G01 X-0.3092 Y0.2538
G01 X-0.3326 Y0.2222
G01 X-0.3528 Y0.1886
G01 X-0.3696 Y0.1531
G01 X-0.3828 Y0.1161
G01 X-0.3923 Y0.0780
G01 X-0.3981 Y0.0392
G01 X-0.4000 Y0.0000
G00 X-0.4000 Y0.0000
G01 F70.00
G01 Z-0.2000
G01 F120.00
G01 X-0.4000 Y-20.0000
G01 X-0.3992 Y-20.0245
G01 X-0.3970 Y-20.0490
G01 X-0.3932 Y-20.0732
G01 X-0.3880 Y-20.0972
G01 X-0.3813 Y-20.1208
G01 X-0.3732 Y-20.1440
G01 X-0.3657 Y-20.1621
G01 X-0.3551 Y-20.1842
G01 X-0.3405 Y-20.2098
G01 X-0.3270 Y-20.2303
G01 X-0.3092 Y-20.2538
G01 X-0.2931 Y-20.2722
G01 X-0.2722 Y-20.2931
G01 X-0.2538 Y-20.3092
G01 X-0.2343 Y-20.3242
G01 X-0.2098 Y-20.3405
G01 X-0.1842 Y-20.3551
G01 X-0.1621 Y-20.3657
G01 X-0.1348 Y-20.3766
G01 X-0.1114 Y-20.3842
G01 X-0.0828 Y-20.3913
G01 X-0.0587 Y-20.3957
G01 X-0.0294 Y-20.3989
G01 X-0.0049 Y-20.4000
G01 X10.0000 Y-20.4000
G01 X10.0245 Y-20.3992
G01 X10.0490 Y-20.3970
G01 X10.0732 Y-20.3932
G01 X10.0972 Y-20.3880
G01 X10.1208 Y-20.3813
G01 X10.1440 Y-20.3732
G01 X10.1666 Y-20.3637
G01 X10.1842 Y-20.3551
G01 X10.2098 Y-20.3405
G01 X10.2303 Y-20.3270
G01 X10.2499 Y-20.3123
G01 X10.2722 Y-20.2931
G01 X10.2897 Y-20.2758
G01 X10.3092 Y-20.2538
G01 X10.3242 Y-20.2343
G01 X10.3405 Y-20.2098
G01 X10.3551 Y-20.1842
G01 X10.3657 Y-20.1621
G01 X10.3749 Y-20.1394
G01 X10.3842 Y-20.1114
G01 X10.3903 Y-20.0876
G01 X10.3957 Y-20.0587
G01 X10.3985 Y-20.0343
G01 X10.4000 Y-20.0049
G01 X10.4000 Y0.0000
G01 X10.3992 Y0.0245
G01 X10.3970 Y0.0490
G01 X10.3932 Y0.0732
G01 X10.3880 Y0.0972
G01 X10.3813 Y0.1208
G01 X10.3732 Y0.1440
G01 X10.3637 Y0.1666
G01 X10.3551 Y0.1842
G01 X10.3405 Y0.2098
G01 X10.3270 Y0.2303
G01 X10.3123 Y0.2499
G01 X10.2931 Y0.2722
G01 X10.2722 Y0.2931
G01 X10.2538 Y0.3092
G01 X10.2303 Y0.3270
G01 X10.2098 Y0.3405
G01 X10.1842 Y0.3551
G01 X10.1621 Y0.3657
G01 X10.1348 Y0.3766
G01 X10.1114 Y0.3842
G01 X10.0876 Y0.3903
G01 X10.0635 Y0.3949
G01 X10.0343 Y0.3985
G01 X10.0098 Y0.3999
G01 X-0.0049 Y0.4000
G01 X-0.0441 Y0.3976
G01 X-0.0828 Y0.3913
G01 X-0.1208 Y0.3813
G01 X-0.1576 Y0.3676
G01 X-0.1929 Y0.3504
G01 X-0.2263 Y0.3298
G01 X-0.2538 Y0.3092
G01 X-0.2828 Y0.2828
G01 X-0.3092 Y0.2538
G01 X-0.3326 Y0.2222
G01 X-0.3528 Y0.1886
G01 X-0.3696 Y0.1531
G01 X-0.3828 Y0.1161
G01 X-0.3923 Y0.0780
G01 X-0.3981 Y0.0392
G01 X-0.4000 Y0.0000
G00 X-0.4000 Y0.0000
G01 F70.00
G01 Z-0.3000
G01 F120.00
G01 X-0.4000 Y-20.0000
G01 X-0.3992 Y-20.0245
G01 X-0.3970 Y-20.0490
G01 X-0.3932 Y-20.0732
G01 X-0.3880 Y-20.0972
G01 X-0.3813 Y-20.1208
G01 X-0.3732 Y-20.1440
G01 X-0.3657 Y-20.1621
G01 X-0.3551 Y-20.1842
G01 X-0.3405 Y-20.2098
G01 X-0.3270 Y-20.2303
G01 X-0.3092 Y-20.2538
G01 X-0.2931 Y-20.2722
G01 X-0.2722 Y-20.2931
G01 X-0.2538 Y-20.3092
G01 X-0.2343 Y-20.3242
G01 X-0.2098 Y-20.3405
G01 X-0.1842 Y-20.3551
G01 X-0.1621 Y-20.3657
G01 X-0.1348 Y-20.3766
G01 X-0.1114 Y-20.3842
G01 X-0.0828 Y-20.3913
G01 X-0.0587 Y-20.3957
G01 X-0.0294 Y-20.3989
G01 X-0.0049 Y-20.4000
G01 X10.0000 Y-20.4000
G01 X10.0245 Y-20.3992
G01 X10.0490 Y-20.3970
G01 X10.0732 Y-20.3932
G01 X10.0972 Y-20.3880
G01 X10.1208 Y-20.3813
G01 X10.1440 Y-20.3732
G01 X10.1666 Y-20.3637
G01 X10.1842 Y-20.3551
G01 X10.2098 Y-20.3405
G01 X10.2303 Y-20.3270
G01 X10.2499 Y-20.3123
G01 X10.2722 Y-20.2931
G01 X10.2897 Y-20.2758
G01 X10.3092 Y-20.2538
G01 X10.3242 Y-20.2343
G01 X10.3405 Y-20.2098
G01 X10.3551 Y-20.1842
G01 X10.3657 Y-20.1621
G01 X10.3749 Y-20.1394
G01 X10.3842 Y-20.1114
G01 X10.3903 Y-20.0876
G01 X10.3957 Y-20.0587
G01 X10.3985 Y-20.0343
G01 X10.4000 Y-20.0049
G01 X10.4000 Y0.0000
G01 X10.3992 Y0.0245
G01 X10.3970 Y0.0490
G01 X10.3932 Y0.0732
G01 X10.3880 Y0.0972
G01 X10.3813 Y0.1208
G01 X10.3732 Y0.1440
G01 X10.3637 Y0.1666
G01 X10.3551 Y0.1842
G01 X10.3405 Y0.2098
G01 X10.3270 Y0.2303
G01 X10.3123 Y0.2499
G01 X10.2931 Y0.2722
G01 X10.2722 Y0.2931
G01 X10.2538 Y0.3092
G01 X10.2303 Y0.3270
G01 X10.2098 Y0.3405
G01 X10.1842 Y0.3551
G01 X10.1621 Y0.3657
G01 X10.1348 Y0.3766
G01 X10.1114 Y0.3842
G01 X10.0876 Y0.3903
G01 X10.0635 Y0.3949
G01 X10.0343 Y0.3985
G01 X10.0098 Y0.3999
G01 X-0.0049 Y0.4000
G01 X-0.0441 Y0.3976
G01 X-0.0828 Y0.3913
G01 X-0.1208 Y0.3813
G01 X-0.1576 Y0.3676
G01 X-0.1929 Y0.3504
G01 X-0.2263 Y0.3298
G01 X-0.2538 Y0.3092
G01 X-0.2828 Y0.2828
G01 X-0.3092 Y0.2538
G01 X-0.3326 Y0.2222
G01 X-0.3528 Y0.1886
G01 X-0.3696 Y0.1531
G01 X-0.3828 Y0.1161
G01 X-0.3923 Y0.0780
G01 X-0.3981 Y0.0392
G01 X-0.4000 Y0.0000
G00 X-0.4000 Y0.0000
G01 F70.00
G01 Z-0.4000
G01 F120.00
G01 X-0.4000 Y-20.0000
G01 X-0.3992 Y-20.0245
G01 X-0.3970 Y-20.0490
G01 X-0.3932 Y-20.0732
G01 X-0.3880 Y-20.0972
G01 X-0.3813 Y-20.1208
G01 X-0.3732 Y-20.1440
G01 X-0.3657 Y-20.1621
G01 X-0.3551 Y-20.1842
G01 X-0.3405 Y-20.2098
G01 X-0.3270 Y-20.2303
G01 X-0.3092 Y-20.2538
G01 X-0.2931 Y-20.2722
G01 X-0.2722 Y-20.2931
G01 X-0.2538 Y-20.3092
G01 X-0.2343 Y-20.3242
G01 X-0.2098 Y-20.3405
G01 X-0.1842 Y-20.3551
G01 X-0.1621 Y-20.3657
G01 X-0.1348 Y-20.3766
G01 X-0.1114 Y-20.3842
G01 X-0.0828 Y-20.3913
G01 X-0.0587 Y-20.3957
G01 X-0.0294 Y-20.3989
G01 X-0.0049 Y-20.4000
G01 X10.0000 Y-20.4000
G01 X10.0245 Y-20.3992
G01 X10.0490 Y-20.3970
G01 X10.0732 Y-20.3932
G01 X10.0972 Y-20.3880
G01 X10.1208 Y-20.3813
G01 X10.1440 Y-20.3732
G01 X10.1666 Y-20.3637
G01 X10.1842 Y-20.3551
G01 X10.2098 Y-20.3405
G01 X10.2303 Y-20.3270
G01 X10.2499 Y-20.3123
G01 X10.2722 Y-20.2931
G01 X10.2897 Y-20.2758
G01 X10.3092 Y-20.2538
G01 X10.3242 Y-20.2343
G01 X10.3405 Y-20.2098
G01 X10.3551 Y-20.1842
G01 X10.3657 Y-20.1621
G01 X10.3749 Y-20.1394
G01 X10.3842 Y-20.1114
G01 X10.3903 Y-20.0876
G01 X10.3957 Y-20.0587
G01 X10.3985 Y-20.0343
G01 X10.4000 Y-20.0049
G01 X10.4000 Y0.0000
G01 X10.3992 Y0.0245
G01 X10.3970 Y0.0490
G01 X10.3932 Y0.0732
G01 X10.3880 Y0.0972
G01 X10.3813 Y0.1208
G01 X10.3732 Y0.1440
G01 X10.3637 Y0.1666
G01 X10.3551 Y0.1842
G01 X10.3405 Y0.2098
G01 X10.3270 Y0.2303
G01 X10.3123 Y0.2499
G01 X10.2931 Y0.2722
G01 X10.2722 Y0.2931
G01 X10.2538 Y0.3092
G01 X10.2303 Y0.3270
G01 X10.2098 Y0.3405
G01 X10.1842 Y0.3551
G01 X10.1621 Y0.3657
G01 X10.1348 Y0.3766
G01 X10.1114 Y0.3842
G01 X10.0876 Y0.3903
G01 X10.0635 Y0.3949
G01 X10.0343 Y0.3985
G01 X10.0098 Y0.3999
G01 X-0.0049 Y0.4000
G01 X-0.0441 Y0.3976
G01 X-0.0828 Y0.3913
G01 X-0.1208 Y0.3813
G01 X-0.1576 Y0.3676
G01 X-0.1929 Y0.3504
G01 X-0.2263 Y0.3298
G01 X-0.2538 Y0.3092
G01 X-0.2828 Y0.2828
G01 X-0.3092 Y0.2538
G01 X-0.3326 Y0.2222
G01 X-0.3528 Y0.1886
G01 X-0.3696 Y0.1531
G01 X-0.3828 Y0.1161
G01 X-0.3923 Y0.0780
G01 X-0.3981 Y0.0392
G01 X-0.4000 Y0.0000
G00 X-0.4000 Y0.0000
G01 F70.00
G01 Z-0.5000
G01 F120.00
G01 X-0.4000 Y-20.0000
G01 X-0.3992 Y-20.0245
G01 X-0.3970 Y-20.0490
G01 X-0.3932 Y-20.0732
G01 X-0.3880 Y-20.0972
G01 X-0.3813 Y-20.1208
G01 X-0.3732 Y-20.1440
G01 X-0.3657 Y-20.1621
G01 X-0.3551 Y-20.1842
G01 X-0.3405 Y-20.2098
G01 X-0.3270 Y-20.2303
G01 X-0.3092 Y-20.2538
G01 X-0.2931 Y-20.2722
G01 X-0.2722 Y-20.2931
G01 X-0.2538 Y-20.3092
G01 X-0.2343 Y-20.3242
G01 X-0.2098 Y-20.3405
G01 X-0.1842 Y-20.3551
G01 X-0.1621 Y-20.3657
G01 X-0.1348 Y-20.3766
G01 X-0.1114 Y-20.3842
G01 X-0.0828 Y-20.3913
G01 X-0.0587 Y-20.3957
G01 X-0.0294 Y-20.3989
G01 X-0.0049 Y-20.4000
G01 X10.0000 Y-20.4000
G01 X10.0245 Y-20.3992
G01 X10.0490 Y-20.3970
G01 X10.0732 Y-20.3932
G01 X10.0972 Y-20.3880
G01 X10.1208 Y-20.3813
G01 X10.1440 Y-20.3732
G01 X10.1666 Y-20.3637
G01 X10.1842 Y-20.3551
G01 X10.2098 Y-20.3405
G01 X10.2303 Y-20.3270
G01 X10.2499 Y-20.3123
G01 X10.2722 Y-20.2931
G01 X10.2897 Y-20.2758
G01 X10.3092 Y-20.2538
G01 X10.3242 Y-20.2343
G01 X10.3405 Y-20.2098
G01 X10.3551 Y-20.1842
G01 X10.3657 Y-20.1621
G01 X10.3749 Y-20.1394
G01 X10.3842 Y-20.1114
G01 X10.3903 Y-20.0876
G01 X10.3957 Y-20.0587
G01 X10.3985 Y-20.0343
G01 X10.4000 Y-20.0049
G01 X10.4000 Y0.0000
G01 X10.3992 Y0.0245
G01 X10.3970 Y0.0490
G01 X10.3932 Y0.0732
G01 X10.3880 Y0.0972
G01 X10.3813 Y0.1208
G01 X10.3732 Y0.1440
G01 X10.3637 Y0.1666
G01 X10.3551 Y0.1842
G01 X10.3405 Y0.2098
G01 X10.3270 Y0.2303
G01 X10.3123 Y0.2499
G01 X10.2931 Y0.2722
G01 X10.2722 Y0.2931
G01 X10.2538 Y0.3092
G01 X10.2303 Y0.3270
G01 X10.2098 Y0.3405
G01 X10.1842 Y0.3551
G01 X10.1621 Y0.3657
G01 X10.1348 Y0.3766
G01 X10.1114 Y0.3842
G01 X10.0876 Y0.3903
G01 X10.0635 Y0.3949
G01 X10.0343 Y0.3985
G01 X10.0098 Y0.3999
G01 X-0.0049 Y0.4000
G01 X-0.0441 Y0.3976
G01 X-0.0828 Y0.3913
G01 X-0.1208 Y0.3813
G01 X-0.1576 Y0.3676
G01 X-0.1929 Y0.3504
G01 X-0.2263 Y0.3298
G01 X-0.2538 Y0.3092
G01 X-0.2828 Y0.2828
G01 X-0.3092 Y0.2538
G01 X-0.3326 Y0.2222
G01 X-0.3528 Y0.1886
G01 X-0.3696 Y0.1531
G01 X-0.3828 Y0.1161
G01 X-0.3923 Y0.0780
G01 X-0.3981 Y0.0392
G01 X-0.4000 Y0.0000
G00 X-0.4000 Y0.0000
G01 F70.00
G01 Z-0.6000
G01 F120.00
G01 X-0.4000 Y-20.0000
G01 X-0.3992 Y-20.0245
G01 X-0.3970 Y-20.0490
G01 X-0.3932 Y-20.0732
G01 X-0.3880 Y-20.0972
G01 X-0.3813 Y-20.1208
G01 X-0.3732 Y-20.1440
G01 X-0.3657 Y-20.1621
G01 X-0.3551 Y-20.1842
G01 X-0.3405 Y-20.2098
G01 X-0.3270 Y-20.2303
G01 X-0.3092 Y-20.2538
G01 X-0.2931 Y-20.2722
G01 X-0.2722 Y-20.2931
G01 X-0.2538 Y-20.3092
G01 X-0.2343 Y-20.3242
G01 X-0.2098 Y-20.3405
G01 X-0.1842 Y-20.3551
G01 X-0.1621 Y-20.3657
G01 X-0.1348 Y-20.3766
G01 X-0.1114 Y-20.3842
G01 X-0.0828 Y-20.3913
G01 X-0.0587 Y-20.3957
G01 X-0.0294 Y-20.3989
G01 X-0.0049 Y-20.4000
G01 X10.0000 Y-20.4000
G01 X10.0245 Y-20.3992
G01 X10.0490 Y-20.3970
G01 X10.0732 Y-20.3932
G01 X10.0972 Y-20.3880
G01 X10.1208 Y-20.3813
G01 X10.1440 Y-20.3732
G01 X10.1666 Y-20.3637
G01 X10.1842 Y-20.3551
G01 X10.2098 Y-20.3405
G01 X10.2303 Y-20.3270
G01 X10.2499 Y-20.3123
G01 X10.2722 Y-20.2931
G01 X10.2897 Y-20.2758
G01 X10.3092 Y-20.2538
G01 X10.3242 Y-20.2343
G01 X10.3405 Y-20.2098
G01 X10.3551 Y-20.1842
G01 X10.3657 Y-20.1621
G01 X10.3749 Y-20.1394
G01 X10.3842 Y-20.1114
G01 X10.3903 Y-20.0876
G01 X10.3957 Y-20.0587
G01 X10.3985 Y-20.0343
G01 X10.4000 Y-20.0049
G01 X10.4000 Y0.0000
G01 X10.3992 Y0.0245
G01 X10.3970 Y0.0490
G01 X10.3932 Y0.0732
G01 X10.3880 Y0.0972
G01 X10.3813 Y0.1208
G01 X10.3732 Y0.1440
G01 X10.3637 Y0.1666
G01 X10.3551 Y0.1842
G01 X10.3405 Y0.2098
G01 X10.3270 Y0.2303
G01 X10.3123 Y0.2499
G01 X10.2931 Y0.2722
G01 X10.2722 Y0.2931
G01 X10.2538 Y0.3092
G01 X10.2303 Y0.3270
G01 X10.2098 Y0.3405
G01 X10.1842 Y0.3551
G01 X10.1621 Y0.3657
G01 X10.1348 Y0.3766
G01 X10.1114 Y0.3842
G01 X10.0876 Y0.3903
G01 X10.0635 Y0.3949
G01 X10.0343 Y0.3985
G01 X10.0098 Y0.3999
G01 X-0.0049 Y0.4000
G01 X-0.0441 Y0.3976
G01 X-0.0828 Y0.3913
G01 X-0.1208 Y0.3813
G01 X-0.1576 Y0.3676
G01 X-0.1929 Y0.3504
G01 X-0.2263 Y0.3298
G01 X-0.2538 Y0.3092
G01 X-0.2828 Y0.2828
G01 X-0.3092 Y0.2538
G01 X-0.3326 Y0.2222
G01 X-0.3528 Y0.1886
G01 X-0.3696 Y0.1531
G01 X-0.3828 Y0.1161
G01 X-0.3923 Y0.0780
G01 X-0.3981 Y0.0392
G01 X-0.4000 Y0.0000
G00 X-0.4000 Y0.0000
G01 F70.00
G01 Z-0.7000
G01 F120.00
G01 X-0.4000 Y-20.0000
G01 X-0.3992 Y-20.0245
G01 X-0.3970 Y-20.0490
G01 X-0.3932 Y-20.0732
G01 X-0.3880 Y-20.0972
G01 X-0.3813 Y-20.1208
G01 X-0.3732 Y-20.1440
G01 X-0.3657 Y-20.1621
G01 X-0.3551 Y-20.1842
G01 X-0.3405 Y-20.2098
G01 X-0.3270 Y-20.2303
G01 X-0.3092 Y-20.2538
G01 X-0.2931 Y-20.2722
G01 X-0.2722 Y-20.2931
G01 X-0.2538 Y-20.3092
G01 X-0.2343 Y-20.3242
G01 X-0.2098 Y-20.3405
G01 X-0.1842 Y-20.3551
G01 X-0.1621 Y-20.3657
G01 X-0.1348 Y-20.3766
G01 X-0.1114 Y-20.3842
G01 X-0.0828 Y-20.3913
G01 X-0.0587 Y-20.3957
G01 X-0.0294 Y-20.3989
G01 X-0.0049 Y-20.4000
G01 X10.0000 Y-20.4000
G01 X10.0245 Y-20.3992
G01 X10.0490 Y-20.3970
G01 X10.0732 Y-20.3932
G01 X10.0972 Y-20.3880
G01 X10.1208 Y-20.3813
G01 X10.1440 Y-20.3732
G01 X10.1666 Y-20.3637
G01 X10.1842 Y-20.3551
G01 X10.2098 Y-20.3405
G01 X10.2303 Y-20.3270
G01 X10.2499 Y-20.3123
G01 X10.2722 Y-20.2931
G01 X10.2897 Y-20.2758
G01 X10.3092 Y-20.2538
G01 X10.3242 Y-20.2343
G01 X10.3405 Y-20.2098
G01 X10.3551 Y-20.1842
G01 X10.3657 Y-20.1621
G01 X10.3749 Y-20.1394
G01 X10.3842 Y-20.1114
G01 X10.3903 Y-20.0876
G01 X10.3957 Y-20.0587
G01 X10.3985 Y-20.0343
G01 X10.4000 Y-20.0049
G01 X10.4000 Y0.0000
G01 X10.3992 Y0.0245
G01 X10.3970 Y0.0490
G01 X10.3932 Y0.0732
G01 X10.3880 Y0.0972
G01 X10.3813 Y0.1208
G01 X10.3732 Y0.1440
G01 X10.3637 Y0.1666
G01 X10.3551 Y0.1842
G01 X10.3405 Y0.2098
G01 X10.3270 Y0.2303
G01 X10.3123 Y0.2499
G01 X10.2931 Y0.2722
G01 X10.2722 Y0.2931
G01 X10.2538 Y0.3092
G01 X10.2303 Y0.3270
G01 X10.2098 Y0.3405
G01 X10.1842 Y0.3551
G01 X10.1621 Y0.3657
G01 X10.1348 Y0.3766
G01 X10.1114 Y0.3842
G01 X10.0876 Y0.3903
G01 X10.0635 Y0.3949
G01 X10.0343 Y0.3985
G01 X10.0098 Y0.3999
G01 X-0.0049 Y0.4000
G01 X-0.0441 Y0.3976
G01 X-0.0828 Y0.3913
G01 X-0.1208 Y0.3813
G01 X-0.1576 Y0.3676
G01 X-0.1929 Y0.3504
G01 X-0.2263 Y0.3298
G01 X-0.2538 Y0.3092
G01 X-0.2828 Y0.2828
G01 X-0.3092 Y0.2538
G01 X-0.3326 Y0.2222
G01 X-0.3528 Y0.1886
G01 X-0.3696 Y0.1531
G01 X-0.3828 Y0.1161
G01 X-0.3923 Y0.0780
G01 X-0.3981 Y0.0392
G01 X-0.4000 Y0.0000
G00 X-0.4000 Y0.0000
G01 F70.00
G01 Z-0.8000
G01 F120.00
G01 X-0.4000 Y-20.0000
G01 X-0.3992 Y-20.0245
G01 X-0.3970 Y-20.0490
G01 X-0.3932 Y-20.0732
G01 X-0.3880 Y-20.0972
G01 X-0.3813 Y-20.1208
G01 X-0.3732 Y-20.1440
G01 X-0.3657 Y-20.1621
G01 X-0.3551 Y-20.1842
G01 X-0.3405 Y-20.2098
G01 X-0.3270 Y-20.2303
G01 X-0.3092 Y-20.2538
G01 X-0.2931 Y-20.2722
G01 X-0.2722 Y-20.2931
G01 X-0.2538 Y-20.3092
G01 X-0.2343 Y-20.3242
G01 X-0.2098 Y-20.3405
G01 X-0.1842 Y-20.3551
G01 X-0.1621 Y-20.3657
G01 X-0.1348 Y-20.3766
G01 X-0.1114 Y-20.3842
G01 X-0.0828 Y-20.3913
G01 X-0.0587 Y-20.3957
G01 X-0.0294 Y-20.3989
G01 X-0.0049 Y-20.4000
G01 X10.0000 Y-20.4000
G01 X10.0245 Y-20.3992
G01 X10.0490 Y-20.3970
G01 X10.0732 Y-20.3932
G01 X10.0972 Y-20.3880
G01 X10.1208 Y-20.3813
G01 X10.1440 Y-20.3732
G01 X10.1666 Y-20.3637
G01 X10.1842 Y-20.3551
G01 X10.2098 Y-20.3405
G01 X10.2303 Y-20.3270
G01 X10.2499 Y-20.3123
G01 X10.2722 Y-20.2931
G01 X10.2897 Y-20.2758
G01 X10.3092 Y-20.2538
G01 X10.3242 Y-20.2343
G01 X10.3405 Y-20.2098
G01 X10.3551 Y-20.1842
G01 X10.3657 Y-20.1621
G01 X10.3749 Y-20.1394
G01 X10.3842 Y-20.1114
G01 X10.3903 Y-20.0876
G01 X10.3957 Y-20.0587
G01 X10.3985 Y-20.0343
G01 X10.4000 Y-20.0049
G01 X10.4000 Y0.0000
G01 X10.3992 Y0.0245
G01 X10.3970 Y0.0490
G01 X10.3932 Y0.0732
G01 X10.3880 Y0.0972
G01 X10.3813 Y0.1208
G01 X10.3732 Y0.1440
G01 X10.3637 Y0.1666
G01 X10.3551 Y0.1842
G01 X10.3405 Y0.2098
G01 X10.3270 Y0.2303
G01 X10.3123 Y0.2499
G01 X10.2931 Y0.2722
G01 X10.2722 Y0.2931
G01 X10.2538 Y0.3092
G01 X10.2303 Y0.3270
G01 X10.2098 Y0.3405
G01 X10.1842 Y0.3551
G01 X10.1621 Y0.3657
G01 X10.1348 Y0.3766
G01 X10.1114 Y0.3842
G01 X10.0876 Y0.3903
G01 X10.0635 Y0.3949
G01 X10.0343 Y0.3985
G01 X10.0098 Y0.3999
G01 X-0.0049 Y0.4000
G01 X-0.0441 Y0.3976
G01 X-0.0828 Y0.3913
G01 X-0.1208 Y0.3813
G01 X-0.1576 Y0.3676
G01 X-0.1929 Y0.3504
G01 X-0.2263 Y0.3298
G01 X-0.2538 Y0.3092
G01 X-0.2828 Y0.2828
G01 X-0.3092 Y0.2538
G01 X-0.3326 Y0.2222
G01 X-0.3528 Y0.1886
G01 X-0.3696 Y0.1531
G01 X-0.3828 Y0.1161
G01 X-0.3923 Y0.0780
G01 X-0.3981 Y0.0392
G01 X-0.4000 Y0.0000
G00 X-0.4000 Y0.0000
G01 F70.00
G01 Z-0.9000
G01 F120.00
G01 X-0.4000 Y-20.0000
G01 X-0.3992 Y-20.0245
G01 X-0.3970 Y-20.0490
G01 X-0.3932 Y-20.0732
G01 X-0.3880 Y-20.0972
G01 X-0.3813 Y-20.1208
G01 X-0.3732 Y-20.1440
G01 X-0.3657 Y-20.1621
G01 X-0.3551 Y-20.1842
G01 X-0.3405 Y-20.2098
G01 X-0.3270 Y-20.2303
G01 X-0.3092 Y-20.2538
G01 X-0.2931 Y-20.2722
G01 X-0.2722 Y-20.2931
G01 X-0.2538 Y-20.3092
G01 X-0.2343 Y-20.3242
G01 X-0.2098 Y-20.3405
G01 X-0.1842 Y-20.3551
G01 X-0.1621 Y-20.3657
G01 X-0.1348 Y-20.3766
G01 X-0.1114 Y-20.3842
G01 X-0.0828 Y-20.3913
G01 X-0.0587 Y-20.3957
G01 X-0.0294 Y-20.3989
G01 X-0.0049 Y-20.4000
G01 X10.0000 Y-20.4000
G01 X10.0245 Y-20.3992
G01 X10.0490 Y-20.3970
G01 X10.0732 Y-20.3932
G01 X10.0972 Y-20.3880
G01 X10.1208 Y-20.3813
G01 X10.1440 Y-20.3732
G01 X10.1666 Y-20.3637
G01 X10.1842 Y-20.3551
G01 X10.2098 Y-20.3405
G01 X10.2303 Y-20.3270
G01 X10.2499 Y-20.3123
G01 X10.2722 Y-20.2931
G01 X10.2897 Y-20.2758
G01 X10.3092 Y-20.2538
G01 X10.3242 Y-20.2343
G01 X10.3405 Y-20.2098
G01 X10.3551 Y-20.1842
G01 X10.3657 Y-20.1621
G01 X10.3749 Y-20.1394
G01 X10.3842 Y-20.1114
G01 X10.3903 Y-20.0876
G01 X10.3957 Y-20.0587
G01 X10.3985 Y-20.0343
G01 X10.4000 Y-20.0049
G01 X10.4000 Y0.0000
G01 X10.3992 Y0.0245
G01 X10.3970 Y0.0490
G01 X10.3932 Y0.0732
G01 X10.3880 Y0.0972
G01 X10.3813 Y0.1208
G01 X10.3732 Y0.1440
G01 X10.3637 Y0.1666
G01 X10.3551 Y0.1842
G01 X10.3405 Y0.2098
G01 X10.3270 Y0.2303
G01 X10.3123 Y0.2499
G01 X10.2931 Y0.2722
G01 X10.2722 Y0.2931
G01 X10.2538 Y0.3092
G01 X10.2303 Y0.3270
G01 X10.2098 Y0.3405
G01 X10.1842 Y0.3551
G01 X10.1621 Y0.3657
G01 X10.1348 Y0.3766
G01 X10.1114 Y0.3842
G01 X10.0876 Y0.3903
G01 X10.0635 Y0.3949
G01 X10.0343 Y0.3985
G01 X10.0098 Y0.3999
G01 X-0.0049 Y0.4000
G01 X-0.0441 Y0.3976
G01 X-0.0828 Y0.3913
G01 X-0.1208 Y0.3813
G01 X-0.1576 Y0.3676
G01 X-0.1929 Y0.3504
G01 X-0.2263 Y0.3298
G01 X-0.2538 Y0.3092
G01 X-0.2828 Y0.2828
G01 X-0.3092 Y0.2538
G01 X-0.3326 Y0.2222
G01 X-0.3528 Y0.1886
G01 X-0.3696 Y0.1531
G01 X-0.3828 Y0.1161
G01 X-0.3923 Y0.0780
G01 X-0.3981 Y0.0392
G01 X-0.4000 Y0.0000
G00 X-0.4000 Y0.0000
G01 F70.00
G01 Z-1.0000
G01 F120.00
G01 X-0.4000 Y-20.0000
G01 X-0.3992 Y-20.0245
G01 X-0.3970 Y-20.0490
G01 X-0.3932 Y-20.0732
G01 X-0.3880 Y-20.0972
G01 X-0.3813 Y-20.1208
G01 X-0.3732 Y-20.1440
G01 X-0.3657 Y-20.1621
G01 X-0.3551 Y-20.1842
G01 X-0.3405 Y-20.2098
G01 X-0.3270 Y-20.2303
G01 X-0.3092 Y-20.2538
G01 X-0.2931 Y-20.2722
G01 X-0.2722 Y-20.2931
G01 X-0.2538 Y-20.3092
G01 X-0.2343 Y-20.3242
G01 X-0.2098 Y-20.3405
G01 X-0.1842 Y-20.3551
G01 X-0.1621 Y-20.3657
G01 X-0.1348 Y-20.3766
G01 X-0.1114 Y-20.3842
G01 X-0.0828 Y-20.3913
G01 X-0.0587 Y-20.3957
G01 X-0.0294 Y-20.3989
G01 X-0.0049 Y-20.4000
G01 X10.0000 Y-20.4000
G01 X10.0245 Y-20.3992
G01 X10.0490 Y-20.3970
G01 X10.0732 Y-20.3932
G01 X10.0972 Y-20.3880
G01 X10.1208 Y-20.3813
G01 X10.1440 Y-20.3732
G01 X10.1666 Y-20.3637
G01 X10.1842 Y-20.3551
G01 X10.2098 Y-20.3405
G01 X10.2303 Y-20.3270
G01 X10.2499 Y-20.3123
G01 X10.2722 Y-20.2931
G01 X10.2897 Y-20.2758
G01 X10.3092 Y-20.2538
G01 X10.3242 Y-20.2343
G01 X10.3405 Y-20.2098
G01 X10.3551 Y-20.1842
G01 X10.3657 Y-20.1621
G01 X10.3749 Y-20.1394
G01 X10.3842 Y-20.1114
G01 X10.3903 Y-20.0876
G01 X10.3957 Y-20.0587
G01 X10.3985 Y-20.0343
G01 X10.4000 Y-20.0049
G01 X10.4000 Y0.0000
G01 X10.3992 Y0.0245
G01 X10.3970 Y0.0490
G01 X10.3932 Y0.0732
G01 X10.3880 Y0.0972
G01 X10.3813 Y0.1208
G01 X10.3732 Y0.1440
G01 X10.3637 Y0.1666
G01 X10.3551 Y0.1842
G01 X10.3405 Y0.2098
G01 X10.3270 Y0.2303
G01 X10.3123 Y0.2499
G01 X10.2931 Y0.2722
G01 X10.2722 Y0.2931
G01 X10.2538 Y0.3092
G01 X10.2303 Y0.3270
G01 X10.2098 Y0.3405
G01 X10.1842 Y0.3551
G01 X10.1621 Y0.3657
G01 X10.1348 Y0.3766
G01 X10.1114 Y0.3842
G01 X10.0876 Y0.3903
G01 X10.0635 Y0.3949
G01 X10.0343 Y0.3985
G01 X10.0098 Y0.3999
G01 X-0.0049 Y0.4000
G01 X-0.0441 Y0.3976
G01 X-0.0828 Y0.3913
G01 X-0.1208 Y0.3813
G01 X-0.1576 Y0.3676
G01 X-0.1929 Y0.3504
G01 X-0.2263 Y0.3298
G01 X-0.2538 Y0.3092
G01 X-0.2828 Y0.2828
G01 X-0.3092 Y0.2538
G01 X-0.3326 Y0.2222
G01 X-0.3528 Y0.1886
G01 X-0.3696 Y0.1531
G01 X-0.3828 Y0.1161
G01 X-0.3923 Y0.0780
G01 X-0.3981 Y0.0392
G01 X-0.4000 Y0.0000
G00 X-0.4000 Y0.0000
G01 F70.00
G01 Z-1.1000
G01 F120.00
G01 X-0.4000 Y-20.0000
G01 X-0.3992 Y-20.0245
G01 X-0.3970 Y-20.0490
G01 X-0.3932 Y-20.0732
G01 X-0.3880 Y-20.0972
G01 X-0.3813 Y-20.1208
G01 X-0.3732 Y-20.1440
G01 X-0.3657 Y-20.1621
G01 X-0.3551 Y-20.1842
G01 X-0.3405 Y-20.2098
G01 X-0.3270 Y-20.2303
G01 X-0.3092 Y-20.2538
G01 X-0.2931 Y-20.2722
G01 X-0.2722 Y-20.2931
G01 X-0.2538 Y-20.3092
G01 X-0.2343 Y-20.3242
G01 X-0.2098 Y-20.3405
G01 X-0.1842 Y-20.3551
G01 X-0.1621 Y-20.3657
G01 X-0.1348 Y-20.3766
G01 X-0.1114 Y-20.3842
G01 X-0.0828 Y-20.3913
G01 X-0.0587 Y-20.3957
G01 X-0.0294 Y-20.3989
G01 X-0.0049 Y-20.4000
G01 X10.0000 Y-20.4000
G01 X10.0245 Y-20.3992
G01 X10.0490 Y-20.3970
G01 X10.0732 Y-20.3932
G01 X10.0972 Y-20.3880
G01 X10.1208 Y-20.3813
G01 X10.1440 Y-20.3732
G01 X10.1666 Y-20.3637
G01 X10.1842 Y-20.3551
G01 X10.2098 Y-20.3405
G01 X10.2303 Y-20.3270
G01 X10.2499 Y-20.3123
G01 X10.2722 Y-20.2931
G01 X10.2897 Y-20.2758
G01 X10.3092 Y-20.2538
G01 X10.3242 Y-20.2343
G01 X10.3405 Y-20.2098
G01 X10.3551 Y-20.1842
G01 X10.3657 Y-20.1621
G01 X10.3749 Y-20.1394
G01 X10.3842 Y-20.1114
G01 X10.3903 Y-20.0876
G01 X10.3957 Y-20.0587
G01 X10.3985 Y-20.0343
G01 X10.4000 Y-20.0049
G01 X10.4000 Y0.0000
G01 X10.3992 Y0.0245
G01 X10.3970 Y0.0490
G01 X10.3932 Y0.0732
G01 X10.3880 Y0.0972
G01 X10.3813 Y0.1208
G01 X10.3732 Y0.1440
G01 X10.3637 Y0.1666
G01 X10.3551 Y0.1842
G01 X10.3405 Y0.2098
G01 X10.3270 Y0.2303
G01 X10.3123 Y0.2499
G01 X10.2931 Y0.2722
G01 X10.2722 Y0.2931
G01 X10.2538 Y0.3092
G01 X10.2303 Y0.3270
G01 X10.2098 Y0.3405
G01 X10.1842 Y0.3551
G01 X10.1621 Y0.3657
G01 X10.1348 Y0.3766
G01 X10.1114 Y0.3842
G01 X10.0876 Y0.3903
G01 X10.0635 Y0.3949
G01 X10.0343 Y0.3985
G01 X10.0098 Y0.3999
G01 X-0.0049 Y0.4000
G01 X-0.0441 Y0.3976
G01 X-0.0828 Y0.3913
G01 X-0.1208 Y0.3813
G01 X-0.1576 Y0.3676
G01 X-0.1929 Y0.3504
G01 X-0.2263 Y0.3298
G01 X-0.2538 Y0.3092
G01 X-0.2828 Y0.2828
G01 X-0.3092 Y0.2538
G01 X-0.3326 Y0.2222
G01 X-0.3528 Y0.1886
G01 X-0.3696 Y0.1531
G01 X-0.3828 Y0.1161
G01 X-0.3923 Y0.0780
G01 X-0.3981 Y0.0392
G01 X-0.4000 Y0.0000
G00 X-0.4000 Y0.0000
G01 F70.00
G01 Z-1.2000
G01 F120.00
G01 X-0.4000 Y-20.0000
G01 X-0.3992 Y-20.0245
G01 X-0.3970 Y-20.0490
G01 X-0.3932 Y-20.0732
G01 X-0.3880 Y-20.0972
G01 X-0.3813 Y-20.1208
G01 X-0.3732 Y-20.1440
G01 X-0.3657 Y-20.1621
G01 X-0.3551 Y-20.1842
G01 X-0.3405 Y-20.2098
G01 X-0.3270 Y-20.2303
G01 X-0.3092 Y-20.2538
G01 X-0.2931 Y-20.2722
G01 X-0.2722 Y-20.2931
G01 X-0.2538 Y-20.3092
G01 X-0.2343 Y-20.3242
G01 X-0.2098 Y-20.3405
G01 X-0.1842 Y-20.3551
G01 X-0.1621 Y-20.3657
G01 X-0.1348 Y-20.3766
G01 X-0.1114 Y-20.3842
G01 X-0.0828 Y-20.3913
G01 X-0.0587 Y-20.3957
G01 X-0.0294 Y-20.3989
G01 X-0.0049 Y-20.4000
G01 X10.0000 Y-20.4000
G01 X10.0245 Y-20.3992
G01 X10.0490 Y-20.3970
G01 X10.0732 Y-20.3932
G01 X10.0972 Y-20.3880
G01 X10.1208 Y-20.3813
G01 X10.1440 Y-20.3732
G01 X10.1666 Y-20.3637
G01 X10.1842 Y-20.3551
G01 X10.2098 Y-20.3405
G01 X10.2303 Y-20.3270
G01 X10.2499 Y-20.3123
G01 X10.2722 Y-20.2931
G01 X10.2897 Y-20.2758
G01 X10.3092 Y-20.2538
G01 X10.3242 Y-20.2343
G01 X10.3405 Y-20.2098
G01 X10.3551 Y-20.1842
G01 X10.3657 Y-20.1621
G01 X10.3749 Y-20.1394
G01 X10.3842 Y-20.1114
G01 X10.3903 Y-20.0876
G01 X10.3957 Y-20.0587
G01 X10.3985 Y-20.0343
G01 X10.4000 Y-20.0049
G01 X10.4000 Y0.0000
G01 X10.3992 Y0.0245
G01 X10.3970 Y0.0490
G01 X10.3932 Y0.0732
G01 X10.3880 Y0.0972
G01 X10.3813 Y0.1208
G01 X10.3732 Y0.1440
G01 X10.3637 Y0.1666
G01 X10.3551 Y0.1842
G01 X10.3405 Y0.2098
G01 X10.3270 Y0.2303
G01 X10.3123 Y0.2499
G01 X10.2931 Y0.2722
G01 X10.2722 Y0.2931
G01 X10.2538 Y0.3092
G01 X10.2303 Y0.3270
G01 X10.2098 Y0.3405
G01 X10.1842 Y0.3551
G01 X10.1621 Y0.3657
G01 X10.1348 Y0.3766
G01 X10.1114 Y0.3842
G01 X10.0876 Y0.3903
G01 X10.0635 Y0.3949
G01 X10.0343 Y0.3985
G01 X10.0098 Y0.3999
G01 X-0.0049 Y0.4000
G01 X-0.0441 Y0.3976
G01 X-0.0828 Y0.3913
G01 X-0.1208 Y0.3813
G01 X-0.1576 Y0.3676
G01 X-0.1929 Y0.3504
G01 X-0.2263 Y0.3298
G01 X-0.2538 Y0.3092
G01 X-0.2828 Y0.2828
G01 X-0.3092 Y0.2538
G01 X-0.3326 Y0.2222
G01 X-0.3528 Y0.1886
G01 X-0.3696 Y0.1531
G01 X-0.3828 Y0.1161
G01 X-0.3923 Y0.0780
G01 X-0.3981 Y0.0392
G01 X-0.4000 Y0.0000
G00 X-0.4000 Y0.0000
G01 F70.00
G01 Z-1.3000
G01 F120.00
G01 X-0.4000 Y-20.0000
G01 X-0.3992 Y-20.0245
G01 X-0.3970 Y-20.0490
G01 X-0.3932 Y-20.0732
G01 X-0.3880 Y-20.0972
G01 X-0.3813 Y-20.1208
G01 X-0.3732 Y-20.1440
G01 X-0.3657 Y-20.1621
G01 X-0.3551 Y-20.1842
G01 X-0.3405 Y-20.2098
G01 X-0.3270 Y-20.2303
G01 X-0.3092 Y-20.2538
G01 X-0.2931 Y-20.2722
G01 X-0.2722 Y-20.2931
G01 X-0.2538 Y-20.3092
G01 X-0.2343 Y-20.3242
G01 X-0.2098 Y-20.3405
G01 X-0.1842 Y-20.3551
G01 X-0.1621 Y-20.3657
G01 X-0.1348 Y-20.3766
G01 X-0.1114 Y-20.3842
G01 X-0.0828 Y-20.3913
G01 X-0.0587 Y-20.3957
G01 X-0.0294 Y-20.3989
G01 X-0.0049 Y-20.4000
G01 X10.0000 Y-20.4000
G01 X10.0245 Y-20.3992
G01 X10.0490 Y-20.3970
G01 X10.0732 Y-20.3932
G01 X10.0972 Y-20.3880
G01 X10.1208 Y-20.3813
G01 X10.1440 Y-20.3732
G01 X10.1666 Y-20.3637
G01 X10.1842 Y-20.3551
G01 X10.2098 Y-20.3405
G01 X10.2303 Y-20.3270
G01 X10.2499 Y-20.3123
G01 X10.2722 Y-20.2931
G01 X10.2897 Y-20.2758
G01 X10.3092 Y-20.2538
G01 X10.3242 Y-20.2343
G01 X10.3405 Y-20.2098
G01 X10.3551 Y-20.1842
G01 X10.3657 Y-20.1621
G01 X10.3749 Y-20.1394
G01 X10.3842 Y-20.1114
G01 X10.3903 Y-20.0876
G01 X10.3957 Y-20.0587
G01 X10.3985 Y-20.0343
G01 X10.4000 Y-20.0049
G01 X10.4000 Y0.0000
G01 X10.3992 Y0.0245
G01 X10.3970 Y0.0490
G01 X10.3932 Y0.0732
G01 X10.3880 Y0.0972
G01 X10.3813 Y0.1208
G01 X10.3732 Y0.1440
G01 X10.3637 Y0.1666
G01 X10.3551 Y0.1842
G01 X10.3405 Y0.2098
G01 X10.3270 Y0.2303
G01 X10.3123 Y0.2499
G01 X10.2931 Y0.2722
G01 X10.2722 Y0.2931
G01 X10.2538 Y0.3092
G01 X10.2303 Y0.3270
G01 X10.2098 Y0.3405
G01 X10.1842 Y0.3551
G01 X10.1621 Y0.3657
G01 X10.1348 Y0.3766
G01 X10.1114 Y0.3842
G01 X10.0876 Y0.3903
G01 X10.0635 Y0.3949
G01 X10.0343 Y0.3985
G01 X10.0098 Y0.3999
G01 X-0.0049 Y0.4000
G01 X-0.0441 Y0.3976
G01 X-0.0828 Y0.3913
G01 X-0.1208 Y0.3813
G01 X-0.1576 Y0.3676
G01 X-0.1929 Y0.3504
G01 X-0.2263 Y0.3298
G01 X-0.2538 Y0.3092
G01 X-0.2828 Y0.2828
G01 X-0.3092 Y0.2538
G01 X-0.3326 Y0.2222
G01 X-0.3528 Y0.1886
G01 X-0.3696 Y0.1531
G01 X-0.3828 Y0.1161
G01 X-0.3923 Y0.0780
G01 X-0.3981 Y0.0392
G01 X-0.4000 Y0.0000
G00 X-0.4000 Y0.0000
G01 F70.00
G01 Z-1.4000
G01 F120.00
G01 X-0.4000 Y-20.0000
G01 X-0.3992 Y-20.0245
G01 X-0.3970 Y-20.0490
G01 X-0.3932 Y-20.0732
G01 X-0.3880 Y-20.0972
G01 X-0.3813 Y-20.1208
G01 X-0.3732 Y-20.1440
G01 X-0.3657 Y-20.1621
G01 X-0.3551 Y-20.1842
G01 X-0.3405 Y-20.2098
G01 X-0.3270 Y-20.2303
G01 X-0.3092 Y-20.2538
G01 X-0.2931 Y-20.2722
G01 X-0.2722 Y-20.2931
G01 X-0.2538 Y-20.3092
G01 X-0.2343 Y-20.3242
G01 X-0.2098 Y-20.3405
G01 X-0.1842 Y-20.3551
G01 X-0.1621 Y-20.3657
G01 X-0.1348 Y-20.3766
G01 X-0.1114 Y-20.3842
G01 X-0.0828 Y-20.3913
G01 X-0.0587 Y-20.3957
G01 X-0.0294 Y-20.3989
G01 X-0.0049 Y-20.4000
G01 X10.0000 Y-20.4000
G01 X10.0245 Y-20.3992
G01 X10.0490 Y-20.3970
G01 X10.0732 Y-20.3932
G01 X10.0972 Y-20.3880
G01 X10.1208 Y-20.3813
G01 X10.1440 Y-20.3732
G01 X10.1666 Y-20.3637
G01 X10.1842 Y-20.3551
G01 X10.2098 Y-20.3405
G01 X10.2303 Y-20.3270
G01 X10.2499 Y-20.3123
G01 X10.2722 Y-20.2931
G01 X10.2897 Y-20.2758
G01 X10.3092 Y-20.2538
G01 X10.3242 Y-20.2343
G01 X10.3405 Y-20.2098
G01 X10.3551 Y-20.1842
G01 X10.3657 Y-20.1621
G01 X10.3749 Y-20.1394
G01 X10.3842 Y-20.1114
G01 X10.3903 Y-20.0876
G01 X10.3957 Y-20.0587
G01 X10.3985 Y-20.0343
G01 X10.4000 Y-20.0049
G01 X10.4000 Y0.0000
G01 X10.3992 Y0.0245
G01 X10.3970 Y0.0490
G01 X10.3932 Y0.0732
G01 X10.3880 Y0.0972
G01 X10.3813 Y0.1208
G01 X10.3732 Y0.1440
G01 X10.3637 Y0.1666
G01 X10.3551 Y0.1842
G01 X10.3405 Y0.2098
G01 X10.3270 Y0.2303
G01 X10.3123 Y0.2499
G01 X10.2931 Y0.2722
G01 X10.2722 Y0.2931
G01 X10.2538 Y0.3092
G01 X10.2303 Y0.3270
G01 X10.2098 Y0.3405
G01 X10.1842 Y0.3551
G01 X10.1621 Y0.3657
G01 X10.1348 Y0.3766
G01 X10.1114 Y0.3842
G01 X10.0876 Y0.3903
G01 X10.0635 Y0.3949
G01 X10.0343 Y0.3985
G01 X10.0098 Y0.3999
G01 X-0.0049 Y0.4000
G01 X-0.0441 Y0.3976
G01 X-0.0828 Y0.3913
G01 X-0.1208 Y0.3813
G01 X-0.1576 Y0.3676
G01 X-0.1929 Y0.3504
G01 X-0.2263 Y0.3298
G01 X-0.2538 Y0.3092
G01 X-0.2828 Y0.2828
G01 X-0.3092 Y0.2538
G01 X-0.3326 Y0.2222
G01 X-0.3528 Y0.1886
G01 X-0.3696 Y0.1531
G01 X-0.3828 Y0.1161
G01 X-0.3923 Y0.0780
G01 X-0.3981 Y0.0392
G01 X-0.4000 Y0.0000
G00 X-0.4000 Y0.0000
G01 F70.00
G01 Z-1.5000
G01 F120.00
G01 X-0.4000 Y-20.0000
G01 X-0.3992 Y-20.0245
G01 X-0.3970 Y-20.0490
G01 X-0.3932 Y-20.0732
G01 X-0.3880 Y-20.0972
G01 X-0.3813 Y-20.1208
G01 X-0.3732 Y-20.1440
G01 X-0.3657 Y-20.1621
G01 X-0.3551 Y-20.1842
G01 X-0.3405 Y-20.2098
G01 X-0.3270 Y-20.2303
G01 X-0.3092 Y-20.2538
G01 X-0.2931 Y-20.2722
G01 X-0.2722 Y-20.2931
G01 X-0.2538 Y-20.3092
G01 X-0.2343 Y-20.3242
G01 X-0.2098 Y-20.3405
G01 X-0.1842 Y-20.3551
G01 X-0.1621 Y-20.3657
G01 X-0.1348 Y-20.3766
G01 X-0.1114 Y-20.3842
G01 X-0.0828 Y-20.3913
G01 X-0.0587 Y-20.3957
G01 X-0.0294 Y-20.3989
G01 X-0.0049 Y-20.4000
G01 X10.0000 Y-20.4000
G01 X10.0245 Y-20.3992
G01 X10.0490 Y-20.3970
G01 X10.0732 Y-20.3932
G01 X10.0972 Y-20.3880
G01 X10.1208 Y-20.3813
G01 X10.1440 Y-20.3732
G01 X10.1666 Y-20.3637
G01 X10.1842 Y-20.3551
G01 X10.2098 Y-20.3405
G01 X10.2303 Y-20.3270
G01 X10.2499 Y-20.3123
G01 X10.2722 Y-20.2931
G01 X10.2897 Y-20.2758
G01 X10.3092 Y-20.2538
G01 X10.3242 Y-20.2343
G01 X10.3405 Y-20.2098
G01 X10.3551 Y-20.1842
G01 X10.3657 Y-20.1621
G01 X10.3749 Y-20.1394
G01 X10.3842 Y-20.1114
G01 X10.3903 Y-20.0876
G01 X10.3957 Y-20.0587
G01 X10.3985 Y-20.0343
G01 X10.4000 Y-20.0049
G01 X10.4000 Y0.0000
G01 X10.3992 Y0.0245
G01 X10.3970 Y0.0490
G01 X10.3932 Y0.0732
G01 X10.3880 Y0.0972
G01 X10.3813 Y0.1208
G01 X10.3732 Y0.1440
G01 X10.3637 Y0.1666
G01 X10.3551 Y0.1842
G01 X10.3405 Y0.2098
G01 X10.3270 Y0.2303
G01 X10.3123 Y0.2499
G01 X10.2931 Y0.2722
G01 X10.2722 Y0.2931
G01 X10.2538 Y0.3092
G01 X10.2303 Y0.3270
G01 X10.2098 Y0.3405
G01 X10.1842 Y0.3551
G01 X10.1621 Y0.3657
G01 X10.1348 Y0.3766
G01 X10.1114 Y0.3842
G01 X10.0876 Y0.3903
G01 X10.0635 Y0.3949
G01 X10.0343 Y0.3985
G01 X10.0098 Y0.3999
G01 X-0.0049 Y0.4000
G01 X-0.0441 Y0.3976
G01 X-0.0828 Y0.3913
G01 X-0.1208 Y0.3813
G01 X-0.1576 Y0.3676
G01 X-0.1929 Y0.3504
G01 X-0.2263 Y0.3298
G01 X-0.2538 Y0.3092
G01 X-0.2828 Y0.2828
G01 X-0.3092 Y0.2538
G01 X-0.3326 Y0.2222
G01 X-0.3528 Y0.1886
G01 X-0.3696 Y0.1531
G01 X-0.3828 Y0.1161
G01 X-0.3923 Y0.0780
G01 X-0.3981 Y0.0392
G01 X-0.4000 Y0.0000
G00 X-0.4000 Y0.0000
G01 F70.00
G01 Z-1.6000
G01 F120.00
G01 X-0.4000 Y-20.0000
G01 X-0.3992 Y-20.0245
G01 X-0.3970 Y-20.0490
G01 X-0.3932 Y-20.0732
G01 X-0.3880 Y-20.0972
G01 X-0.3813 Y-20.1208
G01 X-0.3732 Y-20.1440
G01 X-0.3657 Y-20.1621
G01 X-0.3551 Y-20.1842
G01 X-0.3405 Y-20.2098
G01 X-0.3270 Y-20.2303
G01 X-0.3092 Y-20.2538
G01 X-0.2931 Y-20.2722
G01 X-0.2722 Y-20.2931
G01 X-0.2538 Y-20.3092
G01 X-0.2343 Y-20.3242
G01 X-0.2098 Y-20.3405
G01 X-0.1842 Y-20.3551
G01 X-0.1621 Y-20.3657
G01 X-0.1348 Y-20.3766
G01 X-0.1114 Y-20.3842
G01 X-0.0828 Y-20.3913
G01 X-0.0587 Y-20.3957
G01 X-0.0294 Y-20.3989
G01 X-0.0049 Y-20.4000
G01 X10.0000 Y-20.4000
G01 X10.0245 Y-20.3992
G01 X10.0490 Y-20.3970
G01 X10.0732 Y-20.3932
G01 X10.0972 Y-20.3880
G01 X10.1208 Y-20.3813
G01 X10.1440 Y-20.3732
G01 X10.1666 Y-20.3637
G01 X10.1842 Y-20.3551
G01 X10.2098 Y-20.3405
G01 X10.2303 Y-20.3270
G01 X10.2499 Y-20.3123
G01 X10.2722 Y-20.2931
G01 X10.2897 Y-20.2758
G01 X10.3092 Y-20.2538
G01 X10.3242 Y-20.2343
G01 X10.3405 Y-20.2098
G01 X10.3551 Y-20.1842
G01 X10.3657 Y-20.1621
G01 X10.3749 Y-20.1394
G01 X10.3842 Y-20.1114
G01 X10.3903 Y-20.0876
G01 X10.3957 Y-20.0587
G01 X10.3985 Y-20.0343
G01 X10.4000 Y-20.0049
G01 X10.4000 Y0.0000
G01 X10.3992 Y0.0245
G01 X10.3970 Y0.0490
G01 X10.3932 Y0.0732
G01 X10.3880 Y0.0972
G01 X10.3813 Y0.1208
G01 X10.3732 Y0.1440
G01 X10.3637 Y0.1666
G01 X10.3551 Y0.1842
G01 X10.3405 Y0.2098
G01 X10.3270 Y0.2303
G01 X10.3123 Y0.2499
G01 X10.2931 Y0.2722
G01 X10.2722 Y0.2931
G01 X10.2538 Y0.3092
G01 X10.2303 Y0.3270
G01 X10.2098 Y0.3405
G01 X10.1842 Y0.3551
G01 X10.1621 Y0.3657
G01 X10.1348 Y0.3766
G01 X10.1114 Y0.3842
G01 X10.0876 Y0.3903
G01 X10.0635 Y0.3949
G01 X10.0343 Y0.3985
G01 X10.0098 Y0.3999
G01 X-0.0049 Y0.4000
G01 X-0.0441 Y0.3976
G01 X-0.0828 Y0.3913
G01 X-0.1208 Y0.3813
G01 X-0.1576 Y0.3676
G01 X-0.1929 Y0.3504
G01 X-0.2263 Y0.3298
G01 X-0.2538 Y0.3092
G01 X-0.2828 Y0.2828
G01 X-0.3092 Y0.2538
G01 X-0.3326 Y0.2222
G01 X-0.3528 Y0.1886
G01 X-0.3696 Y0.1531
G01 X-0.3828 Y0.1161
G01 X-0.3923 Y0.0780
G01 X-0.3981 Y0.0392
G01 X-0.4000 Y0.0000
G00 X-0.4000 Y0.0000
G01 F70.00
G01 Z-1.7000
G01 F120.00
G01 X-0.4000 Y-20.0000
G01 X-0.3992 Y-20.0245
G01 X-0.3970 Y-20.0490
G01 X-0.3932 Y-20.0732
G01 X-0.3880 Y-20.0972
G01 X-0.3813 Y-20.1208
G01 X-0.3732 Y-20.1440
G01 X-0.3657 Y-20.1621
G01 X-0.3551 Y-20.1842
G01 X-0.3405 Y-20.2098
G01 X-0.3270 Y-20.2303
G01 X-0.3092 Y-20.2538
G01 X-0.2931 Y-20.2722
G01 X-0.2722 Y-20.2931
G01 X-0.2538 Y-20.3092
G01 X-0.2343 Y-20.3242
G01 X-0.2098 Y-20.3405
G01 X-0.1842 Y-20.3551
G01 X-0.1621 Y-20.3657
G01 X-0.1348 Y-20.3766
G01 X-0.1114 Y-20.3842
G01 X-0.0828 Y-20.3913
G01 X-0.0587 Y-20.3957
G01 X-0.0294 Y-20.3989
G01 X-0.0049 Y-20.4000
G01 X10.0000 Y-20.4000
G01 X10.0245 Y-20.3992
G01 X10.0490 Y-20.3970
G01 X10.0732 Y-20.3932
G01 X10.0972 Y-20.3880
G01 X10.1208 Y-20.3813
G01 X10.1440 Y-20.3732
G01 X10.1666 Y-20.3637
G01 X10.1842 Y-20.3551
G01 X10.2098 Y-20.3405
G01 X10.2303 Y-20.3270
G01 X10.2499 Y-20.3123
G01 X10.2722 Y-20.2931
G01 X10.2897 Y-20.2758
G01 X10.3092 Y-20.2538
G01 X10.3242 Y-20.2343
G01 X10.3405 Y-20.2098
G01 X10.3551 Y-20.1842
G01 X10.3657 Y-20.1621
G01 X10.3749 Y-20.1394
G01 X10.3842 Y-20.1114
G01 X10.3903 Y-20.0876
G01 X10.3957 Y-20.0587
G01 X10.3985 Y-20.0343
G01 X10.4000 Y-20.0049
G01 X10.4000 Y0.0000
G01 X10.3992 Y0.0245
G01 X10.3970 Y0.0490
G01 X10.3932 Y0.0732
G01 X10.3880 Y0.0972
G01 X10.3813 Y0.1208
G01 X10.3732 Y0.1440
G01 X10.3637 Y0.1666
G01 X10.3551 Y0.1842
G01 X10.3405 Y0.2098
G01 X10.3270 Y0.2303
G01 X10.3123 Y0.2499
G01 X10.2931 Y0.2722
G01 X10.2722 Y0.2931
G01 X10.2538 Y0.3092
G01 X10.2303 Y0.3270
G01 X10.2098 Y0.3405
G01 X10.1842 Y0.3551
G01 X10.1621 Y0.3657
G01 X10.1348 Y0.3766
G01 X10.1114 Y0.3842
G01 X10.0876 Y0.3903
G01 X10.0635 Y0.3949
G01 X10.0343 Y0.3985
G01 X10.0098 Y0.3999
G01 X-0.0049 Y0.4000
G01 X-0.0441 Y0.3976
G01 X-0.0828 Y0.3913
G01 X-0.1208 Y0.3813
G01 X-0.1576 Y0.3676
G01 X-0.1929 Y0.3504
G01 X-0.2263 Y0.3298
G01 X-0.2538 Y0.3092
G01 X-0.2828 Y0.2828
G01 X-0.3092 Y0.2538
G01 X-0.3326 Y0.2222
G01 X-0.3528 Y0.1886
G01 X-0.3696 Y0.1531
G01 X-0.3828 Y0.1161
G01 X-0.3923 Y0.0780
G01 X-0.3981 Y0.0392
G01 X-0.4000 Y0.0000
G00 Z2.0000
G00 X6.0661 Y-15.7566
G01 F70.00
G01 Z-0.1000
G01 F120.00
G01 X6.0648 Y-15.7026
G01 X6.0608 Y-15.6488
G01 X6.0542 Y-15.5952
G01 X6.0449 Y-15.5420
G01 X6.0331 Y-15.4894
G01 X6.0187 Y-15.4373
G01 X6.0018 Y-15.3861
G01 X5.9824 Y-15.3357
G01 X5.9605 Y-15.2863
G01 X5.9362 Y-15.2381
G01 X5.9096 Y-15.1911
G01 X5.8807 Y-15.1455
G01 X5.8496 Y-15.1014
G01 X5.8164 Y-15.0588
G01 X5.7812 Y-15.0180
G01 X5.7439 Y-14.9789
G01 X5.7048 Y-14.9416
G01 X5.6640 Y-14.9064
G01 X5.6214 Y-14.8732
G01 X5.5773 Y-14.8421
G01 X5.5317 Y-14.8132
G01 X5.4847 Y-14.7866
G01 X5.4365 Y-14.7623
G01 X5.3871 Y-14.7404
G01 X5.3367 Y-14.7210
G01 X5.2855 Y-14.7041
G01 X5.2334 Y-14.6897
G01 X5.1808 Y-14.6779
G01 X5.1276 Y-14.6686
G01 X5.0740 Y-14.6620
G01 X5.0202 Y-14.6580
G01 X4.9662 Y-14.6567
G01 X4.9122 Y-14.6580
G01 X4.8584 Y-14.6620
G01 X4.8048 Y-14.6686
G01 X4.7516 Y-14.6779
G01 X4.6990 Y-14.6897
G01 X4.6469 Y-14.7041
G01 X4.5957 Y-14.7210
G01 X4.5453 Y-14.7404
G01 X4.4959 Y-14.7623
G01 X4.4477 Y-14.7866
G01 X4.4007 Y-14.8132
G01 X4.3551 Y-14.8421
G01 X4.3110 Y-14.8732
G01 X4.2684 Y-14.9064
G01 X4.2276 Y-14.9416
G01 X4.1885 Y-14.9789
G01 X4.1512 Y-15.0180
G01 X4.1160 Y-15.0588
G01 X4.0828 Y-15.1014
G01 X4.0517 Y-15.1455
G01 X4.0228 Y-15.1911
G01 X3.9962 Y-15.2381
G01 X3.9719 Y-15.2863
G01 X3.9500 Y-15.3357
G01 X3.9306 Y-15.3861
G01 X3.9137 Y-15.4373
G01 X3.8993 Y-15.4894
G01 X3.8875 Y-15.5420
G01 X3.8782 Y-15.5952
G01 X3.8716 Y-15.6488
G01 X3.8676 Y-15.7026
G01 X3.8663 Y-15.7566
G01 X3.8676 Y-15.8106
G01 X3.8716 Y-15.8644
G01 X3.8782 Y-15.9180
G01 X3.8875 Y-15.9712
G01 X3.8993 Y-16.0238
G01 X3.9137 Y-16.0759
G01 X3.9306 Y-16.1271
G01 X3.9500 Y-16.1775
G01 X3.9719 Y-16.2269
G01 X3.9962 Y-16.2751
G01 X4.0228 Y-16.3221
G01 X4.0517 Y-16.3677
G01 X4.0828 Y-16.4118
G01 X4.1160 Y-16.4544
G01 X4.1512 Y-16.4952
G01 X4.1885 Y-16.5343
G01 X4.2276 Y-16.5716
G01 X4.2684 Y-16.6068
G01 X4.3110 Y-16.6400
G01 X4.3551 Y-16.6711
G01 X4.4007 Y-16.7000
G01 X4.4477 Y-16.7266
G01 X4.4959 Y-16.7509
G01 X4.5453 Y-16.7728
G01 X4.5957 Y-16.7922
G01 X4.6469 Y-16.8091
G01 X4.6990 Y-16.8235
G01 X4.7516 Y-16.8353
G01 X4.8048 Y-16.8446
G01 X4.8584 Y-16.8512
G01 X4.9122 Y-16.8552
G01 X4.9662 Y-16.8565
G01 X5.0202 Y-16.8552
G01 X5.0740 Y-16.8512
G01 X5.1276 Y-16.8446
G01 X5.1808 Y-16.8353
G01 X5.2334 Y-16.8235
G01 X5.2855 Y-16.8091
G01 X5.3367 Y-16.7922
G01 X5.3871 Y-16.7728
G01 X5.4365 Y-16.7509
G01 X5.4847 Y-16.7266
G01 X5.5317 Y-16.7000
G01 X5.5773 Y-16.6711
G01 X5.6214 Y-16.6400
G01 X5.6640 Y-16.6068
G01 X5.7048 Y-16.5716
G01 X5.7439 Y-16.5343
G01 X5.7812 Y-16.4952
G01 X5.8164 Y-16.4544
G01 X5.8496 Y-16.4118
G01 X5.8807 Y-16.3677
G01 X5.9096 Y-16.3221
G01 X5.9362 Y-16.2751
G01 X5.9605 Y-16.2269
G01 X5.9824 Y-16.1775
G01 X6.0018 Y-16.1271
G01 X6.0187 Y-16.0759
G01 X6.0331 Y-16.0238
G01 X6.0449 Y-15.9712
G01 X6.0542 Y-15.9180
G01 X6.0608 Y-15.8644
G01 X6.0648 Y-15.8106
G01 X6.0661 Y-15.7566
G00 X6.0661 Y-15.7566
G01 F70.00
G01 Z-0.2000
G01 F120.00
G01 X6.0648 Y-15.7026
G01 X6.0608 Y-15.6488
G01 X6.0542 Y-15.5952
G01 X6.0449 Y-15.5420
G01 X6.0331 Y-15.4894
G01 X6.0187 Y-15.4373
G01 X6.0018 Y-15.3861
G01 X5.9824 Y-15.3357
G01 X5.9605 Y-15.2863
G01 X5.9362 Y-15.2381
G01 X5.9096 Y-15.1911
G01 X5.8807 Y-15.1455
G01 X5.8496 Y-15.1014
G01 X5.8164 Y-15.0588
G01 X5.7812 Y-15.0180
G01 X5.7439 Y-14.9789
G01 X5.7048 Y-14.9416
G01 X5.6640 Y-14.9064
G01 X5.6214 Y-14.8732
G01 X5.5773 Y-14.8421
G01 X5.5317 Y-14.8132
G01 X5.4847 Y-14.7866
G01 X5.4365 Y-14.7623
G01 X5.3871 Y-14.7404
G01 X5.3367 Y-14.7210
G01 X5.2855 Y-14.7041
G01 X5.2334 Y-14.6897
G01 X5.1808 Y-14.6779
G01 X5.1276 Y-14.6686
G01 X5.0740 Y-14.6620
G01 X5.0202 Y-14.6580
G01 X4.9662 Y-14.6567
G01 X4.9122 Y-14.6580
G01 X4.8584 Y-14.6620
G01 X4.8048 Y-14.6686
G01 X4.7516 Y-14.6779
G01 X4.6990 Y-14.6897
G01 X4.6469 Y-14.7041
G01 X4.5957 Y-14.7210
G01 X4.5453 Y-14.7404
G01 X4.4959 Y-14.7623
G01 X4.4477 Y-14.7866
G01 X4.4007 Y-14.8132
G01 X4.3551 Y-14.8421
G01 X4.3110 Y-14.8732
G01 X4.2684 Y-14.9064
G01 X4.2276 Y-14.9416
G01 X4.1885 Y-14.9789
G01 X4.1512 Y-15.0180
G01 X4.1160 Y-15.0588
G01 X4.0828 Y-15.1014
G01 X4.0517 Y-15.1455
G01 X4.0228 Y-15.1911
G01 X3.9962 Y-15.2381
G01 X3.9719 Y-15.2863
G01 X3.9500 Y-15.3357
G01 X3.9306 Y-15.3861
G01 X3.9137 Y-15.4373
G01 X3.8993 Y-15.4894
G01 X3.8875 Y-15.5420
G01 X3.8782 Y-15.5952
G01 X3.8716 Y-15.6488
G01 X3.8676 Y-15.7026
G01 X3.8663 Y-15.7566
G01 X3.8676 Y-15.8106
G01 X3.8716 Y-15.8644
G01 X3.8782 Y-15.9180
G01 X3.8875 Y-15.9712
G01 X3.8993 Y-16.0238
G01 X3.9137 Y-16.0759
G01 X3.9306 Y-16.1271
G01 X3.9500 Y-16.1775
G01 X3.9719 Y-16.2269
G01 X3.9962 Y-16.2751
G01 X4.0228 Y-16.3221
G01 X4.0517 Y-16.3677
G01 X4.0828 Y-16.4118
G01 X4.1160 Y-16.4544
G01 X4.1512 Y-16.4952
G01 X4.1885 Y-16.5343
G01 X4.2276 Y-16.5716
G01 X4.2684 Y-16.6068
G01 X4.3110 Y-16.6400
G01 X4.3551 Y-16.6711
G01 X4.4007 Y-16.7000
G01 X4.4477 Y-16.7266
G01 X4.4959 Y-16.7509
G01 X4.5453 Y-16.7728
G01 X4.5957 Y-16.7922
G01 X4.6469 Y-16.8091
G01 X4.6990 Y-16.8235
G01 X4.7516 Y-16.8353
G01 X4.8048 Y-16.8446
G01 X4.8584 Y-16.8512
G01 X4.9122 Y-16.8552
G01 X4.9662 Y-16.8565
G01 X5.0202 Y-16.8552
G01 X5.0740 Y-16.8512
G01 X5.1276 Y-16.8446
G01 X5.1808 Y-16.8353
G01 X5.2334 Y-16.8235
G01 X5.2855 Y-16.8091
G01 X5.3367 Y-16.7922
G01 X5.3871 Y-16.7728
G01 X5.4365 Y-16.7509
G01 X5.4847 Y-16.7266
G01 X5.5317 Y-16.7000
G01 X5.5773 Y-16.6711
G01 X5.6214 Y-16.6400
G01 X5.6640 Y-16.6068
G01 X5.7048 Y-16.5716
G01 X5.7439 Y-16.5343
G01 X5.7812 Y-16.4952
G01 X5.8164 Y-16.4544
G01 X5.8496 Y-16.4118
G01 X5.8807 Y-16.3677
G01 X5.9096 Y-16.3221
G01 X5.9362 Y-16.2751
G01 X5.9605 Y-16.2269
G01 X5.9824 Y-16.1775
G01 X6.0018 Y-16.1271
G01 X6.0187 Y-16.0759
G01 X6.0331 Y-16.0238
G01 X6.0449 Y-15.9712
G01 X6.0542 Y-15.9180
G01 X6.0608 Y-15.8644
G01 X6.0648 Y-15.8106
G01 X6.0661 Y-15.7566
G00 X6.0661 Y-15.7566
G01 F70.00
G01 Z-0.3000
G01 F120.00
G01 X6.0648 Y-15.7026
G01 X6.0608 Y-15.6488
G01 X6.0542 Y-15.5952
G01 X6.0449 Y-15.5420
G01 X6.0331 Y-15.4894
G01 X6.0187 Y-15.4373
G01 X6.0018 Y-15.3861
G01 X5.9824 Y-15.3357
G01 X5.9605 Y-15.2863
G01 X5.9362 Y-15.2381
G01 X5.9096 Y-15.1911
G01 X5.8807 Y-15.1455
G01 X5.8496 Y-15.1014
G01 X5.8164 Y-15.0588
G01 X5.7812 Y-15.0180
G01 X5.7439 Y-14.9789
G01 X5.7048 Y-14.9416
G01 X5.6640 Y-14.9064
G01 X5.6214 Y-14.8732
G01 X5.5773 Y-14.8421
G01 X5.5317 Y-14.8132
G01 X5.4847 Y-14.7866
G01 X5.4365 Y-14.7623
G01 X5.3871 Y-14.7404
G01 X5.3367 Y-14.7210
G01 X5.2855 Y-14.7041
G01 X5.2334 Y-14.6897
G01 X5.1808 Y-14.6779
G01 X5.1276 Y-14.6686
G01 X5.0740 Y-14.6620
G01 X5.0202 Y-14.6580
G01 X4.9662 Y-14.6567
G01 X4.9122 Y-14.6580
G01 X4.8584 Y-14.6620
G01 X4.8048 Y-14.6686
G01 X4.7516 Y-14.6779
G01 X4.6990 Y-14.6897
G01 X4.6469 Y-14.7041
G01 X4.5957 Y-14.7210
G01 X4.5453 Y-14.7404
G01 X4.4959 Y-14.7623
G01 X4.4477 Y-14.7866
G01 X4.4007 Y-14.8132
G01 X4.3551 Y-14.8421
G01 X4.3110 Y-14.8732
G01 X4.2684 Y-14.9064
G01 X4.2276 Y-14.9416
G01 X4.1885 Y-14.9789
G01 X4.1512 Y-15.0180
G01 X4.1160 Y-15.0588
G01 X4.0828 Y-15.1014
G01 X4.0517 Y-15.1455
G01 X4.0228 Y-15.1911
G01 X3.9962 Y-15.2381
G01 X3.9719 Y-15.2863
G01 X3.9500 Y-15.3357
G01 X3.9306 Y-15.3861
G01 X3.9137 Y-15.4373
G01 X3.8993 Y-15.4894
G01 X3.8875 Y-15.5420
G01 X3.8782 Y-15.5952
G01 X3.8716 Y-15.6488
G01 X3.8676 Y-15.7026
G01 X3.8663 Y-15.7566
G01 X3.8676 Y-15.8106
G01 X3.8716 Y-15.8644
G01 X3.8782 Y-15.9180
G01 X3.8875 Y-15.9712
G01 X3.8993 Y-16.0238
G01 X3.9137 Y-16.0759
G01 X3.9306 Y-16.1271
G01 X3.9500 Y-16.1775
G01 X3.9719 Y-16.2269
G01 X3.9962 Y-16.2751
G01 X4.0228 Y-16.3221
G01 X4.0517 Y-16.3677
G01 X4.0828 Y-16.4118
G01 X4.1160 Y-16.4544
G01 X4.1512 Y-16.4952
G01 X4.1885 Y-16.5343
G01 X4.2276 Y-16.5716
G01 X4.2684 Y-16.6068
G01 X4.3110 Y-16.6400
G01 X4.3551 Y-16.6711
G01 X4.4007 Y-16.7000
G01 X4.4477 Y-16.7266
G01 X4.4959 Y-16.7509
G01 X4.5453 Y-16.7728
G01 X4.5957 Y-16.7922
G01 X4.6469 Y-16.8091
G01 X4.6990 Y-16.8235
G01 X4.7516 Y-16.8353
G01 X4.8048 Y-16.8446
G01 X4.8584 Y-16.8512
G01 X4.9122 Y-16.8552
G01 X4.9662 Y-16.8565
G01 X5.0202 Y-16.8552
G01 X5.0740 Y-16.8512
G01 X5.1276 Y-16.8446
G01 X5.1808 Y-16.8353
G01 X5.2334 Y-16.8235
G01 X5.2855 Y-16.8091
G01 X5.3367 Y-16.7922
G01 X5.3871 Y-16.7728
G01 X5.4365 Y-16.7509
G01 X5.4847 Y-16.7266
G01 X5.5317 Y-16.7000
G01 X5.5773 Y-16.6711
G01 X5.6214 Y-16.6400
G01 X5.6640 Y-16.6068
G01 X5.7048 Y-16.5716
G01 X5.7439 Y-16.5343
G01 X5.7812 Y-16.4952
G01 X5.8164 Y-16.4544
G01 X5.8496 Y-16.4118
G01 X5.8807 Y-16.3677
G01 X5.9096 Y-16.3221
G01 X5.9362 Y-16.2751
G01 X5.9605 Y-16.2269
G01 X5.9824 Y-16.1775
G01 X6.0018 Y-16.1271
G01 X6.0187 Y-16.0759
G01 X6.0331 Y-16.0238
G01 X6.0449 Y-15.9712
G01 X6.0542 Y-15.9180
G01 X6.0608 Y-15.8644
G01 X6.0648 Y-15.8106
G01 X6.0661 Y-15.7566
G00 X6.0661 Y-15.7566
G01 F70.00
G01 Z-0.4000
G01 F120.00
G01 X6.0648 Y-15.7026
G01 X6.0608 Y-15.6488
G01 X6.0542 Y-15.5952
G01 X6.0449 Y-15.5420
G01 X6.0331 Y-15.4894
G01 X6.0187 Y-15.4373
G01 X6.0018 Y-15.3861
G01 X5.9824 Y-15.3357
G01 X5.9605 Y-15.2863
G01 X5.9362 Y-15.2381
G01 X5.9096 Y-15.1911
G01 X5.8807 Y-15.1455
G01 X5.8496 Y-15.1014
G01 X5.8164 Y-15.0588
G01 X5.7812 Y-15.0180
G01 X5.7439 Y-14.9789
G01 X5.7048 Y-14.9416
G01 X5.6640 Y-14.9064
G01 X5.6214 Y-14.8732
G01 X5.5773 Y-14.8421
G01 X5.5317 Y-14.8132
G01 X5.4847 Y-14.7866
G01 X5.4365 Y-14.7623
G01 X5.3871 Y-14.7404
G01 X5.3367 Y-14.7210
G01 X5.2855 Y-14.7041
G01 X5.2334 Y-14.6897
G01 X5.1808 Y-14.6779
G01 X5.1276 Y-14.6686
G01 X5.0740 Y-14.6620
G01 X5.0202 Y-14.6580
G01 X4.9662 Y-14.6567
G01 X4.9122 Y-14.6580
G01 X4.8584 Y-14.6620
G01 X4.8048 Y-14.6686
G01 X4.7516 Y-14.6779
G01 X4.6990 Y-14.6897
G01 X4.6469 Y-14.7041
G01 X4.5957 Y-14.7210
G01 X4.5453 Y-14.7404
G01 X4.4959 Y-14.7623
G01 X4.4477 Y-14.7866
G01 X4.4007 Y-14.8132
G01 X4.3551 Y-14.8421
G01 X4.3110 Y-14.8732
G01 X4.2684 Y-14.9064
G01 X4.2276 Y-14.9416
G01 X4.1885 Y-14.9789
G01 X4.1512 Y-15.0180
G01 X4.1160 Y-15.0588
G01 X4.0828 Y-15.1014
G01 X4.0517 Y-15.1455
G01 X4.0228 Y-15.1911
G01 X3.9962 Y-15.2381
G01 X3.9719 Y-15.2863
G01 X3.9500 Y-15.3357
G01 X3.9306 Y-15.3861
G01 X3.9137 Y-15.4373
G01 X3.8993 Y-15.4894
G01 X3.8875 Y-15.5420
G01 X3.8782 Y-15.5952
G01 X3.8716 Y-15.6488
G01 X3.8676 Y-15.7026
G01 X3.8663 Y-15.7566
G01 X3.8676 Y-15.8106
G01 X3.8716 Y-15.8644
G01 X3.8782 Y-15.9180
G01 X3.8875 Y-15.9712
G01 X3.8993 Y-16.0238
G01 X3.9137 Y-16.0759
G01 X3.9306 Y-16.1271
G01 X3.9500 Y-16.1775
G01 X3.9719 Y-16.2269
G01 X3.9962 Y-16.2751
G01 X4.0228 Y-16.3221
G01 X4.0517 Y-16.3677
G01 X4.0828 Y-16.4118
G01 X4.1160 Y-16.4544
G01 X4.1512 Y-16.4952
G01 X4.1885 Y-16.5343
G01 X4.2276 Y-16.5716
G01 X4.2684 Y-16.6068
G01 X4.3110 Y-16.6400
G01 X4.3551 Y-16.6711
G01 X4.4007 Y-16.7000
G01 X4.4477 Y-16.7266
G01 X4.4959 Y-16.7509
G01 X4.5453 Y-16.7728
G01 X4.5957 Y-16.7922
G01 X4.6469 Y-16.8091
G01 X4.6990 Y-16.8235
G01 X4.7516 Y-16.8353
G01 X4.8048 Y-16.8446
G01 X4.8584 Y-16.8512
G01 X4.9122 Y-16.8552
G01 X4.9662 Y-16.8565
G01 X5.0202 Y-16.8552
G01 X5.0740 Y-16.8512
G01 X5.1276 Y-16.8446
G01 X5.1808 Y-16.8353
G01 X5.2334 Y-16.8235
G01 X5.2855 Y-16.8091
G01 X5.3367 Y-16.7922
G01 X5.3871 Y-16.7728
G01 X5.4365 Y-16.7509
G01 X5.4847 Y-16.7266
G01 X5.5317 Y-16.7000
G01 X5.5773 Y-16.6711
G01 X5.6214 Y-16.6400
G01 X5.6640 Y-16.6068
G01 X5.7048 Y-16.5716
G01 X5.7439 Y-16.5343
G01 X5.7812 Y-16.4952
G01 X5.8164 Y-16.4544
G01 X5.8496 Y-16.4118
G01 X5.8807 Y-16.3677
G01 X5.9096 Y-16.3221
G01 X5.9362 Y-16.2751
G01 X5.9605 Y-16.2269
G01 X5.9824 Y-16.1775
G01 X6.0018 Y-16.1271
G01 X6.0187 Y-16.0759
G01 X6.0331 Y-16.0238
G01 X6.0449 Y-15.9712
G01 X6.0542 Y-15.9180
G01 X6.0608 Y-15.8644
G01 X6.0648 Y-15.8106
G01 X6.0661 Y-15.7566
G00 X6.0661 Y-15.7566
G01 F70.00
G01 Z-0.5000
G01 F120.00
G01 X6.0648 Y-15.7026
G01 X6.0608 Y-15.6488
G01 X6.0542 Y-15.5952
G01 X6.0449 Y-15.5420
G01 X6.0331 Y-15.4894
G01 X6.0187 Y-15.4373
G01 X6.0018 Y-15.3861
G01 X5.9824 Y-15.3357
G01 X5.9605 Y-15.2863
G01 X5.9362 Y-15.2381
G01 X5.9096 Y-15.1911
G01 X5.8807 Y-15.1455
G01 X5.8496 Y-15.1014
G01 X5.8164 Y-15.0588
G01 X5.7812 Y-15.0180
G01 X5.7439 Y-14.9789
G01 X5.7048 Y-14.9416
G01 X5.6640 Y-14.9064
G01 X5.6214 Y-14.8732
G01 X5.5773 Y-14.8421
G01 X5.5317 Y-14.8132
G01 X5.4847 Y-14.7866
G01 X5.4365 Y-14.7623
G01 X5.3871 Y-14.7404
G01 X5.3367 Y-14.7210
G01 X5.2855 Y-14.7041
G01 X5.2334 Y-14.6897
G01 X5.1808 Y-14.6779
G01 X5.1276 Y-14.6686
G01 X5.0740 Y-14.6620
G01 X5.0202 Y-14.6580
G01 X4.9662 Y-14.6567
G01 X4.9122 Y-14.6580
G01 X4.8584 Y-14.6620
G01 X4.8048 Y-14.6686
G01 X4.7516 Y-14.6779
G01 X4.6990 Y-14.6897
G01 X4.6469 Y-14.7041
G01 X4.5957 Y-14.7210
G01 X4.5453 Y-14.7404
G01 X4.4959 Y-14.7623
G01 X4.4477 Y-14.7866
G01 X4.4007 Y-14.8132
G01 X4.3551 Y-14.8421
G01 X4.3110 Y-14.8732
G01 X4.2684 Y-14.9064
G01 X4.2276 Y-14.9416
G01 X4.1885 Y-14.9789
G01 X4.1512 Y-15.0180
G01 X4.1160 Y-15.0588
G01 X4.0828 Y-15.1014
G01 X4.0517 Y-15.1455
G01 X4.0228 Y-15.1911
G01 X3.9962 Y-15.2381
G01 X3.9719 Y-15.2863
G01 X3.9500 Y-15.3357
G01 X3.9306 Y-15.3861
G01 X3.9137 Y-15.4373
G01 X3.8993 Y-15.4894
G01 X3.8875 Y-15.5420
G01 X3.8782 Y-15.5952
G01 X3.8716 Y-15.6488
G01 X3.8676 Y-15.7026
G01 X3.8663 Y-15.7566
G01 X3.8676 Y-15.8106
G01 X3.8716 Y-15.8644
G01 X3.8782 Y-15.9180
G01 X3.8875 Y-15.9712
G01 X3.8993 Y-16.0238
G01 X3.9137 Y-16.0759
G01 X3.9306 Y-16.1271
G01 X3.9500 Y-16.1775
G01 X3.9719 Y-16.2269
G01 X3.9962 Y-16.2751
G01 X4.0228 Y-16.3221
G01 X4.0517 Y-16.3677
G01 X4.0828 Y-16.4118
G01 X4.1160 Y-16.4544
G01 X4.1512 Y-16.4952
G01 X4.1885 Y-16.5343
G01 X4.2276 Y-16.5716
G01 X4.2684 Y-16.6068
G01 X4.3110 Y-16.6400
G01 X4.3551 Y-16.6711
G01 X4.4007 Y-16.7000
G01 X4.4477 Y-16.7266
G01 X4.4959 Y-16.7509
G01 X4.5453 Y-16.7728
G01 X4.5957 Y-16.7922
G01 X4.6469 Y-16.8091
G01 X4.6990 Y-16.8235
G01 X4.7516 Y-16.8353
G01 X4.8048 Y-16.8446
G01 X4.8584 Y-16.8512
G01 X4.9122 Y-16.8552
G01 X4.9662 Y-16.8565
G01 X5.0202 Y-16.8552
G01 X5.0740 Y-16.8512
G01 X5.1276 Y-16.8446
G01 X5.1808 Y-16.8353
G01 X5.2334 Y-16.8235
G01 X5.2855 Y-16.8091
G01 X5.3367 Y-16.7922
G01 X5.3871 Y-16.7728
G01 X5.4365 Y-16.7509
G01 X5.4847 Y-16.7266
G01 X5.5317 Y-16.7000
G01 X5.5773 Y-16.6711
G01 X5.6214 Y-16.6400
G01 X5.6640 Y-16.6068
G01 X5.7048 Y-16.5716
G01 X5.7439 Y-16.5343
G01 X5.7812 Y-16.4952
G01 X5.8164 Y-16.4544
G01 X5.8496 Y-16.4118
G01 X5.8807 Y-16.3677
G01 X5.9096 Y-16.3221
G01 X5.9362 Y-16.2751
G01 X5.9605 Y-16.2269
G01 X5.9824 Y-16.1775
G01 X6.0018 Y-16.1271
G01 X6.0187 Y-16.0759
G01 X6.0331 Y-16.0238
G01 X6.0449 Y-15.9712
G01 X6.0542 Y-15.9180
G01 X6.0608 Y-15.8644
G01 X6.0648 Y-15.8106
G01 X6.0661 Y-15.7566
G00 X6.0661 Y-15.7566
G01 F70.00
G01 Z-0.6000
G01 F120.00
G01 X6.0648 Y-15.7026
G01 X6.0608 Y-15.6488
G01 X6.0542 Y-15.5952
G01 X6.0449 Y-15.5420
G01 X6.0331 Y-15.4894
G01 X6.0187 Y-15.4373
G01 X6.0018 Y-15.3861
G01 X5.9824 Y-15.3357
G01 X5.9605 Y-15.2863
G01 X5.9362 Y-15.2381
G01 X5.9096 Y-15.1911
G01 X5.8807 Y-15.1455
G01 X5.8496 Y-15.1014
G01 X5.8164 Y-15.0588
G01 X5.7812 Y-15.0180
G01 X5.7439 Y-14.9789
G01 X5.7048 Y-14.9416
G01 X5.6640 Y-14.9064
G01 X5.6214 Y-14.8732
G01 X5.5773 Y-14.8421
G01 X5.5317 Y-14.8132
G01 X5.4847 Y-14.7866
G01 X5.4365 Y-14.7623
G01 X5.3871 Y-14.7404
G01 X5.3367 Y-14.7210
G01 X5.2855 Y-14.7041
G01 X5.2334 Y-14.6897
G01 X5.1808 Y-14.6779
G01 X5.1276 Y-14.6686
G01 X5.0740 Y-14.6620
G01 X5.0202 Y-14.6580
G01 X4.9662 Y-14.6567
G01 X4.9122 Y-14.6580
G01 X4.8584 Y-14.6620
G01 X4.8048 Y-14.6686
G01 X4.7516 Y-14.6779
G01 X4.6990 Y-14.6897
G01 X4.6469 Y-14.7041
G01 X4.5957 Y-14.7210
G01 X4.5453 Y-14.7404
G01 X4.4959 Y-14.7623
G01 X4.4477 Y-14.7866
G01 X4.4007 Y-14.8132
G01 X4.3551 Y-14.8421
G01 X4.3110 Y-14.8732
G01 X4.2684 Y-14.9064
G01 X4.2276 Y-14.9416
G01 X4.1885 Y-14.9789
G01 X4.1512 Y-15.0180
G01 X4.1160 Y-15.0588
G01 X4.0828 Y-15.1014
G01 X4.0517 Y-15.1455
G01 X4.0228 Y-15.1911
G01 X3.9962 Y-15.2381
G01 X3.9719 Y-15.2863
G01 X3.9500 Y-15.3357
G01 X3.9306 Y-15.3861
G01 X3.9137 Y-15.4373
G01 X3.8993 Y-15.4894
G01 X3.8875 Y-15.5420
G01 X3.8782 Y-15.5952
G01 X3.8716 Y-15.6488
G01 X3.8676 Y-15.7026
G01 X3.8663 Y-15.7566
G01 X3.8676 Y-15.8106
G01 X3.8716 Y-15.8644
G01 X3.8782 Y-15.9180
G01 X3.8875 Y-15.9712
G01 X3.8993 Y-16.0238
G01 X3.9137 Y-16.0759
G01 X3.9306 Y-16.1271
G01 X3.9500 Y-16.1775
G01 X3.9719 Y-16.2269
G01 X3.9962 Y-16.2751
G01 X4.0228 Y-16.3221
G01 X4.0517 Y-16.3677
G01 X4.0828 Y-16.4118
G01 X4.1160 Y-16.4544
G01 X4.1512 Y-16.4952
G01 X4.1885 Y-16.5343
G01 X4.2276 Y-16.5716
G01 X4.2684 Y-16.6068
G01 X4.3110 Y-16.6400
G01 X4.3551 Y-16.6711
G01 X4.4007 Y-16.7000
G01 X4.4477 Y-16.7266
G01 X4.4959 Y-16.7509
G01 X4.5453 Y-16.7728
G01 X4.5957 Y-16.7922
G01 X4.6469 Y-16.8091
G01 X4.6990 Y-16.8235
G01 X4.7516 Y-16.8353
G01 X4.8048 Y-16.8446
G01 X4.8584 Y-16.8512
G01 X4.9122 Y-16.8552
G01 X4.9662 Y-16.8565
G01 X5.0202 Y-16.8552
G01 X5.0740 Y-16.8512
G01 X5.1276 Y-16.8446
G01 X5.1808 Y-16.8353
G01 X5.2334 Y-16.8235
G01 X5.2855 Y-16.8091
G01 X5.3367 Y-16.7922
G01 X5.3871 Y-16.7728
G01 X5.4365 Y-16.7509
G01 X5.4847 Y-16.7266
G01 X5.5317 Y-16.7000
G01 X5.5773 Y-16.6711
G01 X5.6214 Y-16.6400
G01 X5.6640 Y-16.6068
G01 X5.7048 Y-16.5716
G01 X5.7439 Y-16.5343
G01 X5.7812 Y-16.4952
G01 X5.8164 Y-16.4544
G01 X5.8496 Y-16.4118
G01 X5.8807 Y-16.3677
G01 X5.9096 Y-16.3221
G01 X5.9362 Y-16.2751
G01 X5.9605 Y-16.2269
G01 X5.9824 Y-16.1775
G01 X6.0018 Y-16.1271
G01 X6.0187 Y-16.0759
G01 X6.0331 Y-16.0238
G01 X6.0449 Y-15.9712
G01 X6.0542 Y-15.9180
G01 X6.0608 Y-15.8644
G01 X6.0648 Y-15.8106
G01 X6.0661 Y-15.7566
G00 X6.0661 Y-15.7566
G01 F70.00
G01 Z-0.7000
G01 F120.00
G01 X6.0648 Y-15.7026
G01 X6.0608 Y-15.6488
G01 X6.0542 Y-15.5952
G01 X6.0449 Y-15.5420
G01 X6.0331 Y-15.4894
G01 X6.0187 Y-15.4373
G01 X6.0018 Y-15.3861
G01 X5.9824 Y-15.3357
G01 X5.9605 Y-15.2863
G01 X5.9362 Y-15.2381
G01 X5.9096 Y-15.1911
G01 X5.8807 Y-15.1455
G01 X5.8496 Y-15.1014
G01 X5.8164 Y-15.0588
G01 X5.7812 Y-15.0180
G01 X5.7439 Y-14.9789
G01 X5.7048 Y-14.9416
G01 X5.6640 Y-14.9064
G01 X5.6214 Y-14.8732
G01 X5.5773 Y-14.8421
G01 X5.5317 Y-14.8132
G01 X5.4847 Y-14.7866
G01 X5.4365 Y-14.7623
G01 X5.3871 Y-14.7404
G01 X5.3367 Y-14.7210
G01 X5.2855 Y-14.7041
G01 X5.2334 Y-14.6897
G01 X5.1808 Y-14.6779
G01 X5.1276 Y-14.6686
G01 X5.0740 Y-14.6620
G01 X5.0202 Y-14.6580
G01 X4.9662 Y-14.6567
G01 X4.9122 Y-14.6580
G01 X4.8584 Y-14.6620
G01 X4.8048 Y-14.6686
G01 X4.7516 Y-14.6779
G01 X4.6990 Y-14.6897
G01 X4.6469 Y-14.7041
G01 X4.5957 Y-14.7210
G01 X4.5453 Y-14.7404
G01 X4.4959 Y-14.7623
G01 X4.4477 Y-14.7866
G01 X4.4007 Y-14.8132
G01 X4.3551 Y-14.8421
G01 X4.3110 Y-14.8732
G01 X4.2684 Y-14.9064
G01 X4.2276 Y-14.9416
G01 X4.1885 Y-14.9789
G01 X4.1512 Y-15.0180
G01 X4.1160 Y-15.0588
G01 X4.0828 Y-15.1014
G01 X4.0517 Y-15.1455
G01 X4.0228 Y-15.1911
G01 X3.9962 Y-15.2381
G01 X3.9719 Y-15.2863
G01 X3.9500 Y-15.3357
G01 X3.9306 Y-15.3861
G01 X3.9137 Y-15.4373
G01 X3.8993 Y-15.4894
G01 X3.8875 Y-15.5420
G01 X3.8782 Y-15.5952
G01 X3.8716 Y-15.6488
G01 X3.8676 Y-15.7026
G01 X3.8663 Y-15.7566
G01 X3.8676 Y-15.8106
G01 X3.8716 Y-15.8644
G01 X3.8782 Y-15.9180
G01 X3.8875 Y-15.9712
G01 X3.8993 Y-16.0238
G01 X3.9137 Y-16.0759
G01 X3.9306 Y-16.1271
G01 X3.9500 Y-16.1775
G01 X3.9719 Y-16.2269
G01 X3.9962 Y-16.2751
G01 X4.0228 Y-16.3221
G01 X4.0517 Y-16.3677
G01 X4.0828 Y-16.4118
G01 X4.1160 Y-16.4544
G01 X4.1512 Y-16.4952
G01 X4.1885 Y-16.5343
G01 X4.2276 Y-16.5716
G01 X4.2684 Y-16.6068
G01 X4.3110 Y-16.6400
G01 X4.3551 Y-16.6711
G01 X4.4007 Y-16.7000
G01 X4.4477 Y-16.7266
G01 X4.4959 Y-16.7509
G01 X4.5453 Y-16.7728
G01 X4.5957 Y-16.7922
G01 X4.6469 Y-16.8091
G01 X4.6990 Y-16.8235
G01 X4.7516 Y-16.8353
G01 X4.8048 Y-16.8446
G01 X4.8584 Y-16.8512
G01 X4.9122 Y-16.8552
G01 X4.9662 Y-16.8565
G01 X5.0202 Y-16.8552
G01 X5.0740 Y-16.8512
G01 X5.1276 Y-16.8446
G01 X5.1808 Y-16.8353
G01 X5.2334 Y-16.8235
G01 X5.2855 Y-16.8091
G01 X5.3367 Y-16.7922
G01 X5.3871 Y-16.7728
G01 X5.4365 Y-16.7509
G01 X5.4847 Y-16.7266
G01 X5.5317 Y-16.7000
G01 X5.5773 Y-16.6711
G01 X5.6214 Y-16.6400
G01 X5.6640 Y-16.6068
G01 X5.7048 Y-16.5716
G01 X5.7439 Y-16.5343
G01 X5.7812 Y-16.4952
G01 X5.8164 Y-16.4544
G01 X5.8496 Y-16.4118
G01 X5.8807 Y-16.3677
G01 X5.9096 Y-16.3221
G01 X5.9362 Y-16.2751
G01 X5.9605 Y-16.2269
G01 X5.9824 Y-16.1775
G01 X6.0018 Y-16.1271
G01 X6.0187 Y-16.0759
G01 X6.0331 Y-16.0238
G01 X6.0449 Y-15.9712
G01 X6.0542 Y-15.9180
G01 X6.0608 Y-15.8644
G01 X6.0648 Y-15.8106
G01 X6.0661 Y-15.7566
G00 X6.0661 Y-15.7566
G01 F70.00
G01 Z-0.8000
G01 F120.00
G01 X6.0648 Y-15.7026
G01 X6.0608 Y-15.6488
G01 X6.0542 Y-15.5952
G01 X6.0449 Y-15.5420
G01 X6.0331 Y-15.4894
G01 X6.0187 Y-15.4373
G01 X6.0018 Y-15.3861
G01 X5.9824 Y-15.3357
G01 X5.9605 Y-15.2863
G01 X5.9362 Y-15.2381
G01 X5.9096 Y-15.1911
G01 X5.8807 Y-15.1455
G01 X5.8496 Y-15.1014
G01 X5.8164 Y-15.0588
G01 X5.7812 Y-15.0180
G01 X5.7439 Y-14.9789
G01 X5.7048 Y-14.9416
G01 X5.6640 Y-14.9064
G01 X5.6214 Y-14.8732
G01 X5.5773 Y-14.8421
G01 X5.5317 Y-14.8132
G01 X5.4847 Y-14.7866
G01 X5.4365 Y-14.7623
G01 X5.3871 Y-14.7404
G01 X5.3367 Y-14.7210
G01 X5.2855 Y-14.7041
G01 X5.2334 Y-14.6897
G01 X5.1808 Y-14.6779
G01 X5.1276 Y-14.6686
G01 X5.0740 Y-14.6620
G01 X5.0202 Y-14.6580
G01 X4.9662 Y-14.6567
G01 X4.9122 Y-14.6580
G01 X4.8584 Y-14.6620
G01 X4.8048 Y-14.6686
G01 X4.7516 Y-14.6779
G01 X4.6990 Y-14.6897
G01 X4.6469 Y-14.7041
G01 X4.5957 Y-14.7210
G01 X4.5453 Y-14.7404
G01 X4.4959 Y-14.7623
G01 X4.4477 Y-14.7866
G01 X4.4007 Y-14.8132
G01 X4.3551 Y-14.8421
G01 X4.3110 Y-14.8732
G01 X4.2684 Y-14.9064
G01 X4.2276 Y-14.9416
G01 X4.1885 Y-14.9789
G01 X4.1512 Y-15.0180
G01 X4.1160 Y-15.0588
G01 X4.0828 Y-15.1014
G01 X4.0517 Y-15.1455
G01 X4.0228 Y-15.1911
G01 X3.9962 Y-15.2381
G01 X3.9719 Y-15.2863
G01 X3.9500 Y-15.3357
G01 X3.9306 Y-15.3861
G01 X3.9137 Y-15.4373
G01 X3.8993 Y-15.4894
G01 X3.8875 Y-15.5420
G01 X3.8782 Y-15.5952
G01 X3.8716 Y-15.6488
G01 X3.8676 Y-15.7026
G01 X3.8663 Y-15.7566
G01 X3.8676 Y-15.8106
G01 X3.8716 Y-15.8644
G01 X3.8782 Y-15.9180
G01 X3.8875 Y-15.9712
G01 X3.8993 Y-16.0238
G01 X3.9137 Y-16.0759
G01 X3.9306 Y-16.1271
G01 X3.9500 Y-16.1775
G01 X3.9719 Y-16.2269
G01 X3.9962 Y-16.2751
G01 X4.0228 Y-16.3221
G01 X4.0517 Y-16.3677
G01 X4.0828 Y-16.4118
G01 X4.1160 Y-16.4544
G01 X4.1512 Y-16.4952
G01 X4.1885 Y-16.5343
G01 X4.2276 Y-16.5716
G01 X4.2684 Y-16.6068
G01 X4.3110 Y-16.6400
G01 X4.3551 Y-16.6711
G01 X4.4007 Y-16.7000
G01 X4.4477 Y-16.7266
G01 X4.4959 Y-16.7509
G01 X4.5453 Y-16.7728
G01 X4.5957 Y-16.7922
G01 X4.6469 Y-16.8091
G01 X4.6990 Y-16.8235
G01 X4.7516 Y-16.8353
G01 X4.8048 Y-16.8446
G01 X4.8584 Y-16.8512
G01 X4.9122 Y-16.8552
G01 X4.9662 Y-16.8565
G01 X5.0202 Y-16.8552
G01 X5.0740 Y-16.8512
G01 X5.1276 Y-16.8446
G01 X5.1808 Y-16.8353
G01 X5.2334 Y-16.8235
G01 X5.2855 Y-16.8091
G01 X5.3367 Y-16.7922
G01 X5.3871 Y-16.7728
G01 X5.4365 Y-16.7509
G01 X5.4847 Y-16.7266
G01 X5.5317 Y-16.7000
G01 X5.5773 Y-16.6711
G01 X5.6214 Y-16.6400
G01 X5.6640 Y-16.6068
G01 X5.7048 Y-16.5716
G01 X5.7439 Y-16.5343
G01 X5.7812 Y-16.4952
G01 X5.8164 Y-16.4544
G01 X5.8496 Y-16.4118
G01 X5.8807 Y-16.3677
G01 X5.9096 Y-16.3221
G01 X5.9362 Y-16.2751
G01 X5.9605 Y-16.2269
G01 X5.9824 Y-16.1775
G01 X6.0018 Y-16.1271
G01 X6.0187 Y-16.0759
G01 X6.0331 Y-16.0238
G01 X6.0449 Y-15.9712
G01 X6.0542 Y-15.9180
G01 X6.0608 Y-15.8644
G01 X6.0648 Y-15.8106
G01 X6.0661 Y-15.7566
G00 X6.0661 Y-15.7566
G01 F70.00
G01 Z-0.9000
G01 F120.00
G01 X6.0648 Y-15.7026
G01 X6.0608 Y-15.6488
G01 X6.0542 Y-15.5952
G01 X6.0449 Y-15.5420
G01 X6.0331 Y-15.4894
G01 X6.0187 Y-15.4373
G01 X6.0018 Y-15.3861
G01 X5.9824 Y-15.3357
G01 X5.9605 Y-15.2863
G01 X5.9362 Y-15.2381
G01 X5.9096 Y-15.1911
G01 X5.8807 Y-15.1455
G01 X5.8496 Y-15.1014
G01 X5.8164 Y-15.0588
G01 X5.7812 Y-15.0180
G01 X5.7439 Y-14.9789
G01 X5.7048 Y-14.9416
G01 X5.6640 Y-14.9064
G01 X5.6214 Y-14.8732
G01 X5.5773 Y-14.8421
G01 X5.5317 Y-14.8132
G01 X5.4847 Y-14.7866
G01 X5.4365 Y-14.7623
G01 X5.3871 Y-14.7404
G01 X5.3367 Y-14.7210
G01 X5.2855 Y-14.7041
G01 X5.2334 Y-14.6897
G01 X5.1808 Y-14.6779
G01 X5.1276 Y-14.6686
G01 X5.0740 Y-14.6620
G01 X5.0202 Y-14.6580
G01 X4.9662 Y-14.6567
G01 X4.9122 Y-14.6580
G01 X4.8584 Y-14.6620
G01 X4.8048 Y-14.6686
G01 X4.7516 Y-14.6779
G01 X4.6990 Y-14.6897
G01 X4.6469 Y-14.7041
G01 X4.5957 Y-14.7210
G01 X4.5453 Y-14.7404
G01 X4.4959 Y-14.7623
G01 X4.4477 Y-14.7866
G01 X4.4007 Y-14.8132
G01 X4.3551 Y-14.8421
G01 X4.3110 Y-14.8732
G01 X4.2684 Y-14.9064
G01 X4.2276 Y-14.9416
G01 X4.1885 Y-14.9789
G01 X4.1512 Y-15.0180
G01 X4.1160 Y-15.0588
G01 X4.0828 Y-15.1014
G01 X4.0517 Y-15.1455
G01 X4.0228 Y-15.1911
G01 X3.9962 Y-15.2381
G01 X3.9719 Y-15.2863
G01 X3.9500 Y-15.3357
G01 X3.9306 Y-15.3861
G01 X3.9137 Y-15.4373
G01 X3.8993 Y-15.4894
G01 X3.8875 Y-15.5420
G01 X3.8782 Y-15.5952
G01 X3.8716 Y-15.6488
G01 X3.8676 Y-15.7026
G01 X3.8663 Y-15.7566
G01 X3.8676 Y-15.8106
G01 X3.8716 Y-15.8644
G01 X3.8782 Y-15.9180
G01 X3.8875 Y-15.9712
G01 X3.8993 Y-16.0238
G01 X3.9137 Y-16.0759
G01 X3.9306 Y-16.1271
G01 X3.9500 Y-16.1775
G01 X3.9719 Y-16.2269
G01 X3.9962 Y-16.2751
G01 X4.0228 Y-16.3221
G01 X4.0517 Y-16.3677
G01 X4.0828 Y-16.4118
G01 X4.1160 Y-16.4544
G01 X4.1512 Y-16.4952
G01 X4.1885 Y-16.5343
G01 X4.2276 Y-16.5716
G01 X4.2684 Y-16.6068
G01 X4.3110 Y-16.6400
G01 X4.3551 Y-16.6711
G01 X4.4007 Y-16.7000
G01 X4.4477 Y-16.7266
G01 X4.4959 Y-16.7509
G01 X4.5453 Y-16.7728
G01 X4.5957 Y-16.7922
G01 X4.6469 Y-16.8091
G01 X4.6990 Y-16.8235
G01 X4.7516 Y-16.8353
G01 X4.8048 Y-16.8446
G01 X4.8584 Y-16.8512
G01 X4.9122 Y-16.8552
G01 X4.9662 Y-16.8565
G01 X5.0202 Y-16.8552
G01 X5.0740 Y-16.8512
G01 X5.1276 Y-16.8446
G01 X5.1808 Y-16.8353
G01 X5.2334 Y-16.8235
G01 X5.2855 Y-16.8091
G01 X5.3367 Y-16.7922
G01 X5.3871 Y-16.7728
G01 X5.4365 Y-16.7509
G01 X5.4847 Y-16.7266
G01 X5.5317 Y-16.7000
G01 X5.5773 Y-16.6711
G01 X5.6214 Y-16.6400
G01 X5.6640 Y-16.6068
G01 X5.7048 Y-16.5716
G01 X5.7439 Y-16.5343
G01 X5.7812 Y-16.4952
G01 X5.8164 Y-16.4544
G01 X5.8496 Y-16.4118
G01 X5.8807 Y-16.3677
G01 X5.9096 Y-16.3221
G01 X5.9362 Y-16.2751
G01 X5.9605 Y-16.2269
G01 X5.9824 Y-16.1775
G01 X6.0018 Y-16.1271
G01 X6.0187 Y-16.0759
G01 X6.0331 Y-16.0238
G01 X6.0449 Y-15.9712
G01 X6.0542 Y-15.9180
G01 X6.0608 Y-15.8644
G01 X6.0648 Y-15.8106
G01 X6.0661 Y-15.7566
G00 X6.0661 Y-15.7566
G01 F70.00
G01 Z-1.0000
G01 F120.00
G01 X6.0648 Y-15.7026
G01 X6.0608 Y-15.6488
G01 X6.0542 Y-15.5952
G01 X6.0449 Y-15.5420
G01 X6.0331 Y-15.4894
G01 X6.0187 Y-15.4373
G01 X6.0018 Y-15.3861
G01 X5.9824 Y-15.3357
G01 X5.9605 Y-15.2863
G01 X5.9362 Y-15.2381
G01 X5.9096 Y-15.1911
G01 X5.8807 Y-15.1455
G01 X5.8496 Y-15.1014
G01 X5.8164 Y-15.0588
G01 X5.7812 Y-15.0180
G01 X5.7439 Y-14.9789
G01 X5.7048 Y-14.9416
G01 X5.6640 Y-14.9064
G01 X5.6214 Y-14.8732
G01 X5.5773 Y-14.8421
G01 X5.5317 Y-14.8132
G01 X5.4847 Y-14.7866
G01 X5.4365 Y-14.7623
G01 X5.3871 Y-14.7404
G01 X5.3367 Y-14.7210
G01 X5.2855 Y-14.7041
G01 X5.2334 Y-14.6897
G01 X5.1808 Y-14.6779
G01 X5.1276 Y-14.6686
G01 X5.0740 Y-14.6620
G01 X5.0202 Y-14.6580
G01 X4.9662 Y-14.6567
G01 X4.9122 Y-14.6580
G01 X4.8584 Y-14.6620
G01 X4.8048 Y-14.6686
G01 X4.7516 Y-14.6779
G01 X4.6990 Y-14.6897
G01 X4.6469 Y-14.7041
G01 X4.5957 Y-14.7210
G01 X4.5453 Y-14.7404
G01 X4.4959 Y-14.7623
G01 X4.4477 Y-14.7866
G01 X4.4007 Y-14.8132
G01 X4.3551 Y-14.8421
G01 X4.3110 Y-14.8732
G01 X4.2684 Y-14.9064
G01 X4.2276 Y-14.9416
G01 X4.1885 Y-14.9789
G01 X4.1512 Y-15.0180
G01 X4.1160 Y-15.0588
G01 X4.0828 Y-15.1014
G01 X4.0517 Y-15.1455
G01 X4.0228 Y-15.1911
G01 X3.9962 Y-15.2381
G01 X3.9719 Y-15.2863
G01 X3.9500 Y-15.3357
G01 X3.9306 Y-15.3861
G01 X3.9137 Y-15.4373
G01 X3.8993 Y-15.4894
G01 X3.8875 Y-15.5420
G01 X3.8782 Y-15.5952
G01 X3.8716 Y-15.6488
G01 X3.8676 Y-15.7026
G01 X3.8663 Y-15.7566
G01 X3.8676 Y-15.8106
G01 X3.8716 Y-15.8644
G01 X3.8782 Y-15.9180
G01 X3.8875 Y-15.9712
G01 X3.8993 Y-16.0238
G01 X3.9137 Y-16.0759
G01 X3.9306 Y-16.1271
G01 X3.9500 Y-16.1775
G01 X3.9719 Y-16.2269
G01 X3.9962 Y-16.2751
G01 X4.0228 Y-16.3221
G01 X4.0517 Y-16.3677
G01 X4.0828 Y-16.4118
G01 X4.1160 Y-16.4544
G01 X4.1512 Y-16.4952
G01 X4.1885 Y-16.5343
G01 X4.2276 Y-16.5716
G01 X4.2684 Y-16.6068
G01 X4.3110 Y-16.6400
G01 X4.3551 Y-16.6711
G01 X4.4007 Y-16.7000
G01 X4.4477 Y-16.7266
G01 X4.4959 Y-16.7509
G01 X4.5453 Y-16.7728
G01 X4.5957 Y-16.7922
G01 X4.6469 Y-16.8091
G01 X4.6990 Y-16.8235
G01 X4.7516 Y-16.8353
G01 X4.8048 Y-16.8446
G01 X4.8584 Y-16.8512
G01 X4.9122 Y-16.8552
G01 X4.9662 Y-16.8565
G01 X5.0202 Y-16.8552
G01 X5.0740 Y-16.8512
G01 X5.1276 Y-16.8446
G01 X5.1808 Y-16.8353
G01 X5.2334 Y-16.8235
G01 X5.2855 Y-16.8091
G01 X5.3367 Y-16.7922
G01 X5.3871 Y-16.7728
G01 X5.4365 Y-16.7509
G01 X5.4847 Y-16.7266
G01 X5.5317 Y-16.7000
G01 X5.5773 Y-16.6711
G01 X5.6214 Y-16.6400
G01 X5.6640 Y-16.6068
G01 X5.7048 Y-16.5716
G01 X5.7439 Y-16.5343
G01 X5.7812 Y-16.4952
G01 X5.8164 Y-16.4544
G01 X5.8496 Y-16.4118
G01 X5.8807 Y-16.3677
G01 X5.9096 Y-16.3221
G01 X5.9362 Y-16.2751
G01 X5.9605 Y-16.2269
G01 X5.9824 Y-16.1775
G01 X6.0018 Y-16.1271
G01 X6.0187 Y-16.0759
G01 X6.0331 Y-16.0238
G01 X6.0449 Y-15.9712
G01 X6.0542 Y-15.9180
G01 X6.0608 Y-15.8644
G01 X6.0648 Y-15.8106
G01 X6.0661 Y-15.7566
G00 X6.0661 Y-15.7566
G01 F70.00
G01 Z-1.1000
G01 F120.00
G01 X6.0648 Y-15.7026
G01 X6.0608 Y-15.6488
G01 X6.0542 Y-15.5952
G01 X6.0449 Y-15.5420
G01 X6.0331 Y-15.4894
G01 X6.0187 Y-15.4373
G01 X6.0018 Y-15.3861
G01 X5.9824 Y-15.3357
G01 X5.9605 Y-15.2863
G01 X5.9362 Y-15.2381
G01 X5.9096 Y-15.1911
G01 X5.8807 Y-15.1455
G01 X5.8496 Y-15.1014
G01 X5.8164 Y-15.0588
G01 X5.7812 Y-15.0180
G01 X5.7439 Y-14.9789
G01 X5.7048 Y-14.9416
G01 X5.6640 Y-14.9064
G01 X5.6214 Y-14.8732
G01 X5.5773 Y-14.8421
G01 X5.5317 Y-14.8132
G01 X5.4847 Y-14.7866
G01 X5.4365 Y-14.7623
G01 X5.3871 Y-14.7404
G01 X5.3367 Y-14.7210
G01 X5.2855 Y-14.7041
G01 X5.2334 Y-14.6897
G01 X5.1808 Y-14.6779
G01 X5.1276 Y-14.6686
G01 X5.0740 Y-14.6620
G01 X5.0202 Y-14.6580
G01 X4.9662 Y-14.6567
G01 X4.9122 Y-14.6580
G01 X4.8584 Y-14.6620
G01 X4.8048 Y-14.6686
G01 X4.7516 Y-14.6779
G01 X4.6990 Y-14.6897
G01 X4.6469 Y-14.7041
G01 X4.5957 Y-14.7210
G01 X4.5453 Y-14.7404
G01 X4.4959 Y-14.7623
G01 X4.4477 Y-14.7866
G01 X4.4007 Y-14.8132
G01 X4.3551 Y-14.8421
G01 X4.3110 Y-14.8732
G01 X4.2684 Y-14.9064
G01 X4.2276 Y-14.9416
G01 X4.1885 Y-14.9789
G01 X4.1512 Y-15.0180
G01 X4.1160 Y-15.0588
G01 X4.0828 Y-15.1014
G01 X4.0517 Y-15.1455
G01 X4.0228 Y-15.1911
G01 X3.9962 Y-15.2381
G01 X3.9719 Y-15.2863
G01 X3.9500 Y-15.3357
G01 X3.9306 Y-15.3861
G01 X3.9137 Y-15.4373
G01 X3.8993 Y-15.4894
G01 X3.8875 Y-15.5420
G01 X3.8782 Y-15.5952
G01 X3.8716 Y-15.6488
G01 X3.8676 Y-15.7026
G01 X3.8663 Y-15.7566
G01 X3.8676 Y-15.8106
G01 X3.8716 Y-15.8644
G01 X3.8782 Y-15.9180
G01 X3.8875 Y-15.9712
G01 X3.8993 Y-16.0238
G01 X3.9137 Y-16.0759
G01 X3.9306 Y-16.1271
G01 X3.9500 Y-16.1775
G01 X3.9719 Y-16.2269
G01 X3.9962 Y-16.2751
G01 X4.0228 Y-16.3221
G01 X4.0517 Y-16.3677
G01 X4.0828 Y-16.4118
G01 X4.1160 Y-16.4544
G01 X4.1512 Y-16.4952
G01 X4.1885 Y-16.5343
G01 X4.2276 Y-16.5716
G01 X4.2684 Y-16.6068
G01 X4.3110 Y-16.6400
G01 X4.3551 Y-16.6711
G01 X4.4007 Y-16.7000
G01 X4.4477 Y-16.7266
G01 X4.4959 Y-16.7509
G01 X4.5453 Y-16.7728
G01 X4.5957 Y-16.7922
G01 X4.6469 Y-16.8091
G01 X4.6990 Y-16.8235
G01 X4.7516 Y-16.8353
G01 X4.8048 Y-16.8446
G01 X4.8584 Y-16.8512
G01 X4.9122 Y-16.8552
G01 X4.9662 Y-16.8565
G01 X5.0202 Y-16.8552
G01 X5.0740 Y-16.8512
G01 X5.1276 Y-16.8446
G01 X5.1808 Y-16.8353
G01 X5.2334 Y-16.8235
G01 X5.2855 Y-16.8091
G01 X5.3367 Y-16.7922
G01 X5.3871 Y-16.7728
G01 X5.4365 Y-16.7509
G01 X5.4847 Y-16.7266
G01 X5.5317 Y-16.7000
G01 X5.5773 Y-16.6711
G01 X5.6214 Y-16.6400
G01 X5.6640 Y-16.6068
G01 X5.7048 Y-16.5716
G01 X5.7439 Y-16.5343
G01 X5.7812 Y-16.4952
G01 X5.8164 Y-16.4544
G01 X5.8496 Y-16.4118
G01 X5.8807 Y-16.3677
G01 X5.9096 Y-16.3221
G01 X5.9362 Y-16.2751
G01 X5.9605 Y-16.2269
G01 X5.9824 Y-16.1775
G01 X6.0018 Y-16.1271
G01 X6.0187 Y-16.0759
G01 X6.0331 Y-16.0238
G01 X6.0449 Y-15.9712
G01 X6.0542 Y-15.9180
G01 X6.0608 Y-15.8644
G01 X6.0648 Y-15.8106
G01 X6.0661 Y-15.7566
G00 X6.0661 Y-15.7566
G01 F70.00
G01 Z-1.2000
G01 F120.00
G01 X6.0648 Y-15.7026
G01 X6.0608 Y-15.6488
G01 X6.0542 Y-15.5952
G01 X6.0449 Y-15.5420
G01 X6.0331 Y-15.4894
G01 X6.0187 Y-15.4373
G01 X6.0018 Y-15.3861
G01 X5.9824 Y-15.3357
G01 X5.9605 Y-15.2863
G01 X5.9362 Y-15.2381
G01 X5.9096 Y-15.1911
G01 X5.8807 Y-15.1455
G01 X5.8496 Y-15.1014
G01 X5.8164 Y-15.0588
G01 X5.7812 Y-15.0180
G01 X5.7439 Y-14.9789
G01 X5.7048 Y-14.9416
G01 X5.6640 Y-14.9064
G01 X5.6214 Y-14.8732
G01 X5.5773 Y-14.8421
G01 X5.5317 Y-14.8132
G01 X5.4847 Y-14.7866
G01 X5.4365 Y-14.7623
G01 X5.3871 Y-14.7404
G01 X5.3367 Y-14.7210
G01 X5.2855 Y-14.7041
G01 X5.2334 Y-14.6897
G01 X5.1808 Y-14.6779
G01 X5.1276 Y-14.6686
G01 X5.0740 Y-14.6620
G01 X5.0202 Y-14.6580
G01 X4.9662 Y-14.6567
G01 X4.9122 Y-14.6580
G01 X4.8584 Y-14.6620
G01 X4.8048 Y-14.6686
G01 X4.7516 Y-14.6779
G01 X4.6990 Y-14.6897
G01 X4.6469 Y-14.7041
G01 X4.5957 Y-14.7210
G01 X4.5453 Y-14.7404
G01 X4.4959 Y-14.7623
G01 X4.4477 Y-14.7866
G01 X4.4007 Y-14.8132
G01 X4.3551 Y-14.8421
G01 X4.3110 Y-14.8732
G01 X4.2684 Y-14.9064
G01 X4.2276 Y-14.9416
G01 X4.1885 Y-14.9789
G01 X4.1512 Y-15.0180
G01 X4.1160 Y-15.0588
G01 X4.0828 Y-15.1014
G01 X4.0517 Y-15.1455
G01 X4.0228 Y-15.1911
G01 X3.9962 Y-15.2381
G01 X3.9719 Y-15.2863
G01 X3.9500 Y-15.3357
G01 X3.9306 Y-15.3861
G01 X3.9137 Y-15.4373
G01 X3.8993 Y-15.4894
G01 X3.8875 Y-15.5420
G01 X3.8782 Y-15.5952
G01 X3.8716 Y-15.6488
G01 X3.8676 Y-15.7026
G01 X3.8663 Y-15.7566
G01 X3.8676 Y-15.8106
G01 X3.8716 Y-15.8644
G01 X3.8782 Y-15.9180
G01 X3.8875 Y-15.9712
G01 X3.8993 Y-16.0238
G01 X3.9137 Y-16.0759
G01 X3.9306 Y-16.1271
G01 X3.9500 Y-16.1775
G01 X3.9719 Y-16.2269
G01 X3.9962 Y-16.2751
G01 X4.0228 Y-16.3221
G01 X4.0517 Y-16.3677
G01 X4.0828 Y-16.4118
G01 X4.1160 Y-16.4544
G01 X4.1512 Y-16.4952
G01 X4.1885 Y-16.5343
G01 X4.2276 Y-16.5716
G01 X4.2684 Y-16.6068
G01 X4.3110 Y-16.6400
G01 X4.3551 Y-16.6711
G01 X4.4007 Y-16.7000
G01 X4.4477 Y-16.7266
G01 X4.4959 Y-16.7509
G01 X4.5453 Y-16.7728
G01 X4.5957 Y-16.7922
G01 X4.6469 Y-16.8091
G01 X4.6990 Y-16.8235
G01 X4.7516 Y-16.8353
G01 X4.8048 Y-16.8446
G01 X4.8584 Y-16.8512
G01 X4.9122 Y-16.8552
G01 X4.9662 Y-16.8565
G01 X5.0202 Y-16.8552
G01 X5.0740 Y-16.8512
G01 X5.1276 Y-16.8446
G01 X5.1808 Y-16.8353
G01 X5.2334 Y-16.8235
G01 X5.2855 Y-16.8091
G01 X5.3367 Y-16.7922
G01 X5.3871 Y-16.7728
G01 X5.4365 Y-16.7509
G01 X5.4847 Y-16.7266
G01 X5.5317 Y-16.7000
G01 X5.5773 Y-16.6711
G01 X5.6214 Y-16.6400
G01 X5.6640 Y-16.6068
G01 X5.7048 Y-16.5716
G01 X5.7439 Y-16.5343
G01 X5.7812 Y-16.4952
G01 X5.8164 Y-16.4544
G01 X5.8496 Y-16.4118
G01 X5.8807 Y-16.3677
G01 X5.9096 Y-16.3221
G01 X5.9362 Y-16.2751
G01 X5.9605 Y-16.2269
G01 X5.9824 Y-16.1775
G01 X6.0018 Y-16.1271
G01 X6.0187 Y-16.0759
G01 X6.0331 Y-16.0238
G01 X6.0449 Y-15.9712
G01 X6.0542 Y-15.9180
G01 X6.0608 Y-15.8644
G01 X6.0648 Y-15.8106
G01 X6.0661 Y-15.7566
G00 X6.0661 Y-15.7566
G01 F70.00
G01 Z-1.3000
G01 F120.00
G01 X6.0648 Y-15.7026
G01 X6.0608 Y-15.6488
G01 X6.0542 Y-15.5952
G01 X6.0449 Y-15.5420
G01 X6.0331 Y-15.4894
G01 X6.0187 Y-15.4373
G01 X6.0018 Y-15.3861
G01 X5.9824 Y-15.3357
G01 X5.9605 Y-15.2863
G01 X5.9362 Y-15.2381
G01 X5.9096 Y-15.1911
G01 X5.8807 Y-15.1455
G01 X5.8496 Y-15.1014
G01 X5.8164 Y-15.0588
G01 X5.7812 Y-15.0180
G01 X5.7439 Y-14.9789
G01 X5.7048 Y-14.9416
G01 X5.6640 Y-14.9064
G01 X5.6214 Y-14.8732
G01 X5.5773 Y-14.8421
G01 X5.5317 Y-14.8132
G01 X5.4847 Y-14.7866
G01 X5.4365 Y-14.7623
G01 X5.3871 Y-14.7404
G01 X5.3367 Y-14.7210
G01 X5.2855 Y-14.7041
G01 X5.2334 Y-14.6897
G01 X5.1808 Y-14.6779
G01 X5.1276 Y-14.6686
G01 X5.0740 Y-14.6620
G01 X5.0202 Y-14.6580
G01 X4.9662 Y-14.6567
G01 X4.9122 Y-14.6580
G01 X4.8584 Y-14.6620
G01 X4.8048 Y-14.6686
G01 X4.7516 Y-14.6779
G01 X4.6990 Y-14.6897
G01 X4.6469 Y-14.7041
G01 X4.5957 Y-14.7210
G01 X4.5453 Y-14.7404
G01 X4.4959 Y-14.7623
G01 X4.4477 Y-14.7866
G01 X4.4007 Y-14.8132
G01 X4.3551 Y-14.8421
G01 X4.3110 Y-14.8732
G01 X4.2684 Y-14.9064
G01 X4.2276 Y-14.9416
G01 X4.1885 Y-14.9789
G01 X4.1512 Y-15.0180
G01 X4.1160 Y-15.0588
G01 X4.0828 Y-15.1014
G01 X4.0517 Y-15.1455
G01 X4.0228 Y-15.1911
G01 X3.9962 Y-15.2381
G01 X3.9719 Y-15.2863
G01 X3.9500 Y-15.3357
G01 X3.9306 Y-15.3861
G01 X3.9137 Y-15.4373
G01 X3.8993 Y-15.4894
G01 X3.8875 Y-15.5420
G01 X3.8782 Y-15.5952
G01 X3.8716 Y-15.6488
G01 X3.8676 Y-15.7026
G01 X3.8663 Y-15.7566
G01 X3.8676 Y-15.8106
G01 X3.8716 Y-15.8644
G01 X3.8782 Y-15.9180
G01 X3.8875 Y-15.9712
G01 X3.8993 Y-16.0238
G01 X3.9137 Y-16.0759
G01 X3.9306 Y-16.1271
G01 X3.9500 Y-16.1775
G01 X3.9719 Y-16.2269
G01 X3.9962 Y-16.2751
G01 X4.0228 Y-16.3221
G01 X4.0517 Y-16.3677
G01 X4.0828 Y-16.4118
G01 X4.1160 Y-16.4544
G01 X4.1512 Y-16.4952
G01 X4.1885 Y-16.5343
G01 X4.2276 Y-16.5716
G01 X4.2684 Y-16.6068
G01 X4.3110 Y-16.6400
G01 X4.3551 Y-16.6711
G01 X4.4007 Y-16.7000
G01 X4.4477 Y-16.7266
G01 X4.4959 Y-16.7509
G01 X4.5453 Y-16.7728
G01 X4.5957 Y-16.7922
G01 X4.6469 Y-16.8091
G01 X4.6990 Y-16.8235
G01 X4.7516 Y-16.8353
G01 X4.8048 Y-16.8446
G01 X4.8584 Y-16.8512
G01 X4.9122 Y-16.8552
G01 X4.9662 Y-16.8565
G01 X5.0202 Y-16.8552
G01 X5.0740 Y-16.8512
G01 X5.1276 Y-16.8446
G01 X5.1808 Y-16.8353
G01 X5.2334 Y-16.8235
G01 X5.2855 Y-16.8091
G01 X5.3367 Y-16.7922
G01 X5.3871 Y-16.7728
G01 X5.4365 Y-16.7509
G01 X5.4847 Y-16.7266
G01 X5.5317 Y-16.7000
G01 X5.5773 Y-16.6711
G01 X5.6214 Y-16.6400
G01 X5.6640 Y-16.6068
G01 X5.7048 Y-16.5716
G01 X5.7439 Y-16.5343
G01 X5.7812 Y-16.4952
G01 X5.8164 Y-16.4544
G01 X5.8496 Y-16.4118
G01 X5.8807 Y-16.3677
G01 X5.9096 Y-16.3221
G01 X5.9362 Y-16.2751
G01 X5.9605 Y-16.2269
G01 X5.9824 Y-16.1775
G01 X6.0018 Y-16.1271
G01 X6.0187 Y-16.0759
G01 X6.0331 Y-16.0238
G01 X6.0449 Y-15.9712
G01 X6.0542 Y-15.9180
G01 X6.0608 Y-15.8644
G01 X6.0648 Y-15.8106
G01 X6.0661 Y-15.7566
G00 X6.0661 Y-15.7566
G01 F70.00
G01 Z-1.4000
G01 F120.00
G01 X6.0648 Y-15.7026
G01 X6.0608 Y-15.6488
G01 X6.0542 Y-15.5952
G01 X6.0449 Y-15.5420
G01 X6.0331 Y-15.4894
G01 X6.0187 Y-15.4373
G01 X6.0018 Y-15.3861
G01 X5.9824 Y-15.3357
G01 X5.9605 Y-15.2863
G01 X5.9362 Y-15.2381
G01 X5.9096 Y-15.1911
G01 X5.8807 Y-15.1455
G01 X5.8496 Y-15.1014
G01 X5.8164 Y-15.0588
G01 X5.7812 Y-15.0180
G01 X5.7439 Y-14.9789
G01 X5.7048 Y-14.9416
G01 X5.6640 Y-14.9064
G01 X5.6214 Y-14.8732
G01 X5.5773 Y-14.8421
G01 X5.5317 Y-14.8132
G01 X5.4847 Y-14.7866
G01 X5.4365 Y-14.7623
G01 X5.3871 Y-14.7404
G01 X5.3367 Y-14.7210
G01 X5.2855 Y-14.7041
G01 X5.2334 Y-14.6897
G01 X5.1808 Y-14.6779
G01 X5.1276 Y-14.6686
G01 X5.0740 Y-14.6620
G01 X5.0202 Y-14.6580
G01 X4.9662 Y-14.6567
G01 X4.9122 Y-14.6580
G01 X4.8584 Y-14.6620
G01 X4.8048 Y-14.6686
G01 X4.7516 Y-14.6779
G01 X4.6990 Y-14.6897
G01 X4.6469 Y-14.7041
G01 X4.5957 Y-14.7210
G01 X4.5453 Y-14.7404
G01 X4.4959 Y-14.7623
G01 X4.4477 Y-14.7866
G01 X4.4007 Y-14.8132
G01 X4.3551 Y-14.8421
G01 X4.3110 Y-14.8732
G01 X4.2684 Y-14.9064
G01 X4.2276 Y-14.9416
G01 X4.1885 Y-14.9789
G01 X4.1512 Y-15.0180
G01 X4.1160 Y-15.0588
G01 X4.0828 Y-15.1014
G01 X4.0517 Y-15.1455
G01 X4.0228 Y-15.1911
G01 X3.9962 Y-15.2381
G01 X3.9719 Y-15.2863
G01 X3.9500 Y-15.3357
G01 X3.9306 Y-15.3861
G01 X3.9137 Y-15.4373
G01 X3.8993 Y-15.4894
G01 X3.8875 Y-15.5420
G01 X3.8782 Y-15.5952
G01 X3.8716 Y-15.6488
G01 X3.8676 Y-15.7026
G01 X3.8663 Y-15.7566
G01 X3.8676 Y-15.8106
G01 X3.8716 Y-15.8644
G01 X3.8782 Y-15.9180
G01 X3.8875 Y-15.9712
G01 X3.8993 Y-16.0238
G01 X3.9137 Y-16.0759
G01 X3.9306 Y-16.1271
G01 X3.9500 Y-16.1775
G01 X3.9719 Y-16.2269
G01 X3.9962 Y-16.2751
G01 X4.0228 Y-16.3221
G01 X4.0517 Y-16.3677
G01 X4.0828 Y-16.4118
G01 X4.1160 Y-16.4544
G01 X4.1512 Y-16.4952
G01 X4.1885 Y-16.5343
G01 X4.2276 Y-16.5716
G01 X4.2684 Y-16.6068
G01 X4.3110 Y-16.6400
G01 X4.3551 Y-16.6711
G01 X4.4007 Y-16.7000
G01 X4.4477 Y-16.7266
G01 X4.4959 Y-16.7509
G01 X4.5453 Y-16.7728
G01 X4.5957 Y-16.7922
G01 X4.6469 Y-16.8091
G01 X4.6990 Y-16.8235
G01 X4.7516 Y-16.8353
G01 X4.8048 Y-16.8446
G01 X4.8584 Y-16.8512
G01 X4.9122 Y-16.8552
G01 X4.9662 Y-16.8565
G01 X5.0202 Y-16.8552
G01 X5.0740 Y-16.8512
G01 X5.1276 Y-16.8446
G01 X5.1808 Y-16.8353
G01 X5.2334 Y-16.8235
G01 X5.2855 Y-16.8091
G01 X5.3367 Y-16.7922
G01 X5.3871 Y-16.7728
G01 X5.4365 Y-16.7509
G01 X5.4847 Y-16.7266
G01 X5.5317 Y-16.7000
G01 X5.5773 Y-16.6711
G01 X5.6214 Y-16.6400
G01 X5.6640 Y-16.6068
G01 X5.7048 Y-16.5716
G01 X5.7439 Y-16.5343
G01 X5.7812 Y-16.4952
G01 X5.8164 Y-16.4544
G01 X5.8496 Y-16.4118
G01 X5.8807 Y-16.3677
G01 X5.9096 Y-16.3221
G01 X5.9362 Y-16.2751
G01 X5.9605 Y-16.2269
G01 X5.9824 Y-16.1775
G01 X6.0018 Y-16.1271
G01 X6.0187 Y-16.0759
G01 X6.0331 Y-16.0238
G01 X6.0449 Y-15.9712
G01 X6.0542 Y-15.9180
G01 X6.0608 Y-15.8644
G01 X6.0648 Y-15.8106
G01 X6.0661 Y-15.7566
G00 X6.0661 Y-15.7566
G01 F70.00
G01 Z-1.5000
G01 F120.00
G01 X6.0648 Y-15.7026
G01 X6.0608 Y-15.6488
G01 X6.0542 Y-15.5952
G01 X6.0449 Y-15.5420
G01 X6.0331 Y-15.4894
G01 X6.0187 Y-15.4373
G01 X6.0018 Y-15.3861
G01 X5.9824 Y-15.3357
G01 X5.9605 Y-15.2863
G01 X5.9362 Y-15.2381
G01 X5.9096 Y-15.1911
G01 X5.8807 Y-15.1455
G01 X5.8496 Y-15.1014
G01 X5.8164 Y-15.0588
G01 X5.7812 Y-15.0180
G01 X5.7439 Y-14.9789
G01 X5.7048 Y-14.9416
G01 X5.6640 Y-14.9064
G01 X5.6214 Y-14.8732
G01 X5.5773 Y-14.8421
G01 X5.5317 Y-14.8132
G01 X5.4847 Y-14.7866
G01 X5.4365 Y-14.7623
G01 X5.3871 Y-14.7404
G01 X5.3367 Y-14.7210
G01 X5.2855 Y-14.7041
G01 X5.2334 Y-14.6897
G01 X5.1808 Y-14.6779
G01 X5.1276 Y-14.6686
G01 X5.0740 Y-14.6620
G01 X5.0202 Y-14.6580
G01 X4.9662 Y-14.6567
G01 X4.9122 Y-14.6580
G01 X4.8584 Y-14.6620
G01 X4.8048 Y-14.6686
G01 X4.7516 Y-14.6779
G01 X4.6990 Y-14.6897
G01 X4.6469 Y-14.7041
G01 X4.5957 Y-14.7210
G01 X4.5453 Y-14.7404
G01 X4.4959 Y-14.7623
G01 X4.4477 Y-14.7866
G01 X4.4007 Y-14.8132
G01 X4.3551 Y-14.8421
G01 X4.3110 Y-14.8732
G01 X4.2684 Y-14.9064
G01 X4.2276 Y-14.9416
G01 X4.1885 Y-14.9789
G01 X4.1512 Y-15.0180
G01 X4.1160 Y-15.0588
G01 X4.0828 Y-15.1014
G01 X4.0517 Y-15.1455
G01 X4.0228 Y-15.1911
G01 X3.9962 Y-15.2381
G01 X3.9719 Y-15.2863
G01 X3.9500 Y-15.3357
G01 X3.9306 Y-15.3861
G01 X3.9137 Y-15.4373
G01 X3.8993 Y-15.4894
G01 X3.8875 Y-15.5420
G01 X3.8782 Y-15.5952
G01 X3.8716 Y-15.6488
G01 X3.8676 Y-15.7026
G01 X3.8663 Y-15.7566
G01 X3.8676 Y-15.8106
G01 X3.8716 Y-15.8644
G01 X3.8782 Y-15.9180
G01 X3.8875 Y-15.9712
G01 X3.8993 Y-16.0238
G01 X3.9137 Y-16.0759
G01 X3.9306 Y-16.1271
G01 X3.9500 Y-16.1775
G01 X3.9719 Y-16.2269
G01 X3.9962 Y-16.2751
G01 X4.0228 Y-16.3221
G01 X4.0517 Y-16.3677
G01 X4.0828 Y-16.4118
G01 X4.1160 Y-16.4544
G01 X4.1512 Y-16.4952
G01 X4.1885 Y-16.5343
G01 X4.2276 Y-16.5716
G01 X4.2684 Y-16.6068
G01 X4.3110 Y-16.6400
G01 X4.3551 Y-16.6711
G01 X4.4007 Y-16.7000
G01 X4.4477 Y-16.7266
G01 X4.4959 Y-16.7509
G01 X4.5453 Y-16.7728
G01 X4.5957 Y-16.7922
G01 X4.6469 Y-16.8091
G01 X4.6990 Y-16.8235
G01 X4.7516 Y-16.8353
G01 X4.8048 Y-16.8446
G01 X4.8584 Y-16.8512
G01 X4.9122 Y-16.8552
G01 X4.9662 Y-16.8565
G01 X5.0202 Y-16.8552
G01 X5.0740 Y-16.8512
G01 X5.1276 Y-16.8446
G01 X5.1808 Y-16.8353
G01 X5.2334 Y-16.8235
G01 X5.2855 Y-16.8091
G01 X5.3367 Y-16.7922
G01 X5.3871 Y-16.7728
G01 X5.4365 Y-16.7509
G01 X5.4847 Y-16.7266
G01 X5.5317 Y-16.7000
G01 X5.5773 Y-16.6711
G01 X5.6214 Y-16.6400
G01 X5.6640 Y-16.6068
G01 X5.7048 Y-16.5716
G01 X5.7439 Y-16.5343
G01 X5.7812 Y-16.4952
G01 X5.8164 Y-16.4544
G01 X5.8496 Y-16.4118
G01 X5.8807 Y-16.3677
G01 X5.9096 Y-16.3221
G01 X5.9362 Y-16.2751
G01 X5.9605 Y-16.2269
G01 X5.9824 Y-16.1775
G01 X6.0018 Y-16.1271
G01 X6.0187 Y-16.0759
G01 X6.0331 Y-16.0238
G01 X6.0449 Y-15.9712
G01 X6.0542 Y-15.9180
G01 X6.0608 Y-15.8644
G01 X6.0648 Y-15.8106
G01 X6.0661 Y-15.7566
G00 X6.0661 Y-15.7566
G01 F70.00
G01 Z-1.6000
G01 F120.00
G01 X6.0648 Y-15.7026
G01 X6.0608 Y-15.6488
G01 X6.0542 Y-15.5952
G01 X6.0449 Y-15.5420
G01 X6.0331 Y-15.4894
G01 X6.0187 Y-15.4373
G01 X6.0018 Y-15.3861
G01 X5.9824 Y-15.3357
G01 X5.9605 Y-15.2863
G01 X5.9362 Y-15.2381
G01 X5.9096 Y-15.1911
G01 X5.8807 Y-15.1455
G01 X5.8496 Y-15.1014
G01 X5.8164 Y-15.0588
G01 X5.7812 Y-15.0180
G01 X5.7439 Y-14.9789
G01 X5.7048 Y-14.9416
G01 X5.6640 Y-14.9064
G01 X5.6214 Y-14.8732
G01 X5.5773 Y-14.8421
G01 X5.5317 Y-14.8132
G01 X5.4847 Y-14.7866
G01 X5.4365 Y-14.7623
G01 X5.3871 Y-14.7404
G01 X5.3367 Y-14.7210
G01 X5.2855 Y-14.7041
G01 X5.2334 Y-14.6897
G01 X5.1808 Y-14.6779
G01 X5.1276 Y-14.6686
G01 X5.0740 Y-14.6620
G01 X5.0202 Y-14.6580
G01 X4.9662 Y-14.6567
G01 X4.9122 Y-14.6580
G01 X4.8584 Y-14.6620
G01 X4.8048 Y-14.6686
G01 X4.7516 Y-14.6779
G01 X4.6990 Y-14.6897
G01 X4.6469 Y-14.7041
G01 X4.5957 Y-14.7210
G01 X4.5453 Y-14.7404
G01 X4.4959 Y-14.7623
G01 X4.4477 Y-14.7866
G01 X4.4007 Y-14.8132
G01 X4.3551 Y-14.8421
G01 X4.3110 Y-14.8732
G01 X4.2684 Y-14.9064
G01 X4.2276 Y-14.9416
G01 X4.1885 Y-14.9789
G01 X4.1512 Y-15.0180
G01 X4.1160 Y-15.0588
G01 X4.0828 Y-15.1014
G01 X4.0517 Y-15.1455
G01 X4.0228 Y-15.1911
G01 X3.9962 Y-15.2381
G01 X3.9719 Y-15.2863
G01 X3.9500 Y-15.3357
G01 X3.9306 Y-15.3861
G01 X3.9137 Y-15.4373
G01 X3.8993 Y-15.4894
G01 X3.8875 Y-15.5420
G01 X3.8782 Y-15.5952
G01 X3.8716 Y-15.6488
G01 X3.8676 Y-15.7026
G01 X3.8663 Y-15.7566
G01 X3.8676 Y-15.8106
G01 X3.8716 Y-15.8644
G01 X3.8782 Y-15.9180
G01 X3.8875 Y-15.9712
G01 X3.8993 Y-16.0238
G01 X3.9137 Y-16.0759
G01 X3.9306 Y-16.1271
G01 X3.9500 Y-16.1775
G01 X3.9719 Y-16.2269
G01 X3.9962 Y-16.2751
G01 X4.0228 Y-16.3221
G01 X4.0517 Y-16.3677
G01 X4.0828 Y-16.4118
G01 X4.1160 Y-16.4544
G01 X4.1512 Y-16.4952
G01 X4.1885 Y-16.5343
G01 X4.2276 Y-16.5716
G01 X4.2684 Y-16.6068
G01 X4.3110 Y-16.6400
G01 X4.3551 Y-16.6711
G01 X4.4007 Y-16.7000
G01 X4.4477 Y-16.7266
G01 X4.4959 Y-16.7509
G01 X4.5453 Y-16.7728
G01 X4.5957 Y-16.7922
G01 X4.6469 Y-16.8091
G01 X4.6990 Y-16.8235
G01 X4.7516 Y-16.8353
G01 X4.8048 Y-16.8446
G01 X4.8584 Y-16.8512
G01 X4.9122 Y-16.8552
G01 X4.9662 Y-16.8565
G01 X5.0202 Y-16.8552
G01 X5.0740 Y-16.8512
G01 X5.1276 Y-16.8446
G01 X5.1808 Y-16.8353
G01 X5.2334 Y-16.8235
G01 X5.2855 Y-16.8091
G01 X5.3367 Y-16.7922
G01 X5.3871 Y-16.7728
G01 X5.4365 Y-16.7509
G01 X5.4847 Y-16.7266
G01 X5.5317 Y-16.7000
G01 X5.5773 Y-16.6711
G01 X5.6214 Y-16.6400
G01 X5.6640 Y-16.6068
G01 X5.7048 Y-16.5716
G01 X5.7439 Y-16.5343
G01 X5.7812 Y-16.4952
G01 X5.8164 Y-16.4544
G01 X5.8496 Y-16.4118
G01 X5.8807 Y-16.3677
G01 X5.9096 Y-16.3221
G01 X5.9362 Y-16.2751
G01 X5.9605 Y-16.2269
G01 X5.9824 Y-16.1775
G01 X6.0018 Y-16.1271
G01 X6.0187 Y-16.0759
G01 X6.0331 Y-16.0238
G01 X6.0449 Y-15.9712
G01 X6.0542 Y-15.9180
G01 X6.0608 Y-15.8644
G01 X6.0648 Y-15.8106
G01 X6.0661 Y-15.7566
G00 X6.0661 Y-15.7566
G01 F70.00
G01 Z-1.7000
G01 F120.00
G01 X6.0648 Y-15.7026
G01 X6.0608 Y-15.6488
G01 X6.0542 Y-15.5952
G01 X6.0449 Y-15.5420
G01 X6.0331 Y-15.4894
G01 X6.0187 Y-15.4373
G01 X6.0018 Y-15.3861
G01 X5.9824 Y-15.3357
G01 X5.9605 Y-15.2863
G01 X5.9362 Y-15.2381
G01 X5.9096 Y-15.1911
G01 X5.8807 Y-15.1455
G01 X5.8496 Y-15.1014
G01 X5.8164 Y-15.0588
G01 X5.7812 Y-15.0180
G01 X5.7439 Y-14.9789
G01 X5.7048 Y-14.9416
G01 X5.6640 Y-14.9064
G01 X5.6214 Y-14.8732
G01 X5.5773 Y-14.8421
G01 X5.5317 Y-14.8132
G01 X5.4847 Y-14.7866
G01 X5.4365 Y-14.7623
G01 X5.3871 Y-14.7404
G01 X5.3367 Y-14.7210
G01 X5.2855 Y-14.7041
G01 X5.2334 Y-14.6897
G01 X5.1808 Y-14.6779
G01 X5.1276 Y-14.6686
G01 X5.0740 Y-14.6620
G01 X5.0202 Y-14.6580
G01 X4.9662 Y-14.6567
G01 X4.9122 Y-14.6580
G01 X4.8584 Y-14.6620
G01 X4.8048 Y-14.6686
G01 X4.7516 Y-14.6779
G01 X4.6990 Y-14.6897
G01 X4.6469 Y-14.7041
G01 X4.5957 Y-14.7210
G01 X4.5453 Y-14.7404
G01 X4.4959 Y-14.7623
G01 X4.4477 Y-14.7866
G01 X4.4007 Y-14.8132
G01 X4.3551 Y-14.8421
G01 X4.3110 Y-14.8732
G01 X4.2684 Y-14.9064
G01 X4.2276 Y-14.9416
G01 X4.1885 Y-14.9789
G01 X4.1512 Y-15.0180
G01 X4.1160 Y-15.0588
G01 X4.0828 Y-15.1014
G01 X4.0517 Y-15.1455
G01 X4.0228 Y-15.1911
G01 X3.9962 Y-15.2381
G01 X3.9719 Y-15.2863
G01 X3.9500 Y-15.3357
G01 X3.9306 Y-15.3861
G01 X3.9137 Y-15.4373
G01 X3.8993 Y-15.4894
G01 X3.8875 Y-15.5420
G01 X3.8782 Y-15.5952
G01 X3.8716 Y-15.6488
G01 X3.8676 Y-15.7026
G01 X3.8663 Y-15.7566
G01 X3.8676 Y-15.8106
G01 X3.8716 Y-15.8644
G01 X3.8782 Y-15.9180
G01 X3.8875 Y-15.9712
G01 X3.8993 Y-16.0238
G01 X3.9137 Y-16.0759
G01 X3.9306 Y-16.1271
G01 X3.9500 Y-16.1775
G01 X3.9719 Y-16.2269
G01 X3.9962 Y-16.2751
G01 X4.0228 Y-16.3221
G01 X4.0517 Y-16.3677
G01 X4.0828 Y-16.4118
G01 X4.1160 Y-16.4544
G01 X4.1512 Y-16.4952
G01 X4.1885 Y-16.5343
G01 X4.2276 Y-16.5716
G01 X4.2684 Y-16.6068
G01 X4.3110 Y-16.6400
G01 X4.3551 Y-16.6711
G01 X4.4007 Y-16.7000
G01 X4.4477 Y-16.7266
G01 X4.4959 Y-16.7509
G01 X4.5453 Y-16.7728
G01 X4.5957 Y-16.7922
G01 X4.6469 Y-16.8091
G01 X4.6990 Y-16.8235
G01 X4.7516 Y-16.8353
G01 X4.8048 Y-16.8446
G01 X4.8584 Y-16.8512
G01 X4.9122 Y-16.8552
G01 X4.9662 Y-16.8565
G01 X5.0202 Y-16.8552
G01 X5.0740 Y-16.8512
G01 X5.1276 Y-16.8446
G01 X5.1808 Y-16.8353
G01 X5.2334 Y-16.8235
G01 X5.2855 Y-16.8091
G01 X5.3367 Y-16.7922
G01 X5.3871 Y-16.7728
G01 X5.4365 Y-16.7509
G01 X5.4847 Y-16.7266
G01 X5.5317 Y-16.7000
G01 X5.5773 Y-16.6711
G01 X5.6214 Y-16.6400
G01 X5.6640 Y-16.6068
G01 X5.7048 Y-16.5716
G01 X5.7439 Y-16.5343
G01 X5.7812 Y-16.4952
G01 X5.8164 Y-16.4544
G01 X5.8496 Y-16.4118
G01 X5.8807 Y-16.3677
G01 X5.9096 Y-16.3221
G01 X5.9362 Y-16.2751
G01 X5.9605 Y-16.2269
G01 X5.9824 Y-16.1775
G01 X6.0018 Y-16.1271
G01 X6.0187 Y-16.0759
G01 X6.0331 Y-16.0238
G01 X6.0449 Y-15.9712
G01 X6.0542 Y-15.9180
G01 X6.0608 Y-15.8644
G01 X6.0648 Y-15.8106
G01 X6.0661 Y-15.7566
G00 Z2.0000
M05
G00 Z2.0000
G00 Z25.00

