(G-CODE GENERATED BY FLATCAM v8.993 - www.flatcam.org - Version Date: 2020/06/05)

(Name: AD8009_Ф1_верх.gbr_iso_combined_cnc)
(Type: G-code from Geometry)
(Units: MM)

(Created on Saturday, 31 October 2020 at 16:07)

(This preprocessor is the default preprocessor used by FlatCAM.)
(It is made to work with MACH3 compatible motion controllers.)

(TOOL DIAMETER: 0.2 mm)
(Feedrate_XY: 120.0 mm/min)
(Feedrate_Z: 70.0 mm/min)
(Feedrate rapids 1500.0 mm/min)

(Z_Cut: -0.08 mm)
(Z_Move: 2.0 mm)
(Z Start: None mm)
(Z End: 25.0 mm)
(Steps per circle: 128)
(Preprocessor Geometry: default)

(X range:    0.6788 ...   18.7419  mm)
(Y range:  -19.2975 ...   -0.8593  mm)

(Spindle Speed: 10000 RPM)
G21
G90
G94



G01 F120.00
G00 Z2.0000

M03 S10000
G00 X5.0084 Y-5.5050
G01 F70.00
G01 Z-0.0800
G01 F120.00
G01 X5.0084 Y-7.9383
G01 X4.9084 Y-7.9383
G01 X4.9084 Y-7.6050
G01 X4.9069 Y-7.5879
G01 X4.9034 Y-7.5736
G01 X4.8977 Y-7.5600
G01 X4.8902 Y-7.5474
G01 X4.8808 Y-7.5360
G01 X4.8699 Y-7.5262
G01 X4.8577 Y-7.5180
G01 X4.8444 Y-7.5117
G01 X4.8315 Y-7.5077
G01 X4.8206 Y-7.5058
G01 X4.8084 Y-7.5050
G01 X3.2084 Y-7.5050
G01 X3.1913 Y-7.5065
G01 X3.1747 Y-7.5108
G01 X3.1591 Y-7.5180
G01 X3.1459 Y-7.5269
G01 X3.1335 Y-7.5388
G01 X3.1233 Y-7.5525
G01 X3.1160 Y-7.5667
G01 X3.1108 Y-7.5831
G01 X3.1092 Y-7.5928
G01 X3.1084 Y-7.6038
G01 X3.1084 Y-7.9384
G01 X3.0084 Y-7.9384
G01 X3.0084 Y-5.5050
G01 X3.7106 Y-5.5050
G01 X3.7253 Y-5.5035
G01 X3.7396 Y-5.4999
G01 X3.7532 Y-5.4943
G01 X3.7668 Y-5.4860
G01 X3.7789 Y-5.4756
G01 X3.7893 Y-5.4635
G01 X3.7975 Y-5.4498
G01 X3.8035 Y-5.4351
G01 X3.9813 Y-4.8186
G01 X3.9842 Y-4.8054
G01 X3.9852 Y-4.7895
G01 X3.9839 Y-4.7749
G01 X3.9801 Y-4.7594
G01 X3.9739 Y-4.7448
G01 X3.9662 Y-4.7323
G01 X3.9559 Y-4.7201
G01 X3.9438 Y-4.7098
G01 X3.9312 Y-4.7021
G01 X3.9212 Y-4.6976
G01 X3.9119 Y-4.6945
G01 X3.9011 Y-4.6922
G01 X3.8913 Y-4.6911
G01 X3.7625 Y-4.6909
G01 X3.7625 Y-2.6909
G01 X5.7625 Y-2.6909
G01 X5.7625 Y-4.6909
G01 X5.0269 Y-4.6910
G01 X5.0075 Y-4.6936
G01 X4.9889 Y-4.7000
G01 X4.9720 Y-4.7099
G01 X4.9573 Y-4.7229
G01 X4.9502 Y-4.7314
G01 X4.9441 Y-4.7407
G01 X4.9391 Y-4.7505
G01 X4.9349 Y-4.7620
G01 X4.7571 Y-5.3785
G01 X4.7541 Y-5.3941
G01 X4.7537 Y-5.4113
G01 X4.7557 Y-5.4258
G01 X4.7598 Y-5.4399
G01 X4.7660 Y-5.4533
G01 X4.7733 Y-5.4646
G01 X4.7829 Y-5.4758
G01 X4.7940 Y-5.4854
G01 X4.8054 Y-5.4926
G01 X4.8187 Y-5.4987
G01 X4.8340 Y-5.5031
G01 X4.8499 Y-5.5049
G01 X5.0084 Y-5.5050
G00 Z2.0000
G00 X4.9084 Y-7.0050
G01 F70.00
G01 Z-0.0800
G01 F120.00
G01 X4.9084 Y-5.7050
G01 X4.9078 Y-5.6940
G01 X4.9060 Y-5.6831
G01 X4.9017 Y-5.6690
G01 X4.8960 Y-5.6568
G01 X4.8887 Y-5.6454
G01 X4.8800 Y-5.6352
G01 X4.8699 Y-5.6262
G01 X4.8577 Y-5.6180
G01 X4.8455 Y-5.6121
G01 X4.8327 Y-5.6080
G01 X4.8206 Y-5.6058
G01 X4.8096 Y-5.6050
G01 X4.5876 Y-5.6050
G01 X4.8800 Y-4.5909
G01 X5.5711 Y-4.5905
G01 X5.5856 Y-4.5882
G01 X5.5985 Y-4.5842
G01 X5.6107 Y-4.5785
G01 X5.6221 Y-4.5712
G01 X5.6332 Y-4.5616
G01 X5.6421 Y-4.5515
G01 X5.6501 Y-4.5391
G01 X5.6558 Y-4.5269
G01 X5.6608 Y-4.5092
G01 X5.6625 Y-4.4909
G01 X5.6625 Y-2.8909
G01 X5.6619 Y-2.8799
G01 X5.6601 Y-2.8690
G01 X5.6554 Y-2.8538
G01 X5.6476 Y-2.8384
G01 X5.6382 Y-2.8256
G01 X5.6269 Y-2.8144
G01 X5.6139 Y-2.8051
G01 X5.5985 Y-2.7976
G01 X5.5832 Y-2.7931
G01 X5.5674 Y-2.7910
G01 X3.9625 Y-2.7909
G01 X3.9515 Y-2.7915
G01 X3.9406 Y-2.7933
G01 X3.9242 Y-2.7985
G01 X3.9100 Y-2.8058
G01 X3.8972 Y-2.8152
G01 X3.8860 Y-2.8265
G01 X3.8767 Y-2.8395
G01 X3.8692 Y-2.8549
G01 X3.8647 Y-2.8702
G01 X3.8626 Y-2.8860
G01 X3.8625 Y-4.4909
G01 X3.8633 Y-4.5031
G01 X3.8661 Y-4.5176
G01 X3.8711 Y-4.5314
G01 X3.8774 Y-4.5434
G01 X3.8860 Y-4.5553
G01 X3.8953 Y-4.5650
G01 X3.9069 Y-4.5740
G01 X3.9197 Y-4.5813
G01 X3.9335 Y-4.5866
G01 X3.9466 Y-4.5896
G01 X3.9600 Y-4.5909
G01 X4.1512 Y-4.5909
G01 X3.8588 Y-5.6050
G01 X3.1998 Y-5.6054
G01 X3.1865 Y-5.6074
G01 X3.1736 Y-5.6113
G01 X3.1613 Y-5.6168
G01 X3.1498 Y-5.6240
G01 X3.1394 Y-5.6326
G01 X3.1303 Y-5.6425
G01 X3.1226 Y-5.6536
G01 X3.1165 Y-5.6656
G01 X3.1127 Y-5.6760
G01 X3.1103 Y-5.6855
G01 X3.1084 Y-5.7050
G01 X3.1084 Y-7.0050
G01 X3.1090 Y-7.0160
G01 X3.1108 Y-7.0269
G01 X3.1160 Y-7.0433
G01 X3.1233 Y-7.0575
G01 X3.1327 Y-7.0703
G01 X3.1440 Y-7.0815
G01 X3.1570 Y-7.0908
G01 X3.1724 Y-7.0983
G01 X3.1877 Y-7.1028
G01 X3.2035 Y-7.1049
G01 X4.8096 Y-7.1050
G01 X4.8291 Y-7.1028
G01 X4.8478 Y-7.0969
G01 X4.8650 Y-7.0875
G01 X4.8800 Y-7.0748
G01 X4.8922 Y-7.0595
G01 X4.9013 Y-7.0421
G01 X4.9067 Y-7.0233
G01 X4.9084 Y-7.0050
G00 Z2.0000
G00 X3.2084 Y-7.3050
G01 F70.00
G01 Z-0.0800
G01 F120.00
G01 X3.2084 Y-7.3050
G01 X4.8084 Y-7.3050
G01 X4.8084 Y-7.3050
G01 X3.2084 Y-7.3050
G00 Z2.0000
G00 X3.1084 Y-7.4318
G01 F70.00
G01 Z-0.0800
G01 F120.00
G01 X3.1084 Y-7.1782
G01 X3.1319 Y-7.1898
G01 X3.1574 Y-7.1984
G01 X3.1839 Y-7.2035
G01 X3.2084 Y-7.2050
G01 X4.8109 Y-7.2050
G01 X4.8353 Y-7.2032
G01 X4.8617 Y-7.1978
G01 X4.8849 Y-7.1898
G01 X4.9084 Y-7.1782
G01 X4.9084 Y-7.4318
G01 X4.8849 Y-7.4202
G01 X4.8594 Y-7.4116
G01 X4.8353 Y-7.4068
G01 X4.8084 Y-7.4050
G01 X3.2059 Y-7.4050
G01 X3.1815 Y-7.4068
G01 X3.1551 Y-7.4122
G01 X3.1319 Y-7.4202
G01 X3.1084 Y-7.4318
G00 Z2.0000
G00 X3.0084 Y-8.5717
G01 F70.00
G01 Z-0.0800
G01 F120.00
G01 X3.1084 Y-8.5717
G01 X3.1089 Y-8.9148
G01 X3.1106 Y-8.9257
G01 X3.1131 Y-8.9352
G01 X3.1208 Y-8.9532
G01 X3.1319 Y-8.9694
G01 X3.1394 Y-8.9774
G01 X3.1469 Y-8.9838
G01 X3.1602 Y-8.9926
G01 X3.1747 Y-8.9992
G01 X3.1889 Y-9.0031
G01 X3.2047 Y-9.0049
G01 X3.6918 Y-9.0050
G01 X3.6918 Y-9.1050
G01 X3.0084 Y-9.1050
G01 X3.0084 Y-8.5717
G00 Z2.0000
G00 X4.3251 Y-9.1050
G01 F70.00
G01 Z-0.0800
G01 F120.00
G01 X4.3251 Y-9.0050
G01 X4.8121 Y-9.0049
G01 X4.8279 Y-9.0031
G01 X4.8421 Y-8.9992
G01 X4.8566 Y-8.9926
G01 X4.8699 Y-8.9838
G01 X4.8774 Y-8.9774
G01 X4.8849 Y-8.9694
G01 X4.8960 Y-8.9532
G01 X4.9037 Y-8.9352
G01 X4.9062 Y-8.9257
G01 X4.9079 Y-8.9148
G01 X4.9084 Y-8.5716
G01 X5.0084 Y-8.5716
G01 X5.0084 Y-9.1050
G01 X4.3251 Y-9.1050
G00 Z2.0000
G00 X4.1974 Y-10.2713
G01 F70.00
G01 Z-0.0800
G01 F120.00
G01 X4.1974 Y-10.3713
G01 X3.7641 Y-10.3713
G01 X3.7458 Y-10.3730
G01 X3.7293 Y-10.3776
G01 X3.7127 Y-10.3855
G01 X3.6988 Y-10.3956
G01 X3.6868 Y-10.4079
G01 X3.6771 Y-10.4220
G01 X3.6699 Y-10.4376
G01 X3.6656 Y-10.4542
G01 X3.6641 Y-10.4713
G01 X3.6641 Y-12.0713
G01 X3.6652 Y-12.0860
G01 X3.6681 Y-12.0992
G01 X3.6727 Y-12.1118
G01 X3.6796 Y-12.1248
G01 X3.6884 Y-12.1366
G01 X3.6988 Y-12.1470
G01 X3.7106 Y-12.1558
G01 X3.7225 Y-12.1622
G01 X3.7362 Y-12.1673
G01 X3.7506 Y-12.1704
G01 X3.7641 Y-12.1713
G01 X4.1974 Y-12.1713
G01 X4.1974 Y-12.2713
G01 X3.5641 Y-12.2713
G01 X3.5641 Y-10.2713
G01 X4.1974 Y-10.2713
G00 Z2.0000
G00 X5.5641 Y-10.9046
G01 F70.00
G01 Z-0.0800
G01 F120.00
G01 X5.4641 Y-10.9046
G01 X5.4639 Y-10.4652
G01 X5.4611 Y-10.4470
G01 X5.4550 Y-10.4297
G01 X5.4459 Y-10.4137
G01 X5.4348 Y-10.4006
G01 X5.4207 Y-10.3888
G01 X5.4057 Y-10.3804
G01 X5.3884 Y-10.3743
G01 X5.3702 Y-10.3715
G01 X4.9307 Y-10.3713
G01 X4.9307 Y-10.2713
G01 X5.5641 Y-10.2713
G01 X5.5641 Y-10.9046
G00 Z2.0000
G00 X5.5641 Y-12.2713
G01 F70.00
G01 Z-0.0800
G01 F120.00
G01 X4.9307 Y-12.2713
G01 X4.9307 Y-12.1713
G01 X5.3690 Y-12.1712
G01 X5.3848 Y-12.1691
G01 X5.4012 Y-12.1642
G01 X5.4155 Y-12.1571
G01 X5.4285 Y-12.1478
G01 X5.4422 Y-12.1338
G01 X5.4529 Y-12.1174
G01 X5.4574 Y-12.1073
G01 X5.4605 Y-12.0980
G01 X5.4638 Y-12.0787
G01 X5.4641 Y-11.6379
G01 X5.5641 Y-11.6379
G01 X5.5641 Y-12.2713
G00 Z2.0000
G00 X7.5901 Y-11.0069
G01 F70.00
G01 Z-0.0800
G01 F120.00
G01 X8.4401 Y-11.0069
G01 X8.4401 Y-11.1069
G01 X7.5901 Y-11.1069
G01 X7.5901 Y-11.0069
G00 Z2.0000
G00 X9.3401 Y-11.1069
G01 F70.00
G01 Z-0.0800
G01 F120.00
G01 X9.3401 Y-11.0069
G01 X10.1901 Y-11.0069
G01 X10.1901 Y-11.1069
G01 X9.3401 Y-11.1069
G00 Z2.0000
G00 X10.0900 Y-9.8101
G01 F70.00
G01 Z-0.0800
G01 F120.00
G01 X10.0901 Y-10.0069
G01 X7.6901 Y-10.0069
G01 X7.6900 Y-9.8347
G01 X7.6880 Y-9.8089
G01 X7.7112 Y-9.8207
G01 X7.7367 Y-9.8297
G01 X7.7631 Y-9.8351
G01 X7.7900 Y-9.8369
G01 X9.9925 Y-9.8369
G01 X10.0193 Y-9.8347
G01 X10.0433 Y-9.8297
G01 X10.0665 Y-9.8217
G01 X10.0900 Y-9.8101
G00 Z2.0000
G00 X12.1166 Y-9.3445
G01 F70.00
G01 Z-0.0800
G01 F120.00
G01 X12.1130 Y-12.4312
G01 X11.6619 Y-12.4312
G01 X11.6497 Y-12.4320
G01 X11.6364 Y-12.4345
G01 X11.6236 Y-12.4388
G01 X11.6115 Y-12.4448
G01 X11.6004 Y-12.4524
G01 X11.5903 Y-12.4614
G01 X11.5816 Y-12.4716
G01 X11.5743 Y-12.4830
G01 X11.5686 Y-12.4952
G01 X11.5636 Y-12.5129
G01 X11.5619 Y-12.5312
G01 X11.5619 Y-13.8312
G01 X11.5627 Y-13.8434
G01 X11.5649 Y-13.8555
G01 X11.5700 Y-13.8706
G01 X11.5774 Y-13.8847
G01 X11.5870 Y-13.8974
G01 X11.5985 Y-13.9085
G01 X11.6126 Y-13.9182
G01 X11.6271 Y-13.9249
G01 X11.6424 Y-13.9293
G01 X11.6582 Y-13.9311
G01 X13.2619 Y-13.9312
G01 X13.2741 Y-13.9304
G01 X13.2862 Y-13.9282
G01 X13.3013 Y-13.9231
G01 X13.3154 Y-13.9157
G01 X13.3281 Y-13.9061
G01 X13.3392 Y-13.8946
G01 X13.3483 Y-13.8816
G01 X13.3552 Y-13.8672
G01 X13.3597 Y-13.8519
G01 X13.3618 Y-13.8361
G01 X13.3619 Y-12.5312
G01 X13.3608 Y-12.5165
G01 X13.3572 Y-12.5010
G01 X13.3518 Y-12.4873
G01 X13.3444 Y-12.4746
G01 X13.3352 Y-12.4631
G01 X13.3253 Y-12.4539
G01 X13.3133 Y-12.4454
G01 X13.3013 Y-12.4393
G01 X13.2886 Y-12.4348
G01 X13.2741 Y-12.4320
G01 X13.2619 Y-12.4312
G01 X12.8132 Y-12.4312
G01 X12.8166 Y-9.6394
G01 X13.0900 Y-9.6394
G01 X13.0924 Y-9.6588
G01 X13.0986 Y-9.6774
G01 X13.1082 Y-9.6945
G01 X13.1202 Y-9.7085
G01 X13.1344 Y-9.7200
G01 X13.1517 Y-9.7293
G01 X13.1705 Y-9.7350
G01 X13.1900 Y-9.7369
G01 X15.3937 Y-9.7368
G01 X15.4119 Y-9.7345
G01 X15.4294 Y-9.7288
G01 X15.4466 Y-9.7194
G01 X15.4607 Y-9.7076
G01 X15.4725 Y-9.6935
G01 X15.4819 Y-9.6763
G01 X15.4876 Y-9.6588
G01 X15.4899 Y-9.6406
G01 X15.4895 Y-8.9271
G01 X15.4867 Y-8.9114
G01 X15.4819 Y-8.8975
G01 X15.4745 Y-8.8834
G01 X15.4657 Y-8.8716
G01 X15.4553 Y-8.8612
G01 X15.4435 Y-8.8524
G01 X15.4294 Y-8.8450
G01 X15.4155 Y-8.8402
G01 X15.4022 Y-8.8377
G01 X15.3900 Y-8.8369
G01 X13.1863 Y-8.8370
G01 X13.1669 Y-8.8396
G01 X13.1495 Y-8.8455
G01 X13.1334 Y-8.8544
G01 X13.1184 Y-8.8671
G01 X13.1069 Y-8.8813
G01 X13.0976 Y-8.8986
G01 X13.0919 Y-8.9174
G01 X13.0900 Y-8.9368
G01 X12.8118 Y-8.9368
G01 X12.8096 Y-5.8710
G01 X13.0833 Y-4.5909
G01 X13.7301 Y-4.5904
G01 X13.7446 Y-4.5879
G01 X13.7586 Y-4.5833
G01 X13.7717 Y-4.5767
G01 X13.7837 Y-4.5682
G01 X13.7944 Y-4.5581
G01 X13.8034 Y-4.5465
G01 X13.8107 Y-4.5337
G01 X13.8160 Y-4.5199
G01 X13.8192 Y-4.5056
G01 X13.8203 Y-4.4909
G01 X13.8202 Y-2.8872
G01 X13.8184 Y-2.8714
G01 X13.8140 Y-2.8561
G01 X13.8073 Y-2.8416
G01 X13.7984 Y-2.8284
G01 X13.7875 Y-2.8168
G01 X13.7748 Y-2.8071
G01 X13.7597 Y-2.7990
G01 X13.7446 Y-2.7939
G01 X13.7325 Y-2.7917
G01 X13.7203 Y-2.7909
G01 X12.1166 Y-2.7910
G01 X12.1008 Y-2.7928
G01 X12.0843 Y-2.7976
G01 X12.0699 Y-2.8045
G01 X12.0569 Y-2.8136
G01 X12.0454 Y-2.8247
G01 X12.0358 Y-2.8374
G01 X12.0284 Y-2.8515
G01 X12.0233 Y-2.8666
G01 X12.0211 Y-2.8787
G01 X12.0203 Y-2.8909
G01 X12.0203 Y-4.4909
G01 X12.0222 Y-4.5104
G01 X12.0257 Y-4.5234
G01 X12.0315 Y-4.5370
G01 X12.0393 Y-4.5495
G01 X12.0479 Y-4.5599
G01 X12.0588 Y-4.5697
G01 X12.0710 Y-4.5779
G01 X12.0843 Y-4.5842
G01 X12.0972 Y-4.5882
G01 X12.1081 Y-4.5901
G01 X12.1191 Y-4.5909
G01 X12.3673 Y-4.5909
G01 X12.1170 Y-5.7609
G01 X12.1115 Y-5.7948
G01 X12.1098 Y-5.8159
G01 X12.1118 Y-9.2872
G01 X12.1134 Y-9.3202
G01 X12.1166 Y-9.3445
G00 Z2.0000
G00 X13.0162 Y-9.9624
G01 F70.00
G01 Z-0.0800
G01 F120.00
G01 X13.0163 Y-9.8815
G01 X13.0358 Y-9.8942
G01 X13.0551 Y-9.9049
G01 X13.0752 Y-9.9141
G01 X13.0963 Y-9.9219
G01 X13.0752 Y-9.9297
G01 X13.0551 Y-9.9389
G01 X13.0358 Y-9.9496
G01 X13.0162 Y-9.9624
G00 Z2.0000
G00 X13.0168 Y-11.0069
G01 F70.00
G01 Z-0.0800
G01 F120.00
G01 X12.9906 Y-11.0084
G01 X12.9642 Y-11.0135
G01 X12.9386 Y-11.0221
G01 X12.9151 Y-11.0337
G01 X12.9165 Y-9.7394
G01 X13.0183 Y-9.7394
G01 X13.0323 Y-9.7599
G01 X13.0486 Y-9.7783
G01 X13.0689 Y-9.7961
G01 X13.0893 Y-9.8097
G01 X13.1112 Y-9.8207
G01 X13.1343 Y-9.8290
G01 X13.1607 Y-9.8347
G01 X13.1851 Y-9.8368
G01 X15.3925 Y-9.8369
G01 X15.4193 Y-9.8347
G01 X15.4433 Y-9.8297
G01 X15.4665 Y-9.8217
G01 X15.4900 Y-9.8101
G01 X15.4900 Y-10.0337
G01 X15.4665 Y-10.0221
G01 X15.4410 Y-10.0135
G01 X15.4145 Y-10.0084
G01 X15.3900 Y-10.0069
G01 X13.1875 Y-10.0069
G01 X13.1655 Y-10.0084
G01 X13.1438 Y-10.0123
G01 X13.1226 Y-10.0186
G01 X13.1023 Y-10.0272
G01 X13.0809 Y-10.0393
G01 X13.0594 Y-10.0555
G01 X13.0418 Y-10.0726
G01 X13.0251 Y-10.0938
G01 X13.0114 Y-10.1170
G01 X13.0017 Y-10.1395
G01 X12.9943 Y-10.1655
G01 X12.9907 Y-10.1897
G01 X12.9900 Y-10.2069
G01 X12.9901 Y-10.9143
G01 X12.9925 Y-10.9387
G01 X12.9979 Y-10.9626
G01 X13.0062 Y-10.9857
G01 X13.0168 Y-11.0069
G00 Z2.0000
G00 X13.0963 Y-8.6519
G01 F70.00
G01 Z-0.0800
G01 F120.00
G01 X13.0752 Y-8.6597
G01 X13.0518 Y-8.6706
G01 X13.0326 Y-8.6815
G01 X13.0116 Y-8.6957
G01 X13.0115 Y-8.6080
G01 X13.0326 Y-8.6223
G01 X13.0518 Y-8.6332
G01 X13.0752 Y-8.6441
G01 X13.0963 Y-8.6519
G00 Z2.0000
G00 X13.0107 Y-7.4264
G01 F70.00
G01 Z-0.0800
G01 F120.00
G01 X13.0106 Y-7.3374
G01 X13.0295 Y-7.3504
G01 X13.0518 Y-7.3632
G01 X13.0752 Y-7.3741
G01 X13.0963 Y-7.3819
G01 X13.0752 Y-7.3897
G01 X13.0518 Y-7.4006
G01 X13.0295 Y-7.4134
G01 X13.0107 Y-7.4264
G00 Z2.0000
G00 X15.4900 Y-7.0969
G01 F70.00
G01 Z-0.0800
G01 F120.00
G01 X15.4896 Y-6.3883
G01 X15.4873 Y-6.3738
G01 X15.4829 Y-6.3598
G01 X15.4764 Y-6.3465
G01 X15.4681 Y-6.3344
G01 X15.4581 Y-6.3236
G01 X15.4466 Y-6.3144
G01 X15.4339 Y-6.3070
G01 X15.4190 Y-6.3012
G01 X15.4047 Y-6.2980
G01 X15.3900 Y-6.2969
G01 X13.1875 Y-6.2969
G01 X13.1717 Y-6.2986
G01 X13.1563 Y-6.3027
G01 X13.1418 Y-6.3093
G01 X13.1294 Y-6.3173
G01 X13.1176 Y-6.3279
G01 X13.1075 Y-6.3403
G01 X13.1001 Y-6.3530
G01 X13.0943 Y-6.3679
G01 X13.0911 Y-6.3822
G01 X13.0900 Y-6.3969
G01 X13.0904 Y-7.1055
G01 X13.0927 Y-7.1200
G01 X13.0971 Y-7.1340
G01 X13.1036 Y-7.1473
G01 X13.1119 Y-7.1594
G01 X13.1219 Y-7.1702
G01 X13.1334 Y-7.1794
G01 X13.1472 Y-7.1873
G01 X13.1610 Y-7.1926
G01 X13.1753 Y-7.1958
G01 X13.1900 Y-7.1969
G01 X15.3937 Y-7.1968
G01 X15.4131 Y-7.1942
G01 X15.4316 Y-7.1878
G01 X15.4476 Y-7.1787
G01 X15.4624 Y-7.1659
G01 X15.4745 Y-7.1504
G01 X15.4829 Y-7.1340
G01 X15.4881 Y-7.1164
G01 X15.4900 Y-7.0969
G00 Z2.0000
G00 X15.4900 Y-8.3670
G01 F70.00
G01 Z-0.0800
G01 F120.00
G01 X16.6419 Y-8.3670
G01 X16.6420 Y-8.8218
G01 X16.6446 Y-8.8400
G01 X16.6505 Y-8.8574
G01 X16.6594 Y-8.8735
G01 X16.6703 Y-8.8867
G01 X16.6843 Y-8.8987
G01 X16.7003 Y-8.9078
G01 X16.7176 Y-8.9139
G01 X16.7358 Y-8.9167
G01 X17.1773 Y-8.9169
G01 X17.1822 Y-12.5938
G01 X16.8907 Y-12.5938
G01 X16.8724 Y-12.5957
G01 X16.8582 Y-12.5996
G01 X16.8448 Y-12.6056
G01 X16.8323 Y-12.6135
G01 X16.8221 Y-12.6222
G01 X16.8123 Y-12.6332
G01 X16.8049 Y-12.6445
G01 X16.7986 Y-12.6578
G01 X16.7943 Y-12.6719
G01 X16.7925 Y-12.6828
G01 X16.7919 Y-12.6938
G01 X16.7919 Y-14.2938
G01 X16.7934 Y-14.3109
G01 X16.7973 Y-14.3263
G01 X16.8037 Y-14.3409
G01 X16.8131 Y-14.3553
G01 X16.8238 Y-14.3671
G01 X16.8374 Y-14.3776
G01 X16.8525 Y-14.3857
G01 X16.8676 Y-14.3908
G01 X16.8784 Y-14.3929
G01 X16.8907 Y-14.3938
G01 X17.1918 Y-14.3938
G01 X17.1918 Y-17.0550
G01 X17.1702 Y-17.0622
G01 X17.1198 Y-17.0817
G01 X17.0716 Y-17.1031
G01 X17.0244 Y-17.1268
G01 X16.9764 Y-17.1540
G01 X16.9328 Y-17.1815
G01 X16.8856 Y-17.2147
G01 X16.8441 Y-17.2472
G01 X16.8032 Y-17.2825
G01 X16.7641 Y-17.3197
G01 X16.7285 Y-17.3570
G01 X16.6901 Y-17.4016
G01 X16.6584 Y-17.4422
G01 X16.6280 Y-17.4854
G01 X16.5984 Y-17.5320
G01 X16.5730 Y-17.5768
G01 X16.5465 Y-17.6294
G01 X16.5256 Y-17.6765
G01 X16.5062 Y-17.7269
G01 X16.4893 Y-17.7782
G01 X16.4755 Y-17.8278
G01 X16.4626 Y-17.8853
G01 X16.4538 Y-17.9361
G01 X16.4472 Y-17.9897
G01 X16.4432 Y-18.0435
G01 X16.4419 Y-18.0950
G01 X16.4433 Y-18.1527
G01 X16.4472 Y-18.2053
G01 X16.4542 Y-18.2613
G01 X16.4630 Y-18.3121
G01 X16.4743 Y-18.3624
G01 X16.4886 Y-18.4145
G01 X16.5062 Y-18.4681
G01 X16.5256 Y-18.5185
G01 X16.5475 Y-18.5678
G01 X16.5718 Y-18.6160
G01 X16.5984 Y-18.6630
G01 X16.6273 Y-18.7086
G01 X16.6584 Y-18.7528
G01 X16.6932 Y-18.7972
G01 X16.7269 Y-18.8362
G01 X16.7624 Y-18.8736
G01 X16.8014 Y-18.9109
G01 X16.8441 Y-18.9478
G01 X16.8847 Y-18.9795
G01 X16.9308 Y-19.0121
G01 X16.9764 Y-19.0410
G01 X17.0234 Y-19.0676
G01 X17.0716 Y-19.0919
G01 X17.1209 Y-19.1138
G01 X17.1713 Y-19.1332
G01 X17.2226 Y-19.1501
G01 X17.2770 Y-19.1651
G01 X17.3273 Y-19.1764
G01 X17.3829 Y-19.1859
G01 X17.4341 Y-19.1922
G01 X17.4855 Y-19.1960
G01 X17.5394 Y-19.1975
G01 X17.5959 Y-19.1962
G01 X17.6497 Y-19.1922
G01 X17.7033 Y-19.1856
G01 X17.7577 Y-19.1761
G01 X17.8092 Y-19.1645
G01 X17.8589 Y-19.1508
G01 X17.9148 Y-19.1323
G01 X17.9629 Y-19.1138
G01 X18.0122 Y-19.0919
G01 X18.0604 Y-19.0676
G01 X18.1053 Y-19.0422
G01 X18.1551 Y-19.0107
G01 X18.1972 Y-18.9810
G01 X18.2397 Y-18.9478
G01 X18.2806 Y-18.9125
G01 X18.3180 Y-18.8770
G01 X18.3586 Y-18.8344
G01 X18.3922 Y-18.7953
G01 X18.4254 Y-18.7528
G01 X18.4565 Y-18.7086
G01 X18.4841 Y-18.6651
G01 X18.5131 Y-18.6139
G01 X18.5363 Y-18.5678
G01 X18.5582 Y-18.5185
G01 X18.5776 Y-18.4681
G01 X18.5938 Y-18.4192
G01 X18.6095 Y-18.3624
G01 X18.6208 Y-18.3121
G01 X18.6300 Y-18.2589
G01 X18.6366 Y-18.2053
G01 X18.6405 Y-18.1527
G01 X18.6419 Y-18.0975
G01 X18.6407 Y-18.0460
G01 X18.6363 Y-17.9872
G01 X18.6300 Y-17.9361
G01 X18.6208 Y-17.8829
G01 X18.6089 Y-17.8302
G01 X18.5952 Y-17.7805
G01 X18.5767 Y-17.7246
G01 X18.5582 Y-17.6765
G01 X18.5363 Y-17.6272
G01 X18.5120 Y-17.5790
G01 X18.4866 Y-17.5341
G01 X18.4558 Y-17.4854
G01 X18.4254 Y-17.4422
G01 X18.3922 Y-17.3997
G01 X18.3569 Y-17.3588
G01 X18.3214 Y-17.3214
G01 X18.2788 Y-17.2808
G01 X18.2397 Y-17.2472
G01 X18.1982 Y-17.2147
G01 X18.1510 Y-17.1815
G01 X18.1074 Y-17.1540
G01 X18.0594 Y-17.1268
G01 X18.0122 Y-17.1031
G01 X17.9640 Y-17.0817
G01 X17.9136 Y-17.0622
G01 X17.8920 Y-17.0550
G01 X17.8920 Y-14.3938
G01 X18.1919 Y-14.3938
G01 X18.2114 Y-14.3919
G01 X18.2244 Y-14.3884
G01 X18.2380 Y-14.3826
G01 X18.2495 Y-14.3756
G01 X18.2609 Y-14.3662
G01 X18.2707 Y-14.3553
G01 X18.2783 Y-14.3442
G01 X18.2848 Y-14.3309
G01 X18.2892 Y-14.3169
G01 X18.2913 Y-14.3048
G01 X18.2919 Y-14.2938
G01 X18.2919 Y-12.6938
G01 X18.2904 Y-12.6767
G01 X18.2865 Y-12.6613
G01 X18.2801 Y-12.6467
G01 X18.2707 Y-12.6323
G01 X18.2600 Y-12.6205
G01 X18.2464 Y-12.6100
G01 X18.2324 Y-12.6024
G01 X18.2162 Y-12.5968
G01 X18.2041 Y-12.5946
G01 X18.1931 Y-12.5938
G01 X17.8824 Y-12.5938
G01 X17.8775 Y-8.9169
G01 X18.3419 Y-8.9169
G01 X18.3541 Y-8.9161
G01 X18.3674 Y-8.9136
G01 X18.3813 Y-8.9088
G01 X18.3933 Y-8.9027
G01 X18.4053 Y-8.8942
G01 X18.4160 Y-8.8841
G01 X18.4244 Y-8.8735
G01 X18.4318 Y-8.8608
G01 X18.4372 Y-8.8471
G01 X18.4406 Y-8.8328
G01 X18.4419 Y-8.8169
G01 X18.4419 Y-7.2169
G01 X18.4400 Y-7.1974
G01 X18.4348 Y-7.1798
G01 X18.4283 Y-7.1665
G01 X18.4207 Y-7.1554
G01 X18.4109 Y-7.1445
G01 X18.3995 Y-7.1351
G01 X18.3869 Y-7.1276
G01 X18.3733 Y-7.1219
G01 X18.3602 Y-7.1186
G01 X18.3456 Y-7.1170
G01 X16.7419 Y-7.1169
G01 X16.7284 Y-7.1178
G01 X16.7152 Y-7.1205
G01 X16.7014 Y-7.1255
G01 X16.6884 Y-7.1324
G01 X16.6766 Y-7.1412
G01 X16.6670 Y-7.1507
G01 X16.6581 Y-7.1624
G01 X16.6510 Y-7.1753
G01 X16.6459 Y-7.1890
G01 X16.6428 Y-7.2034
G01 X16.6419 Y-7.2169
G01 X16.6419 Y-7.6668
G01 X15.4900 Y-7.6668
G01 X15.4881 Y-7.6474
G01 X15.4824 Y-7.6286
G01 X15.4731 Y-7.6113
G01 X15.4607 Y-7.5962
G01 X15.4466 Y-7.5844
G01 X15.4294 Y-7.5750
G01 X15.4107 Y-7.5691
G01 X15.3912 Y-7.5669
G01 X13.1863 Y-7.5670
G01 X13.1717 Y-7.5686
G01 X13.1563 Y-7.5727
G01 X13.1418 Y-7.5793
G01 X13.1294 Y-7.5873
G01 X13.1176 Y-7.5979
G01 X13.1075 Y-7.6103
G01 X13.1001 Y-7.6230
G01 X13.0943 Y-7.6379
G01 X13.0911 Y-7.6522
G01 X13.0900 Y-7.6669
G01 X13.0904 Y-8.3755
G01 X13.0927 Y-8.3900
G01 X13.0971 Y-8.4040
G01 X13.1036 Y-8.4173
G01 X13.1119 Y-8.4294
G01 X13.1219 Y-8.4402
G01 X13.1334 Y-8.4494
G01 X13.1461 Y-8.4568
G01 X13.1610 Y-8.4626
G01 X13.1753 Y-8.4658
G01 X13.1900 Y-8.4669
G01 X15.3937 Y-8.4668
G01 X15.4131 Y-8.4642
G01 X15.4305 Y-8.4583
G01 X15.4466 Y-8.4494
G01 X15.4616 Y-8.4367
G01 X15.4731 Y-8.4225
G01 X15.4824 Y-8.4052
G01 X15.4881 Y-8.3864
G01 X15.4900 Y-8.3670
G00 Z2.0000
G00 X15.4920 Y-8.5389
G01 F70.00
G01 Z-0.0800
G01 F120.00
G01 X15.4900 Y-8.5647
G01 X15.4900 Y-8.7637
G01 X15.4665 Y-8.7521
G01 X15.4433 Y-8.7441
G01 X15.4193 Y-8.7391
G01 X15.3925 Y-8.7369
G01 X13.1851 Y-8.7370
G01 X13.1607 Y-8.7391
G01 X13.1343 Y-8.7448
G01 X13.1090 Y-8.7541
G01 X13.0872 Y-8.7654
G01 X13.0670 Y-8.7792
G01 X13.0469 Y-8.7972
G01 X13.0308 Y-8.8158
G01 X13.0169 Y-8.8368
G01 X12.9117 Y-8.8368
G01 X12.9098 Y-6.2701
G01 X12.9222 Y-6.2767
G01 X12.9356 Y-6.2826
G01 X12.9613 Y-6.2909
G01 X12.9878 Y-6.2957
G01 X13.0168 Y-6.2969
G01 X13.0062 Y-6.3181
G01 X12.9979 Y-6.3412
G01 X12.9925 Y-6.3651
G01 X12.9901 Y-6.3895
G01 X12.9900 Y-7.0969
G01 X12.9910 Y-7.1165
G01 X12.9954 Y-7.1431
G01 X13.0034 Y-7.1689
G01 X13.0092 Y-7.1824
G01 X13.0160 Y-7.1955
G01 X13.0308 Y-7.2180
G01 X13.0402 Y-7.2294
G01 X13.0503 Y-7.2400
G01 X13.0709 Y-7.2575
G01 X13.0936 Y-7.2721
G01 X13.1180 Y-7.2835
G01 X13.1343 Y-7.2890
G01 X13.1534 Y-7.2935
G01 X13.1704 Y-7.2959
G01 X13.1900 Y-7.2969
G01 X15.3900 Y-7.2969
G01 X15.4169 Y-7.2951
G01 X15.4410 Y-7.2903
G01 X15.4665 Y-7.2817
G01 X15.4900 Y-7.2701
G01 X15.4900 Y-7.4691
G01 X15.4920 Y-7.4949
G01 X15.4688 Y-7.4831
G01 X15.4433 Y-7.4741
G01 X15.4169 Y-7.4687
G01 X15.3900 Y-7.4669
G01 X13.1875 Y-7.4669
G01 X13.1631 Y-7.4687
G01 X13.1414 Y-7.4729
G01 X13.1180 Y-7.4803
G01 X13.0979 Y-7.4894
G01 X13.0748 Y-7.5034
G01 X13.0539 Y-7.5204
G01 X13.0370 Y-7.5381
G01 X13.0210 Y-7.5599
G01 X13.0082 Y-7.5836
G01 X12.9986 Y-7.6088
G01 X12.9929 Y-7.6327
G01 X12.9901 Y-7.6595
G01 X12.9900 Y-8.3669
G01 X12.9905 Y-8.3816
G01 X12.9929 Y-8.4011
G01 X12.9972 Y-8.4202
G01 X13.0034 Y-8.4389
G01 X13.0114 Y-8.4568
G01 X13.0210 Y-8.4739
G01 X13.0308 Y-8.4880
G01 X13.0435 Y-8.5030
G01 X13.0575 Y-8.5167
G01 X13.0709 Y-8.5275
G01 X13.0851 Y-8.5372
G01 X13.1023 Y-8.5466
G01 X13.1180 Y-8.5535
G01 X13.1343 Y-8.5590
G01 X13.1510 Y-8.5631
G01 X13.1680 Y-8.5657
G01 X13.1875 Y-8.5669
G01 X15.3925 Y-8.5669
G01 X15.4193 Y-8.5647
G01 X15.4433 Y-8.5597
G01 X15.4688 Y-8.5507
G01 X15.4920 Y-8.5389
G00 Z2.0000
G00 X15.4900 Y-10.9069
G01 F70.00
G01 Z-0.0800
G01 F120.00
G01 X15.4896 Y-10.1983
G01 X15.4873 Y-10.1838
G01 X15.4824 Y-10.1686
G01 X15.4758 Y-10.1555
G01 X15.4673 Y-10.1435
G01 X15.4572 Y-10.1328
G01 X15.4456 Y-10.1238
G01 X15.4328 Y-10.1165
G01 X15.4190 Y-10.1112
G01 X15.4047 Y-10.1080
G01 X15.3900 Y-10.1069
G01 X13.1875 Y-10.1069
G01 X13.1717 Y-10.1086
G01 X13.1563 Y-10.1127
G01 X13.1429 Y-10.1187
G01 X13.1294 Y-10.1273
G01 X13.1176 Y-10.1379
G01 X13.1075 Y-10.1503
G01 X13.1001 Y-10.1630
G01 X13.0943 Y-10.1779
G01 X13.0911 Y-10.1922
G01 X13.0900 Y-10.2069
G01 X13.0904 Y-10.9155
G01 X13.0927 Y-10.9300
G01 X13.0971 Y-10.9440
G01 X13.1036 Y-10.9573
G01 X13.1119 Y-10.9694
G01 X13.1219 Y-10.9802
G01 X13.1334 Y-10.9894
G01 X13.1461 Y-10.9968
G01 X13.1610 Y-11.0026
G01 X13.1753 Y-11.0058
G01 X13.1900 Y-11.0069
G01 X15.3937 Y-11.0068
G01 X15.4131 Y-11.0042
G01 X15.4316 Y-10.9978
G01 X15.4476 Y-10.9887
G01 X15.4624 Y-10.9759
G01 X15.4738 Y-10.9614
G01 X15.4829 Y-10.9440
G01 X15.4881 Y-10.9264
G01 X15.4900 Y-10.9069
G00 Z2.0000
G00 X15.3253 Y-12.4938
G01 F70.00
G01 Z-0.0800
G01 F120.00
G01 X15.3253 Y-12.5938
G01 X14.9821 Y-12.5943
G01 X14.9629 Y-12.5981
G01 X14.9536 Y-12.6014
G01 X14.9437 Y-12.6062
G01 X14.9353 Y-12.6113
G01 X14.9266 Y-12.6181
G01 X14.9131 Y-12.6323
G01 X14.9043 Y-12.6456
G01 X14.8977 Y-12.6601
G01 X14.8938 Y-12.6743
G01 X14.8920 Y-12.6901
G01 X14.8919 Y-13.1771
G01 X14.7919 Y-13.1771
G01 X14.7919 Y-12.4938
G01 X15.3253 Y-12.4938
G00 Z2.0000
G00 X14.7919 Y-13.8104
G01 F70.00
G01 Z-0.0800
G01 F120.00
G01 X14.8919 Y-13.8104
G01 X14.8920 Y-14.2975
G01 X14.8938 Y-14.3133
G01 X14.8977 Y-14.3275
G01 X14.9043 Y-14.3420
G01 X14.9131 Y-14.3553
G01 X14.9266 Y-14.3695
G01 X14.9353 Y-14.3763
G01 X14.9437 Y-14.3814
G01 X14.9536 Y-14.3862
G01 X14.9629 Y-14.3895
G01 X14.9821 Y-14.3933
G01 X15.3253 Y-14.3938
G01 X15.3253 Y-14.4938
G01 X14.7919 Y-14.4938
G01 X14.7919 Y-13.8104
G00 Z2.0000
G00 X16.5919 Y-14.2938
G01 F70.00
G01 Z-0.0800
G01 F120.00
G01 X16.5919 Y-14.2938
G01 X16.5919 Y-12.6938
G01 X16.5919 Y-12.6938
G01 X16.5919 Y-14.2938
G00 Z2.0000
G00 X16.7187 Y-14.3938
G01 F70.00
G01 Z-0.0800
G01 F120.00
G01 X16.4651 Y-14.3938
G01 X16.4767 Y-14.3703
G01 X16.4853 Y-14.3448
G01 X16.4904 Y-14.3183
G01 X16.4919 Y-14.2938
G01 X16.4919 Y-12.6913
G01 X16.4897 Y-12.6645
G01 X16.4847 Y-12.6405
G01 X16.4767 Y-12.6173
G01 X16.4651 Y-12.5938
G01 X16.7187 Y-12.5938
G01 X16.7071 Y-12.6173
G01 X16.6985 Y-12.6428
G01 X16.6934 Y-12.6693
G01 X16.6919 Y-12.6938
G01 X16.6919 Y-14.2963
G01 X16.6941 Y-14.3231
G01 X16.6991 Y-14.3471
G01 X16.7071 Y-14.3703
G01 X16.7187 Y-14.3938
G00 Z2.0000
G00 X17.5918 Y-18.0975
G01 F70.00
G01 Z-0.0800
G01 F120.00
G01 X17.5908 Y-18.1072
G01 X17.5880 Y-18.1166
G01 X17.5834 Y-18.1252
G01 X17.5772 Y-18.1328
G01 X17.5696 Y-18.1390
G01 X17.5610 Y-18.1436
G01 X17.5516 Y-18.1464
G01 X17.5419 Y-18.1474
G01 X17.5322 Y-18.1464
G01 X17.5228 Y-18.1436
G01 X17.5142 Y-18.1390
G01 X17.5066 Y-18.1328
G01 X17.5004 Y-18.1252
G01 X17.4958 Y-18.1166
G01 X17.4930 Y-18.1072
G01 X17.4920 Y-18.0975
G01 X17.4930 Y-18.0878
G01 X17.4958 Y-18.0784
G01 X17.5004 Y-18.0698
G01 X17.5066 Y-18.0622
G01 X17.5142 Y-18.0560
G01 X17.5228 Y-18.0514
G01 X17.5322 Y-18.0486
G01 X17.5419 Y-18.0476
G01 X17.5516 Y-18.0486
G01 X17.5610 Y-18.0514
G01 X17.5696 Y-18.0560
G01 X17.5772 Y-18.0622
G01 X17.5834 Y-18.0698
G01 X17.5880 Y-18.0784
G01 X17.5908 Y-18.0878
G01 X17.5918 Y-18.0975
G00 Z2.0000
G00 X17.6918 Y-18.0975
G01 F70.00
G01 Z-0.0800
G01 F120.00
G01 X17.6911 Y-18.1122
G01 X17.6889 Y-18.1267
G01 X17.6854 Y-18.1410
G01 X17.6804 Y-18.1549
G01 X17.6741 Y-18.1682
G01 X17.6665 Y-18.1808
G01 X17.6578 Y-18.1926
G01 X17.6479 Y-18.2035
G01 X17.6370 Y-18.2134
G01 X17.6252 Y-18.2221
G01 X17.6126 Y-18.2297
G01 X17.5993 Y-18.2360
G01 X17.5854 Y-18.2410
G01 X17.5711 Y-18.2445
G01 X17.5566 Y-18.2467
G01 X17.5419 Y-18.2474
G01 X17.5272 Y-18.2467
G01 X17.5127 Y-18.2445
G01 X17.4984 Y-18.2410
G01 X17.4845 Y-18.2360
G01 X17.4712 Y-18.2297
G01 X17.4586 Y-18.2221
G01 X17.4468 Y-18.2134
G01 X17.4359 Y-18.2035
G01 X17.4260 Y-18.1926
G01 X17.4173 Y-18.1808
G01 X17.4097 Y-18.1682
G01 X17.4034 Y-18.1549
G01 X17.3984 Y-18.1410
G01 X17.3949 Y-18.1267
G01 X17.3927 Y-18.1122
G01 X17.3920 Y-18.0975
G01 X17.3927 Y-18.0828
G01 X17.3949 Y-18.0683
G01 X17.3984 Y-18.0540
G01 X17.4034 Y-18.0401
G01 X17.4097 Y-18.0268
G01 X17.4173 Y-18.0142
G01 X17.4260 Y-18.0024
G01 X17.4359 Y-17.9915
G01 X17.4468 Y-17.9816
G01 X17.4586 Y-17.9729
G01 X17.4712 Y-17.9653
G01 X17.4845 Y-17.9590
G01 X17.4984 Y-17.9540
G01 X17.5127 Y-17.9505
G01 X17.5272 Y-17.9483
G01 X17.5419 Y-17.9476
G01 X17.5566 Y-17.9483
G01 X17.5711 Y-17.9505
G01 X17.5854 Y-17.9540
G01 X17.5993 Y-17.9590
G01 X17.6126 Y-17.9653
G01 X17.6252 Y-17.9729
G01 X17.6370 Y-17.9816
G01 X17.6479 Y-17.9915
G01 X17.6578 Y-18.0024
G01 X17.6665 Y-18.0142
G01 X17.6741 Y-18.0268
G01 X17.6804 Y-18.0401
G01 X17.6854 Y-18.0540
G01 X17.6889 Y-18.0683
G01 X17.6911 Y-18.0828
G01 X17.6918 Y-18.0975
G00 Z2.0000
G00 X17.7918 Y-18.0975
G01 F70.00
G01 Z-0.0800
G01 F120.00
G01 X17.7906 Y-18.1220
G01 X17.7870 Y-18.1463
G01 X17.7811 Y-18.1701
G01 X17.7728 Y-18.1931
G01 X17.7623 Y-18.2153
G01 X17.7497 Y-18.2364
G01 X17.7351 Y-18.2561
G01 X17.7186 Y-18.2742
G01 X17.7005 Y-18.2907
G01 X17.6808 Y-18.3053
G01 X17.6597 Y-18.3179
G01 X17.6375 Y-18.3284
G01 X17.6145 Y-18.3367
G01 X17.5907 Y-18.3426
G01 X17.5664 Y-18.3462
G01 X17.5419 Y-18.3474
G01 X17.5174 Y-18.3462
G01 X17.4931 Y-18.3426
G01 X17.4693 Y-18.3367
G01 X17.4463 Y-18.3284
G01 X17.4241 Y-18.3179
G01 X17.4030 Y-18.3053
G01 X17.3833 Y-18.2907
G01 X17.3652 Y-18.2742
G01 X17.3487 Y-18.2561
G01 X17.3341 Y-18.2364
G01 X17.3215 Y-18.2153
G01 X17.3110 Y-18.1931
G01 X17.3027 Y-18.1701
G01 X17.2968 Y-18.1463
G01 X17.2932 Y-18.1220
G01 X17.2920 Y-18.0975
G01 X17.2932 Y-18.0730
G01 X17.2968 Y-18.0487
G01 X17.3027 Y-18.0249
G01 X17.3110 Y-18.0019
G01 X17.3215 Y-17.9797
G01 X17.3341 Y-17.9586
G01 X17.3487 Y-17.9389
G01 X17.3652 Y-17.9208
G01 X17.3833 Y-17.9043
G01 X17.4030 Y-17.8897
G01 X17.4241 Y-17.8771
G01 X17.4463 Y-17.8666
G01 X17.4693 Y-17.8583
G01 X17.4931 Y-17.8524
G01 X17.5174 Y-17.8488
G01 X17.5419 Y-17.8476
G01 X17.5664 Y-17.8488
G01 X17.5907 Y-17.8524
G01 X17.6145 Y-17.8583
G01 X17.6375 Y-17.8666
G01 X17.6597 Y-17.8771
G01 X17.6808 Y-17.8897
G01 X17.7005 Y-17.9043
G01 X17.7186 Y-17.9208
G01 X17.7351 Y-17.9389
G01 X17.7497 Y-17.9586
G01 X17.7623 Y-17.9797
G01 X17.7728 Y-18.0019
G01 X17.7811 Y-18.0249
G01 X17.7870 Y-18.0487
G01 X17.7906 Y-18.0730
G01 X17.7918 Y-18.0975
G00 Z2.0000
G00 X17.8919 Y-18.0975
G01 F70.00
G01 Z-0.0800
G01 F120.00
G01 X17.8902 Y-18.1318
G01 X17.8851 Y-18.1658
G01 X17.8768 Y-18.1991
G01 X17.8652 Y-18.2314
G01 X17.8505 Y-18.2625
G01 X17.8329 Y-18.2919
G01 X17.8124 Y-18.3195
G01 X17.7894 Y-18.3450
G01 X17.7639 Y-18.3680
G01 X17.7363 Y-18.3885
G01 X17.7069 Y-18.4061
G01 X17.6758 Y-18.4208
G01 X17.6435 Y-18.4324
G01 X17.6102 Y-18.4407
G01 X17.5762 Y-18.4458
G01 X17.5419 Y-18.4475
G01 X17.5076 Y-18.4458
G01 X17.4736 Y-18.4407
G01 X17.4403 Y-18.4324
G01 X17.4080 Y-18.4208
G01 X17.3769 Y-18.4061
G01 X17.3475 Y-18.3885
G01 X17.3199 Y-18.3680
G01 X17.2944 Y-18.3450
G01 X17.2714 Y-18.3195
G01 X17.2509 Y-18.2919
G01 X17.2333 Y-18.2625
G01 X17.2186 Y-18.2314
G01 X17.2070 Y-18.1991
G01 X17.1987 Y-18.1658
G01 X17.1936 Y-18.1318
G01 X17.1919 Y-18.0975
G01 X17.1936 Y-18.0632
G01 X17.1987 Y-18.0292
G01 X17.2070 Y-17.9959
G01 X17.2186 Y-17.9636
G01 X17.2333 Y-17.9325
G01 X17.2509 Y-17.9031
G01 X17.2714 Y-17.8755
G01 X17.2944 Y-17.8500
G01 X17.3199 Y-17.8270
G01 X17.3475 Y-17.8065
G01 X17.3769 Y-17.7889
G01 X17.4080 Y-17.7742
G01 X17.4403 Y-17.7626
G01 X17.4736 Y-17.7543
G01 X17.5076 Y-17.7492
G01 X17.5419 Y-17.7475
G01 X17.5762 Y-17.7492
G01 X17.6102 Y-17.7543
G01 X17.6435 Y-17.7626
G01 X17.6758 Y-17.7742
G01 X17.7069 Y-17.7889
G01 X17.7363 Y-17.8065
G01 X17.7639 Y-17.8270
G01 X17.7894 Y-17.8500
G01 X17.8124 Y-17.8755
G01 X17.8329 Y-17.9031
G01 X17.8505 Y-17.9325
G01 X17.8652 Y-17.9636
G01 X17.8768 Y-17.9959
G01 X17.8851 Y-18.0292
G01 X17.8902 Y-18.0632
G01 X17.8919 Y-18.0975
G00 Z2.0000
G00 X18.7419 Y-18.0975
G01 F70.00
G01 Z-0.0800
G01 F120.00
G01 X18.7404 Y-18.1564
G01 X18.7361 Y-18.2151
G01 X18.7289 Y-18.2736
G01 X18.7188 Y-18.3316
G01 X18.7059 Y-18.3891
G01 X18.6902 Y-18.4458
G01 X18.6717 Y-18.5018
G01 X18.6505 Y-18.5567
G01 X18.6267 Y-18.6106
G01 X18.6002 Y-18.6632
G01 X18.5711 Y-18.7144
G01 X18.5396 Y-18.7642
G01 X18.5057 Y-18.8123
G01 X18.4695 Y-18.8588
G01 X18.4310 Y-18.9034
G01 X18.3904 Y-18.9460
G01 X18.3478 Y-18.9866
G01 X18.3032 Y-19.0251
G01 X18.2567 Y-19.0613
G01 X18.2086 Y-19.0952
G01 X18.1588 Y-19.1267
G01 X18.1076 Y-19.1558
G01 X18.0550 Y-19.1823
G01 X18.0011 Y-19.2061
G01 X17.9462 Y-19.2273
G01 X17.8902 Y-19.2458
G01 X17.8335 Y-19.2615
G01 X17.7760 Y-19.2744
G01 X17.7180 Y-19.2845
G01 X17.6595 Y-19.2917
G01 X17.6008 Y-19.2960
G01 X17.5419 Y-19.2975
G01 X17.4830 Y-19.2960
G01 X17.4243 Y-19.2917
G01 X17.3658 Y-19.2845
G01 X17.3078 Y-19.2744
G01 X17.2503 Y-19.2615
G01 X17.1936 Y-19.2458
G01 X17.1376 Y-19.2273
G01 X17.0827 Y-19.2061
G01 X17.0288 Y-19.1823
G01 X16.9762 Y-19.1558
G01 X16.9250 Y-19.1267
G01 X16.8752 Y-19.0952
G01 X16.8271 Y-19.0613
G01 X16.7806 Y-19.0251
G01 X16.7360 Y-18.9866
G01 X16.6934 Y-18.9460
G01 X16.6528 Y-18.9034
G01 X16.6143 Y-18.8588
G01 X16.5781 Y-18.8123
G01 X16.5442 Y-18.7642
G01 X16.5127 Y-18.7144
G01 X16.4836 Y-18.6632
G01 X16.4571 Y-18.6106
G01 X16.4333 Y-18.5567
G01 X16.4121 Y-18.5018
G01 X16.3936 Y-18.4458
G01 X16.3779 Y-18.3891
G01 X16.3650 Y-18.3316
G01 X16.3549 Y-18.2736
G01 X16.3477 Y-18.2151
G01 X16.3434 Y-18.1564
G01 X16.3419 Y-18.0975
G01 X16.3434 Y-18.0386
G01 X16.3477 Y-17.9799
G01 X16.3549 Y-17.9214
G01 X16.3650 Y-17.8634
G01 X16.3779 Y-17.8059
G01 X16.3936 Y-17.7492
G01 X16.4121 Y-17.6932
G01 X16.4333 Y-17.6383
G01 X16.4571 Y-17.5844
G01 X16.4836 Y-17.5318
G01 X16.5127 Y-17.4806
G01 X16.5442 Y-17.4308
G01 X16.5781 Y-17.3827
G01 X16.6143 Y-17.3362
G01 X16.6528 Y-17.2916
G01 X16.6934 Y-17.2490
G01 X16.7360 Y-17.2084
G01 X16.7806 Y-17.1699
G01 X16.8271 Y-17.1337
G01 X16.8752 Y-17.0998
G01 X16.9250 Y-17.0683
G01 X16.9762 Y-17.0392
G01 X17.0398 Y-17.0075
G01 X17.0551 Y-16.9972
G01 X17.0632 Y-16.9897
G01 X17.0705 Y-16.9814
G01 X17.0768 Y-16.9723
G01 X17.0820 Y-16.9626
G01 X17.0858 Y-16.9535
G01 X17.0889 Y-16.9430
G01 X17.0909 Y-16.9321
G01 X17.0916 Y-16.9211
G01 X17.0916 Y-14.5938
G01 X17.0910 Y-14.5828
G01 X17.0892 Y-14.5719
G01 X17.0862 Y-14.5613
G01 X17.0820 Y-14.5510
G01 X17.0754 Y-14.5393
G01 X17.0673 Y-14.5285
G01 X17.0579 Y-14.5189
G01 X17.0472 Y-14.5107
G01 X17.0355 Y-14.5039
G01 X17.0230 Y-14.4988
G01 X17.0099 Y-14.4955
G01 X16.9965 Y-14.4939
G01 X15.9586 Y-14.4938
G01 X15.9586 Y-14.3938
G01 X16.2931 Y-14.3938
G01 X16.3041 Y-14.3930
G01 X16.3138 Y-14.3914
G01 X16.3302 Y-14.3862
G01 X16.3454 Y-14.3783
G01 X16.3591 Y-14.3679
G01 X16.3700 Y-14.3563
G01 X16.3795 Y-14.3420
G01 X16.3865 Y-14.3263
G01 X16.3904 Y-14.3109
G01 X16.3919 Y-14.2938
G01 X16.3919 Y-12.6938
G01 X16.3913 Y-12.6828
G01 X16.3892 Y-12.6707
G01 X16.3848 Y-12.6567
G01 X16.3783 Y-12.6434
G01 X16.3700 Y-12.6313
G01 X16.3600 Y-12.6205
G01 X16.3485 Y-12.6113
G01 X16.3358 Y-12.6039
G01 X16.3233 Y-12.5988
G01 X16.3090 Y-12.5953
G01 X16.2919 Y-12.5938
G01 X15.9586 Y-12.5938
G01 X15.9586 Y-12.4938
G01 X16.9904 Y-12.4934
G01 X17.0085 Y-12.4902
G01 X17.0246 Y-12.4842
G01 X17.0394 Y-12.4755
G01 X17.0525 Y-12.4645
G01 X17.0636 Y-12.4513
G01 X17.0727 Y-12.4354
G01 X17.0785 Y-12.4192
G01 X17.0814 Y-12.4023
G01 X17.0774 Y-9.1168
G01 X17.0763 Y-9.1021
G01 X17.0727 Y-9.0866
G01 X17.0667 Y-9.0719
G01 X17.0584 Y-9.0583
G01 X17.0481 Y-9.0461
G01 X17.0369 Y-9.0365
G01 X17.0234 Y-9.0281
G01 X17.0087 Y-9.0219
G01 X16.9933 Y-9.0182
G01 X16.9774 Y-9.0169
G01 X16.5419 Y-9.0169
G01 X16.5414 Y-8.5574
G01 X16.5397 Y-8.5465
G01 X16.5365 Y-8.5346
G01 X16.5318 Y-8.5233
G01 X16.5257 Y-8.5126
G01 X16.5184 Y-8.5028
G01 X16.5100 Y-8.4939
G01 X16.5015 Y-8.4869
G01 X16.4912 Y-8.4802
G01 X16.4802 Y-8.4748
G01 X16.4686 Y-8.4708
G01 X16.4554 Y-8.4681
G01 X16.4431 Y-8.4672
G01 X15.6839 Y-8.4674
G01 X15.6693 Y-8.4693
G01 X15.6552 Y-8.4734
G01 X15.6418 Y-8.4796
G01 X15.6294 Y-8.4876
G01 X15.6184 Y-8.4973
G01 X15.6090 Y-8.5086
G01 X15.6012 Y-8.5211
G01 X15.5954 Y-8.5346
G01 X15.5915 Y-8.5501
G01 X15.5900 Y-8.5672
G01 X15.5900 Y-11.1069
G01 X13.0126 Y-11.1069
G01 X12.9992 Y-11.1082
G01 X12.9861 Y-11.1112
G01 X12.9746 Y-11.1155
G01 X12.9627 Y-11.1217
G01 X12.9517 Y-11.1296
G01 X12.9427 Y-11.1379
G01 X12.9348 Y-11.1473
G01 X12.9275 Y-11.1586
G01 X12.9223 Y-11.1697
G01 X12.9181 Y-11.1825
G01 X12.9159 Y-11.1946
G01 X12.9151 Y-11.2068
G01 X12.9137 Y-12.2323
G01 X12.9143 Y-12.2421
G01 X12.9161 Y-12.2530
G01 X12.9191 Y-12.2636
G01 X12.9228 Y-12.2727
G01 X12.9285 Y-12.2836
G01 X12.9364 Y-12.2946
G01 X12.9447 Y-12.3036
G01 X12.9551 Y-12.3122
G01 X12.9665 Y-12.3194
G01 X12.9777 Y-12.3245
G01 X12.9894 Y-12.3282
G01 X13.0027 Y-12.3306
G01 X13.0137 Y-12.3312
G01 X13.4619 Y-12.3312
G01 X13.4619 Y-14.0312
G01 X11.4619 Y-14.0312
G01 X11.4619 Y-12.3312
G01 X11.9132 Y-12.3312
G01 X11.9302 Y-12.3297
G01 X11.9468 Y-12.3254
G01 X11.9624 Y-12.3182
G01 X11.9766 Y-12.3085
G01 X11.9888 Y-12.2966
G01 X11.9989 Y-12.2827
G01 X12.0064 Y-12.2673
G01 X12.0112 Y-12.2508
G01 X12.0131 Y-12.2350
G01 X12.0165 Y-9.3586
G01 X12.0122 Y-9.3093
G01 X12.0116 Y-9.2860
G01 X12.0091 Y-5.8357
G01 X12.0098 Y-5.8106
G01 X12.0116 Y-5.7869
G01 X12.0148 Y-5.7633
G01 X12.0194 Y-5.7386
G01 X12.2176 Y-4.8118
G01 X12.2193 Y-4.8009
G01 X12.2198 Y-4.7899
G01 X12.2184 Y-4.7740
G01 X12.2148 Y-4.7597
G01 X12.2086 Y-4.7450
G01 X12.2002 Y-4.7314
G01 X12.1897 Y-4.7194
G01 X12.1784 Y-4.7099
G01 X12.1659 Y-4.7022
G01 X12.1512 Y-4.6960
G01 X12.1369 Y-4.6924
G01 X12.1223 Y-4.6909
G01 X11.9203 Y-4.6909
G01 X11.9203 Y-2.6909
G01 X13.9203 Y-2.6909
G01 X13.9203 Y-4.6909
G01 X13.2391 Y-4.6911
G01 X13.2282 Y-4.6924
G01 X13.2163 Y-4.6952
G01 X13.2059 Y-4.6990
G01 X13.1950 Y-4.7045
G01 X13.1848 Y-4.7113
G01 X13.1764 Y-4.7184
G01 X13.1688 Y-4.7264
G01 X13.1615 Y-4.7362
G01 X13.1529 Y-4.7525
G01 X13.1475 Y-4.7700
G01 X12.9106 Y-5.8785
G01 X12.9097 Y-5.8922
G01 X12.9099 Y-6.0970
G01 X12.9110 Y-6.1116
G01 X12.9132 Y-6.1224
G01 X12.9162 Y-6.1318
G01 X12.9206 Y-6.1419
G01 X12.9261 Y-6.1515
G01 X12.9326 Y-6.1604
G01 X12.9392 Y-6.1676
G01 X12.9474 Y-6.1750
G01 X12.9554 Y-6.1807
G01 X12.9671 Y-6.1873
G01 X12.9809 Y-6.1926
G01 X12.9952 Y-6.1958
G01 X13.0086 Y-6.1969
G01 X15.5900 Y-6.1969
G01 X15.5902 Y-7.4728
G01 X15.5927 Y-7.4897
G01 X15.5976 Y-7.5049
G01 X15.6055 Y-7.5201
G01 X15.6159 Y-7.5338
G01 X15.6285 Y-7.5455
G01 X15.6429 Y-7.5548
G01 X15.6586 Y-7.5616
G01 X15.6753 Y-7.5655
G01 X15.6900 Y-7.5666
G01 X16.4431 Y-7.5666
G01 X16.4578 Y-7.5654
G01 X16.4709 Y-7.5623
G01 X16.4835 Y-7.5575
G01 X16.4954 Y-7.5511
G01 X16.5044 Y-7.5447
G01 X16.5135 Y-7.5365
G01 X16.5207 Y-7.5281
G01 X16.5270 Y-7.5191
G01 X16.5323 Y-7.5094
G01 X16.5369 Y-7.4980
G01 X16.5397 Y-7.4873
G01 X16.5415 Y-7.4752
G01 X16.5419 Y-7.0169
G01 X18.5419 Y-7.0169
G01 X18.5419 Y-9.0169
G01 X18.0779 Y-9.0169
G01 X18.0620 Y-9.0182
G01 X18.0454 Y-9.0223
G01 X18.0297 Y-9.0293
G01 X18.0154 Y-9.0389
G01 X18.0038 Y-9.0498
G01 X17.9934 Y-9.0635
G01 X17.9855 Y-9.0787
G01 X17.9803 Y-9.0951
G01 X17.9781 Y-9.1109
G01 X17.9823 Y-12.3939
G01 X17.9831 Y-12.4062
G01 X17.9860 Y-12.4206
G01 X17.9914 Y-12.4355
G01 X17.9985 Y-12.4484
G01 X18.0083 Y-12.4610
G01 X18.0199 Y-12.4719
G01 X18.0331 Y-12.4808
G01 X18.0464 Y-12.4871
G01 X18.0616 Y-12.4916
G01 X18.0811 Y-12.4938
G01 X18.3919 Y-12.4938
G01 X18.3919 Y-14.4938
G01 X18.0909 Y-14.4938
G01 X18.0799 Y-14.4946
G01 X18.0703 Y-14.4962
G01 X18.0550 Y-14.5009
G01 X18.0408 Y-14.5080
G01 X18.0287 Y-14.5165
G01 X18.0173 Y-14.5276
G01 X18.0077 Y-14.5403
G01 X18.0003 Y-14.5544
G01 X17.9952 Y-14.5695
G01 X17.9925 Y-14.5852
G01 X17.9922 Y-16.9211
G01 X17.9929 Y-16.9321
G01 X17.9949 Y-16.9430
G01 X17.9980 Y-16.9535
G01 X18.0023 Y-16.9637
G01 X18.0077 Y-16.9734
G01 X18.0141 Y-16.9823
G01 X18.0215 Y-16.9906
G01 X18.0297 Y-16.9979
G01 X18.0440 Y-17.0075
G01 X18.1076 Y-17.0392
G01 X18.1588 Y-17.0683
G01 X18.2086 Y-17.0998
G01 X18.2567 Y-17.1337
G01 X18.3032 Y-17.1699
G01 X18.3478 Y-17.2084
G01 X18.3904 Y-17.2490
G01 X18.4310 Y-17.2916
G01 X18.4695 Y-17.3362
G01 X18.5057 Y-17.3827
G01 X18.5396 Y-17.4308
G01 X18.5711 Y-17.4806
G01 X18.6002 Y-17.5318
G01 X18.6267 Y-17.5844
G01 X18.6505 Y-17.6383
G01 X18.6717 Y-17.6932
G01 X18.6902 Y-17.7492
G01 X18.7059 Y-17.8059
G01 X18.7188 Y-17.8634
G01 X18.7289 Y-17.9214
G01 X18.7361 Y-17.9799
G01 X18.7404 Y-18.0386
G01 X18.7419 Y-18.0975
G00 Z2.0000
G00 X13.6619 Y-18.0975
G01 F70.00
G01 Z-0.0800
G01 F120.00
G01 X13.6604 Y-18.1564
G01 X13.6561 Y-18.2151
G01 X13.6489 Y-18.2736
G01 X13.6388 Y-18.3316
G01 X13.6259 Y-18.3891
G01 X13.6102 Y-18.4458
G01 X13.5917 Y-18.5018
G01 X13.5705 Y-18.5567
G01 X13.5467 Y-18.6106
G01 X13.5202 Y-18.6632
G01 X13.4911 Y-18.7144
G01 X13.4596 Y-18.7642
G01 X13.4257 Y-18.8123
G01 X13.3895 Y-18.8588
G01 X13.3510 Y-18.9034
G01 X13.3104 Y-18.9460
G01 X13.2678 Y-18.9866
G01 X13.2232 Y-19.0251
G01 X13.1767 Y-19.0613
G01 X13.1286 Y-19.0952
G01 X13.0788 Y-19.1267
G01 X13.0276 Y-19.1558
G01 X12.9750 Y-19.1823
G01 X12.9211 Y-19.2061
G01 X12.8662 Y-19.2273
G01 X12.8102 Y-19.2458
G01 X12.7535 Y-19.2615
G01 X12.6960 Y-19.2744
G01 X12.6380 Y-19.2845
G01 X12.5795 Y-19.2917
G01 X12.5208 Y-19.2960
G01 X12.4619 Y-19.2975
G01 X12.4030 Y-19.2960
G01 X12.3443 Y-19.2917
G01 X12.2858 Y-19.2845
G01 X12.2278 Y-19.2744
G01 X12.1703 Y-19.2615
G01 X12.1136 Y-19.2458
G01 X12.0576 Y-19.2273
G01 X12.0027 Y-19.2061
G01 X11.9488 Y-19.1823
G01 X11.8962 Y-19.1558
G01 X11.8450 Y-19.1267
G01 X11.7952 Y-19.0952
G01 X11.7471 Y-19.0613
G01 X11.7006 Y-19.0251
G01 X11.6560 Y-18.9866
G01 X11.6134 Y-18.9460
G01 X11.5728 Y-18.9034
G01 X11.5343 Y-18.8588
G01 X11.4981 Y-18.8123
G01 X11.4642 Y-18.7642
G01 X11.4327 Y-18.7144
G01 X11.4036 Y-18.6632
G01 X11.3771 Y-18.6106
G01 X11.3533 Y-18.5567
G01 X11.3321 Y-18.5018
G01 X11.3136 Y-18.4458
G01 X11.2979 Y-18.3891
G01 X11.2850 Y-18.3316
G01 X11.2749 Y-18.2736
G01 X11.2677 Y-18.2151
G01 X11.2634 Y-18.1564
G01 X11.2619 Y-18.0975
G01 X11.2634 Y-18.0386
G01 X11.2677 Y-17.9799
G01 X11.2749 Y-17.9214
G01 X11.2850 Y-17.8634
G01 X11.2979 Y-17.8059
G01 X11.3136 Y-17.7492
G01 X11.3321 Y-17.6932
G01 X11.3533 Y-17.6383
G01 X11.3771 Y-17.5844
G01 X11.4036 Y-17.5318
G01 X11.4327 Y-17.4806
G01 X11.4642 Y-17.4308
G01 X11.4981 Y-17.3827
G01 X11.5343 Y-17.3362
G01 X11.5728 Y-17.2916
G01 X11.6134 Y-17.2490
G01 X11.6560 Y-17.2084
G01 X11.7006 Y-17.1699
G01 X11.7471 Y-17.1337
G01 X11.7952 Y-17.0998
G01 X11.8450 Y-17.0683
G01 X11.8962 Y-17.0392
G01 X11.9488 Y-17.0127
G01 X11.9713 Y-17.0026
G01 X11.9829 Y-16.9958
G01 X11.9944 Y-16.9866
G01 X12.0044 Y-16.9758
G01 X12.0121 Y-16.9647
G01 X12.0188 Y-16.9516
G01 X12.0242 Y-16.9340
G01 X12.0263 Y-16.9158
G01 X12.0374 Y-16.0324
G01 X12.0359 Y-16.0141
G01 X12.0315 Y-15.9975
G01 X12.0244 Y-15.9819
G01 X12.0139 Y-15.9668
G01 X12.0018 Y-15.9547
G01 X11.9877 Y-15.9448
G01 X11.9711 Y-15.9370
G01 X11.9545 Y-15.9327
G01 X11.9374 Y-15.9312
G01 X11.4619 Y-15.9312
G01 X11.4619 Y-14.2312
G01 X13.4619 Y-14.2312
G01 X13.4619 Y-15.9312
G01 X13.0282 Y-15.9317
G01 X13.0161 Y-15.9336
G01 X13.0043 Y-15.9370
G01 X12.9931 Y-15.9419
G01 X12.9825 Y-15.9480
G01 X12.9727 Y-15.9555
G01 X12.9639 Y-15.9640
G01 X12.9563 Y-15.9736
G01 X12.9498 Y-15.9840
G01 X12.9447 Y-15.9952
G01 X12.9413 Y-16.0057
G01 X12.9391 Y-16.0165
G01 X12.9381 Y-16.0287
G01 X12.9270 Y-16.9318
G01 X12.9279 Y-16.9416
G01 X12.9301 Y-16.9524
G01 X12.9331 Y-16.9617
G01 X12.9375 Y-16.9719
G01 X12.9430 Y-16.9814
G01 X12.9488 Y-16.9894
G01 X12.9561 Y-16.9976
G01 X12.9634 Y-17.0042
G01 X12.9786 Y-17.0145
G01 X13.0276 Y-17.0392
G01 X13.0788 Y-17.0683
G01 X13.1286 Y-17.0998
G01 X13.1767 Y-17.1337
G01 X13.2232 Y-17.1699
G01 X13.2678 Y-17.2084
G01 X13.3104 Y-17.2490
G01 X13.3510 Y-17.2916
G01 X13.3895 Y-17.3362
G01 X13.4257 Y-17.3827
G01 X13.4596 Y-17.4308
G01 X13.4911 Y-17.4806
G01 X13.5202 Y-17.5318
G01 X13.5467 Y-17.5844
G01 X13.5705 Y-17.6383
G01 X13.5917 Y-17.6932
G01 X13.6102 Y-17.7492
G01 X13.6259 Y-17.8059
G01 X13.6388 Y-17.8634
G01 X13.6489 Y-17.9214
G01 X13.6561 Y-17.9799
G01 X13.6604 Y-18.0386
G01 X13.6619 Y-18.0975
G00 Z2.0000
G00 X12.8119 Y-18.0975
G01 F70.00
G01 Z-0.0800
G01 F120.00
G01 X12.8102 Y-18.1318
G01 X12.8051 Y-18.1658
G01 X12.7968 Y-18.1991
G01 X12.7852 Y-18.2314
G01 X12.7705 Y-18.2625
G01 X12.7529 Y-18.2919
G01 X12.7324 Y-18.3195
G01 X12.7094 Y-18.3450
G01 X12.6839 Y-18.3680
G01 X12.6563 Y-18.3885
G01 X12.6269 Y-18.4061
G01 X12.5958 Y-18.4208
G01 X12.5635 Y-18.4324
G01 X12.5302 Y-18.4407
G01 X12.4962 Y-18.4458
G01 X12.4619 Y-18.4475
G01 X12.4276 Y-18.4458
G01 X12.3936 Y-18.4407
G01 X12.3603 Y-18.4324
G01 X12.3280 Y-18.4208
G01 X12.2969 Y-18.4061
G01 X12.2675 Y-18.3885
G01 X12.2399 Y-18.3680
G01 X12.2144 Y-18.3450
G01 X12.1914 Y-18.3195
G01 X12.1709 Y-18.2919
G01 X12.1533 Y-18.2625
G01 X12.1386 Y-18.2314
G01 X12.1270 Y-18.1991
G01 X12.1187 Y-18.1658
G01 X12.1136 Y-18.1318
G01 X12.1119 Y-18.0975
G01 X12.1136 Y-18.0632
G01 X12.1187 Y-18.0292
G01 X12.1270 Y-17.9959
G01 X12.1386 Y-17.9636
G01 X12.1533 Y-17.9325
G01 X12.1709 Y-17.9031
G01 X12.1914 Y-17.8755
G01 X12.2144 Y-17.8500
G01 X12.2399 Y-17.8270
G01 X12.2675 Y-17.8065
G01 X12.2969 Y-17.7889
G01 X12.3280 Y-17.7742
G01 X12.3603 Y-17.7626
G01 X12.3936 Y-17.7543
G01 X12.4276 Y-17.7492
G01 X12.4619 Y-17.7475
G01 X12.4962 Y-17.7492
G01 X12.5302 Y-17.7543
G01 X12.5635 Y-17.7626
G01 X12.5958 Y-17.7742
G01 X12.6269 Y-17.7889
G01 X12.6563 Y-17.8065
G01 X12.6839 Y-17.8270
G01 X12.7094 Y-17.8500
G01 X12.7324 Y-17.8755
G01 X12.7529 Y-17.9031
G01 X12.7705 Y-17.9325
G01 X12.7852 Y-17.9636
G01 X12.7968 Y-17.9959
G01 X12.8051 Y-18.0292
G01 X12.8102 Y-18.0632
G01 X12.8119 Y-18.0975
G00 Z2.0000
G00 X12.7118 Y-18.0975
G01 F70.00
G01 Z-0.0800
G01 F120.00
G01 X12.7106 Y-18.1220
G01 X12.7070 Y-18.1463
G01 X12.7011 Y-18.1701
G01 X12.6928 Y-18.1931
G01 X12.6823 Y-18.2153
G01 X12.6697 Y-18.2364
G01 X12.6551 Y-18.2561
G01 X12.6386 Y-18.2742
G01 X12.6205 Y-18.2907
G01 X12.6008 Y-18.3053
G01 X12.5797 Y-18.3179
G01 X12.5575 Y-18.3284
G01 X12.5345 Y-18.3367
G01 X12.5107 Y-18.3426
G01 X12.4864 Y-18.3462
G01 X12.4619 Y-18.3474
G01 X12.4374 Y-18.3462
G01 X12.4131 Y-18.3426
G01 X12.3893 Y-18.3367
G01 X12.3663 Y-18.3284
G01 X12.3441 Y-18.3179
G01 X12.3230 Y-18.3053
G01 X12.3033 Y-18.2907
G01 X12.2852 Y-18.2742
G01 X12.2687 Y-18.2561
G01 X12.2541 Y-18.2364
G01 X12.2415 Y-18.2153
G01 X12.2310 Y-18.1931
G01 X12.2227 Y-18.1701
G01 X12.2168 Y-18.1463
G01 X12.2132 Y-18.1220
G01 X12.2120 Y-18.0975
G01 X12.2132 Y-18.0730
G01 X12.2168 Y-18.0487
G01 X12.2227 Y-18.0249
G01 X12.2310 Y-18.0019
G01 X12.2415 Y-17.9797
G01 X12.2541 Y-17.9586
G01 X12.2687 Y-17.9389
G01 X12.2852 Y-17.9208
G01 X12.3033 Y-17.9043
G01 X12.3230 Y-17.8897
G01 X12.3441 Y-17.8771
G01 X12.3663 Y-17.8666
G01 X12.3893 Y-17.8583
G01 X12.4131 Y-17.8524
G01 X12.4374 Y-17.8488
G01 X12.4619 Y-17.8476
G01 X12.4864 Y-17.8488
G01 X12.5107 Y-17.8524
G01 X12.5345 Y-17.8583
G01 X12.5575 Y-17.8666
G01 X12.5797 Y-17.8771
G01 X12.6008 Y-17.8897
G01 X12.6205 Y-17.9043
G01 X12.6386 Y-17.9208
G01 X12.6551 Y-17.9389
G01 X12.6697 Y-17.9586
G01 X12.6823 Y-17.9797
G01 X12.6928 Y-18.0019
G01 X12.7011 Y-18.0249
G01 X12.7070 Y-18.0487
G01 X12.7106 Y-18.0730
G01 X12.7118 Y-18.0975
G00 Z2.0000
G00 X12.6118 Y-18.0975
G01 F70.00
G01 Z-0.0800
G01 F120.00
G01 X12.6111 Y-18.1122
G01 X12.6089 Y-18.1267
G01 X12.6054 Y-18.1410
G01 X12.6004 Y-18.1549
G01 X12.5941 Y-18.1682
G01 X12.5865 Y-18.1808
G01 X12.5778 Y-18.1926
G01 X12.5679 Y-18.2035
G01 X12.5570 Y-18.2134
G01 X12.5452 Y-18.2221
G01 X12.5326 Y-18.2297
G01 X12.5193 Y-18.2360
G01 X12.5054 Y-18.2410
G01 X12.4911 Y-18.2445
G01 X12.4766 Y-18.2467
G01 X12.4619 Y-18.2474
G01 X12.4472 Y-18.2467
G01 X12.4327 Y-18.2445
G01 X12.4184 Y-18.2410
G01 X12.4045 Y-18.2360
G01 X12.3912 Y-18.2297
G01 X12.3786 Y-18.2221
G01 X12.3668 Y-18.2134
G01 X12.3559 Y-18.2035
G01 X12.3460 Y-18.1926
G01 X12.3373 Y-18.1808
G01 X12.3297 Y-18.1682
G01 X12.3234 Y-18.1549
G01 X12.3184 Y-18.1410
G01 X12.3149 Y-18.1267
G01 X12.3127 Y-18.1122
G01 X12.3120 Y-18.0975
G01 X12.3127 Y-18.0828
G01 X12.3149 Y-18.0683
G01 X12.3184 Y-18.0540
G01 X12.3234 Y-18.0401
G01 X12.3297 Y-18.0268
G01 X12.3373 Y-18.0142
G01 X12.3460 Y-18.0024
G01 X12.3559 Y-17.9915
G01 X12.3668 Y-17.9816
G01 X12.3786 Y-17.9729
G01 X12.3912 Y-17.9653
G01 X12.4045 Y-17.9590
G01 X12.4184 Y-17.9540
G01 X12.4327 Y-17.9505
G01 X12.4472 Y-17.9483
G01 X12.4619 Y-17.9476
G01 X12.4766 Y-17.9483
G01 X12.4911 Y-17.9505
G01 X12.5054 Y-17.9540
G01 X12.5193 Y-17.9590
G01 X12.5326 Y-17.9653
G01 X12.5452 Y-17.9729
G01 X12.5570 Y-17.9816
G01 X12.5679 Y-17.9915
G01 X12.5778 Y-18.0024
G01 X12.5865 Y-18.0142
G01 X12.5941 Y-18.0268
G01 X12.6004 Y-18.0401
G01 X12.6054 Y-18.0540
G01 X12.6089 Y-18.0683
G01 X12.6111 Y-18.0828
G01 X12.6118 Y-18.0975
G00 Z2.0000
G00 X12.5118 Y-18.0975
G01 F70.00
G01 Z-0.0800
G01 F120.00
G01 X12.5108 Y-18.1072
G01 X12.5080 Y-18.1166
G01 X12.5034 Y-18.1252
G01 X12.4972 Y-18.1328
G01 X12.4896 Y-18.1390
G01 X12.4810 Y-18.1436
G01 X12.4716 Y-18.1464
G01 X12.4619 Y-18.1474
G01 X12.4522 Y-18.1464
G01 X12.4428 Y-18.1436
G01 X12.4342 Y-18.1390
G01 X12.4266 Y-18.1328
G01 X12.4204 Y-18.1252
G01 X12.4158 Y-18.1166
G01 X12.4130 Y-18.1072
G01 X12.4120 Y-18.0975
G01 X12.4130 Y-18.0878
G01 X12.4158 Y-18.0784
G01 X12.4204 Y-18.0698
G01 X12.4266 Y-18.0622
G01 X12.4342 Y-18.0560
G01 X12.4428 Y-18.0514
G01 X12.4522 Y-18.0486
G01 X12.4619 Y-18.0476
G01 X12.4716 Y-18.0486
G01 X12.4810 Y-18.0514
G01 X12.4896 Y-18.0560
G01 X12.4972 Y-18.0622
G01 X12.5034 Y-18.0698
G01 X12.5080 Y-18.0784
G01 X12.5108 Y-18.0878
G01 X12.5118 Y-18.0975
G00 Z2.0000
G00 X12.1248 Y-17.0507
G01 F70.00
G01 Z-0.0800
G01 F120.00
G01 X12.0902 Y-17.0622
G01 X12.0398 Y-17.0817
G01 X11.9916 Y-17.1031
G01 X11.9423 Y-17.1280
G01 X11.8964 Y-17.1540
G01 X11.8508 Y-17.1829
G01 X11.8066 Y-17.2140
G01 X11.7631 Y-17.2480
G01 X11.7232 Y-17.2825
G01 X11.6841 Y-17.3197
G01 X11.6469 Y-17.3588
G01 X11.6116 Y-17.3997
G01 X11.5784 Y-17.4422
G01 X11.5473 Y-17.4864
G01 X11.5184 Y-17.5320
G01 X11.4912 Y-17.5800
G01 X11.4675 Y-17.6272
G01 X11.4456 Y-17.6765
G01 X11.4262 Y-17.7269
G01 X11.4093 Y-17.7782
G01 X11.3949 Y-17.8302
G01 X11.3830 Y-17.8829
G01 X11.3738 Y-17.9361
G01 X11.3672 Y-17.9897
G01 X11.3632 Y-18.0435
G01 X11.3619 Y-18.0975
G01 X11.3632 Y-18.1515
G01 X11.3672 Y-18.2053
G01 X11.3738 Y-18.2589
G01 X11.3830 Y-18.3121
G01 X11.3949 Y-18.3648
G01 X11.4096 Y-18.4180
G01 X11.4262 Y-18.4681
G01 X11.4456 Y-18.5185
G01 X11.4675 Y-18.5678
G01 X11.4918 Y-18.6160
G01 X11.5184 Y-18.6630
G01 X11.5473 Y-18.7086
G01 X11.5784 Y-18.7528
G01 X11.6116 Y-18.7953
G01 X11.6469 Y-18.8362
G01 X11.6841 Y-18.8753
G01 X11.7232 Y-18.9125
G01 X11.7641 Y-18.9478
G01 X11.8066 Y-18.9810
G01 X11.8508 Y-19.0121
G01 X11.8964 Y-19.0410
G01 X11.9434 Y-19.0676
G01 X11.9916 Y-19.0919
G01 X12.0409 Y-19.1138
G01 X12.0913 Y-19.1332
G01 X12.1426 Y-19.1501
G01 X12.1946 Y-19.1645
G01 X12.2473 Y-19.1764
G01 X12.3005 Y-19.1856
G01 X12.3541 Y-19.1922
G01 X12.4079 Y-19.1962
G01 X12.4619 Y-19.1975
G01 X12.5159 Y-19.1962
G01 X12.5697 Y-19.1922
G01 X12.6233 Y-19.1856
G01 X12.6765 Y-19.1764
G01 X12.7292 Y-19.1645
G01 X12.7824 Y-19.1498
G01 X12.8325 Y-19.1332
G01 X12.8806 Y-19.1147
G01 X12.9322 Y-19.0919
G01 X12.9804 Y-19.0676
G01 X13.0253 Y-19.0422
G01 X13.0730 Y-19.0121
G01 X13.1172 Y-18.9810
G01 X13.1578 Y-18.9493
G01 X13.2006 Y-18.9125
G01 X13.2414 Y-18.8736
G01 X13.2769 Y-18.8362
G01 X13.3122 Y-18.7953
G01 X13.3454 Y-18.7528
G01 X13.3751 Y-18.7107
G01 X13.4054 Y-18.6630
G01 X13.4331 Y-18.6139
G01 X13.4563 Y-18.5678
G01 X13.4782 Y-18.5185
G01 X13.4976 Y-18.4681
G01 X13.5138 Y-18.4192
G01 X13.5289 Y-18.3648
G01 X13.5412 Y-18.3097
G01 X13.5500 Y-18.2589
G01 X13.5565 Y-18.2065
G01 X13.5606 Y-18.1515
G01 X13.5619 Y-18.1000
G01 X13.5604 Y-18.0411
G01 X13.5566 Y-17.9897
G01 X13.5500 Y-17.9361
G01 X13.5408 Y-17.8829
G01 X13.5289 Y-17.8302
G01 X13.5145 Y-17.7782
G01 X13.4984 Y-17.7292
G01 X13.4772 Y-17.6743
G01 X13.4563 Y-17.6272
G01 X13.4320 Y-17.5790
G01 X13.4054 Y-17.5320
G01 X13.3779 Y-17.4884
G01 X13.3454 Y-17.4422
G01 X13.3137 Y-17.4016
G01 X13.2753 Y-17.3570
G01 X13.2397 Y-17.3197
G01 X13.2006 Y-17.2825
G01 X13.1597 Y-17.2472
G01 X13.1191 Y-17.2155
G01 X13.0710 Y-17.1815
G01 X13.0274 Y-17.1540
G01 X12.9804 Y-17.1274
G01 X12.9322 Y-17.1031
G01 X12.8851 Y-17.0822
G01 X12.8250 Y-17.0593
G01 X12.8404 Y-15.8312
G01 X13.2619 Y-15.8312
G01 X13.2778 Y-15.8299
G01 X13.2921 Y-15.8265
G01 X13.3069 Y-15.8205
G01 X13.3205 Y-15.8122
G01 X13.3326 Y-15.8019
G01 X13.3422 Y-15.7908
G01 X13.3507 Y-15.7773
G01 X13.3565 Y-15.7637
G01 X13.3604 Y-15.7483
G01 X13.3619 Y-15.7312
G01 X13.3618 Y-14.4275
G01 X13.3604 Y-14.4141
G01 X13.3569 Y-14.3998
G01 X13.3518 Y-14.3873
G01 X13.3444 Y-14.3746
G01 X13.3352 Y-14.3631
G01 X13.3253 Y-14.3539
G01 X13.3133 Y-14.3454
G01 X13.3013 Y-14.3393
G01 X13.2909 Y-14.3355
G01 X13.2814 Y-14.3331
G01 X13.2619 Y-14.3312
G01 X11.6594 Y-14.3312
G01 X11.6448 Y-14.3327
G01 X11.6317 Y-14.3359
G01 X11.6180 Y-14.3413
G01 X11.6053 Y-14.3487
G01 X11.5938 Y-14.3579
G01 X11.5846 Y-14.3678
G01 X11.5761 Y-14.3798
G01 X11.5700 Y-14.3918
G01 X11.5662 Y-14.4022
G01 X11.5638 Y-14.4117
G01 X11.5619 Y-14.4312
G01 X11.5619 Y-15.7312
G01 X11.5624 Y-15.7410
G01 X11.5641 Y-15.7519
G01 X11.5686 Y-15.7672
G01 X11.5749 Y-15.7805
G01 X11.5838 Y-15.7937
G01 X11.5938 Y-15.8045
G01 X11.6053 Y-15.8137
G01 X11.6191 Y-15.8216
G01 X11.6329 Y-15.8269
G01 X11.6484 Y-15.8303
G01 X11.6619 Y-15.8312
G01 X12.1400 Y-15.8312
G01 X12.1248 Y-17.0507
G00 Z2.0000
G00 X7.7319 Y-18.0975
G01 F70.00
G01 Z-0.0800
G01 F120.00
G01 X7.7302 Y-18.1318
G01 X7.7251 Y-18.1658
G01 X7.7168 Y-18.1991
G01 X7.7052 Y-18.2314
G01 X7.6905 Y-18.2625
G01 X7.6729 Y-18.2919
G01 X7.6524 Y-18.3195
G01 X7.6294 Y-18.3450
G01 X7.6039 Y-18.3680
G01 X7.5763 Y-18.3885
G01 X7.5469 Y-18.4061
G01 X7.5158 Y-18.4208
G01 X7.4835 Y-18.4324
G01 X7.4502 Y-18.4407
G01 X7.4162 Y-18.4458
G01 X7.3819 Y-18.4475
G01 X7.3476 Y-18.4458
G01 X7.3136 Y-18.4407
G01 X7.2803 Y-18.4324
G01 X7.2480 Y-18.4208
G01 X7.2169 Y-18.4061
G01 X7.1875 Y-18.3885
G01 X7.1599 Y-18.3680
G01 X7.1344 Y-18.3450
G01 X7.1114 Y-18.3195
G01 X7.0909 Y-18.2919
G01 X7.0733 Y-18.2625
G01 X7.0586 Y-18.2314
G01 X7.0470 Y-18.1991
G01 X7.0387 Y-18.1658
G01 X7.0336 Y-18.1318
G01 X7.0319 Y-18.0975
G01 X7.0336 Y-18.0632
G01 X7.0387 Y-18.0292
G01 X7.0470 Y-17.9959
G01 X7.0586 Y-17.9636
G01 X7.0733 Y-17.9325
G01 X7.0909 Y-17.9031
G01 X7.1114 Y-17.8755
G01 X7.1344 Y-17.8500
G01 X7.1599 Y-17.8270
G01 X7.1875 Y-17.8065
G01 X7.2169 Y-17.7889
G01 X7.2480 Y-17.7742
G01 X7.2803 Y-17.7626
G01 X7.3136 Y-17.7543
G01 X7.3476 Y-17.7492
G01 X7.3819 Y-17.7475
G01 X7.4162 Y-17.7492
G01 X7.4502 Y-17.7543
G01 X7.4835 Y-17.7626
G01 X7.5158 Y-17.7742
G01 X7.5469 Y-17.7889
G01 X7.5763 Y-17.8065
G01 X7.6039 Y-17.8270
G01 X7.6294 Y-17.8500
G01 X7.6524 Y-17.8755
G01 X7.6729 Y-17.9031
G01 X7.6905 Y-17.9325
G01 X7.7052 Y-17.9636
G01 X7.7168 Y-17.9959
G01 X7.7251 Y-18.0292
G01 X7.7302 Y-18.0632
G01 X7.7319 Y-18.0975
G00 Z2.0000
G00 X7.6318 Y-18.0975
G01 F70.00
G01 Z-0.0800
G01 F120.00
G01 X7.6306 Y-18.1220
G01 X7.6270 Y-18.1463
G01 X7.6211 Y-18.1701
G01 X7.6128 Y-18.1931
G01 X7.6023 Y-18.2153
G01 X7.5897 Y-18.2364
G01 X7.5751 Y-18.2561
G01 X7.5586 Y-18.2742
G01 X7.5405 Y-18.2907
G01 X7.5208 Y-18.3053
G01 X7.4997 Y-18.3179
G01 X7.4775 Y-18.3284
G01 X7.4545 Y-18.3367
G01 X7.4307 Y-18.3426
G01 X7.4064 Y-18.3462
G01 X7.3819 Y-18.3474
G01 X7.3574 Y-18.3462
G01 X7.3331 Y-18.3426
G01 X7.3093 Y-18.3367
G01 X7.2863 Y-18.3284
G01 X7.2641 Y-18.3179
G01 X7.2430 Y-18.3053
G01 X7.2233 Y-18.2907
G01 X7.2052 Y-18.2742
G01 X7.1887 Y-18.2561
G01 X7.1741 Y-18.2364
G01 X7.1615 Y-18.2153
G01 X7.1510 Y-18.1931
G01 X7.1427 Y-18.1701
G01 X7.1368 Y-18.1463
G01 X7.1332 Y-18.1220
G01 X7.1320 Y-18.0975
G01 X7.1332 Y-18.0730
G01 X7.1368 Y-18.0487
G01 X7.1427 Y-18.0249
G01 X7.1510 Y-18.0019
G01 X7.1615 Y-17.9797
G01 X7.1741 Y-17.9586
G01 X7.1887 Y-17.9389
G01 X7.2052 Y-17.9208
G01 X7.2233 Y-17.9043
G01 X7.2430 Y-17.8897
G01 X7.2641 Y-17.8771
G01 X7.2863 Y-17.8666
G01 X7.3093 Y-17.8583
G01 X7.3331 Y-17.8524
G01 X7.3574 Y-17.8488
G01 X7.3819 Y-17.8476
G01 X7.4064 Y-17.8488
G01 X7.4307 Y-17.8524
G01 X7.4545 Y-17.8583
G01 X7.4775 Y-17.8666
G01 X7.4997 Y-17.8771
G01 X7.5208 Y-17.8897
G01 X7.5405 Y-17.9043
G01 X7.5586 Y-17.9208
G01 X7.5751 Y-17.9389
G01 X7.5897 Y-17.9586
G01 X7.6023 Y-17.9797
G01 X7.6128 Y-18.0019
G01 X7.6211 Y-18.0249
G01 X7.6270 Y-18.0487
G01 X7.6306 Y-18.0730
G01 X7.6318 Y-18.0975
G00 Z2.0000
G00 X7.5318 Y-18.0975
G01 F70.00
G01 Z-0.0800
G01 F120.00
G01 X7.5311 Y-18.1122
G01 X7.5289 Y-18.1267
G01 X7.5254 Y-18.1410
G01 X7.5204 Y-18.1549
G01 X7.5141 Y-18.1682
G01 X7.5065 Y-18.1808
G01 X7.4978 Y-18.1926
G01 X7.4879 Y-18.2035
G01 X7.4770 Y-18.2134
G01 X7.4652 Y-18.2221
G01 X7.4526 Y-18.2297
G01 X7.4393 Y-18.2360
G01 X7.4254 Y-18.2410
G01 X7.4111 Y-18.2445
G01 X7.3966 Y-18.2467
G01 X7.3819 Y-18.2474
G01 X7.3672 Y-18.2467
G01 X7.3527 Y-18.2445
G01 X7.3384 Y-18.2410
G01 X7.3245 Y-18.2360
G01 X7.3112 Y-18.2297
G01 X7.2986 Y-18.2221
G01 X7.2868 Y-18.2134
G01 X7.2759 Y-18.2035
G01 X7.2660 Y-18.1926
G01 X7.2573 Y-18.1808
G01 X7.2497 Y-18.1682
G01 X7.2434 Y-18.1549
G01 X7.2384 Y-18.1410
G01 X7.2349 Y-18.1267
G01 X7.2327 Y-18.1122
G01 X7.2320 Y-18.0975
G01 X7.2327 Y-18.0828
G01 X7.2349 Y-18.0683
G01 X7.2384 Y-18.0540
G01 X7.2434 Y-18.0401
G01 X7.2497 Y-18.0268
G01 X7.2573 Y-18.0142
G01 X7.2660 Y-18.0024
G01 X7.2759 Y-17.9915
G01 X7.2868 Y-17.9816
G01 X7.2986 Y-17.9729
G01 X7.3112 Y-17.9653
G01 X7.3245 Y-17.9590
G01 X7.3384 Y-17.9540
G01 X7.3527 Y-17.9505
G01 X7.3672 Y-17.9483
G01 X7.3819 Y-17.9476
G01 X7.3966 Y-17.9483
G01 X7.4111 Y-17.9505
G01 X7.4254 Y-17.9540
G01 X7.4393 Y-17.9590
G01 X7.4526 Y-17.9653
G01 X7.4652 Y-17.9729
G01 X7.4770 Y-17.9816
G01 X7.4879 Y-17.9915
G01 X7.4978 Y-18.0024
G01 X7.5065 Y-18.0142
G01 X7.5141 Y-18.0268
G01 X7.5204 Y-18.0401
G01 X7.5254 Y-18.0540
G01 X7.5289 Y-18.0683
G01 X7.5311 Y-18.0828
G01 X7.5318 Y-18.0975
G00 Z2.0000
G00 X7.4318 Y-18.0975
G01 F70.00
G01 Z-0.0800
G01 F120.00
G01 X7.4308 Y-18.1072
G01 X7.4280 Y-18.1166
G01 X7.4234 Y-18.1252
G01 X7.4172 Y-18.1328
G01 X7.4096 Y-18.1390
G01 X7.4010 Y-18.1436
G01 X7.3916 Y-18.1464
G01 X7.3819 Y-18.1474
G01 X7.3722 Y-18.1464
G01 X7.3628 Y-18.1436
G01 X7.3542 Y-18.1390
G01 X7.3466 Y-18.1328
G01 X7.3404 Y-18.1252
G01 X7.3358 Y-18.1166
G01 X7.3330 Y-18.1072
G01 X7.3320 Y-18.0975
G01 X7.3330 Y-18.0878
G01 X7.3358 Y-18.0784
G01 X7.3404 Y-18.0698
G01 X7.3466 Y-18.0622
G01 X7.3542 Y-18.0560
G01 X7.3628 Y-18.0514
G01 X7.3722 Y-18.0486
G01 X7.3819 Y-18.0476
G01 X7.3916 Y-18.0486
G01 X7.4010 Y-18.0514
G01 X7.4096 Y-18.0560
G01 X7.4172 Y-18.0622
G01 X7.4234 Y-18.0698
G01 X7.4280 Y-18.0784
G01 X7.4308 Y-18.0878
G01 X7.4318 Y-18.0975
G00 Z2.0000
G00 X7.3596 Y-16.9980
G01 F70.00
G01 Z-0.0800
G01 F120.00
G01 X7.3267 Y-16.9989
G01 X7.2729 Y-17.0029
G01 X7.2205 Y-17.0094
G01 X7.1661 Y-17.0189
G01 X7.1146 Y-17.0305
G01 X7.0626 Y-17.0449
G01 X7.0113 Y-17.0618
G01 X6.9598 Y-17.0817
G01 X6.9116 Y-17.1031
G01 X6.8634 Y-17.1274
G01 X6.8164 Y-17.1540
G01 X6.7708 Y-17.1829
G01 X6.7266 Y-17.2140
G01 X6.6841 Y-17.2472
G01 X6.6432 Y-17.2825
G01 X6.6032 Y-17.3206
G01 X6.5669 Y-17.3588
G01 X6.5316 Y-17.3997
G01 X6.4984 Y-17.4422
G01 X6.4673 Y-17.4864
G01 X6.4384 Y-17.5320
G01 X6.4118 Y-17.5790
G01 X6.3875 Y-17.6272
G01 X6.3656 Y-17.6765
G01 X6.3462 Y-17.7269
G01 X6.3293 Y-17.7782
G01 X6.3149 Y-17.8302
G01 X6.3030 Y-17.8829
G01 X6.2938 Y-17.9361
G01 X6.2872 Y-17.9897
G01 X6.2832 Y-18.0435
G01 X6.2819 Y-18.0987
G01 X6.2832 Y-18.1515
G01 X6.2872 Y-18.2053
G01 X6.2938 Y-18.2589
G01 X6.3030 Y-18.3121
G01 X6.3149 Y-18.3648
G01 X6.3293 Y-18.4168
G01 X6.3462 Y-18.4681
G01 X6.3656 Y-18.5185
G01 X6.3875 Y-18.5678
G01 X6.4118 Y-18.6160
G01 X6.4384 Y-18.6630
G01 X6.4673 Y-18.7086
G01 X6.4984 Y-18.7528
G01 X6.5316 Y-18.7953
G01 X6.5669 Y-18.8362
G01 X6.6041 Y-18.8753
G01 X6.6432 Y-18.9125
G01 X6.6841 Y-18.9478
G01 X6.7266 Y-18.9810
G01 X6.7708 Y-19.0121
G01 X6.8164 Y-19.0410
G01 X6.8634 Y-19.0676
G01 X6.9116 Y-19.0919
G01 X6.9609 Y-19.1138
G01 X7.0113 Y-19.1332
G01 X7.0626 Y-19.1501
G01 X7.1146 Y-19.1645
G01 X7.1673 Y-19.1764
G01 X7.2205 Y-19.1856
G01 X7.2741 Y-19.1922
G01 X7.3279 Y-19.1962
G01 X7.3831 Y-19.1975
G01 X7.4359 Y-19.1962
G01 X7.4873 Y-19.1924
G01 X7.5433 Y-19.1856
G01 X7.5965 Y-19.1764
G01 X7.6468 Y-19.1651
G01 X7.7012 Y-19.1501
G01 X7.7548 Y-19.1323
G01 X7.8029 Y-19.1138
G01 X7.8522 Y-19.0919
G01 X7.9004 Y-19.0676
G01 X7.9453 Y-19.0422
G01 X7.9930 Y-19.0121
G01 X8.0372 Y-18.9810
G01 X8.0778 Y-18.9493
G01 X8.1206 Y-18.9125
G01 X8.1614 Y-18.8736
G01 X8.1969 Y-18.8362
G01 X8.2322 Y-18.7953
G01 X8.2654 Y-18.7528
G01 X8.2951 Y-18.7107
G01 X8.3254 Y-18.6630
G01 X8.3531 Y-18.6139
G01 X8.3763 Y-18.5678
G01 X8.3982 Y-18.5185
G01 X8.4176 Y-18.4681
G01 X8.4345 Y-18.4168
G01 X8.4489 Y-18.3648
G01 X8.4603 Y-18.3145
G01 X8.4703 Y-18.2565
G01 X8.4766 Y-18.2053
G01 X8.4806 Y-18.1515
G01 X8.4819 Y-18.0975
G01 X8.4807 Y-18.0460
G01 X8.4763 Y-17.9872
G01 X8.4700 Y-17.9361
G01 X8.4608 Y-17.8829
G01 X8.4489 Y-17.8302
G01 X8.4352 Y-17.7805
G01 X8.4167 Y-17.7246
G01 X8.3982 Y-17.6765
G01 X8.3763 Y-17.6272
G01 X8.3520 Y-17.5790
G01 X8.3266 Y-17.5341
G01 X8.2951 Y-17.4843
G01 X8.2654 Y-17.4422
G01 X8.2322 Y-17.3997
G01 X8.1969 Y-17.3588
G01 X8.1614 Y-17.3214
G01 X8.1188 Y-17.2808
G01 X8.0797 Y-17.2472
G01 X8.0366 Y-17.2136
G01 X8.8409 Y-15.6638
G01 X9.6564 Y-15.6636
G01 X9.6698 Y-15.6619
G01 X9.6828 Y-15.6584
G01 X9.6953 Y-15.6531
G01 X9.7069 Y-15.6463
G01 X9.7175 Y-15.6379
G01 X9.7268 Y-15.6282
G01 X9.7348 Y-15.6173
G01 X9.7412 Y-15.6054
G01 X9.7453 Y-15.5952
G01 X9.7481 Y-15.5845
G01 X9.7498 Y-15.5736
G01 X9.7503 Y-15.5638
G01 X9.7502 Y-13.9589
G01 X9.7479 Y-13.9419
G01 X9.7427 Y-13.9255
G01 X9.7348 Y-13.9103
G01 X9.7252 Y-13.8976
G01 X9.7128 Y-13.8857
G01 X9.6985 Y-13.8762
G01 X9.6828 Y-13.8692
G01 X9.6662 Y-13.8651
G01 X9.6503 Y-13.8638
G01 X9.1607 Y-13.8638
G01 X9.1607 Y-13.3350
G01 X9.1588 Y-13.2988
G01 X9.1542 Y-13.2677
G01 X9.1468 Y-13.2372
G01 X9.1400 Y-13.2165
G01 X9.1286 Y-13.1885
G01 X9.1194 Y-13.1701
G01 X9.1034 Y-13.1431
G01 X9.0850 Y-13.1176
G01 X9.0710 Y-13.1010
G01 X9.0490 Y-13.0785
G01 X9.0231 Y-13.0567
G01 X6.9779 Y-11.4949
G01 X6.9779 Y-9.6370
G01 X7.6900 Y-9.6370
G01 X7.6919 Y-9.6564
G01 X7.6976 Y-9.6752
G01 X7.7062 Y-9.6914
G01 X7.7184 Y-9.7067
G01 X7.7334 Y-9.7194
G01 X7.7495 Y-9.7283
G01 X7.7669 Y-9.7342
G01 X7.7863 Y-9.7368
G01 X9.9900 Y-9.7369
G01 X10.0022 Y-9.7361
G01 X10.0155 Y-9.7336
G01 X10.0316 Y-9.7278
G01 X10.0456 Y-9.7200
G01 X10.0581 Y-9.7102
G01 X10.0688 Y-9.6984
G01 X10.0776 Y-9.6851
G01 X10.0842 Y-9.6706
G01 X10.0885 Y-9.6540
G01 X10.0900 Y-9.6381
G01 X10.0896 Y-8.9283
G01 X10.0873 Y-8.9138
G01 X10.0829 Y-8.8998
G01 X10.0770 Y-8.8876
G01 X10.0688 Y-8.8754
G01 X10.0590 Y-8.8645
G01 X10.0476 Y-8.8551
G01 X10.0350 Y-8.8476
G01 X10.0214 Y-8.8419
G01 X10.0059 Y-8.8382
G01 X9.9900 Y-8.8369
G01 X7.7875 Y-8.8369
G01 X7.7681 Y-8.8393
G01 X7.7495 Y-8.8455
G01 X7.7334 Y-8.8544
G01 X7.7184 Y-8.8671
G01 X7.7062 Y-8.8824
G01 X7.6976 Y-8.8986
G01 X7.6919 Y-8.9174
G01 X7.6900 Y-8.9368
G01 X6.6278 Y-8.9368
G01 X6.5947 Y-8.9383
G01 X6.5740 Y-8.9410
G01 X6.5427 Y-8.9473
G01 X6.5238 Y-8.9526
G01 X6.4938 Y-8.9634
G01 X6.4759 Y-8.9715
G01 X6.4478 Y-8.9866
G01 X6.4313 Y-8.9972
G01 X6.4057 Y-9.0162
G01 X6.3909 Y-9.0291
G01 X6.3684 Y-9.0518
G01 X6.3556 Y-9.0667
G01 X6.3367 Y-9.0924
G01 X6.3263 Y-9.1090
G01 X6.3113 Y-9.1372
G01 X6.3034 Y-9.1552
G01 X6.2935 Y-9.1829
G01 X6.2876 Y-9.2042
G01 X6.2815 Y-9.2355
G01 X6.2792 Y-9.2550
G01 X6.2777 Y-9.2857
G01 X6.2777 Y-11.6693
G01 X6.2782 Y-11.6874
G01 X6.2810 Y-11.7163
G01 X6.2879 Y-11.7519
G01 X6.2984 Y-11.7866
G01 X6.3045 Y-11.8024
G01 X6.3167 Y-11.8287
G01 X6.3350 Y-11.8600
G01 X6.3564 Y-11.8893
G01 X6.3756 Y-11.9110
G01 X6.3877 Y-11.9229
G01 X6.4143 Y-11.9456
G01 X8.4605 Y-13.5082
G01 X8.4605 Y-13.8638
G01 X8.0503 Y-13.8638
G01 X8.0368 Y-13.8647
G01 X8.0236 Y-13.8674
G01 X8.0098 Y-13.8724
G01 X7.9968 Y-13.8793
G01 X7.9859 Y-13.8873
G01 X7.9762 Y-13.8966
G01 X7.9672 Y-13.9082
G01 X7.9604 Y-13.9199
G01 X7.9550 Y-13.9336
G01 X7.9516 Y-13.9479
G01 X7.9503 Y-13.9638
G01 X7.9505 Y-15.5699
G01 X7.9536 Y-15.5893
G01 X7.9599 Y-15.6066
G01 X7.9700 Y-15.6234
G01 X7.9822 Y-15.6371
G01 X7.9968 Y-15.6483
G01 X8.0143 Y-15.6571
G01 X8.0332 Y-15.6623
G01 X8.0520 Y-15.6638
G01 X7.3596 Y-16.9980
G00 Z2.0000
G00 X3.5019 Y-17.6642
G01 F70.00
G01 Z-0.0800
G01 F120.00
G01 X3.4019 Y-17.6642
G01 X3.4018 Y-17.0926
G01 X3.3992 Y-17.0744
G01 X3.3933 Y-17.0570
G01 X3.3844 Y-17.0409
G01 X3.3726 Y-17.0268
G01 X3.3585 Y-17.0150
G01 X3.3424 Y-17.0061
G01 X3.3250 Y-17.0002
G01 X3.3068 Y-16.9976
G01 X2.7352 Y-16.9975
G01 X2.7352 Y-16.8975
G01 X3.5019 Y-16.8975
G01 X3.5019 Y-17.6642
G00 Z2.0000
G00 X2.6519 Y-18.0975
G01 F70.00
G01 Z-0.0800
G01 F120.00
G01 X2.6502 Y-18.1318
G01 X2.6451 Y-18.1658
G01 X2.6368 Y-18.1991
G01 X2.6252 Y-18.2314
G01 X2.6105 Y-18.2625
G01 X2.5929 Y-18.2919
G01 X2.5724 Y-18.3195
G01 X2.5494 Y-18.3450
G01 X2.5239 Y-18.3680
G01 X2.4963 Y-18.3885
G01 X2.4669 Y-18.4061
G01 X2.4358 Y-18.4208
G01 X2.4035 Y-18.4324
G01 X2.3702 Y-18.4407
G01 X2.3362 Y-18.4458
G01 X2.3019 Y-18.4475
G01 X2.2676 Y-18.4458
G01 X2.2336 Y-18.4407
G01 X2.2003 Y-18.4324
G01 X2.1680 Y-18.4208
G01 X2.1369 Y-18.4061
G01 X2.1075 Y-18.3885
G01 X2.0799 Y-18.3680
G01 X2.0544 Y-18.3450
G01 X2.0314 Y-18.3195
G01 X2.0109 Y-18.2919
G01 X1.9933 Y-18.2625
G01 X1.9786 Y-18.2314
G01 X1.9670 Y-18.1991
G01 X1.9587 Y-18.1658
G01 X1.9536 Y-18.1318
G01 X1.9519 Y-18.0975
G01 X1.9536 Y-18.0632
G01 X1.9587 Y-18.0292
G01 X1.9670 Y-17.9959
G01 X1.9786 Y-17.9636
G01 X1.9933 Y-17.9325
G01 X2.0109 Y-17.9031
G01 X2.0314 Y-17.8755
G01 X2.0544 Y-17.8500
G01 X2.0799 Y-17.8270
G01 X2.1075 Y-17.8065
G01 X2.1369 Y-17.7889
G01 X2.1680 Y-17.7742
G01 X2.2003 Y-17.7626
G01 X2.2336 Y-17.7543
G01 X2.2676 Y-17.7492
G01 X2.3019 Y-17.7475
G01 X2.3362 Y-17.7492
G01 X2.3702 Y-17.7543
G01 X2.4035 Y-17.7626
G01 X2.4358 Y-17.7742
G01 X2.4669 Y-17.7889
G01 X2.4963 Y-17.8065
G01 X2.5239 Y-17.8270
G01 X2.5494 Y-17.8500
G01 X2.5724 Y-17.8755
G01 X2.5929 Y-17.9031
G01 X2.6105 Y-17.9325
G01 X2.6252 Y-17.9636
G01 X2.6368 Y-17.9959
G01 X2.6451 Y-18.0292
G01 X2.6502 Y-18.0632
G01 X2.6519 Y-18.0975
G00 Z2.0000
G00 X2.5518 Y-18.0975
G01 F70.00
G01 Z-0.0800
G01 F120.00
G01 X2.5506 Y-18.1220
G01 X2.5470 Y-18.1463
G01 X2.5411 Y-18.1701
G01 X2.5328 Y-18.1931
G01 X2.5223 Y-18.2153
G01 X2.5097 Y-18.2364
G01 X2.4951 Y-18.2561
G01 X2.4786 Y-18.2742
G01 X2.4605 Y-18.2907
G01 X2.4408 Y-18.3053
G01 X2.4197 Y-18.3179
G01 X2.3975 Y-18.3284
G01 X2.3745 Y-18.3367
G01 X2.3507 Y-18.3426
G01 X2.3264 Y-18.3462
G01 X2.3019 Y-18.3474
G01 X2.2774 Y-18.3462
G01 X2.2531 Y-18.3426
G01 X2.2293 Y-18.3367
G01 X2.2063 Y-18.3284
G01 X2.1841 Y-18.3179
G01 X2.1630 Y-18.3053
G01 X2.1433 Y-18.2907
G01 X2.1252 Y-18.2742
G01 X2.1087 Y-18.2561
G01 X2.0941 Y-18.2364
G01 X2.0815 Y-18.2153
G01 X2.0710 Y-18.1931
G01 X2.0627 Y-18.1701
G01 X2.0568 Y-18.1463
G01 X2.0532 Y-18.1220
G01 X2.0520 Y-18.0975
G01 X2.0532 Y-18.0730
G01 X2.0568 Y-18.0487
G01 X2.0627 Y-18.0249
G01 X2.0710 Y-18.0019
G01 X2.0815 Y-17.9797
G01 X2.0941 Y-17.9586
G01 X2.1087 Y-17.9389
G01 X2.1252 Y-17.9208
G01 X2.1433 Y-17.9043
G01 X2.1630 Y-17.8897
G01 X2.1841 Y-17.8771
G01 X2.2063 Y-17.8666
G01 X2.2293 Y-17.8583
G01 X2.2531 Y-17.8524
G01 X2.2774 Y-17.8488
G01 X2.3019 Y-17.8476
G01 X2.3264 Y-17.8488
G01 X2.3507 Y-17.8524
G01 X2.3745 Y-17.8583
G01 X2.3975 Y-17.8666
G01 X2.4197 Y-17.8771
G01 X2.4408 Y-17.8897
G01 X2.4605 Y-17.9043
G01 X2.4786 Y-17.9208
G01 X2.4951 Y-17.9389
G01 X2.5097 Y-17.9586
G01 X2.5223 Y-17.9797
G01 X2.5328 Y-18.0019
G01 X2.5411 Y-18.0249
G01 X2.5470 Y-18.0487
G01 X2.5506 Y-18.0730
G01 X2.5518 Y-18.0975
G00 Z2.0000
G00 X2.4518 Y-18.0975
G01 F70.00
G01 Z-0.0800
G01 F120.00
G01 X2.4511 Y-18.1122
G01 X2.4489 Y-18.1267
G01 X2.4454 Y-18.1410
G01 X2.4404 Y-18.1549
G01 X2.4341 Y-18.1682
G01 X2.4265 Y-18.1808
G01 X2.4178 Y-18.1926
G01 X2.4079 Y-18.2035
G01 X2.3970 Y-18.2134
G01 X2.3852 Y-18.2221
G01 X2.3726 Y-18.2297
G01 X2.3593 Y-18.2360
G01 X2.3454 Y-18.2410
G01 X2.3311 Y-18.2445
G01 X2.3166 Y-18.2467
G01 X2.3019 Y-18.2474
G01 X2.2872 Y-18.2467
G01 X2.2727 Y-18.2445
G01 X2.2584 Y-18.2410
G01 X2.2445 Y-18.2360
G01 X2.2312 Y-18.2297
G01 X2.2186 Y-18.2221
G01 X2.2068 Y-18.2134
G01 X2.1959 Y-18.2035
G01 X2.1860 Y-18.1926
G01 X2.1773 Y-18.1808
G01 X2.1697 Y-18.1682
G01 X2.1634 Y-18.1549
G01 X2.1584 Y-18.1410
G01 X2.1549 Y-18.1267
G01 X2.1527 Y-18.1122
G01 X2.1520 Y-18.0975
G01 X2.1527 Y-18.0828
G01 X2.1549 Y-18.0683
G01 X2.1584 Y-18.0540
G01 X2.1634 Y-18.0401
G01 X2.1697 Y-18.0268
G01 X2.1773 Y-18.0142
G01 X2.1860 Y-18.0024
G01 X2.1959 Y-17.9915
G01 X2.2068 Y-17.9816
G01 X2.2186 Y-17.9729
G01 X2.2312 Y-17.9653
G01 X2.2445 Y-17.9590
G01 X2.2584 Y-17.9540
G01 X2.2727 Y-17.9505
G01 X2.2872 Y-17.9483
G01 X2.3019 Y-17.9476
G01 X2.3166 Y-17.9483
G01 X2.3311 Y-17.9505
G01 X2.3454 Y-17.9540
G01 X2.3593 Y-17.9590
G01 X2.3726 Y-17.9653
G01 X2.3852 Y-17.9729
G01 X2.3970 Y-17.9816
G01 X2.4079 Y-17.9915
G01 X2.4178 Y-18.0024
G01 X2.4265 Y-18.0142
G01 X2.4341 Y-18.0268
G01 X2.4404 Y-18.0401
G01 X2.4454 Y-18.0540
G01 X2.4489 Y-18.0683
G01 X2.4511 Y-18.0828
G01 X2.4518 Y-18.0975
G00 Z2.0000
G00 X2.3518 Y-18.0975
G01 F70.00
G01 Z-0.0800
G01 F120.00
G01 X2.3508 Y-18.1072
G01 X2.3480 Y-18.1166
G01 X2.3434 Y-18.1252
G01 X2.3372 Y-18.1328
G01 X2.3296 Y-18.1390
G01 X2.3210 Y-18.1436
G01 X2.3116 Y-18.1464
G01 X2.3019 Y-18.1474
G01 X2.2922 Y-18.1464
G01 X2.2828 Y-18.1436
G01 X2.2742 Y-18.1390
G01 X2.2666 Y-18.1328
G01 X2.2604 Y-18.1252
G01 X2.2558 Y-18.1166
G01 X2.2530 Y-18.1072
G01 X2.2520 Y-18.0975
G01 X2.2530 Y-18.0878
G01 X2.2558 Y-18.0784
G01 X2.2604 Y-18.0698
G01 X2.2666 Y-18.0622
G01 X2.2742 Y-18.0560
G01 X2.2828 Y-18.0514
G01 X2.2922 Y-18.0486
G01 X2.3019 Y-18.0476
G01 X2.3116 Y-18.0486
G01 X2.3210 Y-18.0514
G01 X2.3296 Y-18.0560
G01 X2.3372 Y-18.0622
G01 X2.3434 Y-18.0698
G01 X2.3480 Y-18.0784
G01 X2.3508 Y-18.0878
G01 X2.3518 Y-18.0975
G00 Z2.0000
G00 X2.7352 Y-19.2975
G01 F70.00
G01 Z-0.0800
G01 F120.00
G01 X2.7352 Y-19.1975
G01 X3.3068 Y-19.1974
G01 X3.3250 Y-19.1948
G01 X3.3424 Y-19.1889
G01 X3.3585 Y-19.1800
G01 X3.3726 Y-19.1682
G01 X3.3844 Y-19.1541
G01 X3.3933 Y-19.1380
G01 X3.3992 Y-19.1206
G01 X3.4018 Y-19.1024
G01 X3.4019 Y-18.5308
G01 X3.5019 Y-18.5308
G01 X3.5019 Y-19.2975
G01 X2.7352 Y-19.2975
G00 Z2.0000
G00 X1.1019 Y-18.5308
G01 F70.00
G01 Z-0.0800
G01 F120.00
G01 X1.2019 Y-18.5308
G01 X1.2020 Y-19.1024
G01 X1.2046 Y-19.1206
G01 X1.2105 Y-19.1380
G01 X1.2194 Y-19.1541
G01 X1.2312 Y-19.1682
G01 X1.2453 Y-19.1800
G01 X1.2614 Y-19.1889
G01 X1.2788 Y-19.1948
G01 X1.2970 Y-19.1974
G01 X1.8685 Y-19.1975
G01 X1.8685 Y-19.2975
G01 X1.1019 Y-19.2975
G01 X1.1019 Y-18.5308
G00 Z2.0000
G00 X1.1019 Y-16.8975
G01 F70.00
G01 Z-0.0800
G01 F120.00
G01 X1.8685 Y-16.8975
G01 X1.8685 Y-16.9975
G01 X1.2970 Y-16.9976
G01 X1.2776 Y-17.0005
G01 X1.2671 Y-17.0038
G01 X1.2580 Y-17.0076
G01 X1.2413 Y-17.0179
G01 X1.2338 Y-17.0242
G01 X1.2262 Y-17.0322
G01 X1.2161 Y-17.0461
G01 X1.2090 Y-17.0604
G01 X1.2041 Y-17.0768
G01 X1.2020 Y-17.0938
G01 X1.2019 Y-17.6642
G01 X1.1019 Y-17.6642
G01 X1.1019 Y-16.8975
G00 Z2.0000
G00 X0.7772 Y-15.0804
G01 F70.00
G01 Z-0.0800
G01 F120.00
G01 X0.8772 Y-15.0804
G01 X0.8773 Y-15.5675
G01 X0.8791 Y-15.5833
G01 X0.8830 Y-15.5975
G01 X0.8896 Y-15.6120
G01 X0.8984 Y-15.6253
G01 X0.9119 Y-15.6395
G01 X0.9206 Y-15.6463
G01 X0.9290 Y-15.6514
G01 X0.9389 Y-15.6562
G01 X0.9482 Y-15.6595
G01 X0.9674 Y-15.6633
G01 X1.3105 Y-15.6638
G01 X1.3105 Y-15.7638
G01 X0.7772 Y-15.7638
G01 X0.7772 Y-15.0804
G00 Z2.0000
G00 X1.3105 Y-13.7638
G01 F70.00
G01 Z-0.0800
G01 F120.00
G01 X1.3105 Y-13.8638
G01 X0.9674 Y-13.8643
G01 X0.9482 Y-13.8681
G01 X0.9389 Y-13.8714
G01 X0.9290 Y-13.8762
G01 X0.9206 Y-13.8813
G01 X0.9119 Y-13.8881
G01 X0.8984 Y-13.9023
G01 X0.8896 Y-13.9156
G01 X0.8830 Y-13.9301
G01 X0.8789 Y-13.9455
G01 X0.8773 Y-13.9601
G01 X0.8772 Y-14.4471
G01 X0.7772 Y-14.4471
G01 X0.7772 Y-13.7638
G01 X1.3105 Y-13.7638
G00 Z2.0000
G00 X2.4369 Y-13.8434
G01 F70.00
G01 Z-0.0800
G01 F120.00
G01 X2.4598 Y-13.8302
G01 X2.4812 Y-13.8137
G01 X2.5002 Y-13.7946
G01 X2.5159 Y-13.7738
G01 X2.6771 Y-14.0961
G01 X2.6771 Y-15.5663
G01 X2.6793 Y-15.5931
G01 X2.6843 Y-15.6171
G01 X2.6923 Y-15.6403
G01 X2.7039 Y-15.6638
G01 X2.4504 Y-15.6638
G01 X2.4620 Y-15.6403
G01 X2.4700 Y-15.6171
G01 X2.4750 Y-15.5931
G01 X2.4772 Y-15.5663
G01 X2.4772 Y-13.9613
G01 X2.4765 Y-13.9466
G01 X2.4743 Y-13.9296
G01 X2.4712 Y-13.9152
G01 X2.4663 Y-13.8987
G01 X2.4600 Y-13.8828
G01 X2.4536 Y-13.8695
G01 X2.4462 Y-13.8568
G01 X2.4369 Y-13.8434
G00 Z2.0000
G00 X3.5795 Y-13.7638
G01 F70.00
G01 Z-0.0800
G01 F120.00
G01 X4.3771 Y-13.7638
G01 X4.3771 Y-14.2135
G01 X4.3788 Y-14.2318
G01 X4.3838 Y-14.2495
G01 X4.3913 Y-14.2649
G01 X4.4014 Y-14.2788
G01 X4.4137 Y-14.2908
G01 X4.4278 Y-14.3005
G01 X4.4434 Y-14.3077
G01 X4.4600 Y-14.3121
G01 X4.4771 Y-14.3135
G01 X4.9552 Y-14.3134
G01 X4.9734 Y-14.3108
G01 X4.9897 Y-14.3054
G01 X5.0059 Y-14.2967
G01 X5.0193 Y-14.2859
G01 X5.0313 Y-14.2721
G01 X5.0407 Y-14.2563
G01 X5.0470 Y-14.2390
G01 X5.0501 Y-14.2197
G01 X5.0503 Y-13.7638
G01 X7.0503 Y-13.7638
G01 X7.0503 Y-15.7638
G01 X5.0503 Y-15.7638
G01 X5.0503 Y-15.3141
G01 X5.0486 Y-15.2958
G01 X5.0436 Y-15.2781
G01 X5.0361 Y-15.2627
G01 X5.0260 Y-15.2488
G01 X5.0137 Y-15.2368
G01 X4.9996 Y-15.2271
G01 X4.9840 Y-15.2199
G01 X4.9674 Y-15.2155
G01 X4.9503 Y-15.2141
G01 X4.4722 Y-15.2142
G01 X4.4540 Y-15.2168
G01 X4.4377 Y-15.2222
G01 X4.4215 Y-15.2309
G01 X4.4081 Y-15.2417
G01 X4.3961 Y-15.2555
G01 X4.3867 Y-15.2713
G01 X4.3804 Y-15.2886
G01 X4.3773 Y-15.3079
G01 X4.3771 Y-15.7638
G01 X1.9438 Y-15.7638
G01 X1.9438 Y-15.6638
G01 X2.2784 Y-15.6638
G01 X2.2894 Y-15.6630
G01 X2.2991 Y-15.6614
G01 X2.3155 Y-15.6562
G01 X2.3307 Y-15.6483
G01 X2.3434 Y-15.6387
G01 X2.3553 Y-15.6263
G01 X2.3648 Y-15.6120
G01 X2.3714 Y-15.5975
G01 X2.3757 Y-15.5809
G01 X2.3772 Y-15.5638
G01 X2.3772 Y-13.9638
G01 X2.3764 Y-13.9516
G01 X2.3745 Y-13.9407
G01 X2.3701 Y-13.9267
G01 X2.3636 Y-13.9134
G01 X2.3553 Y-13.9013
G01 X2.3453 Y-13.8905
G01 X2.3338 Y-13.8813
G01 X2.3211 Y-13.8739
G01 X2.3074 Y-13.8685
G01 X2.2943 Y-13.8653
G01 X2.2772 Y-13.8638
G01 X1.9438 Y-13.8638
G01 X1.9438 Y-13.7638
G01 X2.3501 Y-13.7638
G01 X2.3623 Y-13.7629
G01 X2.3743 Y-13.7605
G01 X2.3848 Y-13.7571
G01 X2.3938 Y-13.7531
G01 X2.4103 Y-13.7427
G01 X2.4186 Y-13.7354
G01 X2.4253 Y-13.7283
G01 X2.4319 Y-13.7195
G01 X2.4370 Y-13.7111
G01 X2.4445 Y-13.6930
G01 X2.4469 Y-13.6835
G01 X2.4485 Y-13.6726
G01 X2.4488 Y-13.6615
G01 X2.4481 Y-13.6518
G01 X2.4462 Y-13.6409
G01 X2.4435 Y-13.6315
G01 X2.4383 Y-13.6191
G01 X1.7916 Y-12.3265
G01 X1.7861 Y-12.3169
G01 X1.7796 Y-12.3080
G01 X1.7730 Y-12.3007
G01 X1.7648 Y-12.2933
G01 X1.7505 Y-12.2837
G01 X1.7359 Y-12.2771
G01 X1.7205 Y-12.2729
G01 X1.7046 Y-12.2713
G01 X0.7641 Y-12.2713
G01 X0.7641 Y-10.2713
G01 X0.9406 Y-10.2713
G01 X0.9576 Y-10.2694
G01 X0.9730 Y-10.2650
G01 X0.9863 Y-10.2589
G01 X0.9996 Y-10.2501
G01 X1.0105 Y-10.2403
G01 X1.0206 Y-10.2279
G01 X1.0280 Y-10.2152
G01 X1.0338 Y-10.2004
G01 X1.0370 Y-10.1860
G01 X1.0381 Y-10.1701
G01 X1.0374 Y-10.1591
G01 X1.0354 Y-10.1482
G01 X0.6949 Y-8.7102
G01 X0.6869 Y-8.6680
G01 X0.6830 Y-8.6265
G01 X0.6825 Y-8.6044
G01 X0.6788 Y-2.7002
G01 X0.6794 Y-2.6769
G01 X0.6810 Y-2.6548
G01 X0.6837 Y-2.6329
G01 X0.6875 Y-2.6111
G01 X0.6923 Y-2.5895
G01 X0.6982 Y-2.5682
G01 X0.7051 Y-2.5472
G01 X0.7131 Y-2.5265
G01 X0.7220 Y-2.5063
G01 X0.7320 Y-2.4866
G01 X0.7429 Y-2.4673
G01 X0.7547 Y-2.4486
G01 X0.7674 Y-2.4305
G01 X0.7810 Y-2.4131
G01 X0.7955 Y-2.3964
G01 X0.8116 Y-2.3795
G01 X2.1988 Y-0.9921
G01 X2.2157 Y-0.9760
G01 X2.2325 Y-0.9616
G01 X2.2499 Y-0.9480
G01 X2.2679 Y-0.9352
G01 X2.2866 Y-0.9234
G01 X2.3058 Y-0.9125
G01 X2.3256 Y-0.9026
G01 X2.3458 Y-0.8936
G01 X2.3664 Y-0.8857
G01 X2.3874 Y-0.8787
G01 X2.4087 Y-0.8728
G01 X2.4303 Y-0.8680
G01 X2.4520 Y-0.8642
G01 X2.4740 Y-0.8615
G01 X2.4960 Y-0.8599
G01 X2.5193 Y-0.8593
G01 X15.2963 Y-0.8593
G01 X15.3196 Y-0.8599
G01 X15.3416 Y-0.8615
G01 X15.3636 Y-0.8642
G01 X15.3853 Y-0.8680
G01 X15.4069 Y-0.8728
G01 X15.4282 Y-0.8787
G01 X15.4492 Y-0.8857
G01 X15.4698 Y-0.8936
G01 X15.4900 Y-0.9026
G01 X15.5097 Y-0.9125
G01 X15.5290 Y-0.9234
G01 X15.5476 Y-0.9352
G01 X15.5657 Y-0.9480
G01 X15.5831 Y-0.9616
G01 X15.5999 Y-0.9760
G01 X15.6168 Y-0.9921
G01 X17.7978 Y-3.1732
G01 X17.8136 Y-3.1896
G01 X17.8277 Y-3.2060
G01 X17.8410 Y-3.2229
G01 X17.8535 Y-3.2405
G01 X17.8651 Y-3.2587
G01 X17.8759 Y-3.2774
G01 X17.8857 Y-3.2966
G01 X17.8946 Y-3.3162
G01 X17.9026 Y-3.3363
G01 X17.9096 Y-3.3567
G01 X17.9156 Y-3.3774
G01 X17.9206 Y-3.3984
G01 X17.9246 Y-3.4196
G01 X17.9276 Y-3.4409
G01 X17.9295 Y-3.4624
G01 X17.9305 Y-3.4852
G01 X17.9425 Y-4.1225
G01 X17.9450 Y-4.1395
G01 X17.9503 Y-4.1559
G01 X17.9590 Y-4.1722
G01 X17.9697 Y-4.1856
G01 X17.9836 Y-4.1978
G01 X18.0006 Y-4.2077
G01 X18.0192 Y-4.2142
G01 X18.0375 Y-4.2168
G01 X18.5419 Y-4.2169
G01 X18.5419 Y-6.2169
G01 X16.5419 Y-6.2169
G01 X16.5419 Y-4.2169
G01 X16.9477 Y-4.2167
G01 X16.9658 Y-4.2139
G01 X16.9842 Y-4.2074
G01 X17.0010 Y-4.1974
G01 X17.0147 Y-4.1852
G01 X17.0259 Y-4.1707
G01 X17.0339 Y-4.1556
G01 X17.0394 Y-4.1381
G01 X17.0416 Y-4.1199
G01 X17.0342 Y-3.7215
G01 X17.0329 Y-3.7080
G01 X17.0293 Y-3.6936
G01 X17.0248 Y-3.6821
G01 X17.0195 Y-3.6723
G01 X17.0124 Y-3.6622
G01 X17.0050 Y-3.6539
G01 X15.1403 Y-1.7892
G01 X15.1311 Y-1.7810
G01 X15.1210 Y-1.7741
G01 X15.1112 Y-1.7690
G01 X15.0998 Y-1.7645
G01 X15.0855 Y-1.7611
G01 X15.0696 Y-1.7599
G01 X2.7460 Y-1.7599
G01 X2.7314 Y-1.7610
G01 X2.7182 Y-1.7638
G01 X2.7044 Y-1.7690
G01 X2.6925 Y-1.7754
G01 X2.6836 Y-1.7818
G01 X2.6753 Y-1.7892
G01 X1.6079 Y-2.8566
G01 X1.5977 Y-2.8689
G01 X1.5902 Y-2.8815
G01 X1.5846 Y-2.8951
G01 X1.5808 Y-2.9106
G01 X1.5795 Y-2.9265
G01 X1.5833 Y-8.5482
G01 X1.5857 Y-8.5639
G01 X1.9718 Y-10.1943
G01 X1.9777 Y-10.2117
G01 X1.9866 Y-10.2278
G01 X1.9934 Y-10.2365
G01 X2.0010 Y-10.2445
G01 X2.0105 Y-10.2523
G01 X2.0198 Y-10.2582
G01 X2.0297 Y-10.2631
G01 X2.0401 Y-10.2669
G01 X2.0520 Y-10.2698
G01 X2.0630 Y-10.2710
G01 X2.7641 Y-10.2712
G01 X2.7641 Y-12.2340
G01 X2.7648 Y-12.2462
G01 X2.7668 Y-12.2570
G01 X2.7703 Y-12.2687
G01 X2.7747 Y-12.2787
G01 X3.4912 Y-13.7107
G01 X3.4983 Y-13.7222
G01 X3.5069 Y-13.7326
G01 X3.5169 Y-13.7418
G01 X3.5279 Y-13.7495
G01 X3.5400 Y-13.7557
G01 X3.5527 Y-13.7602
G01 X3.5660 Y-13.7629
G01 X3.5795 Y-13.7638
G00 Z2.0000
G00 X2.6046 Y-12.1627
G01 F70.00
G01 Z-0.0800
G01 F120.00
G01 X2.6176 Y-12.1558
G01 X2.6285 Y-12.1478
G01 X2.6382 Y-12.1385
G01 X2.6472 Y-12.1269
G01 X2.6540 Y-12.1152
G01 X2.6591 Y-12.1027
G01 X2.6624 Y-12.0896
G01 X2.6640 Y-12.0750
G01 X2.6641 Y-10.4713
G01 X2.6630 Y-10.4566
G01 X2.6594 Y-10.4411
G01 X2.6540 Y-10.4274
G01 X2.6466 Y-10.4147
G01 X2.6374 Y-10.4032
G01 X2.6266 Y-10.3932
G01 X2.6155 Y-10.3855
G01 X2.6024 Y-10.3789
G01 X2.5884 Y-10.3743
G01 X2.5739 Y-10.3718
G01 X1.9108 Y-10.3713
G01 X1.4829 Y-8.5643
G01 X1.4793 Y-2.8436
G01 X2.6631 Y-1.6597
G01 X15.1525 Y-1.6597
G01 X17.1329 Y-3.6401
G01 X17.1456 Y-4.3169
G01 X16.7419 Y-4.3169
G01 X16.7260 Y-4.3182
G01 X16.7105 Y-4.3219
G01 X16.6969 Y-4.3276
G01 X16.6833 Y-4.3359
G01 X16.6721 Y-4.3453
G01 X16.6616 Y-4.3573
G01 X16.6537 Y-4.3698
G01 X16.6473 Y-4.3844
G01 X16.6436 Y-4.3986
G01 X16.6419 Y-4.4169
G01 X16.6419 Y-6.0194
G01 X16.6427 Y-6.0291
G01 X16.6446 Y-6.0400
G01 X16.6477 Y-6.0506
G01 X16.6520 Y-6.0608
G01 X16.6574 Y-6.0704
G01 X16.6631 Y-6.0784
G01 X16.6703 Y-6.0867
G01 X16.6785 Y-6.0942
G01 X16.6926 Y-6.1039
G01 X16.7082 Y-6.1111
G01 X16.7236 Y-6.1152
G01 X16.7407 Y-6.1169
G01 X18.3419 Y-6.1169
G01 X18.3602 Y-6.1152
G01 X18.3790 Y-6.1098
G01 X18.3964 Y-6.1007
G01 X18.4117 Y-6.0885
G01 X18.4244 Y-6.0735
G01 X18.4338 Y-6.0563
G01 X18.4397 Y-6.0376
G01 X18.4419 Y-6.0181
G01 X18.4419 Y-4.4157
G01 X18.4411 Y-4.4047
G01 X18.4392 Y-4.3938
G01 X18.4361 Y-4.3832
G01 X18.4318 Y-4.3730
G01 X18.4257 Y-4.3624
G01 X18.4176 Y-4.3516
G01 X18.4091 Y-4.3428
G01 X18.3985 Y-4.3344
G01 X18.3880 Y-4.3281
G01 X18.3756 Y-4.3227
G01 X18.3638 Y-4.3193
G01 X18.3517 Y-4.3174
G01 X17.8459 Y-4.3169
G01 X17.8296 Y-3.4679
G01 X17.8262 Y-3.4381
G01 X17.8227 Y-3.4193
G01 X17.8148 Y-3.3891
G01 X17.8087 Y-3.3710
G01 X17.7966 Y-3.3423
G01 X17.7879 Y-3.3252
G01 X17.7783 Y-3.3086
G01 X17.7608 Y-3.2828
G01 X17.7489 Y-3.2678
G01 X17.7279 Y-3.2448
G01 X15.5442 Y-1.0612
G01 X15.5215 Y-1.0405
G01 X15.5061 Y-1.0284
G01 X15.4900 Y-1.0171
G01 X15.4625 Y-1.0008
G01 X15.4337 Y-0.9871
G01 X15.4155 Y-0.9799
G01 X15.3968 Y-0.9739
G01 X15.3670 Y-0.9664
G01 X15.3318 Y-0.9612
G01 X15.2975 Y-0.9595
G01 X2.5181 Y-0.9595
G01 X2.4813 Y-0.9614
G01 X2.4522 Y-0.9658
G01 X2.4354 Y-0.9694
G01 X2.4001 Y-0.9799
G01 X2.3673 Y-0.9936
G01 X2.3381 Y-1.0093
G01 X2.3115 Y-1.0269
G01 X2.2941 Y-1.0405
G01 X2.2714 Y-1.0612
G01 X0.8798 Y-2.4529
G01 X0.8584 Y-2.4766
G01 X0.8393 Y-2.5022
G01 X0.8281 Y-2.5198
G01 X0.8136 Y-2.5469
G01 X0.8047 Y-2.5671
G01 X0.7940 Y-2.5972
G01 X0.7862 Y-2.6282
G01 X0.7826 Y-2.6487
G01 X0.7795 Y-2.6793
G01 X0.7790 Y-2.6989
G01 X0.7831 Y-8.6229
G01 X0.7861 Y-8.6541
G01 X0.7921 Y-8.6860
G01 X1.1912 Y-10.3713
G01 X0.9629 Y-10.3713
G01 X0.9519 Y-10.3721
G01 X0.9398 Y-10.3743
G01 X0.9258 Y-10.3789
G01 X0.9137 Y-10.3849
G01 X0.9016 Y-10.3932
G01 X0.8917 Y-10.4023
G01 X0.8823 Y-10.4137
G01 X0.8748 Y-10.4263
G01 X0.8691 Y-10.4399
G01 X0.8658 Y-10.4530
G01 X0.8641 Y-10.4713
G01 X0.8641 Y-12.0713
G01 X0.8652 Y-12.0860
G01 X0.8688 Y-12.1015
G01 X0.8742 Y-12.1152
G01 X0.8816 Y-12.1279
G01 X0.8908 Y-12.1394
G01 X0.9016 Y-12.1494
G01 X0.9137 Y-12.1577
G01 X0.9270 Y-12.1642
G01 X0.9410 Y-12.1686
G01 X0.9567 Y-12.1710
G01 X1.8259 Y-12.1713
G01 X2.7771 Y-14.0724
G01 X2.7772 Y-15.5675
G01 X2.7784 Y-15.5797
G01 X2.7811 Y-15.5917
G01 X2.7857 Y-15.6043
G01 X2.7913 Y-15.6152
G01 X2.7990 Y-15.6263
G01 X2.8073 Y-15.6354
G01 X2.8165 Y-15.6434
G01 X2.8267 Y-15.6502
G01 X2.8388 Y-15.6562
G01 X2.8516 Y-15.6605
G01 X2.8636 Y-15.6629
G01 X2.8771 Y-15.6638
G01 X4.1771 Y-15.6638
G01 X4.1942 Y-15.6623
G01 X4.2119 Y-15.6575
G01 X4.2242 Y-15.6520
G01 X4.2357 Y-15.6448
G01 X4.2461 Y-15.6362
G01 X4.2559 Y-15.6253
G01 X4.2635 Y-15.6142
G01 X4.2695 Y-15.6021
G01 X4.2738 Y-15.5893
G01 X4.2763 Y-15.5760
G01 X4.2771 Y-15.5638
G01 X4.2771 Y-15.1139
G01 X5.1503 Y-15.1139
G01 X5.1503 Y-15.5638
G01 X5.1514 Y-15.5785
G01 X5.1546 Y-15.5928
G01 X5.1604 Y-15.6077
G01 X5.1685 Y-15.6214
G01 X5.1779 Y-15.6328
G01 X5.1888 Y-15.6426
G01 X5.2021 Y-15.6514
G01 X5.2155 Y-15.6575
G01 X5.2308 Y-15.6619
G01 X5.2503 Y-15.6638
G01 X6.8528 Y-15.6638
G01 X6.8625 Y-15.6630
G01 X6.8734 Y-15.6611
G01 X6.8840 Y-15.6580
G01 X6.8942 Y-15.6537
G01 X6.9038 Y-15.6483
G01 X6.9128 Y-15.6419
G01 X6.9210 Y-15.6345
G01 X6.9284 Y-15.6263
G01 X6.9373 Y-15.6131
G01 X6.9445 Y-15.5975
G01 X6.9488 Y-15.5809
G01 X6.9503 Y-15.5650
G01 X6.9503 Y-13.9626
G01 X6.9495 Y-13.9516
G01 X6.9476 Y-13.9407
G01 X6.9445 Y-13.9301
G01 X6.9402 Y-13.9199
G01 X6.9348 Y-13.9103
G01 X6.9284 Y-13.9013
G01 X6.9210 Y-13.8931
G01 X6.9128 Y-13.8857
G01 X6.8985 Y-13.8762
G01 X6.8840 Y-13.8696
G01 X6.8674 Y-13.8653
G01 X6.8515 Y-13.8638
G01 X5.2503 Y-13.8638
G01 X5.2308 Y-13.8657
G01 X5.2166 Y-13.8696
G01 X5.2021 Y-13.8762
G01 X5.1897 Y-13.8842
G01 X5.1779 Y-13.8948
G01 X5.1678 Y-13.9072
G01 X5.1604 Y-13.9199
G01 X5.1550 Y-13.9336
G01 X5.1514 Y-13.9491
G01 X5.1503 Y-13.9638
G01 X5.1503 Y-14.4137
G01 X4.2771 Y-14.4137
G01 X4.2767 Y-13.9552
G01 X4.2752 Y-13.9443
G01 X4.2724 Y-13.9336
G01 X4.2680 Y-13.9222
G01 X4.2629 Y-13.9124
G01 X4.2567 Y-13.9032
G01 X4.2495 Y-13.8948
G01 X4.2415 Y-13.8873
G01 X4.2327 Y-13.8807
G01 X4.2210 Y-13.8739
G01 X4.2073 Y-13.8685
G01 X4.1942 Y-13.8653
G01 X4.1796 Y-13.8638
G01 X3.4557 Y-13.8638
G01 X2.6046 Y-12.1627
G00 Z2.0000
G00 X7.6880 Y-8.7649
G01 F70.00
G01 Z-0.0800
G01 F120.00
G01 X7.6895 Y-8.7513
G01 X7.6900 Y-8.7366
G01 X7.6900 Y-8.5647
G01 X7.6880 Y-8.5389
G01 X7.7112 Y-8.5507
G01 X7.7367 Y-8.5597
G01 X7.7631 Y-8.5651
G01 X7.7900 Y-8.5669
G01 X9.9925 Y-8.5669
G01 X10.0193 Y-8.5647
G01 X10.0433 Y-8.5597
G01 X10.0665 Y-8.5517
G01 X10.0900 Y-8.5401
G01 X10.0900 Y-8.7637
G01 X10.0665 Y-8.7521
G01 X10.0433 Y-8.7441
G01 X10.0193 Y-8.7391
G01 X9.9925 Y-8.7369
G01 X7.7900 Y-8.7369
G01 X7.7631 Y-8.7387
G01 X7.7367 Y-8.7441
G01 X7.7112 Y-8.7531
G01 X7.6880 Y-8.7649
G00 Z2.0000
G00 X7.5457 Y-7.0548
G01 F70.00
G01 Z-0.0800
G01 F120.00
G01 X7.5445 Y-7.0303
G01 X7.5457 Y-7.0058
G01 X7.5472 Y-6.9936
G01 X7.5520 Y-6.9695
G01 X7.5591 Y-6.9460
G01 X7.5685 Y-6.9233
G01 X7.5801 Y-6.9017
G01 X7.5937 Y-6.8813
G01 X7.6093 Y-6.8623
G01 X8.2220 Y-6.2496
G01 X8.2410 Y-6.2341
G01 X8.2510 Y-6.2270
G01 X8.2721 Y-6.2144
G01 X8.2943 Y-6.2039
G01 X8.3057 Y-6.1995
G01 X8.3292 Y-6.1923
G01 X8.3412 Y-6.1897
G01 X8.3655 Y-6.1861
G01 X8.3912 Y-6.1848
G01 X9.9366 Y-6.1848
G01 X9.9623 Y-6.1861
G01 X9.9866 Y-6.1897
G01 X10.0104 Y-6.1956
G01 X10.0335 Y-6.2039
G01 X10.0448 Y-6.2089
G01 X10.0664 Y-6.2204
G01 X10.0768 Y-6.2270
G01 X10.0868 Y-6.2341
G01 X10.1058 Y-6.2497
G01 X10.1147 Y-6.2581
G01 X10.1312 Y-6.2763
G01 X10.1387 Y-6.2860
G01 X10.1524 Y-6.3064
G01 X10.1639 Y-6.3280
G01 X10.1689 Y-6.3393
G01 X10.1772 Y-6.3624
G01 X10.1804 Y-6.3742
G01 X10.1852 Y-6.3983
G01 X10.1867 Y-6.4105
G01 X10.1880 Y-6.4362
G01 X10.1880 Y-7.0291
G01 X10.1867 Y-7.0548
G01 X10.1852 Y-7.0670
G01 X10.1804 Y-7.0911
G01 X10.1733 Y-7.1146
G01 X10.1639 Y-7.1373
G01 X10.1584 Y-7.1482
G01 X10.1458 Y-7.1693
G01 X10.1387 Y-7.1793
G01 X10.1231 Y-7.1983
G01 X10.1147 Y-7.2072
G01 X10.0965 Y-7.2237
G01 X10.0868 Y-7.2312
G01 X10.0664 Y-7.2449
G01 X10.0448 Y-7.2564
G01 X10.0335 Y-7.2614
G01 X9.9913 Y-7.2765
G01 X9.9795 Y-7.2831
G01 X9.9678 Y-7.2920
G01 X9.9599 Y-7.2997
G01 X9.9537 Y-7.3073
G01 X9.9482 Y-7.3155
G01 X9.9431 Y-7.3253
G01 X9.9391 Y-7.3355
G01 X9.9364 Y-7.3450
G01 X9.9346 Y-7.3559
G01 X9.9340 Y-7.3669
G01 X9.9351 Y-7.3816
G01 X9.9383 Y-7.3959
G01 X9.9442 Y-7.4108
G01 X9.9516 Y-7.4235
G01 X9.9608 Y-7.4350
G01 X9.9715 Y-7.4450
G01 X9.9837 Y-7.4533
G01 X9.9980 Y-7.4602
G01 X10.0133 Y-7.4647
G01 X10.0303 Y-7.4668
G01 X10.1900 Y-7.4669
G01 X10.1901 Y-10.1069
G01 X7.5901 Y-10.1069
G01 X7.5900 Y-9.8372
G01 X7.5889 Y-9.8225
G01 X7.5867 Y-9.8117
G01 X7.5833 Y-9.8012
G01 X7.5782 Y-9.7900
G01 X7.5725 Y-9.7806
G01 X7.5657 Y-9.7719
G01 X7.5581 Y-9.7639
G01 X7.5496 Y-9.7569
G01 X7.5393 Y-9.7502
G01 X7.5283 Y-9.7448
G01 X7.5167 Y-9.7408
G01 X7.5047 Y-9.7383
G01 X7.4937 Y-9.7372
G01 X7.1781 Y-9.7372
G01 X7.1634 Y-9.7383
G01 X7.1490 Y-9.7415
G01 X7.1342 Y-9.7473
G01 X7.1215 Y-9.7547
G01 X7.1091 Y-9.7648
G01 X7.0992 Y-9.7757
G01 X7.0911 Y-9.7879
G01 X7.0848 Y-9.8012
G01 X7.0802 Y-9.8165
G01 X7.0787 Y-9.8262
G01 X7.0781 Y-9.8372
G01 X7.0781 Y-11.3972
G01 X7.0793 Y-11.4118
G01 X7.0827 Y-11.4261
G01 X7.0882 Y-11.4397
G01 X7.0962 Y-11.4534
G01 X7.1064 Y-11.4657
G01 X7.1174 Y-11.4754
G01 X9.0829 Y-12.9764
G01 X9.1008 Y-12.9908
G01 X9.1171 Y-13.0052
G01 X9.1327 Y-13.0204
G01 X9.1475 Y-13.0364
G01 X9.1616 Y-13.0530
G01 X9.1748 Y-13.0703
G01 X9.1872 Y-13.0882
G01 X9.1987 Y-13.1067
G01 X9.2092 Y-13.1257
G01 X9.2189 Y-13.1452
G01 X9.2276 Y-13.1652
G01 X9.2353 Y-13.1855
G01 X9.2420 Y-13.2062
G01 X9.2478 Y-13.2272
G01 X9.2525 Y-13.2485
G01 X9.2561 Y-13.2699
G01 X9.2587 Y-13.2915
G01 X9.2603 Y-13.3132
G01 X9.2614 Y-13.6736
G01 X9.2648 Y-13.6917
G01 X9.2721 Y-13.7099
G01 X9.2828 Y-13.7263
G01 X9.2965 Y-13.7403
G01 X9.3095 Y-13.7496
G01 X9.3249 Y-13.7571
G01 X9.3414 Y-13.7619
G01 X9.3572 Y-13.7637
G01 X9.8503 Y-13.7638
G01 X9.8503 Y-15.7638
G01 X8.9577 Y-15.7639
G01 X8.9456 Y-15.7653
G01 X8.9348 Y-15.7678
G01 X8.9244 Y-15.7714
G01 X8.9144 Y-15.7762
G01 X8.9051 Y-15.7820
G01 X8.8964 Y-15.7889
G01 X8.8877 Y-15.7976
G01 X8.8809 Y-15.8062
G01 X8.8739 Y-15.8177
G01 X8.1985 Y-17.1190
G01 X8.1920 Y-17.1349
G01 X8.1882 Y-17.1516
G01 X8.1874 Y-17.1700
G01 X8.1900 Y-17.1882
G01 X8.1959 Y-17.2056
G01 X8.2041 Y-17.2206
G01 X8.2149 Y-17.2340
G01 X8.2304 Y-17.2490
G01 X8.2710 Y-17.2916
G01 X8.3095 Y-17.3362
G01 X8.3457 Y-17.3827
G01 X8.3796 Y-17.4308
G01 X8.4111 Y-17.4806
G01 X8.4402 Y-17.5318
G01 X8.4667 Y-17.5844
G01 X8.4905 Y-17.6383
G01 X8.5117 Y-17.6932
G01 X8.5302 Y-17.7492
G01 X8.5459 Y-17.8059
G01 X8.5588 Y-17.8634
G01 X8.5689 Y-17.9214
G01 X8.5761 Y-17.9799
G01 X8.5804 Y-18.0386
G01 X8.5819 Y-18.0975
G01 X8.5804 Y-18.1564
G01 X8.5761 Y-18.2151
G01 X8.5689 Y-18.2736
G01 X8.5588 Y-18.3316
G01 X8.5459 Y-18.3891
G01 X8.5302 Y-18.4458
G01 X8.5117 Y-18.5018
G01 X8.4905 Y-18.5567
G01 X8.4667 Y-18.6106
G01 X8.4402 Y-18.6632
G01 X8.4111 Y-18.7144
G01 X8.3796 Y-18.7642
G01 X8.3457 Y-18.8123
G01 X8.3095 Y-18.8588
G01 X8.2710 Y-18.9034
G01 X8.2304 Y-18.9460
G01 X8.1878 Y-18.9866
G01 X8.1432 Y-19.0251
G01 X8.0967 Y-19.0613
G01 X8.0486 Y-19.0952
G01 X7.9988 Y-19.1267
G01 X7.9476 Y-19.1558
G01 X7.8950 Y-19.1823
G01 X7.8411 Y-19.2061
G01 X7.7862 Y-19.2273
G01 X7.7302 Y-19.2458
G01 X7.6735 Y-19.2615
G01 X7.6160 Y-19.2744
G01 X7.5580 Y-19.2845
G01 X7.4995 Y-19.2917
G01 X7.4408 Y-19.2960
G01 X7.3819 Y-19.2975
G01 X7.3230 Y-19.2960
G01 X7.2643 Y-19.2917
G01 X7.2058 Y-19.2845
G01 X7.1478 Y-19.2744
G01 X7.0903 Y-19.2615
G01 X7.0336 Y-19.2458
G01 X6.9776 Y-19.2273
G01 X6.9227 Y-19.2061
G01 X6.8688 Y-19.1823
G01 X6.8162 Y-19.1558
G01 X6.7650 Y-19.1267
G01 X6.7152 Y-19.0952
G01 X6.6671 Y-19.0613
G01 X6.6206 Y-19.0251
G01 X6.5760 Y-18.9866
G01 X6.5334 Y-18.9460
G01 X6.4928 Y-18.9034
G01 X6.4543 Y-18.8588
G01 X6.4181 Y-18.8123
G01 X6.3842 Y-18.7642
G01 X6.3527 Y-18.7144
G01 X6.3236 Y-18.6632
G01 X6.2971 Y-18.6106
G01 X6.2733 Y-18.5567
G01 X6.2521 Y-18.5018
G01 X6.2336 Y-18.4458
G01 X6.2179 Y-18.3891
G01 X6.2050 Y-18.3316
G01 X6.1949 Y-18.2736
G01 X6.1877 Y-18.2151
G01 X6.1834 Y-18.1564
G01 X6.1819 Y-18.0975
G01 X6.1834 Y-18.0386
G01 X6.1877 Y-17.9799
G01 X6.1949 Y-17.9214
G01 X6.2050 Y-17.8634
G01 X6.2179 Y-17.8059
G01 X6.2336 Y-17.7492
G01 X6.2521 Y-17.6932
G01 X6.2733 Y-17.6383
G01 X6.2971 Y-17.5844
G01 X6.3236 Y-17.5318
G01 X6.3527 Y-17.4806
G01 X6.3842 Y-17.4308
G01 X6.4181 Y-17.3827
G01 X6.4543 Y-17.3362
G01 X6.4928 Y-17.2916
G01 X6.5334 Y-17.2490
G01 X6.5760 Y-17.2084
G01 X6.6206 Y-17.1699
G01 X6.6671 Y-17.1337
G01 X6.7152 Y-17.0998
G01 X6.7650 Y-17.0683
G01 X6.8162 Y-17.0392
G01 X6.8688 Y-17.0127
G01 X6.9227 Y-16.9889
G01 X6.9776 Y-16.9677
G01 X7.0336 Y-16.9492
G01 X7.0903 Y-16.9335
G01 X7.1478 Y-16.9206
G01 X7.2058 Y-16.9105
G01 X7.2494 Y-16.9051
G01 X7.2649 Y-16.9013
G01 X7.2785 Y-16.8957
G01 X7.2911 Y-16.8881
G01 X7.3025 Y-16.8788
G01 X7.3116 Y-16.8688
G01 X7.3223 Y-16.8524
G01 X7.8396 Y-15.8556
G01 X7.8440 Y-15.8455
G01 X7.8476 Y-15.8337
G01 X7.8495 Y-15.8229
G01 X7.8503 Y-15.8106
G01 X7.8503 Y-13.7638
G01 X8.2616 Y-13.7638
G01 X8.2762 Y-13.7625
G01 X8.2905 Y-13.7591
G01 X8.2997 Y-13.7557
G01 X8.3096 Y-13.7508
G01 X8.3179 Y-13.7456
G01 X8.3266 Y-13.7387
G01 X8.3336 Y-13.7319
G01 X8.3406 Y-13.7234
G01 X8.3467 Y-13.7142
G01 X8.3517 Y-13.7043
G01 X8.3570 Y-13.6893
G01 X8.3600 Y-13.6724
G01 X8.3602 Y-13.6023
G01 X8.3591 Y-13.5913
G01 X8.3570 Y-13.5817
G01 X8.3536 Y-13.5712
G01 X8.3491 Y-13.5612
G01 X8.3442 Y-13.5527
G01 X8.3377 Y-13.5438
G01 X8.3303 Y-13.5357
G01 X8.3220 Y-13.5284
G01 X6.3555 Y-12.0267
G01 X6.3376 Y-12.0123
G01 X6.3213 Y-11.9979
G01 X6.3057 Y-11.9827
G01 X6.2909 Y-11.9667
G01 X6.2768 Y-11.9501
G01 X6.2636 Y-11.9328
G01 X6.2512 Y-11.9149
G01 X6.2397 Y-11.8964
G01 X6.2292 Y-11.8774
G01 X6.2195 Y-11.8579
G01 X6.2108 Y-11.8379
G01 X6.2031 Y-11.8176
G01 X6.1964 Y-11.7969
G01 X6.1906 Y-11.7759
G01 X6.1859 Y-11.7546
G01 X6.1823 Y-11.7332
G01 X6.1797 Y-11.7116
G01 X6.1781 Y-11.6899
G01 X6.1775 Y-11.6669
G01 X6.1775 Y-9.2881
G01 X6.1781 Y-9.2648
G01 X6.1797 Y-9.2428
G01 X6.1824 Y-9.2208
G01 X6.1862 Y-9.1991
G01 X6.1910 Y-9.1775
G01 X6.1969 Y-9.1562
G01 X6.2039 Y-9.1352
G01 X6.2118 Y-9.1146
G01 X6.2208 Y-9.0944
G01 X6.2307 Y-9.0747
G01 X6.2416 Y-9.0554
G01 X6.2534 Y-9.0368
G01 X6.2662 Y-9.0187
G01 X6.2798 Y-9.0013
G01 X6.2942 Y-8.9845
G01 X6.3094 Y-8.9685
G01 X6.3254 Y-8.9533
G01 X6.3422 Y-8.9389
G01 X6.3596 Y-8.9253
G01 X6.3777 Y-8.9125
G01 X6.3963 Y-8.9007
G01 X6.4156 Y-8.8898
G01 X6.4353 Y-8.8799
G01 X6.4555 Y-8.8709
G01 X6.4761 Y-8.8630
G01 X6.4971 Y-8.8560
G01 X6.5184 Y-8.8501
G01 X6.5400 Y-8.8453
G01 X6.5617 Y-8.8415
G01 X6.5837 Y-8.8388
G01 X6.6057 Y-8.8372
G01 X6.6290 Y-8.8366
G01 X7.4998 Y-8.8361
G01 X7.5179 Y-8.8327
G01 X7.5339 Y-8.8265
G01 X7.5486 Y-8.8177
G01 X7.5624 Y-8.8056
G01 X7.5738 Y-8.7912
G01 X7.5819 Y-8.7760
G01 X7.5876 Y-8.7585
G01 X7.5899 Y-8.7403
G01 X7.5900 Y-8.5659
G01 X7.5878 Y-8.5465
G01 X7.5850 Y-8.5358
G01 X7.5804 Y-8.5244
G01 X7.5751 Y-8.5147
G01 X7.5688 Y-8.5057
G01 X7.5607 Y-8.4965
G01 X7.5525 Y-8.4891
G01 X7.5435 Y-8.4827
G01 X7.5328 Y-8.4768
G01 X7.5237 Y-8.4730
G01 X7.5131 Y-8.4699
G01 X7.5022 Y-8.4679
G01 X7.4912 Y-8.4672
G01 X6.6290 Y-8.4672
G01 X6.6057 Y-8.4666
G01 X6.5837 Y-8.4650
G01 X6.5617 Y-8.4623
G01 X6.5400 Y-8.4585
G01 X6.5184 Y-8.4537
G01 X6.4971 Y-8.4478
G01 X6.4761 Y-8.4408
G01 X6.4555 Y-8.4329
G01 X6.4353 Y-8.4239
G01 X6.4156 Y-8.4140
G01 X6.3963 Y-8.4031
G01 X6.3777 Y-8.3913
G01 X6.3596 Y-8.3785
G01 X6.3422 Y-8.3649
G01 X6.3254 Y-8.3505
G01 X6.3094 Y-8.3353
G01 X6.2942 Y-8.3193
G01 X6.2798 Y-8.3025
G01 X6.2662 Y-8.2851
G01 X6.2534 Y-8.2670
G01 X6.2416 Y-8.2484
G01 X6.2307 Y-8.2291
G01 X6.2208 Y-8.2094
G01 X6.2118 Y-8.1892
G01 X6.2039 Y-8.1686
G01 X6.1969 Y-8.1476
G01 X6.1910 Y-8.1263
G01 X6.1862 Y-8.1047
G01 X6.1824 Y-8.0830
G01 X6.1797 Y-8.0610
G01 X6.1781 Y-8.0390
G01 X6.1775 Y-8.0157
G01 X6.1775 Y-5.3193
G01 X6.1781 Y-5.2968
G01 X6.1796 Y-5.2755
G01 X6.1821 Y-5.2543
G01 X6.1856 Y-5.2332
G01 X6.1901 Y-5.2124
G01 X6.1956 Y-5.1918
G01 X6.2021 Y-5.1714
G01 X6.2095 Y-5.1514
G01 X6.2179 Y-5.1318
G01 X6.2272 Y-5.1126
G01 X6.2379 Y-5.0928
G01 X6.5498 Y-4.5498
G01 X6.5569 Y-4.5340
G01 X6.5614 Y-4.5159
G01 X6.5625 Y-4.5011
G01 X6.5625 Y-2.6909
G01 X8.5625 Y-2.6909
G01 X8.5626 Y-3.1456
G01 X8.5647 Y-3.1614
G01 X8.5692 Y-3.1767
G01 X8.5761 Y-3.1910
G01 X8.5860 Y-3.2050
G01 X8.6000 Y-3.2187
G01 X8.6164 Y-3.2294
G01 X8.6346 Y-3.2367
G01 X8.6539 Y-3.2403
G01 X9.0203 Y-3.2407
G01 X9.0374 Y-3.2392
G01 X9.0551 Y-3.2344
G01 X9.0707 Y-3.2271
G01 X9.0847 Y-3.2172
G01 X9.0968 Y-3.2051
G01 X9.1067 Y-3.1910
G01 X9.1140 Y-3.1755
G01 X9.1186 Y-3.1590
G01 X9.1203 Y-3.1407
G01 X9.1203 Y-2.6909
G01 X11.1203 Y-2.6909
G01 X11.1203 Y-4.6909
G01 X9.1203 Y-4.6909
G01 X9.1202 Y-4.2363
G01 X9.1181 Y-4.2205
G01 X9.1136 Y-4.2052
G01 X9.1067 Y-4.1909
G01 X9.0968 Y-4.1769
G01 X9.0828 Y-4.1632
G01 X9.0664 Y-4.1525
G01 X9.0482 Y-4.1452
G01 X9.0289 Y-4.1416
G01 X8.6613 Y-4.1412
G01 X8.6442 Y-4.1429
G01 X8.6277 Y-4.1475
G01 X8.6121 Y-4.1548
G01 X8.5981 Y-4.1647
G01 X8.5860 Y-4.1768
G01 X8.5755 Y-4.1919
G01 X8.5683 Y-4.2075
G01 X8.5640 Y-4.2241
G01 X8.5625 Y-4.2412
G01 X8.5625 Y-4.6909
G01 X7.5616 Y-4.6910
G01 X7.5519 Y-4.6918
G01 X7.5411 Y-4.6939
G01 X7.5306 Y-4.6971
G01 X7.5216 Y-4.7009
G01 X7.5120 Y-4.7062
G01 X7.5030 Y-4.7126
G01 X7.4957 Y-4.7190
G01 X7.4883 Y-4.7271
G01 X7.4785 Y-4.7411
G01 X7.0908 Y-5.4162
G01 X7.0832 Y-5.4332
G01 X7.0790 Y-5.4513
G01 X7.0781 Y-5.4649
G01 X7.0781 Y-7.4679
G01 X7.0788 Y-7.4789
G01 X7.0805 Y-7.4885
G01 X7.0835 Y-7.4992
G01 X7.0872 Y-7.5083
G01 X7.0917 Y-7.5170
G01 X7.0978 Y-7.5262
G01 X7.1048 Y-7.5347
G01 X7.1118 Y-7.5415
G01 X7.1246 Y-7.5511
G01 X7.1398 Y-7.5590
G01 X7.1550 Y-7.5639
G01 X7.1719 Y-7.5664
G01 X7.4900 Y-7.5666
G01 X7.5059 Y-7.5654
G01 X7.5225 Y-7.5612
G01 X7.5382 Y-7.5542
G01 X7.5534 Y-7.5439
G01 X7.5657 Y-7.5319
G01 X7.5758 Y-7.5180
G01 X7.5837 Y-7.5015
G01 X7.5883 Y-7.4849
G01 X7.5900 Y-7.4669
G01 X7.6996 Y-7.4669
G01 X7.7167 Y-7.4652
G01 X7.7321 Y-7.4611
G01 X7.7477 Y-7.4539
G01 X7.7609 Y-7.4450
G01 X7.7733 Y-7.4331
G01 X7.7829 Y-7.4204
G01 X7.7903 Y-7.4063
G01 X7.7954 Y-7.3912
G01 X7.7980 Y-7.3755
G01 X7.7981 Y-7.3596
G01 X7.7957 Y-7.3438
G01 X7.7908 Y-7.3286
G01 X7.7842 Y-7.3155
G01 X7.7780 Y-7.3064
G01 X7.7708 Y-7.2980
G01 X7.7628 Y-7.2904
G01 X7.7539 Y-7.2838
G01 X7.7444 Y-7.2781
G01 X7.7355 Y-7.2741
G01 X7.6989 Y-7.2614
G01 X7.6822 Y-7.2537
G01 X7.6660 Y-7.2448
G01 X7.6556 Y-7.2383
G01 X7.6359 Y-7.2237
G01 X7.6266 Y-7.2156
G01 X7.6092 Y-7.1983
G01 X7.5975 Y-7.1841
G01 X7.5866 Y-7.1693
G01 X7.5740 Y-7.1482
G01 X7.5660 Y-7.1316
G01 X7.5591 Y-7.1146
G01 X7.5519 Y-7.0911
G01 X7.5472 Y-7.0670
G01 X7.5457 Y-7.0548
G00 Z2.0000
G00 X7.6446 Y-7.0303
G01 F70.00
G01 Z-0.0800
G01 F120.00
G01 X7.6453 Y-7.0450
G01 X7.6475 Y-7.0596
G01 X7.6510 Y-7.0738
G01 X7.6555 Y-7.0866
G01 X7.6617 Y-7.0999
G01 X7.6685 Y-7.1116
G01 X7.6771 Y-7.1235
G01 X7.6851 Y-7.1328
G01 X7.6948 Y-7.1423
G01 X7.7062 Y-7.1515
G01 X7.7175 Y-7.1590
G01 X7.7305 Y-7.1659
G01 X7.7441 Y-7.1716
G01 X7.7581 Y-7.1758
G01 X7.7726 Y-7.1787
G01 X7.7860 Y-7.1801
G01 X9.9378 Y-7.1803
G01 X9.9574 Y-7.1790
G01 X9.9754 Y-7.1755
G01 X9.9963 Y-7.1684
G01 X10.0160 Y-7.1583
G01 X10.0339 Y-7.1455
G01 X10.0498 Y-7.1301
G01 X10.0632 Y-7.1126
G01 X10.0739 Y-7.0933
G01 X10.0817 Y-7.0727
G01 X10.0864 Y-7.0511
G01 X10.0878 Y-7.0303
G01 X10.0878 Y-6.4350
G01 X10.0865 Y-6.4154
G01 X10.0830 Y-6.3974
G01 X10.0754 Y-6.3753
G01 X10.0701 Y-6.3643
G01 X10.0639 Y-6.3537
G01 X10.0498 Y-6.3352
G01 X10.0330 Y-6.3190
G01 X10.0139 Y-6.3057
G01 X9.9929 Y-6.2955
G01 X9.9813 Y-6.2914
G01 X9.9695 Y-6.2884
G01 X9.9464 Y-6.2852
G01 X8.3900 Y-6.2850
G01 X8.3704 Y-6.2863
G01 X8.3524 Y-6.2898
G01 X8.3337 Y-6.2959
G01 X8.3171 Y-6.3039
G01 X8.3006 Y-6.3145
G01 X8.2857 Y-6.3272
G01 X7.6868 Y-6.9260
G01 X7.6779 Y-6.9361
G01 X7.6692 Y-6.9480
G01 X7.6617 Y-6.9607
G01 X7.6555 Y-6.9740
G01 X7.6510 Y-6.9867
G01 X7.6475 Y-7.0010
G01 X7.6453 Y-7.0156
G01 X7.6446 Y-7.0303
G00 Z2.0000
G00 X9.8608 Y-7.4669
G01 F70.00
G01 Z-0.0800
G01 F120.00
G01 X7.8716 Y-7.4669
G01 X7.8822 Y-7.4457
G01 X7.8905 Y-7.4226
G01 X7.8958 Y-7.3987
G01 X7.8982 Y-7.3743
G01 X7.8976 Y-7.3498
G01 X7.8940 Y-7.3255
G01 X7.8875 Y-7.3019
G01 X7.8787 Y-7.2803
G01 X9.8537 Y-7.2803
G01 X9.8449 Y-7.3018
G01 X9.8384 Y-7.3255
G01 X9.8348 Y-7.3497
G01 X9.8342 Y-7.3743
G01 X9.8366 Y-7.3987
G01 X9.8419 Y-7.4226
G01 X9.8502 Y-7.4457
G01 X9.8608 Y-7.4669
G00 Z2.0000
G00 X6.6733 Y-4.5360
G01 F70.00
G01 Z-0.0800
G01 F120.00
G01 X6.3168 Y-5.1572
G01 X6.3025 Y-5.1885
G01 X6.2917 Y-5.2199
G01 X6.2839 Y-5.2521
G01 X6.2791 Y-5.2861
G01 X6.2777 Y-5.3181
G01 X6.2780 Y-8.0316
G01 X6.2811 Y-8.0658
G01 X6.2849 Y-8.0876
G01 X6.2928 Y-8.1185
G01 X6.3039 Y-8.1498
G01 X6.3179 Y-8.1798
G01 X6.3288 Y-8.1990
G01 X6.3466 Y-8.2255
G01 X6.3667 Y-8.2502
G01 X6.3918 Y-8.2755
G01 X6.4173 Y-8.2966
G01 X6.4353 Y-8.3094
G01 X6.4649 Y-8.3268
G01 X6.4938 Y-8.3404
G01 X6.5262 Y-8.3519
G01 X6.5595 Y-8.3603
G01 X6.5947 Y-8.3655
G01 X6.6278 Y-8.3670
G01 X7.6900 Y-8.3670
G01 X7.6919 Y-8.3864
G01 X7.6971 Y-8.4040
G01 X7.7055 Y-8.4204
G01 X7.7176 Y-8.4359
G01 X7.7324 Y-8.4487
G01 X7.7484 Y-8.4578
G01 X7.7669 Y-8.4642
G01 X7.7851 Y-8.4668
G01 X9.9912 Y-8.4669
G01 X10.0083 Y-8.4652
G01 X10.0248 Y-8.4606
G01 X10.0414 Y-8.4527
G01 X10.0553 Y-8.4426
G01 X10.0624 Y-8.4359
G01 X10.0696 Y-8.4275
G01 X10.0799 Y-8.4108
G01 X10.0867 Y-8.3924
G01 X10.0889 Y-8.3816
G01 X10.0899 Y-8.3718
G01 X10.0899 Y-7.6620
G01 X10.0878 Y-7.6462
G01 X10.0833 Y-7.6309
G01 X10.0764 Y-7.6165
G01 X10.0673 Y-7.6035
G01 X10.0562 Y-7.5920
G01 X10.0435 Y-7.5824
G01 X10.0294 Y-7.5750
G01 X10.0143 Y-7.5699
G01 X10.0022 Y-7.5677
G01 X9.9900 Y-7.5669
G01 X7.7863 Y-7.5670
G01 X7.7669 Y-7.5696
G01 X7.7495 Y-7.5755
G01 X7.7334 Y-7.5844
G01 X7.7184 Y-7.5971
G01 X7.7069 Y-7.6113
G01 X7.6976 Y-7.6286
G01 X7.6919 Y-7.6474
G01 X7.6900 Y-7.6668
G01 X6.9779 Y-7.6668
G01 X6.9779 Y-5.4115
G01 X7.4493 Y-4.5909
G01 X8.3650 Y-4.5909
G01 X8.3832 Y-4.5887
G01 X8.4008 Y-4.5833
G01 X8.4170 Y-4.5747
G01 X8.4306 Y-4.5642
G01 X8.4428 Y-4.5505
G01 X8.4529 Y-4.5337
G01 X8.4592 Y-4.5164
G01 X8.4623 Y-4.4970
G01 X8.4625 Y-4.0411
G01 X9.2203 Y-4.0411
G01 X9.2203 Y-4.4909
G01 X9.2214 Y-4.5056
G01 X9.2246 Y-4.5199
G01 X9.2304 Y-4.5348
G01 X9.2378 Y-4.5475
G01 X9.2470 Y-4.5590
G01 X9.2588 Y-4.5697
G01 X9.2710 Y-4.5779
G01 X9.2843 Y-4.5842
G01 X9.2996 Y-4.5887
G01 X9.3093 Y-4.5903
G01 X9.3203 Y-4.5909
G01 X10.9215 Y-4.5909
G01 X10.9362 Y-4.5896
G01 X10.9493 Y-4.5866
G01 X10.9631 Y-4.5813
G01 X10.9748 Y-4.5747
G01 X10.9847 Y-4.5674
G01 X10.9936 Y-4.5590
G01 X11.0013 Y-4.5495
G01 X11.0079 Y-4.5391
G01 X11.0132 Y-4.5280
G01 X11.0170 Y-4.5164
G01 X11.0194 Y-4.5044
G01 X11.0203 Y-4.4921
G01 X11.0203 Y-2.8897
G01 X11.0186 Y-2.8726
G01 X11.0140 Y-2.8561
G01 X11.0061 Y-2.8395
G01 X10.9960 Y-2.8256
G01 X10.9893 Y-2.8185
G01 X10.9809 Y-2.8113
G01 X10.9717 Y-2.8051
G01 X10.9631 Y-2.8005
G01 X10.9540 Y-2.7967
G01 X10.9434 Y-2.7936
G01 X10.9325 Y-2.7917
G01 X10.9228 Y-2.7909
G01 X9.3203 Y-2.7909
G01 X9.3008 Y-2.7928
G01 X9.2866 Y-2.7967
G01 X9.2721 Y-2.8033
G01 X9.2588 Y-2.8121
G01 X9.2479 Y-2.8219
G01 X9.2378 Y-2.8343
G01 X9.2304 Y-2.8470
G01 X9.2246 Y-2.8619
G01 X9.2214 Y-2.8762
G01 X9.2203 Y-2.8909
G01 X9.2203 Y-3.3408
G01 X8.4625 Y-3.3408
G01 X8.4625 Y-2.8909
G01 X8.4617 Y-2.8787
G01 X8.4592 Y-2.8654
G01 X8.4544 Y-2.8515
G01 X8.4483 Y-2.8395
G01 X8.4398 Y-2.8275
G01 X8.4297 Y-2.8168
G01 X8.4191 Y-2.8084
G01 X8.4064 Y-2.8010
G01 X8.3927 Y-2.7956
G01 X8.3784 Y-2.7922
G01 X8.3625 Y-2.7909
G01 X6.7625 Y-2.7909
G01 X6.7430 Y-2.7928
G01 X6.7254 Y-2.7980
G01 X6.7121 Y-2.8045
G01 X6.7000 Y-2.8128
G01 X6.6892 Y-2.8228
G01 X6.6800 Y-2.8343
G01 X6.6726 Y-2.8470
G01 X6.6672 Y-2.8607
G01 X6.6638 Y-2.8750
G01 X6.6625 Y-2.8884
G01 X6.6625 Y-4.4921
G01 X6.6633 Y-4.5031
G01 X6.6655 Y-4.5152
G01 X6.6688 Y-4.5257
G01 X6.6733 Y-4.5360
G00 Z2.0000
M05
G00 Z2.0000
G00 Z25.00

