(G-CODE GENERATED BY FLATCAM v8.993 - www.flatcam.org - Version Date: 2020/06/05)

(Name: AD8009.drl_cnc)
(Type: G-code from Excellon)
(Units: MM)

(Created on Saturday, 31 October 2020 at 16:14)

(This preprocessor is the default preprocessor used by FlatCAM.)
(It is made to work with MACH3 compatible motion controllers.)


(TOOLS DIAMETER: )
(Tool: 1 -> Dia: 0.9)

(FEEDRATE Z: )
(Tool: 1 -> Feedrate: 70.0)

(FEEDRATE RAPIDS: )
(Tool: 1 -> Feedrate Rapids: 1500)

(Z_CUT: )
(Tool: 1 -> Z_Cut: -1.8)

(Tools Offset: )
(Tool: 1 -> Offset Z: -0.0)

(Z_MOVE: )
(Tool: 1 -> Z_Move: 2)

(Z Toolchange: 5.0 mm)
(X,Y Toolchange: 0.00, 0.00 mm)
(Z Start: None mm)
(Z End: 2.0 mm)
(Steps per circle: 128)
(Preprocessor Excellon: default)

(X range:    1.8500 ...   17.9900  mm)
(Y range:  -18.5500 ...  -17.6500  mm)

(Spindle Speed: 10000.0 RPM)
G21
G90
G94



G01 F70.00

M5
G00 Z5.0000
T1
G00 X0.0000 Y0.0000                
M6
(MSG, Change to Tool Dia = 0.90 ||| Total drills for tool T1 = 4)
M0
G00 Z5.0000

M03 S10000
G00 X2.3000 Y-18.1000
G01 Z-1.8000
G01 Z0
G00 Z2.0000
G00 X7.3800 Y-18.1000
G01 Z-1.8000
G01 Z0
G00 Z2.0000
G00 X12.4600 Y-18.1000
G01 Z-1.8000
G01 Z0
G00 Z2.0000
G00 X17.5400 Y-18.1000
G01 Z-1.8000
G01 Z0
G00 Z2.0000
M05
G00 Z2.00

