(G-CODE GENERATED BY FLATCAM v8.993 - www.flatcam.org - Version Date: 2020/06/05)

(Name: AD8009_контур.gbr_cutout_cnc)
(Type: G-code from Geometry)
(Units: MM)

(Created on Saturday, 31 October 2020 at 08:41)

(This preprocessor is the default preprocessor used by FlatCAM.)
(It is made to work with MACH3 compatible motion controllers.)

(TOOL DIAMETER: 0.8 mm)
(Feedrate_XY: 120.0 mm/min)
(Feedrate_Z: 70.0 mm/min)
(Feedrate rapids 1500.0 mm/min)

(Z_Cut: -1.8 mm)
(DepthPerCut: 0.1 mm <=>18 passes)
(Z_Move: 2.0 mm)
(Z Start: None mm)
(Z End: 25.0 mm)
(Steps per circle: 128)
(Preprocessor Geometry: default)

(X range:  -11.2296 ...    0.5067  mm)
(Y range:  -18.9580 ...    0.4776  mm)

(Spindle Speed: 10000 RPM)
G21
G90
G94



G01 F120.00
G00 Z2.0000

M03 S10000
G00 X0.0067 Y-18.9580
G01 F70.00
G01 Z-0.1000
G01 F120.00
G01 X-10.7296 Y-18.9580
G01 X-10.7786 Y-18.9556
G01 X-10.8272 Y-18.9484
G01 X-10.8748 Y-18.9365
G01 X-10.9210 Y-18.9200
G01 X-10.9653 Y-18.8990
G01 X-11.0074 Y-18.8738
G01 X-11.0468 Y-18.8445
G01 X-11.0832 Y-18.8116
G01 X-11.1161 Y-18.7752
G01 X-11.1454 Y-18.7358
G01 X-11.1706 Y-18.6937
G01 X-11.1916 Y-18.6494
G01 X-11.2081 Y-18.6032
G01 X-11.2200 Y-18.5556
G01 X-11.2272 Y-18.5070
G01 X-11.2296 Y-18.4580
G01 X-11.2296 Y-0.0224
G01 X-11.2272 Y0.0266
G01 X-11.2200 Y0.0752
G01 X-11.2081 Y0.1228
G01 X-11.1916 Y0.1690
G01 X-11.1706 Y0.2133
G01 X-11.1454 Y0.2554
G01 X-11.1161 Y0.2948
G01 X-11.0832 Y0.3312
G01 X-11.0468 Y0.3641
G01 X-11.0074 Y0.3934
G01 X-10.9653 Y0.4186
G01 X-10.9210 Y0.4396
G01 X-10.8748 Y0.4561
G01 X-10.8272 Y0.4680
G01 X-10.7786 Y0.4752
G01 X-10.7296 Y0.4776
G01 X0.0067 Y0.4776
G01 X0.0557 Y0.4752
G01 X0.1043 Y0.4680
G01 X0.1519 Y0.4561
G01 X0.1981 Y0.4396
G01 X0.2424 Y0.4186
G01 X0.2845 Y0.3934
G01 X0.3239 Y0.3641
G01 X0.3603 Y0.3312
G01 X0.3932 Y0.2948
G01 X0.4225 Y0.2554
G01 X0.4477 Y0.2133
G01 X0.4687 Y0.1690
G01 X0.4852 Y0.1228
G01 X0.4971 Y0.0752
G01 X0.5043 Y0.0266
G01 X0.5067 Y-0.0224
G01 X0.5067 Y-18.4580
G01 X0.5043 Y-18.5070
G01 X0.4971 Y-18.5556
G01 X0.4852 Y-18.6032
G01 X0.4687 Y-18.6494
G01 X0.4477 Y-18.6937
G01 X0.4225 Y-18.7358
G01 X0.3932 Y-18.7752
G01 X0.3603 Y-18.8116
G01 X0.3239 Y-18.8445
G01 X0.2845 Y-18.8738
G01 X0.2424 Y-18.8990
G01 X0.1981 Y-18.9200
G01 X0.1519 Y-18.9365
G01 X0.1043 Y-18.9484
G01 X0.0557 Y-18.9556
G01 X0.0067 Y-18.9580
G00 X0.0067 Y-18.9580
G01 F70.00
G01 Z-0.2000
G01 F120.00
G01 X0.0557 Y-18.9556
G01 X0.1043 Y-18.9484
G01 X0.1519 Y-18.9365
G01 X0.1981 Y-18.9200
G01 X0.2424 Y-18.8990
G01 X0.2845 Y-18.8738
G01 X0.3239 Y-18.8445
G01 X0.3603 Y-18.8116
G01 X0.3932 Y-18.7752
G01 X0.4225 Y-18.7358
G01 X0.4477 Y-18.6937
G01 X0.4687 Y-18.6494
G01 X0.4852 Y-18.6032
G01 X0.4971 Y-18.5556
G01 X0.5043 Y-18.5070
G01 X0.5067 Y-18.4580
G01 X0.5067 Y-0.0224
G01 X0.5043 Y0.0266
G01 X0.4971 Y0.0752
G01 X0.4852 Y0.1228
G01 X0.4687 Y0.1690
G01 X0.4477 Y0.2133
G01 X0.4225 Y0.2554
G01 X0.3932 Y0.2948
G01 X0.3603 Y0.3312
G01 X0.3239 Y0.3641
G01 X0.2845 Y0.3934
G01 X0.2424 Y0.4186
G01 X0.1981 Y0.4396
G01 X0.1519 Y0.4561
G01 X0.1043 Y0.4680
G01 X0.0557 Y0.4752
G01 X0.0067 Y0.4776
G01 X-10.7296 Y0.4776
G01 X-10.7786 Y0.4752
G01 X-10.8272 Y0.4680
G01 X-10.8748 Y0.4561
G01 X-10.9210 Y0.4396
G01 X-10.9653 Y0.4186
G01 X-11.0074 Y0.3934
G01 X-11.0468 Y0.3641
G01 X-11.0832 Y0.3312
G01 X-11.1161 Y0.2948
G01 X-11.1454 Y0.2554
G01 X-11.1706 Y0.2133
G01 X-11.1916 Y0.1690
G01 X-11.2081 Y0.1228
G01 X-11.2200 Y0.0752
G01 X-11.2272 Y0.0266
G01 X-11.2296 Y-0.0224
G01 X-11.2296 Y-18.4580
G01 X-11.2272 Y-18.5070
G01 X-11.2200 Y-18.5556
G01 X-11.2081 Y-18.6032
G01 X-11.1916 Y-18.6494
G01 X-11.1706 Y-18.6937
G01 X-11.1454 Y-18.7358
G01 X-11.1161 Y-18.7752
G01 X-11.0832 Y-18.8116
G01 X-11.0468 Y-18.8445
G01 X-11.0074 Y-18.8738
G01 X-10.9653 Y-18.8990
G01 X-10.9210 Y-18.9200
G01 X-10.8748 Y-18.9365
G01 X-10.8272 Y-18.9484
G01 X-10.7786 Y-18.9556
G01 X-10.7296 Y-18.9580
G01 X0.0067 Y-18.9580
G00 X0.0067 Y-18.9580
G01 F70.00
G01 Z-0.3000
G01 F120.00
G01 X-10.7296 Y-18.9580
G01 X-10.7786 Y-18.9556
G01 X-10.8272 Y-18.9484
G01 X-10.8748 Y-18.9365
G01 X-10.9210 Y-18.9200
G01 X-10.9653 Y-18.8990
G01 X-11.0074 Y-18.8738
G01 X-11.0468 Y-18.8445
G01 X-11.0832 Y-18.8116
G01 X-11.1161 Y-18.7752
G01 X-11.1454 Y-18.7358
G01 X-11.1706 Y-18.6937
G01 X-11.1916 Y-18.6494
G01 X-11.2081 Y-18.6032
G01 X-11.2200 Y-18.5556
G01 X-11.2272 Y-18.5070
G01 X-11.2296 Y-18.4580
G01 X-11.2296 Y-0.0224
G01 X-11.2272 Y0.0266
G01 X-11.2200 Y0.0752
G01 X-11.2081 Y0.1228
G01 X-11.1916 Y0.1690
G01 X-11.1706 Y0.2133
G01 X-11.1454 Y0.2554
G01 X-11.1161 Y0.2948
G01 X-11.0832 Y0.3312
G01 X-11.0468 Y0.3641
G01 X-11.0074 Y0.3934
G01 X-10.9653 Y0.4186
G01 X-10.9210 Y0.4396
G01 X-10.8748 Y0.4561
G01 X-10.8272 Y0.4680
G01 X-10.7786 Y0.4752
G01 X-10.7296 Y0.4776
G01 X0.0067 Y0.4776
G01 X0.0557 Y0.4752
G01 X0.1043 Y0.4680
G01 X0.1519 Y0.4561
G01 X0.1981 Y0.4396
G01 X0.2424 Y0.4186
G01 X0.2845 Y0.3934
G01 X0.3239 Y0.3641
G01 X0.3603 Y0.3312
G01 X0.3932 Y0.2948
G01 X0.4225 Y0.2554
G01 X0.4477 Y0.2133
G01 X0.4687 Y0.1690
G01 X0.4852 Y0.1228
G01 X0.4971 Y0.0752
G01 X0.5043 Y0.0266
G01 X0.5067 Y-0.0224
G01 X0.5067 Y-18.4580
G01 X0.5043 Y-18.5070
G01 X0.4971 Y-18.5556
G01 X0.4852 Y-18.6032
G01 X0.4687 Y-18.6494
G01 X0.4477 Y-18.6937
G01 X0.4225 Y-18.7358
G01 X0.3932 Y-18.7752
G01 X0.3603 Y-18.8116
G01 X0.3239 Y-18.8445
G01 X0.2845 Y-18.8738
G01 X0.2424 Y-18.8990
G01 X0.1981 Y-18.9200
G01 X0.1519 Y-18.9365
G01 X0.1043 Y-18.9484
G01 X0.0557 Y-18.9556
G01 X0.0067 Y-18.9580
G00 X0.0067 Y-18.9580
G01 F70.00
G01 Z-0.4000
G01 F120.00
G01 X0.0557 Y-18.9556
G01 X0.1043 Y-18.9484
G01 X0.1519 Y-18.9365
G01 X0.1981 Y-18.9200
G01 X0.2424 Y-18.8990
G01 X0.2845 Y-18.8738
G01 X0.3239 Y-18.8445
G01 X0.3603 Y-18.8116
G01 X0.3932 Y-18.7752
G01 X0.4225 Y-18.7358
G01 X0.4477 Y-18.6937
G01 X0.4687 Y-18.6494
G01 X0.4852 Y-18.6032
G01 X0.4971 Y-18.5556
G01 X0.5043 Y-18.5070
G01 X0.5067 Y-18.4580
G01 X0.5067 Y-0.0224
G01 X0.5043 Y0.0266
G01 X0.4971 Y0.0752
G01 X0.4852 Y0.1228
G01 X0.4687 Y0.1690
G01 X0.4477 Y0.2133
G01 X0.4225 Y0.2554
G01 X0.3932 Y0.2948
G01 X0.3603 Y0.3312
G01 X0.3239 Y0.3641
G01 X0.2845 Y0.3934
G01 X0.2424 Y0.4186
G01 X0.1981 Y0.4396
G01 X0.1519 Y0.4561
G01 X0.1043 Y0.4680
G01 X0.0557 Y0.4752
G01 X0.0067 Y0.4776
G01 X-10.7296 Y0.4776
G01 X-10.7786 Y0.4752
G01 X-10.8272 Y0.4680
G01 X-10.8748 Y0.4561
G01 X-10.9210 Y0.4396
G01 X-10.9653 Y0.4186
G01 X-11.0074 Y0.3934
G01 X-11.0468 Y0.3641
G01 X-11.0832 Y0.3312
G01 X-11.1161 Y0.2948
G01 X-11.1454 Y0.2554
G01 X-11.1706 Y0.2133
G01 X-11.1916 Y0.1690
G01 X-11.2081 Y0.1228
G01 X-11.2200 Y0.0752
G01 X-11.2272 Y0.0266
G01 X-11.2296 Y-0.0224
G01 X-11.2296 Y-18.4580
G01 X-11.2272 Y-18.5070
G01 X-11.2200 Y-18.5556
G01 X-11.2081 Y-18.6032
G01 X-11.1916 Y-18.6494
G01 X-11.1706 Y-18.6937
G01 X-11.1454 Y-18.7358
G01 X-11.1161 Y-18.7752
G01 X-11.0832 Y-18.8116
G01 X-11.0468 Y-18.8445
G01 X-11.0074 Y-18.8738
G01 X-10.9653 Y-18.8990
G01 X-10.9210 Y-18.9200
G01 X-10.8748 Y-18.9365
G01 X-10.8272 Y-18.9484
G01 X-10.7786 Y-18.9556
G01 X-10.7296 Y-18.9580
G01 X0.0067 Y-18.9580
G00 X0.0067 Y-18.9580
G01 F70.00
G01 Z-0.5000
G01 F120.00
G01 X-10.7296 Y-18.9580
G01 X-10.7786 Y-18.9556
G01 X-10.8272 Y-18.9484
G01 X-10.8748 Y-18.9365
G01 X-10.9210 Y-18.9200
G01 X-10.9653 Y-18.8990
G01 X-11.0074 Y-18.8738
G01 X-11.0468 Y-18.8445
G01 X-11.0832 Y-18.8116
G01 X-11.1161 Y-18.7752
G01 X-11.1454 Y-18.7358
G01 X-11.1706 Y-18.6937
G01 X-11.1916 Y-18.6494
G01 X-11.2081 Y-18.6032
G01 X-11.2200 Y-18.5556
G01 X-11.2272 Y-18.5070
G01 X-11.2296 Y-18.4580
G01 X-11.2296 Y-0.0224
G01 X-11.2272 Y0.0266
G01 X-11.2200 Y0.0752
G01 X-11.2081 Y0.1228
G01 X-11.1916 Y0.1690
G01 X-11.1706 Y0.2133
G01 X-11.1454 Y0.2554
G01 X-11.1161 Y0.2948
G01 X-11.0832 Y0.3312
G01 X-11.0468 Y0.3641
G01 X-11.0074 Y0.3934
G01 X-10.9653 Y0.4186
G01 X-10.9210 Y0.4396
G01 X-10.8748 Y0.4561
G01 X-10.8272 Y0.4680
G01 X-10.7786 Y0.4752
G01 X-10.7296 Y0.4776
G01 X0.0067 Y0.4776
G01 X0.0557 Y0.4752
G01 X0.1043 Y0.4680
G01 X0.1519 Y0.4561
G01 X0.1981 Y0.4396
G01 X0.2424 Y0.4186
G01 X0.2845 Y0.3934
G01 X0.3239 Y0.3641
G01 X0.3603 Y0.3312
G01 X0.3932 Y0.2948
G01 X0.4225 Y0.2554
G01 X0.4477 Y0.2133
G01 X0.4687 Y0.1690
G01 X0.4852 Y0.1228
G01 X0.4971 Y0.0752
G01 X0.5043 Y0.0266
G01 X0.5067 Y-0.0224
G01 X0.5067 Y-18.4580
G01 X0.5043 Y-18.5070
G01 X0.4971 Y-18.5556
G01 X0.4852 Y-18.6032
G01 X0.4687 Y-18.6494
G01 X0.4477 Y-18.6937
G01 X0.4225 Y-18.7358
G01 X0.3932 Y-18.7752
G01 X0.3603 Y-18.8116
G01 X0.3239 Y-18.8445
G01 X0.2845 Y-18.8738
G01 X0.2424 Y-18.8990
G01 X0.1981 Y-18.9200
G01 X0.1519 Y-18.9365
G01 X0.1043 Y-18.9484
G01 X0.0557 Y-18.9556
G01 X0.0067 Y-18.9580
G00 X0.0067 Y-18.9580
G01 F70.00
G01 Z-0.6000
G01 F120.00
G01 X0.0557 Y-18.9556
G01 X0.1043 Y-18.9484
G01 X0.1519 Y-18.9365
G01 X0.1981 Y-18.9200
G01 X0.2424 Y-18.8990
G01 X0.2845 Y-18.8738
G01 X0.3239 Y-18.8445
G01 X0.3603 Y-18.8116
G01 X0.3932 Y-18.7752
G01 X0.4225 Y-18.7358
G01 X0.4477 Y-18.6937
G01 X0.4687 Y-18.6494
G01 X0.4852 Y-18.6032
G01 X0.4971 Y-18.5556
G01 X0.5043 Y-18.5070
G01 X0.5067 Y-18.4580
G01 X0.5067 Y-0.0224
G01 X0.5043 Y0.0266
G01 X0.4971 Y0.0752
G01 X0.4852 Y0.1228
G01 X0.4687 Y0.1690
G01 X0.4477 Y0.2133
G01 X0.4225 Y0.2554
G01 X0.3932 Y0.2948
G01 X0.3603 Y0.3312
G01 X0.3239 Y0.3641
G01 X0.2845 Y0.3934
G01 X0.2424 Y0.4186
G01 X0.1981 Y0.4396
G01 X0.1519 Y0.4561
G01 X0.1043 Y0.4680
G01 X0.0557 Y0.4752
G01 X0.0067 Y0.4776
G01 X-10.7296 Y0.4776
G01 X-10.7786 Y0.4752
G01 X-10.8272 Y0.4680
G01 X-10.8748 Y0.4561
G01 X-10.9210 Y0.4396
G01 X-10.9653 Y0.4186
G01 X-11.0074 Y0.3934
G01 X-11.0468 Y0.3641
G01 X-11.0832 Y0.3312
G01 X-11.1161 Y0.2948
G01 X-11.1454 Y0.2554
G01 X-11.1706 Y0.2133
G01 X-11.1916 Y0.1690
G01 X-11.2081 Y0.1228
G01 X-11.2200 Y0.0752
G01 X-11.2272 Y0.0266
G01 X-11.2296 Y-0.0224
G01 X-11.2296 Y-18.4580
G01 X-11.2272 Y-18.5070
G01 X-11.2200 Y-18.5556
G01 X-11.2081 Y-18.6032
G01 X-11.1916 Y-18.6494
G01 X-11.1706 Y-18.6937
G01 X-11.1454 Y-18.7358
G01 X-11.1161 Y-18.7752
G01 X-11.0832 Y-18.8116
G01 X-11.0468 Y-18.8445
G01 X-11.0074 Y-18.8738
G01 X-10.9653 Y-18.8990
G01 X-10.9210 Y-18.9200
G01 X-10.8748 Y-18.9365
G01 X-10.8272 Y-18.9484
G01 X-10.7786 Y-18.9556
G01 X-10.7296 Y-18.9580
G01 X0.0067 Y-18.9580
G00 X0.0067 Y-18.9580
G01 F70.00
G01 Z-0.7000
G01 F120.00
G01 X-10.7296 Y-18.9580
G01 X-10.7786 Y-18.9556
G01 X-10.8272 Y-18.9484
G01 X-10.8748 Y-18.9365
G01 X-10.9210 Y-18.9200
G01 X-10.9653 Y-18.8990
G01 X-11.0074 Y-18.8738
G01 X-11.0468 Y-18.8445
G01 X-11.0832 Y-18.8116
G01 X-11.1161 Y-18.7752
G01 X-11.1454 Y-18.7358
G01 X-11.1706 Y-18.6937
G01 X-11.1916 Y-18.6494
G01 X-11.2081 Y-18.6032
G01 X-11.2200 Y-18.5556
G01 X-11.2272 Y-18.5070
G01 X-11.2296 Y-18.4580
G01 X-11.2296 Y-0.0224
G01 X-11.2272 Y0.0266
G01 X-11.2200 Y0.0752
G01 X-11.2081 Y0.1228
G01 X-11.1916 Y0.1690
G01 X-11.1706 Y0.2133
G01 X-11.1454 Y0.2554
G01 X-11.1161 Y0.2948
G01 X-11.0832 Y0.3312
G01 X-11.0468 Y0.3641
G01 X-11.0074 Y0.3934
G01 X-10.9653 Y0.4186
G01 X-10.9210 Y0.4396
G01 X-10.8748 Y0.4561
G01 X-10.8272 Y0.4680
G01 X-10.7786 Y0.4752
G01 X-10.7296 Y0.4776
G01 X0.0067 Y0.4776
G01 X0.0557 Y0.4752
G01 X0.1043 Y0.4680
G01 X0.1519 Y0.4561
G01 X0.1981 Y0.4396
G01 X0.2424 Y0.4186
G01 X0.2845 Y0.3934
G01 X0.3239 Y0.3641
G01 X0.3603 Y0.3312
G01 X0.3932 Y0.2948
G01 X0.4225 Y0.2554
G01 X0.4477 Y0.2133
G01 X0.4687 Y0.1690
G01 X0.4852 Y0.1228
G01 X0.4971 Y0.0752
G01 X0.5043 Y0.0266
G01 X0.5067 Y-0.0224
G01 X0.5067 Y-18.4580
G01 X0.5043 Y-18.5070
G01 X0.4971 Y-18.5556
G01 X0.4852 Y-18.6032
G01 X0.4687 Y-18.6494
G01 X0.4477 Y-18.6937
G01 X0.4225 Y-18.7358
G01 X0.3932 Y-18.7752
G01 X0.3603 Y-18.8116
G01 X0.3239 Y-18.8445
G01 X0.2845 Y-18.8738
G01 X0.2424 Y-18.8990
G01 X0.1981 Y-18.9200
G01 X0.1519 Y-18.9365
G01 X0.1043 Y-18.9484
G01 X0.0557 Y-18.9556
G01 X0.0067 Y-18.9580
G00 X0.0067 Y-18.9580
G01 F70.00
G01 Z-0.8000
G01 F120.00
G01 X0.0557 Y-18.9556
G01 X0.1043 Y-18.9484
G01 X0.1519 Y-18.9365
G01 X0.1981 Y-18.9200
G01 X0.2424 Y-18.8990
G01 X0.2845 Y-18.8738
G01 X0.3239 Y-18.8445
G01 X0.3603 Y-18.8116
G01 X0.3932 Y-18.7752
G01 X0.4225 Y-18.7358
G01 X0.4477 Y-18.6937
G01 X0.4687 Y-18.6494
G01 X0.4852 Y-18.6032
G01 X0.4971 Y-18.5556
G01 X0.5043 Y-18.5070
G01 X0.5067 Y-18.4580
G01 X0.5067 Y-0.0224
G01 X0.5043 Y0.0266
G01 X0.4971 Y0.0752
G01 X0.4852 Y0.1228
G01 X0.4687 Y0.1690
G01 X0.4477 Y0.2133
G01 X0.4225 Y0.2554
G01 X0.3932 Y0.2948
G01 X0.3603 Y0.3312
G01 X0.3239 Y0.3641
G01 X0.2845 Y0.3934
G01 X0.2424 Y0.4186
G01 X0.1981 Y0.4396
G01 X0.1519 Y0.4561
G01 X0.1043 Y0.4680
G01 X0.0557 Y0.4752
G01 X0.0067 Y0.4776
G01 X-10.7296 Y0.4776
G01 X-10.7786 Y0.4752
G01 X-10.8272 Y0.4680
G01 X-10.8748 Y0.4561
G01 X-10.9210 Y0.4396
G01 X-10.9653 Y0.4186
G01 X-11.0074 Y0.3934
G01 X-11.0468 Y0.3641
G01 X-11.0832 Y0.3312
G01 X-11.1161 Y0.2948
G01 X-11.1454 Y0.2554
G01 X-11.1706 Y0.2133
G01 X-11.1916 Y0.1690
G01 X-11.2081 Y0.1228
G01 X-11.2200 Y0.0752
G01 X-11.2272 Y0.0266
G01 X-11.2296 Y-0.0224
G01 X-11.2296 Y-18.4580
G01 X-11.2272 Y-18.5070
G01 X-11.2200 Y-18.5556
G01 X-11.2081 Y-18.6032
G01 X-11.1916 Y-18.6494
G01 X-11.1706 Y-18.6937
G01 X-11.1454 Y-18.7358
G01 X-11.1161 Y-18.7752
G01 X-11.0832 Y-18.8116
G01 X-11.0468 Y-18.8445
G01 X-11.0074 Y-18.8738
G01 X-10.9653 Y-18.8990
G01 X-10.9210 Y-18.9200
G01 X-10.8748 Y-18.9365
G01 X-10.8272 Y-18.9484
G01 X-10.7786 Y-18.9556
G01 X-10.7296 Y-18.9580
G01 X0.0067 Y-18.9580
G00 X0.0067 Y-18.9580
G01 F70.00
G01 Z-0.9000
G01 F120.00
G01 X-10.7296 Y-18.9580
G01 X-10.7786 Y-18.9556
G01 X-10.8272 Y-18.9484
G01 X-10.8748 Y-18.9365
G01 X-10.9210 Y-18.9200
G01 X-10.9653 Y-18.8990
G01 X-11.0074 Y-18.8738
G01 X-11.0468 Y-18.8445
G01 X-11.0832 Y-18.8116
G01 X-11.1161 Y-18.7752
G01 X-11.1454 Y-18.7358
G01 X-11.1706 Y-18.6937
G01 X-11.1916 Y-18.6494
G01 X-11.2081 Y-18.6032
G01 X-11.2200 Y-18.5556
G01 X-11.2272 Y-18.5070
G01 X-11.2296 Y-18.4580
G01 X-11.2296 Y-0.0224
G01 X-11.2272 Y0.0266
G01 X-11.2200 Y0.0752
G01 X-11.2081 Y0.1228
G01 X-11.1916 Y0.1690
G01 X-11.1706 Y0.2133
G01 X-11.1454 Y0.2554
G01 X-11.1161 Y0.2948
G01 X-11.0832 Y0.3312
G01 X-11.0468 Y0.3641
G01 X-11.0074 Y0.3934
G01 X-10.9653 Y0.4186
G01 X-10.9210 Y0.4396
G01 X-10.8748 Y0.4561
G01 X-10.8272 Y0.4680
G01 X-10.7786 Y0.4752
G01 X-10.7296 Y0.4776
G01 X0.0067 Y0.4776
G01 X0.0557 Y0.4752
G01 X0.1043 Y0.4680
G01 X0.1519 Y0.4561
G01 X0.1981 Y0.4396
G01 X0.2424 Y0.4186
G01 X0.2845 Y0.3934
G01 X0.3239 Y0.3641
G01 X0.3603 Y0.3312
G01 X0.3932 Y0.2948
G01 X0.4225 Y0.2554
G01 X0.4477 Y0.2133
G01 X0.4687 Y0.1690
G01 X0.4852 Y0.1228
G01 X0.4971 Y0.0752
G01 X0.5043 Y0.0266
G01 X0.5067 Y-0.0224
G01 X0.5067 Y-18.4580
G01 X0.5043 Y-18.5070
G01 X0.4971 Y-18.5556
G01 X0.4852 Y-18.6032
G01 X0.4687 Y-18.6494
G01 X0.4477 Y-18.6937
G01 X0.4225 Y-18.7358
G01 X0.3932 Y-18.7752
G01 X0.3603 Y-18.8116
G01 X0.3239 Y-18.8445
G01 X0.2845 Y-18.8738
G01 X0.2424 Y-18.8990
G01 X0.1981 Y-18.9200
G01 X0.1519 Y-18.9365
G01 X0.1043 Y-18.9484
G01 X0.0557 Y-18.9556
G01 X0.0067 Y-18.9580
G00 X0.0067 Y-18.9580
G01 F70.00
G01 Z-1.0000
G01 F120.00
G01 X0.0557 Y-18.9556
G01 X0.1043 Y-18.9484
G01 X0.1519 Y-18.9365
G01 X0.1981 Y-18.9200
G01 X0.2424 Y-18.8990
G01 X0.2845 Y-18.8738
G01 X0.3239 Y-18.8445
G01 X0.3603 Y-18.8116
G01 X0.3932 Y-18.7752
G01 X0.4225 Y-18.7358
G01 X0.4477 Y-18.6937
G01 X0.4687 Y-18.6494
G01 X0.4852 Y-18.6032
G01 X0.4971 Y-18.5556
G01 X0.5043 Y-18.5070
G01 X0.5067 Y-18.4580
G01 X0.5067 Y-0.0224
G01 X0.5043 Y0.0266
G01 X0.4971 Y0.0752
G01 X0.4852 Y0.1228
G01 X0.4687 Y0.1690
G01 X0.4477 Y0.2133
G01 X0.4225 Y0.2554
G01 X0.3932 Y0.2948
G01 X0.3603 Y0.3312
G01 X0.3239 Y0.3641
G01 X0.2845 Y0.3934
G01 X0.2424 Y0.4186
G01 X0.1981 Y0.4396
G01 X0.1519 Y0.4561
G01 X0.1043 Y0.4680
G01 X0.0557 Y0.4752
G01 X0.0067 Y0.4776
G01 X-10.7296 Y0.4776
G01 X-10.7786 Y0.4752
G01 X-10.8272 Y0.4680
G01 X-10.8748 Y0.4561
G01 X-10.9210 Y0.4396
G01 X-10.9653 Y0.4186
G01 X-11.0074 Y0.3934
G01 X-11.0468 Y0.3641
G01 X-11.0832 Y0.3312
G01 X-11.1161 Y0.2948
G01 X-11.1454 Y0.2554
G01 X-11.1706 Y0.2133
G01 X-11.1916 Y0.1690
G01 X-11.2081 Y0.1228
G01 X-11.2200 Y0.0752
G01 X-11.2272 Y0.0266
G01 X-11.2296 Y-0.0224
G01 X-11.2296 Y-18.4580
G01 X-11.2272 Y-18.5070
G01 X-11.2200 Y-18.5556
G01 X-11.2081 Y-18.6032
G01 X-11.1916 Y-18.6494
G01 X-11.1706 Y-18.6937
G01 X-11.1454 Y-18.7358
G01 X-11.1161 Y-18.7752
G01 X-11.0832 Y-18.8116
G01 X-11.0468 Y-18.8445
G01 X-11.0074 Y-18.8738
G01 X-10.9653 Y-18.8990
G01 X-10.9210 Y-18.9200
G01 X-10.8748 Y-18.9365
G01 X-10.8272 Y-18.9484
G01 X-10.7786 Y-18.9556
G01 X-10.7296 Y-18.9580
G01 X0.0067 Y-18.9580
G00 X0.0067 Y-18.9580
G01 F70.00
G01 Z-1.1000
G01 F120.00
G01 X-10.7296 Y-18.9580
G01 X-10.7786 Y-18.9556
G01 X-10.8272 Y-18.9484
G01 X-10.8748 Y-18.9365
G01 X-10.9210 Y-18.9200
G01 X-10.9653 Y-18.8990
G01 X-11.0074 Y-18.8738
G01 X-11.0468 Y-18.8445
G01 X-11.0832 Y-18.8116
G01 X-11.1161 Y-18.7752
G01 X-11.1454 Y-18.7358
G01 X-11.1706 Y-18.6937
G01 X-11.1916 Y-18.6494
G01 X-11.2081 Y-18.6032
G01 X-11.2200 Y-18.5556
G01 X-11.2272 Y-18.5070
G01 X-11.2296 Y-18.4580
G01 X-11.2296 Y-0.0224
G01 X-11.2272 Y0.0266
G01 X-11.2200 Y0.0752
G01 X-11.2081 Y0.1228
G01 X-11.1916 Y0.1690
G01 X-11.1706 Y0.2133
G01 X-11.1454 Y0.2554
G01 X-11.1161 Y0.2948
G01 X-11.0832 Y0.3312
G01 X-11.0468 Y0.3641
G01 X-11.0074 Y0.3934
G01 X-10.9653 Y0.4186
G01 X-10.9210 Y0.4396
G01 X-10.8748 Y0.4561
G01 X-10.8272 Y0.4680
G01 X-10.7786 Y0.4752
G01 X-10.7296 Y0.4776
G01 X0.0067 Y0.4776
G01 X0.0557 Y0.4752
G01 X0.1043 Y0.4680
G01 X0.1519 Y0.4561
G01 X0.1981 Y0.4396
G01 X0.2424 Y0.4186
G01 X0.2845 Y0.3934
G01 X0.3239 Y0.3641
G01 X0.3603 Y0.3312
G01 X0.3932 Y0.2948
G01 X0.4225 Y0.2554
G01 X0.4477 Y0.2133
G01 X0.4687 Y0.1690
G01 X0.4852 Y0.1228
G01 X0.4971 Y0.0752
G01 X0.5043 Y0.0266
G01 X0.5067 Y-0.0224
G01 X0.5067 Y-18.4580
G01 X0.5043 Y-18.5070
G01 X0.4971 Y-18.5556
G01 X0.4852 Y-18.6032
G01 X0.4687 Y-18.6494
G01 X0.4477 Y-18.6937
G01 X0.4225 Y-18.7358
G01 X0.3932 Y-18.7752
G01 X0.3603 Y-18.8116
G01 X0.3239 Y-18.8445
G01 X0.2845 Y-18.8738
G01 X0.2424 Y-18.8990
G01 X0.1981 Y-18.9200
G01 X0.1519 Y-18.9365
G01 X0.1043 Y-18.9484
G01 X0.0557 Y-18.9556
G01 X0.0067 Y-18.9580
G00 X0.0067 Y-18.9580
G01 F70.00
G01 Z-1.2000
G01 F120.00
G01 X0.0557 Y-18.9556
G01 X0.1043 Y-18.9484
G01 X0.1519 Y-18.9365
G01 X0.1981 Y-18.9200
G01 X0.2424 Y-18.8990
G01 X0.2845 Y-18.8738
G01 X0.3239 Y-18.8445
G01 X0.3603 Y-18.8116
G01 X0.3932 Y-18.7752
G01 X0.4225 Y-18.7358
G01 X0.4477 Y-18.6937
G01 X0.4687 Y-18.6494
G01 X0.4852 Y-18.6032
G01 X0.4971 Y-18.5556
G01 X0.5043 Y-18.5070
G01 X0.5067 Y-18.4580
G01 X0.5067 Y-0.0224
G01 X0.5043 Y0.0266
G01 X0.4971 Y0.0752
G01 X0.4852 Y0.1228
G01 X0.4687 Y0.1690
G01 X0.4477 Y0.2133
G01 X0.4225 Y0.2554
G01 X0.3932 Y0.2948
G01 X0.3603 Y0.3312
G01 X0.3239 Y0.3641
G01 X0.2845 Y0.3934
G01 X0.2424 Y0.4186
G01 X0.1981 Y0.4396
G01 X0.1519 Y0.4561
G01 X0.1043 Y0.4680
G01 X0.0557 Y0.4752
G01 X0.0067 Y0.4776
G01 X-10.7296 Y0.4776
G01 X-10.7786 Y0.4752
G01 X-10.8272 Y0.4680
G01 X-10.8748 Y0.4561
G01 X-10.9210 Y0.4396
G01 X-10.9653 Y0.4186
G01 X-11.0074 Y0.3934
G01 X-11.0468 Y0.3641
G01 X-11.0832 Y0.3312
G01 X-11.1161 Y0.2948
G01 X-11.1454 Y0.2554
G01 X-11.1706 Y0.2133
G01 X-11.1916 Y0.1690
G01 X-11.2081 Y0.1228
G01 X-11.2200 Y0.0752
G01 X-11.2272 Y0.0266
G01 X-11.2296 Y-0.0224
G01 X-11.2296 Y-18.4580
G01 X-11.2272 Y-18.5070
G01 X-11.2200 Y-18.5556
G01 X-11.2081 Y-18.6032
G01 X-11.1916 Y-18.6494
G01 X-11.1706 Y-18.6937
G01 X-11.1454 Y-18.7358
G01 X-11.1161 Y-18.7752
G01 X-11.0832 Y-18.8116
G01 X-11.0468 Y-18.8445
G01 X-11.0074 Y-18.8738
G01 X-10.9653 Y-18.8990
G01 X-10.9210 Y-18.9200
G01 X-10.8748 Y-18.9365
G01 X-10.8272 Y-18.9484
G01 X-10.7786 Y-18.9556
G01 X-10.7296 Y-18.9580
G01 X0.0067 Y-18.9580
G00 X0.0067 Y-18.9580
G01 F70.00
G01 Z-1.3000
G01 F120.00
G01 X-10.7296 Y-18.9580
G01 X-10.7786 Y-18.9556
G01 X-10.8272 Y-18.9484
G01 X-10.8748 Y-18.9365
G01 X-10.9210 Y-18.9200
G01 X-10.9653 Y-18.8990
G01 X-11.0074 Y-18.8738
G01 X-11.0468 Y-18.8445
G01 X-11.0832 Y-18.8116
G01 X-11.1161 Y-18.7752
G01 X-11.1454 Y-18.7358
G01 X-11.1706 Y-18.6937
G01 X-11.1916 Y-18.6494
G01 X-11.2081 Y-18.6032
G01 X-11.2200 Y-18.5556
G01 X-11.2272 Y-18.5070
G01 X-11.2296 Y-18.4580
G01 X-11.2296 Y-0.0224
G01 X-11.2272 Y0.0266
G01 X-11.2200 Y0.0752
G01 X-11.2081 Y0.1228
G01 X-11.1916 Y0.1690
G01 X-11.1706 Y0.2133
G01 X-11.1454 Y0.2554
G01 X-11.1161 Y0.2948
G01 X-11.0832 Y0.3312
G01 X-11.0468 Y0.3641
G01 X-11.0074 Y0.3934
G01 X-10.9653 Y0.4186
G01 X-10.9210 Y0.4396
G01 X-10.8748 Y0.4561
G01 X-10.8272 Y0.4680
G01 X-10.7786 Y0.4752
G01 X-10.7296 Y0.4776
G01 X0.0067 Y0.4776
G01 X0.0557 Y0.4752
G01 X0.1043 Y0.4680
G01 X0.1519 Y0.4561
G01 X0.1981 Y0.4396
G01 X0.2424 Y0.4186
G01 X0.2845 Y0.3934
G01 X0.3239 Y0.3641
G01 X0.3603 Y0.3312
G01 X0.3932 Y0.2948
G01 X0.4225 Y0.2554
G01 X0.4477 Y0.2133
G01 X0.4687 Y0.1690
G01 X0.4852 Y0.1228
G01 X0.4971 Y0.0752
G01 X0.5043 Y0.0266
G01 X0.5067 Y-0.0224
G01 X0.5067 Y-18.4580
G01 X0.5043 Y-18.5070
G01 X0.4971 Y-18.5556
G01 X0.4852 Y-18.6032
G01 X0.4687 Y-18.6494
G01 X0.4477 Y-18.6937
G01 X0.4225 Y-18.7358
G01 X0.3932 Y-18.7752
G01 X0.3603 Y-18.8116
G01 X0.3239 Y-18.8445
G01 X0.2845 Y-18.8738
G01 X0.2424 Y-18.8990
G01 X0.1981 Y-18.9200
G01 X0.1519 Y-18.9365
G01 X0.1043 Y-18.9484
G01 X0.0557 Y-18.9556
G01 X0.0067 Y-18.9580
G00 X0.0067 Y-18.9580
G01 F70.00
G01 Z-1.4000
G01 F120.00
G01 X0.0557 Y-18.9556
G01 X0.1043 Y-18.9484
G01 X0.1519 Y-18.9365
G01 X0.1981 Y-18.9200
G01 X0.2424 Y-18.8990
G01 X0.2845 Y-18.8738
G01 X0.3239 Y-18.8445
G01 X0.3603 Y-18.8116
G01 X0.3932 Y-18.7752
G01 X0.4225 Y-18.7358
G01 X0.4477 Y-18.6937
G01 X0.4687 Y-18.6494
G01 X0.4852 Y-18.6032
G01 X0.4971 Y-18.5556
G01 X0.5043 Y-18.5070
G01 X0.5067 Y-18.4580
G01 X0.5067 Y-0.0224
G01 X0.5043 Y0.0266
G01 X0.4971 Y0.0752
G01 X0.4852 Y0.1228
G01 X0.4687 Y0.1690
G01 X0.4477 Y0.2133
G01 X0.4225 Y0.2554
G01 X0.3932 Y0.2948
G01 X0.3603 Y0.3312
G01 X0.3239 Y0.3641
G01 X0.2845 Y0.3934
G01 X0.2424 Y0.4186
G01 X0.1981 Y0.4396
G01 X0.1519 Y0.4561
G01 X0.1043 Y0.4680
G01 X0.0557 Y0.4752
G01 X0.0067 Y0.4776
G01 X-10.7296 Y0.4776
G01 X-10.7786 Y0.4752
G01 X-10.8272 Y0.4680
G01 X-10.8748 Y0.4561
G01 X-10.9210 Y0.4396
G01 X-10.9653 Y0.4186
G01 X-11.0074 Y0.3934
G01 X-11.0468 Y0.3641
G01 X-11.0832 Y0.3312
G01 X-11.1161 Y0.2948
G01 X-11.1454 Y0.2554
G01 X-11.1706 Y0.2133
G01 X-11.1916 Y0.1690
G01 X-11.2081 Y0.1228
G01 X-11.2200 Y0.0752
G01 X-11.2272 Y0.0266
G01 X-11.2296 Y-0.0224
G01 X-11.2296 Y-18.4580
G01 X-11.2272 Y-18.5070
G01 X-11.2200 Y-18.5556
G01 X-11.2081 Y-18.6032
G01 X-11.1916 Y-18.6494
G01 X-11.1706 Y-18.6937
G01 X-11.1454 Y-18.7358
G01 X-11.1161 Y-18.7752
G01 X-11.0832 Y-18.8116
G01 X-11.0468 Y-18.8445
G01 X-11.0074 Y-18.8738
G01 X-10.9653 Y-18.8990
G01 X-10.9210 Y-18.9200
G01 X-10.8748 Y-18.9365
G01 X-10.8272 Y-18.9484
G01 X-10.7786 Y-18.9556
G01 X-10.7296 Y-18.9580
G01 X0.0067 Y-18.9580
G00 X0.0067 Y-18.9580
G01 F70.00
G01 Z-1.5000
G01 F120.00
G01 X-10.7296 Y-18.9580
G01 X-10.7786 Y-18.9556
G01 X-10.8272 Y-18.9484
G01 X-10.8748 Y-18.9365
G01 X-10.9210 Y-18.9200
G01 X-10.9653 Y-18.8990
G01 X-11.0074 Y-18.8738
G01 X-11.0468 Y-18.8445
G01 X-11.0832 Y-18.8116
G01 X-11.1161 Y-18.7752
G01 X-11.1454 Y-18.7358
G01 X-11.1706 Y-18.6937
G01 X-11.1916 Y-18.6494
G01 X-11.2081 Y-18.6032
G01 X-11.2200 Y-18.5556
G01 X-11.2272 Y-18.5070
G01 X-11.2296 Y-18.4580
G01 X-11.2296 Y-0.0224
G01 X-11.2272 Y0.0266
G01 X-11.2200 Y0.0752
G01 X-11.2081 Y0.1228
G01 X-11.1916 Y0.1690
G01 X-11.1706 Y0.2133
G01 X-11.1454 Y0.2554
G01 X-11.1161 Y0.2948
G01 X-11.0832 Y0.3312
G01 X-11.0468 Y0.3641
G01 X-11.0074 Y0.3934
G01 X-10.9653 Y0.4186
G01 X-10.9210 Y0.4396
G01 X-10.8748 Y0.4561
G01 X-10.8272 Y0.4680
G01 X-10.7786 Y0.4752
G01 X-10.7296 Y0.4776
G01 X0.0067 Y0.4776
G01 X0.0557 Y0.4752
G01 X0.1043 Y0.4680
G01 X0.1519 Y0.4561
G01 X0.1981 Y0.4396
G01 X0.2424 Y0.4186
G01 X0.2845 Y0.3934
G01 X0.3239 Y0.3641
G01 X0.3603 Y0.3312
G01 X0.3932 Y0.2948
G01 X0.4225 Y0.2554
G01 X0.4477 Y0.2133
G01 X0.4687 Y0.1690
G01 X0.4852 Y0.1228
G01 X0.4971 Y0.0752
G01 X0.5043 Y0.0266
G01 X0.5067 Y-0.0224
G01 X0.5067 Y-18.4580
G01 X0.5043 Y-18.5070
G01 X0.4971 Y-18.5556
G01 X0.4852 Y-18.6032
G01 X0.4687 Y-18.6494
G01 X0.4477 Y-18.6937
G01 X0.4225 Y-18.7358
G01 X0.3932 Y-18.7752
G01 X0.3603 Y-18.8116
G01 X0.3239 Y-18.8445
G01 X0.2845 Y-18.8738
G01 X0.2424 Y-18.8990
G01 X0.1981 Y-18.9200
G01 X0.1519 Y-18.9365
G01 X0.1043 Y-18.9484
G01 X0.0557 Y-18.9556
G01 X0.0067 Y-18.9580
G00 X0.0067 Y-18.9580
G01 F70.00
G01 Z-1.6000
G01 F120.00
G01 X0.0557 Y-18.9556
G01 X0.1043 Y-18.9484
G01 X0.1519 Y-18.9365
G01 X0.1981 Y-18.9200
G01 X0.2424 Y-18.8990
G01 X0.2845 Y-18.8738
G01 X0.3239 Y-18.8445
G01 X0.3603 Y-18.8116
G01 X0.3932 Y-18.7752
G01 X0.4225 Y-18.7358
G01 X0.4477 Y-18.6937
G01 X0.4687 Y-18.6494
G01 X0.4852 Y-18.6032
G01 X0.4971 Y-18.5556
G01 X0.5043 Y-18.5070
G01 X0.5067 Y-18.4580
G01 X0.5067 Y-0.0224
G01 X0.5043 Y0.0266
G01 X0.4971 Y0.0752
G01 X0.4852 Y0.1228
G01 X0.4687 Y0.1690
G01 X0.4477 Y0.2133
G01 X0.4225 Y0.2554
G01 X0.3932 Y0.2948
G01 X0.3603 Y0.3312
G01 X0.3239 Y0.3641
G01 X0.2845 Y0.3934
G01 X0.2424 Y0.4186
G01 X0.1981 Y0.4396
G01 X0.1519 Y0.4561
G01 X0.1043 Y0.4680
G01 X0.0557 Y0.4752
G01 X0.0067 Y0.4776
G01 X-10.7296 Y0.4776
G01 X-10.7786 Y0.4752
G01 X-10.8272 Y0.4680
G01 X-10.8748 Y0.4561
G01 X-10.9210 Y0.4396
G01 X-10.9653 Y0.4186
G01 X-11.0074 Y0.3934
G01 X-11.0468 Y0.3641
G01 X-11.0832 Y0.3312
G01 X-11.1161 Y0.2948
G01 X-11.1454 Y0.2554
G01 X-11.1706 Y0.2133
G01 X-11.1916 Y0.1690
G01 X-11.2081 Y0.1228
G01 X-11.2200 Y0.0752
G01 X-11.2272 Y0.0266
G01 X-11.2296 Y-0.0224
G01 X-11.2296 Y-18.4580
G01 X-11.2272 Y-18.5070
G01 X-11.2200 Y-18.5556
G01 X-11.2081 Y-18.6032
G01 X-11.1916 Y-18.6494
G01 X-11.1706 Y-18.6937
G01 X-11.1454 Y-18.7358
G01 X-11.1161 Y-18.7752
G01 X-11.0832 Y-18.8116
G01 X-11.0468 Y-18.8445
G01 X-11.0074 Y-18.8738
G01 X-10.9653 Y-18.8990
G01 X-10.9210 Y-18.9200
G01 X-10.8748 Y-18.9365
G01 X-10.8272 Y-18.9484
G01 X-10.7786 Y-18.9556
G01 X-10.7296 Y-18.9580
G01 X0.0067 Y-18.9580
G00 X0.0067 Y-18.9580
G01 F70.00
G01 Z-1.7000
G01 F120.00
G01 X-10.7296 Y-18.9580
G01 X-10.7786 Y-18.9556
G01 X-10.8272 Y-18.9484
G01 X-10.8748 Y-18.9365
G01 X-10.9210 Y-18.9200
G01 X-10.9653 Y-18.8990
G01 X-11.0074 Y-18.8738
G01 X-11.0468 Y-18.8445
G01 X-11.0832 Y-18.8116
G01 X-11.1161 Y-18.7752
G01 X-11.1454 Y-18.7358
G01 X-11.1706 Y-18.6937
G01 X-11.1916 Y-18.6494
G01 X-11.2081 Y-18.6032
G01 X-11.2200 Y-18.5556
G01 X-11.2272 Y-18.5070
G01 X-11.2296 Y-18.4580
G01 X-11.2296 Y-0.0224
G01 X-11.2272 Y0.0266
G01 X-11.2200 Y0.0752
G01 X-11.2081 Y0.1228
G01 X-11.1916 Y0.1690
G01 X-11.1706 Y0.2133
G01 X-11.1454 Y0.2554
G01 X-11.1161 Y0.2948
G01 X-11.0832 Y0.3312
G01 X-11.0468 Y0.3641
G01 X-11.0074 Y0.3934
G01 X-10.9653 Y0.4186
G01 X-10.9210 Y0.4396
G01 X-10.8748 Y0.4561
G01 X-10.8272 Y0.4680
G01 X-10.7786 Y0.4752
G01 X-10.7296 Y0.4776
G01 X0.0067 Y0.4776
G01 X0.0557 Y0.4752
G01 X0.1043 Y0.4680
G01 X0.1519 Y0.4561
G01 X0.1981 Y0.4396
G01 X0.2424 Y0.4186
G01 X0.2845 Y0.3934
G01 X0.3239 Y0.3641
G01 X0.3603 Y0.3312
G01 X0.3932 Y0.2948
G01 X0.4225 Y0.2554
G01 X0.4477 Y0.2133
G01 X0.4687 Y0.1690
G01 X0.4852 Y0.1228
G01 X0.4971 Y0.0752
G01 X0.5043 Y0.0266
G01 X0.5067 Y-0.0224
G01 X0.5067 Y-18.4580
G01 X0.5043 Y-18.5070
G01 X0.4971 Y-18.5556
G01 X0.4852 Y-18.6032
G01 X0.4687 Y-18.6494
G01 X0.4477 Y-18.6937
G01 X0.4225 Y-18.7358
G01 X0.3932 Y-18.7752
G01 X0.3603 Y-18.8116
G01 X0.3239 Y-18.8445
G01 X0.2845 Y-18.8738
G01 X0.2424 Y-18.8990
G01 X0.1981 Y-18.9200
G01 X0.1519 Y-18.9365
G01 X0.1043 Y-18.9484
G01 X0.0557 Y-18.9556
G01 X0.0067 Y-18.9580
G00 X0.0067 Y-18.9580
G01 F70.00
G01 Z-1.8000
G01 F120.00
G01 X0.0557 Y-18.9556
G01 X0.1043 Y-18.9484
G01 X0.1519 Y-18.9365
G01 X0.1981 Y-18.9200
G01 X0.2424 Y-18.8990
G01 X0.2845 Y-18.8738
G01 X0.3239 Y-18.8445
G01 X0.3603 Y-18.8116
G01 X0.3932 Y-18.7752
G01 X0.4225 Y-18.7358
G01 X0.4477 Y-18.6937
G01 X0.4687 Y-18.6494
G01 X0.4852 Y-18.6032
G01 X0.4971 Y-18.5556
G01 X0.5043 Y-18.5070
G01 X0.5067 Y-18.4580
G01 X0.5067 Y-0.0224
G01 X0.5043 Y0.0266
G01 X0.4971 Y0.0752
G01 X0.4852 Y0.1228
G01 X0.4687 Y0.1690
G01 X0.4477 Y0.2133
G01 X0.4225 Y0.2554
G01 X0.3932 Y0.2948
G01 X0.3603 Y0.3312
G01 X0.3239 Y0.3641
G01 X0.2845 Y0.3934
G01 X0.2424 Y0.4186
G01 X0.1981 Y0.4396
G01 X0.1519 Y0.4561
G01 X0.1043 Y0.4680
G01 X0.0557 Y0.4752
G01 X0.0067 Y0.4776
G01 X-10.7296 Y0.4776
G01 X-10.7786 Y0.4752
G01 X-10.8272 Y0.4680
G01 X-10.8748 Y0.4561
G01 X-10.9210 Y0.4396
G01 X-10.9653 Y0.4186
G01 X-11.0074 Y0.3934
G01 X-11.0468 Y0.3641
G01 X-11.0832 Y0.3312
G01 X-11.1161 Y0.2948
G01 X-11.1454 Y0.2554
G01 X-11.1706 Y0.2133
G01 X-11.1916 Y0.1690
G01 X-11.2081 Y0.1228
G01 X-11.2200 Y0.0752
G01 X-11.2272 Y0.0266
G01 X-11.2296 Y-0.0224
G01 X-11.2296 Y-18.4580
G01 X-11.2272 Y-18.5070
G01 X-11.2200 Y-18.5556
G01 X-11.2081 Y-18.6032
G01 X-11.1916 Y-18.6494
G01 X-11.1706 Y-18.6937
G01 X-11.1454 Y-18.7358
G01 X-11.1161 Y-18.7752
G01 X-11.0832 Y-18.8116
G01 X-11.0468 Y-18.8445
G01 X-11.0074 Y-18.8738
G01 X-10.9653 Y-18.8990
G01 X-10.9210 Y-18.9200
G01 X-10.8748 Y-18.9365
G01 X-10.8272 Y-18.9484
G01 X-10.7786 Y-18.9556
G01 X-10.7296 Y-18.9580
G01 X0.0067 Y-18.9580
G00 Z2.0000
M05
G00 Z2.0000
G00 Z25.00

