(G-CODE GENERATED BY FLATCAM v8.993 - www.flatcam.org - Version Date: 2020/06/05)

(Name: AD8009_Ф2_низ.gbr_iso_combined_cnc)
(Type: G-code from Geometry)
(Units: MM)

(Created on Saturday, 31 October 2020 at 08:04)

(This preprocessor is the default preprocessor used by FlatCAM.)
(It is made to work with MACH3 compatible motion controllers.)

(TOOL DIAMETER: 0.14 mm)
(Feedrate_XY: 120.0 mm/min)
(Feedrate_Z: 70.0 mm/min)
(Feedrate rapids 1500.0 mm/min)

(Z_Cut: -0.06 mm)
(Z_Move: 2.0 mm)
(Z Start: None mm)
(Z End: 25.0 mm)
(Steps per circle: 128)
(Preprocessor Geometry: default)

(X range:  -11.2800 ...    0.2800  mm)
(Y range:  -19.2925 ...    0.2675  mm)

(Spindle Speed: 10000 RPM)
G21
G90
G94



G01 F120.00
G00 Z2.0000

M03 S10000
G00 X0.0000 Y0.0575
G01 F70.00
G01 Z-0.0600
G01 F120.00
G01 X-11.0000 Y0.0575
G01 X-11.0094 Y0.0569
G01 X-11.0178 Y0.0552
G01 X-11.0268 Y0.0522
G01 X-11.0345 Y0.0484
G01 X-11.0424 Y0.0432
G01 X-11.0489 Y0.0376
G01 X-11.0552 Y0.0306
G01 X-11.0605 Y0.0227
G01 X-11.0647 Y0.0143
G01 X-11.0677 Y0.0053
G01 X-11.0694 Y-0.0031
G01 X-11.0700 Y-0.0125
G01 X-11.0700 Y-19.0125
G01 X-11.0694 Y-19.0219
G01 X-11.0677 Y-19.0303
G01 X-11.0647 Y-19.0393
G01 X-11.0605 Y-19.0477
G01 X-11.0552 Y-19.0556
G01 X-11.0495 Y-19.0620
G01 X-11.0431 Y-19.0677
G01 X-11.0352 Y-19.0730
G01 X-11.0276 Y-19.0768
G01 X-11.0187 Y-19.0800
G01 X-11.0094 Y-19.0819
G01 X-11.0000 Y-19.0825
G01 X0.0000 Y-19.0825
G01 X0.0094 Y-19.0819
G01 X0.0187 Y-19.0800
G01 X0.0276 Y-19.0768
G01 X0.0352 Y-19.0730
G01 X0.0431 Y-19.0677
G01 X0.0495 Y-19.0620
G01 X0.0552 Y-19.0556
G01 X0.0605 Y-19.0477
G01 X0.0647 Y-19.0393
G01 X0.0677 Y-19.0303
G01 X0.0695 Y-19.0211
G01 X0.0700 Y-19.0125
G01 X0.0700 Y-0.0125
G01 X0.0687 Y0.0012
G01 X0.0647 Y0.0143
G01 X0.0582 Y0.0264
G01 X0.0495 Y0.0370
G01 X0.0389 Y0.0457
G01 X0.0268 Y0.0522
G01 X0.0137 Y0.0562
G01 X0.0000 Y0.0575
G00 Z2.0000
G00 X0.0000 Y0.1275
G01 F70.00
G01 Z-0.0600
G01 F120.00
G01 X-11.0017 Y0.1275
G01 X-11.0205 Y0.1260
G01 X-11.0373 Y0.1224
G01 X-11.0536 Y0.1168
G01 X-11.0705 Y0.1085
G01 X-11.0848 Y0.0989
G01 X-11.0990 Y0.0865
G01 X-11.1114 Y0.0723
G01 X-11.1210 Y0.0580
G01 X-11.1293 Y0.0411
G01 X-11.1354 Y0.0232
G01 X-11.1389 Y0.0046
G01 X-11.1400 Y-0.0125
G01 X-11.1400 Y-19.0125
G01 X-11.1389 Y-19.0296
G01 X-11.1354 Y-19.0482
G01 X-11.1293 Y-19.0661
G01 X-11.1218 Y-19.0815
G01 X-11.1114 Y-19.0973
G01 X-11.0990 Y-19.1115
G01 X-11.0861 Y-19.1229
G01 X-11.0705 Y-19.1335
G01 X-11.0536 Y-19.1418
G01 X-11.0357 Y-19.1479
G01 X-11.0188 Y-19.1512
G01 X-11.0000 Y-19.1525
G01 X0.0000 Y-19.1525
G01 X0.0188 Y-19.1512
G01 X0.0357 Y-19.1479
G01 X0.0536 Y-19.1418
G01 X0.0690 Y-19.1343
G01 X0.0848 Y-19.1239
G01 X0.0990 Y-19.1115
G01 X0.1114 Y-19.0973
G01 X0.1210 Y-19.0830
G01 X0.1293 Y-19.0661
G01 X0.1354 Y-19.0482
G01 X0.1389 Y-19.0296
G01 X0.1400 Y-19.0125
G01 X0.1400 Y-0.0108
G01 X0.1391 Y0.0029
G01 X0.1373 Y0.0148
G01 X0.1340 Y0.0281
G01 X0.1293 Y0.0411
G01 X0.1235 Y0.0535
G01 X0.1164 Y0.0653
G01 X0.1082 Y0.0763
G01 X0.0990 Y0.0865
G01 X0.0888 Y0.0957
G01 X0.0778 Y0.1039
G01 X0.0660 Y0.1110
G01 X0.0536 Y0.1168
G01 X0.0406 Y0.1215
G01 X0.0273 Y0.1248
G01 X0.0137 Y0.1268
G01 X0.0000 Y0.1275
G00 Z2.0000
G00 X0.0000 Y0.1975
G01 F70.00
G01 Z-0.0600
G01 F120.00
G01 X-11.0026 Y0.1975
G01 X-11.0283 Y0.1956
G01 X-11.0560 Y0.1899
G01 X-11.0827 Y0.1805
G01 X-11.1057 Y0.1689
G01 X-11.1292 Y0.1531
G01 X-11.1485 Y0.1360
G01 X-11.1671 Y0.1147
G01 X-11.1827 Y0.0910
G01 X-11.1950 Y0.0655
G01 X-11.2031 Y0.0410
G01 X-11.2081 Y0.0158
G01 X-11.2100 Y-0.0125
G01 X-11.2100 Y-19.0125
G01 X-11.2081 Y-19.0408
G01 X-11.2031 Y-19.0660
G01 X-11.1940 Y-19.0929
G01 X-11.1814 Y-19.1182
G01 X-11.1656 Y-19.1417
G01 X-11.1485 Y-19.1610
G01 X-11.1272 Y-19.1796
G01 X-11.1035 Y-19.1952
G01 X-11.0780 Y-19.2075
G01 X-11.0535 Y-19.2156
G01 X-11.0283 Y-19.2206
G01 X-11.0000 Y-19.2225
G01 X0.0026 Y-19.2225
G01 X0.0283 Y-19.2206
G01 X0.0560 Y-19.2149
G01 X0.0827 Y-19.2055
G01 X0.1080 Y-19.1926
G01 X0.1292 Y-19.1781
G01 X0.1503 Y-19.1592
G01 X0.1687 Y-19.1376
G01 X0.1827 Y-19.1160
G01 X0.1950 Y-19.0905
G01 X0.2031 Y-19.0660
G01 X0.2081 Y-19.0408
G01 X0.2100 Y-19.0125
G01 X0.2100 Y-0.0099
G01 X0.2087 Y0.0106
G01 X0.2054 Y0.0310
G01 X0.2002 Y0.0509
G01 X0.1930 Y0.0702
G01 X0.1840 Y0.0888
G01 X0.1732 Y0.1063
G01 X0.1607 Y0.1227
G01 X0.1467 Y0.1378
G01 X0.1312 Y0.1515
G01 X0.1145 Y0.1635
G01 X0.0967 Y0.1739
G01 X0.0780 Y0.1825
G01 X0.0585 Y0.1892
G01 X0.0410 Y0.1935
G01 X0.0206 Y0.1965
G01 X0.0000 Y0.1975
G00 Z2.0000
G00 X0.0000 Y0.2675
G01 F70.00
G01 Z-0.0600
G01 F120.00
G01 X-11.0034 Y0.2675
G01 X-11.0206 Y0.2667
G01 X-11.0377 Y0.2650
G01 X-11.0580 Y0.2614
G01 X-11.0747 Y0.2574
G01 X-11.0943 Y0.2511
G01 X-11.1103 Y0.2449
G01 X-11.1290 Y0.2360
G01 X-11.1439 Y0.2277
G01 X-11.1584 Y0.2184
G01 X-11.1750 Y0.2061
G01 X-11.1880 Y0.1950
G01 X-11.2004 Y0.1830
G01 X-11.2142 Y0.1678
G01 X-11.2249 Y0.1543
G01 X-11.2347 Y0.1402
G01 X-11.2436 Y0.1255
G01 X-11.2516 Y0.1103
G01 X-11.2600 Y0.0915
G01 X-11.2659 Y0.0753
G01 X-11.2708 Y0.0589
G01 X-11.2753 Y0.0388
G01 X-11.2779 Y0.0218
G01 X-11.2795 Y0.0047
G01 X-11.2800 Y-0.0125
G01 X-11.2800 Y-19.0125
G01 X-11.2795 Y-19.0297
G01 X-11.2779 Y-19.0468
G01 X-11.2746 Y-19.0671
G01 X-11.2708 Y-19.0839
G01 X-11.2659 Y-19.1003
G01 X-11.2587 Y-19.1197
G01 X-11.2516 Y-19.1353
G01 X-11.2419 Y-19.1535
G01 X-11.2328 Y-19.1681
G01 X-11.2228 Y-19.1820
G01 X-11.2120 Y-19.1954
G01 X-11.1980 Y-19.2105
G01 X-11.1829 Y-19.2245
G01 X-11.1695 Y-19.2353
G01 X-11.1527 Y-19.2472
G01 X-11.1380 Y-19.2561
G01 X-11.1228 Y-19.2641
G01 X-11.1072 Y-19.2712
G01 X-11.0911 Y-19.2773
G01 X-11.0714 Y-19.2833
G01 X-11.0546 Y-19.2871
G01 X-11.0343 Y-19.2904
G01 X-11.0172 Y-19.2920
G01 X-11.0000 Y-19.2925
G01 X0.0034 Y-19.2925
G01 X0.0240 Y-19.2915
G01 X0.0411 Y-19.2895
G01 X0.0580 Y-19.2864
G01 X0.0747 Y-19.2824
G01 X0.0911 Y-19.2773
G01 X0.1072 Y-19.2712
G01 X0.1228 Y-19.2641
G01 X0.1410 Y-19.2544
G01 X0.1556 Y-19.2453
G01 X0.1723 Y-19.2332
G01 X0.1855 Y-19.2223
G01 X0.1980 Y-19.2105
G01 X0.2120 Y-19.1954
G01 X0.2228 Y-19.1820
G01 X0.2347 Y-19.1652
G01 X0.2436 Y-19.1505
G01 X0.2531 Y-19.1322
G01 X0.2600 Y-19.1165
G01 X0.2659 Y-19.1003
G01 X0.2708 Y-19.0839
G01 X0.2753 Y-19.0638
G01 X0.2779 Y-19.0468
G01 X0.2795 Y-19.0297
G01 X0.2800 Y-19.0125
G01 X0.2800 Y-0.0091
G01 X0.2783 Y0.0184
G01 X0.2739 Y0.0455
G01 X0.2669 Y0.0721
G01 X0.2574 Y0.0978
G01 X0.2453 Y0.1225
G01 X0.2309 Y0.1459
G01 X0.2142 Y0.1678
G01 X0.1980 Y0.1855
G01 X0.1776 Y0.2039
G01 X0.1556 Y0.2203
G01 X0.1320 Y0.2344
G01 X0.1072 Y0.2462
G01 X0.0813 Y0.2554
G01 X0.0546 Y0.2621
G01 X0.0274 Y0.2662
G01 X0.0000 Y0.2675
G00 Z2.0000
G00 X-1.1821 Y-1.8186
G01 F70.00
G01 Z-0.0600
G01 F120.00
G01 X-1.1835 Y-1.7902
G01 X-1.1877 Y-1.7620
G01 X-1.1946 Y-1.7344
G01 X-1.2042 Y-1.7076
G01 X-1.2164 Y-1.6819
G01 X-1.2310 Y-1.6575
G01 X-1.2479 Y-1.6346
G01 X-1.2671 Y-1.6136
G01 X-1.2881 Y-1.5944
G01 X-1.3110 Y-1.5775
G01 X-1.3354 Y-1.5629
G01 X-1.3611 Y-1.5507
G01 X-1.3879 Y-1.5411
G01 X-1.4155 Y-1.5342
G01 X-1.4437 Y-1.5300
G01 X-1.4721 Y-1.5286
G01 X-1.5005 Y-1.5300
G01 X-1.5287 Y-1.5342
G01 X-1.5563 Y-1.5411
G01 X-1.5831 Y-1.5507
G01 X-1.6088 Y-1.5629
G01 X-1.6332 Y-1.5775
G01 X-1.6561 Y-1.5944
G01 X-1.6771 Y-1.6136
G01 X-1.6963 Y-1.6346
G01 X-1.7132 Y-1.6575
G01 X-1.7278 Y-1.6819
G01 X-1.7400 Y-1.7076
G01 X-1.7496 Y-1.7344
G01 X-1.7565 Y-1.7620
G01 X-1.7607 Y-1.7902
G01 X-1.7621 Y-1.8186
G01 X-1.7607 Y-1.8470
G01 X-1.7565 Y-1.8752
G01 X-1.7496 Y-1.9028
G01 X-1.7400 Y-1.9296
G01 X-1.7278 Y-1.9553
G01 X-1.7132 Y-1.9797
G01 X-1.6963 Y-2.0026
G01 X-1.6771 Y-2.0236
G01 X-1.6561 Y-2.0428
G01 X-1.6332 Y-2.0597
G01 X-1.6088 Y-2.0743
G01 X-1.5831 Y-2.0865
G01 X-1.5563 Y-2.0961
G01 X-1.5287 Y-2.1030
G01 X-1.5005 Y-2.1072
G01 X-1.4721 Y-2.1086
G01 X-1.4437 Y-2.1072
G01 X-1.4155 Y-2.1030
G01 X-1.3879 Y-2.0961
G01 X-1.3611 Y-2.0865
G01 X-1.3354 Y-2.0743
G01 X-1.3110 Y-2.0597
G01 X-1.2881 Y-2.0428
G01 X-1.2671 Y-2.0236
G01 X-1.2479 Y-2.0026
G01 X-1.2310 Y-1.9797
G01 X-1.2164 Y-1.9553
G01 X-1.2042 Y-1.9296
G01 X-1.1946 Y-1.9028
G01 X-1.1877 Y-1.8752
G01 X-1.1835 Y-1.8470
G01 X-1.1821 Y-1.8186
G00 Z2.0000
G00 X-1.2521 Y-1.8186
G01 F70.00
G01 Z-0.0600
G01 F120.00
G01 X-1.2532 Y-1.7970
G01 X-1.2564 Y-1.7757
G01 X-1.2616 Y-1.7547
G01 X-1.2689 Y-1.7344
G01 X-1.2781 Y-1.7149
G01 X-1.2892 Y-1.6964
G01 X-1.3021 Y-1.6791
G01 X-1.3166 Y-1.6631
G01 X-1.3326 Y-1.6486
G01 X-1.3499 Y-1.6357
G01 X-1.3684 Y-1.6246
G01 X-1.3879 Y-1.6154
G01 X-1.4082 Y-1.6081
G01 X-1.4292 Y-1.6029
G01 X-1.4505 Y-1.5997
G01 X-1.4721 Y-1.5986
G01 X-1.4937 Y-1.5997
G01 X-1.5150 Y-1.6029
G01 X-1.5360 Y-1.6081
G01 X-1.5563 Y-1.6154
G01 X-1.5758 Y-1.6246
G01 X-1.5943 Y-1.6357
G01 X-1.6116 Y-1.6486
G01 X-1.6276 Y-1.6631
G01 X-1.6421 Y-1.6791
G01 X-1.6550 Y-1.6964
G01 X-1.6661 Y-1.7149
G01 X-1.6753 Y-1.7344
G01 X-1.6826 Y-1.7547
G01 X-1.6878 Y-1.7757
G01 X-1.6910 Y-1.7970
G01 X-1.6921 Y-1.8186
G01 X-1.6910 Y-1.8402
G01 X-1.6878 Y-1.8615
G01 X-1.6826 Y-1.8825
G01 X-1.6753 Y-1.9028
G01 X-1.6661 Y-1.9223
G01 X-1.6550 Y-1.9408
G01 X-1.6421 Y-1.9581
G01 X-1.6276 Y-1.9741
G01 X-1.6116 Y-1.9886
G01 X-1.5943 Y-2.0015
G01 X-1.5758 Y-2.0126
G01 X-1.5563 Y-2.0218
G01 X-1.5360 Y-2.0291
G01 X-1.5150 Y-2.0343
G01 X-1.4937 Y-2.0375
G01 X-1.4721 Y-2.0386
G01 X-1.4505 Y-2.0375
G01 X-1.4292 Y-2.0343
G01 X-1.4082 Y-2.0291
G01 X-1.3879 Y-2.0218
G01 X-1.3684 Y-2.0126
G01 X-1.3499 Y-2.0015
G01 X-1.3326 Y-1.9886
G01 X-1.3166 Y-1.9741
G01 X-1.3021 Y-1.9581
G01 X-1.2892 Y-1.9408
G01 X-1.2781 Y-1.9223
G01 X-1.2689 Y-1.9028
G01 X-1.2616 Y-1.8825
G01 X-1.2564 Y-1.8615
G01 X-1.2532 Y-1.8402
G01 X-1.2521 Y-1.8186
G00 Z2.0000
G00 X-1.3222 Y-1.8186
G01 F70.00
G01 Z-0.0600
G01 F120.00
G01 X-1.3229 Y-1.8039
G01 X-1.3250 Y-1.7893
G01 X-1.3286 Y-1.7751
G01 X-1.3336 Y-1.7612
G01 X-1.3399 Y-1.7479
G01 X-1.3474 Y-1.7353
G01 X-1.3562 Y-1.7235
G01 X-1.3661 Y-1.7126
G01 X-1.3770 Y-1.7027
G01 X-1.3888 Y-1.6939
G01 X-1.4014 Y-1.6864
G01 X-1.4147 Y-1.6801
G01 X-1.4286 Y-1.6751
G01 X-1.4428 Y-1.6715
G01 X-1.4574 Y-1.6694
G01 X-1.4721 Y-1.6687
G01 X-1.4868 Y-1.6694
G01 X-1.5014 Y-1.6715
G01 X-1.5156 Y-1.6751
G01 X-1.5295 Y-1.6801
G01 X-1.5428 Y-1.6864
G01 X-1.5554 Y-1.6939
G01 X-1.5672 Y-1.7027
G01 X-1.5781 Y-1.7126
G01 X-1.5880 Y-1.7235
G01 X-1.5968 Y-1.7353
G01 X-1.6043 Y-1.7479
G01 X-1.6106 Y-1.7612
G01 X-1.6156 Y-1.7751
G01 X-1.6192 Y-1.7893
G01 X-1.6213 Y-1.8039
G01 X-1.6220 Y-1.8186
G01 X-1.6213 Y-1.8333
G01 X-1.6192 Y-1.8479
G01 X-1.6156 Y-1.8621
G01 X-1.6106 Y-1.8760
G01 X-1.6043 Y-1.8893
G01 X-1.5968 Y-1.9019
G01 X-1.5880 Y-1.9137
G01 X-1.5781 Y-1.9246
G01 X-1.5672 Y-1.9345
G01 X-1.5554 Y-1.9433
G01 X-1.5428 Y-1.9508
G01 X-1.5295 Y-1.9571
G01 X-1.5156 Y-1.9621
G01 X-1.5014 Y-1.9657
G01 X-1.4868 Y-1.9678
G01 X-1.4721 Y-1.9685
G01 X-1.4574 Y-1.9678
G01 X-1.4428 Y-1.9657
G01 X-1.4286 Y-1.9621
G01 X-1.4147 Y-1.9571
G01 X-1.4014 Y-1.9508
G01 X-1.3888 Y-1.9433
G01 X-1.3770 Y-1.9345
G01 X-1.3661 Y-1.9246
G01 X-1.3562 Y-1.9137
G01 X-1.3474 Y-1.9019
G01 X-1.3399 Y-1.8893
G01 X-1.3336 Y-1.8760
G01 X-1.3286 Y-1.8621
G01 X-1.3250 Y-1.8479
G01 X-1.3229 Y-1.8333
G01 X-1.3222 Y-1.8186
G00 Z2.0000
G00 X-1.3922 Y-1.8186
G01 F70.00
G01 Z-0.0600
G01 F120.00
G01 X-1.3937 Y-1.8030
G01 X-1.3983 Y-1.7880
G01 X-1.4057 Y-1.7742
G01 X-1.4156 Y-1.7621
G01 X-1.4277 Y-1.7522
G01 X-1.4415 Y-1.7448
G01 X-1.4565 Y-1.7402
G01 X-1.4721 Y-1.7387
G01 X-1.4877 Y-1.7402
G01 X-1.5027 Y-1.7448
G01 X-1.5165 Y-1.7522
G01 X-1.5286 Y-1.7621
G01 X-1.5385 Y-1.7742
G01 X-1.5459 Y-1.7880
G01 X-1.5505 Y-1.8030
G01 X-1.5520 Y-1.8186
G01 X-1.5505 Y-1.8342
G01 X-1.5459 Y-1.8492
G01 X-1.5385 Y-1.8630
G01 X-1.5286 Y-1.8751
G01 X-1.5165 Y-1.8850
G01 X-1.5027 Y-1.8924
G01 X-1.4877 Y-1.8970
G01 X-1.4721 Y-1.8985
G01 X-1.4565 Y-1.8970
G01 X-1.4415 Y-1.8924
G01 X-1.4277 Y-1.8850
G01 X-1.4156 Y-1.8751
G01 X-1.4057 Y-1.8630
G01 X-1.3983 Y-1.8492
G01 X-1.3937 Y-1.8342
G01 X-1.3922 Y-1.8186
G00 Z2.0000
G00 X-2.7233 Y-1.2145
G01 F70.00
G01 Z-0.0600
G01 F120.00
G01 X-2.7233 Y-0.5211
G01 X-3.5667 Y-0.5211
G01 X-3.5667 Y-0.7811
G01 X-3.0524 Y-0.7811
G01 X-3.0363 Y-0.7832
G01 X-3.0211 Y-0.7890
G01 X-3.0137 Y-0.7934
G01 X-3.0069 Y-0.7987
G01 X-3.0009 Y-0.8047
G01 X-2.9951 Y-0.8122
G01 X-2.9908 Y-0.8196
G01 X-2.9874 Y-0.8275
G01 X-2.9850 Y-0.8358
G01 X-2.9836 Y-0.8451
G01 X-2.9833 Y-1.2145
G01 X-2.7233 Y-1.2145
G00 Z2.0000
G00 X-2.7933 Y-1.1445
G01 F70.00
G01 Z-0.0600
G01 F120.00
G01 X-2.7933 Y-0.5911
G01 X-3.4967 Y-0.5911
G01 X-3.4967 Y-0.7111
G01 X-3.0447 Y-0.7114
G01 X-3.0243 Y-0.7141
G01 X-3.0045 Y-0.7199
G01 X-2.9843 Y-0.7293
G01 X-2.9672 Y-0.7407
G01 X-2.9568 Y-0.7497
G01 X-2.9484 Y-0.7584
G01 X-2.9398 Y-0.7691
G01 X-2.9323 Y-0.7806
G01 X-2.9260 Y-0.7928
G01 X-2.9209 Y-0.8056
G01 X-2.9171 Y-0.8188
G01 X-2.9146 Y-0.8323
G01 X-2.9133 Y-0.8511
G01 X-2.9133 Y-1.1445
G01 X-2.7933 Y-1.1445
G00 Z2.0000
G00 X-2.9639 Y-0.6611
G01 F70.00
G01 Z-0.0600
G01 F120.00
G01 X-2.9476 Y-0.6697
G01 X-2.9324 Y-0.6794
G01 X-2.9181 Y-0.6904
G01 X-2.9048 Y-0.7026
G01 X-2.8926 Y-0.7159
G01 X-2.8816 Y-0.7302
G01 X-2.8719 Y-0.7454
G01 X-2.8633 Y-0.7617
G01 X-2.8633 Y-0.6611
G01 X-2.9639 Y-0.6611
G00 Z2.0000
G00 X-4.1400 Y-0.5211
G01 F70.00
G01 Z-0.0600
G01 F120.00
G01 X-4.9833 Y-0.5211
G01 X-4.9833 Y-1.2145
G01 X-4.7233 Y-1.2145
G01 X-4.7230 Y-0.8451
G01 X-4.7218 Y-0.8366
G01 X-4.7192 Y-0.8275
G01 X-4.7158 Y-0.8196
G01 X-4.7115 Y-0.8122
G01 X-4.7063 Y-0.8054
G01 X-4.7003 Y-0.7992
G01 X-4.6929 Y-0.7934
G01 X-4.6855 Y-0.7890
G01 X-4.6703 Y-0.7832
G01 X-4.6542 Y-0.7811
G01 X-4.1400 Y-0.7811
G01 X-4.1400 Y-0.5211
G00 Z2.0000
G00 X-4.2100 Y-0.5911
G01 F70.00
G01 Z-0.0600
G01 F120.00
G01 X-4.9133 Y-0.5911
G01 X-4.9133 Y-1.1445
G01 X-4.7933 Y-1.1445
G01 X-4.7933 Y-0.8511
G01 X-4.7920 Y-0.8323
G01 X-4.7899 Y-0.8204
G01 X-4.7862 Y-0.8072
G01 X-4.7813 Y-0.7944
G01 X-4.7751 Y-0.7821
G01 X-4.7678 Y-0.7705
G01 X-4.7593 Y-0.7597
G01 X-4.7498 Y-0.7497
G01 X-4.7394 Y-0.7407
G01 X-4.7223 Y-0.7293
G01 X-4.7037 Y-0.7205
G01 X-4.6823 Y-0.7141
G01 X-4.6619 Y-0.7114
G01 X-4.2100 Y-0.7111
G01 X-4.2100 Y-0.5911
G00 Z2.0000
G00 X-4.8433 Y-0.7617
G01 F70.00
G01 Z-0.0600
G01 F120.00
G01 X-4.8347 Y-0.7454
G01 X-4.8250 Y-0.7302
G01 X-4.8140 Y-0.7159
G01 X-4.8018 Y-0.7026
G01 X-4.7885 Y-0.6904
G01 X-4.7742 Y-0.6794
G01 X-4.7590 Y-0.6697
G01 X-4.7427 Y-0.6611
G01 X-4.8433 Y-0.6611
G01 X-4.8433 Y-0.7617
G00 Z2.0000
G00 X-5.3427 Y-0.7461
G01 F70.00
G01 Z-0.0600
G01 F120.00
G01 X-6.1360 Y-0.7461
G01 X-6.1360 Y-1.0061
G01 X-5.6684 Y-1.0062
G01 X-5.6524 Y-1.0091
G01 X-5.6375 Y-1.0156
G01 X-5.6244 Y-1.0254
G01 X-5.6145 Y-1.0372
G01 X-5.6098 Y-1.0454
G01 X-5.6060 Y-1.0550
G01 X-5.6036 Y-1.0650
G01 X-5.6027 Y-1.0744
G01 X-5.6027 Y-1.5395
G01 X-5.3427 Y-1.5395
G01 X-5.3427 Y-0.7461
G00 Z2.0000
G00 X-5.4127 Y-0.8161
G01 F70.00
G01 Z-0.0600
G01 F120.00
G01 X-6.0660 Y-0.8161
G01 X-6.0660 Y-0.9361
G01 X-5.6727 Y-0.9361
G01 X-5.6590 Y-0.9368
G01 X-5.6454 Y-0.9388
G01 X-5.6321 Y-0.9421
G01 X-5.6191 Y-0.9468
G01 X-5.6067 Y-0.9526
G01 X-5.5949 Y-0.9597
G01 X-5.5839 Y-0.9679
G01 X-5.5737 Y-0.9771
G01 X-5.5645 Y-0.9873
G01 X-5.5517 Y-1.0056
G01 X-5.5421 Y-1.0257
G01 X-5.5361 Y-1.0454
G01 X-5.5330 Y-1.0675
G01 X-5.5327 Y-1.4695
G01 X-5.4127 Y-1.4695
G01 X-5.4127 Y-0.8161
G00 Z2.0000
G00 X-5.5833 Y-0.8861
G01 F70.00
G01 Z-0.0600
G01 F120.00
G01 X-5.5670 Y-0.8947
G01 X-5.5518 Y-0.9044
G01 X-5.5375 Y-0.9154
G01 X-5.5242 Y-0.9276
G01 X-5.5120 Y-0.9409
G01 X-5.5010 Y-0.9552
G01 X-5.4913 Y-0.9704
G01 X-5.4827 Y-0.9867
G01 X-5.4827 Y-0.8861
G01 X-5.5833 Y-0.8861
G00 Z2.0000
G00 X-4.8433 Y-2.2405
G01 F70.00
G01 Z-0.0600
G01 F120.00
G01 X-4.8433 Y-2.6617
G01 X-4.8293 Y-2.6366
G01 X-4.8204 Y-2.6239
G01 X-4.8106 Y-2.6120
G01 X-4.7905 Y-2.5921
G01 X-4.7784 Y-2.5824
G01 X-4.7656 Y-2.5737
G01 X-4.7523 Y-2.5659
G01 X-4.7384 Y-2.5591
G01 X-4.7118 Y-2.5494
G01 X-4.6841 Y-2.5434
G01 X-4.6687 Y-2.5417
G01 X-4.6533 Y-2.5411
G01 X-3.0404 Y-2.5415
G01 X-3.0123 Y-2.5451
G01 X-2.9850 Y-2.5525
G01 X-2.9589 Y-2.5635
G01 X-2.9345 Y-2.5779
G01 X-2.9123 Y-2.5955
G01 X-2.8926 Y-2.6159
G01 X-2.8759 Y-2.6388
G01 X-2.8633 Y-2.6617
G01 X-2.8633 Y-2.2405
G01 X-2.8773 Y-2.2656
G01 X-2.8862 Y-2.2783
G01 X-2.8960 Y-2.2902
G01 X-2.9066 Y-2.3014
G01 X-2.9181 Y-2.3118
G01 X-2.9410 Y-2.3285
G01 X-2.9543 Y-2.3363
G01 X-2.9682 Y-2.3431
G01 X-2.9948 Y-2.3528
G01 X-3.0098 Y-2.3565
G01 X-3.0250 Y-2.3592
G01 X-3.0533 Y-2.3611
G01 X-4.6662 Y-2.3607
G01 X-4.6943 Y-2.3571
G01 X-4.7216 Y-2.3497
G01 X-4.7477 Y-2.3387
G01 X-4.7721 Y-2.3243
G01 X-4.7943 Y-2.3067
G01 X-4.8140 Y-2.2863
G01 X-4.8307 Y-2.2634
G01 X-4.8433 Y-2.2405
G00 Z2.0000
G00 X-4.7733 Y-2.4041
G01 F70.00
G01 Z-0.0600
G01 F120.00
G01 X-4.7733 Y-2.4981
G01 X-4.7444 Y-2.4863
G01 X-4.7146 Y-2.4779
G01 X-4.6842 Y-2.4728
G01 X-4.6533 Y-2.4711
G01 X-3.0499 Y-2.4711
G01 X-3.0190 Y-2.4732
G01 X-2.9886 Y-2.4787
G01 X-2.9590 Y-2.4875
G01 X-2.9333 Y-2.4981
G01 X-2.9333 Y-2.4041
G01 X-2.9590 Y-2.4147
G01 X-2.9886 Y-2.4235
G01 X-3.0190 Y-2.4290
G01 X-3.0499 Y-2.4311
G01 X-4.6533 Y-2.4311
G01 X-4.6842 Y-2.4294
G01 X-4.7146 Y-2.4243
G01 X-4.7444 Y-2.4159
G01 X-4.7733 Y-2.4041
G00 Z2.0000
G00 X-5.5833 Y-2.8661
G01 F70.00
G01 Z-0.0600
G01 F120.00
G01 X-5.4827 Y-2.8661
G01 X-5.4827 Y-2.7655
G01 X-5.4913 Y-2.7818
G01 X-5.5010 Y-2.7970
G01 X-5.5120 Y-2.8113
G01 X-5.5242 Y-2.8246
G01 X-5.5375 Y-2.8368
G01 X-5.5518 Y-2.8478
G01 X-5.5670 Y-2.8575
G01 X-5.5833 Y-2.8661
G00 Z2.0000
G00 X-6.0660 Y-2.9361
G01 F70.00
G01 Z-0.0600
G01 F120.00
G01 X-5.4127 Y-2.9361
G01 X-5.4127 Y-2.2828
G01 X-5.5327 Y-2.2828
G01 X-5.5327 Y-2.6761
G01 X-5.5332 Y-2.6881
G01 X-5.5348 Y-2.7000
G01 X-5.5373 Y-2.7118
G01 X-5.5409 Y-2.7233
G01 X-5.5454 Y-2.7344
G01 X-5.5509 Y-2.7451
G01 X-5.5573 Y-2.7553
G01 X-5.5645 Y-2.7649
G01 X-5.5737 Y-2.7751
G01 X-5.5839 Y-2.7843
G01 X-5.5935 Y-2.7915
G01 X-5.6037 Y-2.7979
G01 X-5.6144 Y-2.8034
G01 X-5.6255 Y-2.8079
G01 X-5.6370 Y-2.8115
G01 X-5.6488 Y-2.8140
G01 X-5.6607 Y-2.8156
G01 X-5.6727 Y-2.8161
G01 X-6.0660 Y-2.8161
G01 X-6.0660 Y-2.9361
G00 Z2.0000
G00 X-6.1360 Y-3.0061
G01 F70.00
G01 Z-0.0600
G01 F120.00
G01 X-5.3427 Y-3.0061
G01 X-5.3427 Y-2.2128
G01 X-5.6027 Y-2.2128
G01 X-5.6028 Y-2.6804
G01 X-5.6057 Y-2.6964
G01 X-5.6118 Y-2.7106
G01 X-5.6214 Y-2.7237
G01 X-5.6338 Y-2.7343
G01 X-5.6420 Y-2.7390
G01 X-5.6516 Y-2.7428
G01 X-5.6616 Y-2.7452
G01 X-5.6710 Y-2.7461
G01 X-6.1360 Y-2.7461
G01 X-6.1360 Y-3.0061
G00 Z2.0000
G00 X-5.4827 Y-3.7867
G01 F70.00
G01 Z-0.0600
G01 F120.00
G01 X-5.4827 Y-3.6861
G01 X-5.5833 Y-3.6861
G01 X-5.5670 Y-3.6947
G01 X-5.5518 Y-3.7044
G01 X-5.5375 Y-3.7154
G01 X-5.5242 Y-3.7276
G01 X-5.5120 Y-3.7409
G01 X-5.5010 Y-3.7552
G01 X-5.4913 Y-3.7704
G01 X-5.4827 Y-3.7867
G00 Z2.0000
G00 X-5.4448 Y-4.0279
G01 F70.00
G01 Z-0.0600
G01 F120.00
G01 X-5.4540 Y-4.0135
G01 X-5.4627 Y-3.9970
G01 X-5.4627 Y-4.0303
G01 X-5.4448 Y-4.0279
G00 Z2.0000
G00 X-5.5833 Y-5.6661
G01 F70.00
G01 Z-0.0600
G01 F120.00
G01 X-5.4827 Y-5.6661
G01 X-5.4827 Y-5.5655
G01 X-5.4913 Y-5.5818
G01 X-5.5010 Y-5.5970
G01 X-5.5120 Y-5.6113
G01 X-5.5242 Y-5.6246
G01 X-5.5375 Y-5.6368
G01 X-5.5518 Y-5.6478
G01 X-5.5670 Y-5.6575
G01 X-5.5833 Y-5.6661
G00 Z2.0000
G00 X-6.0523 Y-5.6864
G01 F70.00
G01 Z-0.0600
G01 F120.00
G01 X-6.0519 Y-5.6863
G01 X-6.0516 Y-5.6861
G01 X-6.0523 Y-5.6861
G01 X-6.0523 Y-5.6864
G00 Z2.0000
G00 X-6.9732 Y-5.6861
G01 F70.00
G01 Z-0.0600
G01 F120.00
G01 X-6.9729 Y-5.6863
G01 X-6.9725 Y-5.6864
G01 X-6.9725 Y-5.6861
G01 X-6.9732 Y-5.6861
G00 Z2.0000
G00 X-7.4627 Y-5.5655
G01 F70.00
G01 Z-0.0600
G01 F120.00
G01 X-7.4627 Y-5.6661
G01 X-7.3621 Y-5.6661
G01 X-7.3784 Y-5.6575
G01 X-7.3936 Y-5.6478
G01 X-7.4079 Y-5.6368
G01 X-7.4212 Y-5.6246
G01 X-7.4334 Y-5.6113
G01 X-7.4444 Y-5.5970
G01 X-7.4541 Y-5.5818
G01 X-7.4627 Y-5.5655
G00 Z2.0000
G00 X-7.3621 Y-3.6861
G01 F70.00
G01 Z-0.0600
G01 F120.00
G01 X-7.4627 Y-3.6861
G01 X-7.4627 Y-3.7867
G01 X-7.4541 Y-3.7704
G01 X-7.4444 Y-3.7552
G01 X-7.4334 Y-3.7409
G01 X-7.4212 Y-3.7276
G01 X-7.4079 Y-3.7154
G01 X-7.3936 Y-3.7044
G01 X-7.3784 Y-3.6947
G01 X-7.3621 Y-3.6861
G00 Z2.0000
G00 X-7.4627 Y-2.7655
G01 F70.00
G01 Z-0.0600
G01 F120.00
G01 X-7.4627 Y-2.8661
G01 X-7.3621 Y-2.8661
G01 X-7.3784 Y-2.8575
G01 X-7.3936 Y-2.8478
G01 X-7.4079 Y-2.8368
G01 X-7.4212 Y-2.8246
G01 X-7.4334 Y-2.8113
G01 X-7.4444 Y-2.7970
G01 X-7.4541 Y-2.7818
G01 X-7.4627 Y-2.7655
G00 Z2.0000
G00 X-7.5327 Y-2.2828
G01 F70.00
G01 Z-0.0600
G01 F120.00
G01 X-7.5327 Y-2.9361
G01 X-6.8793 Y-2.9361
G01 X-6.8793 Y-2.8161
G01 X-7.2727 Y-2.8161
G01 X-7.2847 Y-2.8156
G01 X-7.2966 Y-2.8140
G01 X-7.3100 Y-2.8110
G01 X-7.3215 Y-2.8073
G01 X-7.3326 Y-2.8027
G01 X-7.3432 Y-2.7971
G01 X-7.3533 Y-2.7906
G01 X-7.3628 Y-2.7832
G01 X-7.3717 Y-2.7751
G01 X-7.3809 Y-2.7649
G01 X-7.3881 Y-2.7553
G01 X-7.3945 Y-2.7451
G01 X-7.4000 Y-2.7344
G01 X-7.4045 Y-2.7233
G01 X-7.4081 Y-2.7118
G01 X-7.4106 Y-2.7000
G01 X-7.4122 Y-2.6881
G01 X-7.4127 Y-2.6761
G01 X-7.4127 Y-2.2828
G01 X-7.5327 Y-2.2828
G00 Z2.0000
G00 X-7.6027 Y-2.2128
G01 F70.00
G01 Z-0.0600
G01 F120.00
G01 X-7.6027 Y-3.0061
G01 X-6.8093 Y-3.0061
G01 X-6.8093 Y-2.7461
G01 X-7.2744 Y-2.7461
G01 X-7.2838 Y-2.7452
G01 X-7.2938 Y-2.7428
G01 X-7.3026 Y-2.7394
G01 X-7.3116 Y-2.7343
G01 X-7.3240 Y-2.7237
G01 X-7.3336 Y-2.7106
G01 X-7.3397 Y-2.6964
G01 X-7.3426 Y-2.6804
G01 X-7.3427 Y-2.2128
G01 X-7.6027 Y-2.2128
G00 Z2.0000
G00 X-7.6027 Y-1.4274
G01 F70.00
G01 Z-0.0600
G01 F120.00
G01 X-7.5932 Y-1.4352
G01 X-7.5854 Y-1.4443
G01 X-7.5792 Y-1.4546
G01 X-7.5746 Y-1.4666
G01 X-7.5721 Y-1.4827
G01 X-7.5721 Y-1.5395
G01 X-7.3427 Y-1.5395
G01 X-7.3427 Y-1.0744
G01 X-7.3418 Y-1.0650
G01 X-7.3394 Y-1.0550
G01 X-7.3356 Y-1.0454
G01 X-7.3309 Y-1.0372
G01 X-7.3210 Y-1.0254
G01 X-7.3079 Y-1.0156
G01 X-7.2930 Y-1.0091
G01 X-7.2770 Y-1.0062
G01 X-6.8093 Y-1.0061
G01 X-6.8093 Y-0.7461
G01 X-7.6027 Y-0.7461
G01 X-7.6027 Y-1.4274
G00 Z2.0000
G00 X-7.5327 Y-1.3979
G01 F70.00
G01 Z-0.0600
G01 F120.00
G01 X-7.5211 Y-1.4148
G01 X-7.5128 Y-1.4317
G01 X-7.5067 Y-1.4496
G01 X-7.5030 Y-1.4695
G01 X-7.4127 Y-1.4695
G01 X-7.4127 Y-1.0761
G01 X-7.4120 Y-1.0624
G01 X-7.4103 Y-1.0505
G01 X-7.4072 Y-1.0371
G01 X-7.4033 Y-1.0257
G01 X-7.3978 Y-1.0132
G01 X-7.3910 Y-1.0012
G01 X-7.3831 Y-0.9900
G01 X-7.3753 Y-0.9808
G01 X-7.3654 Y-0.9712
G01 X-7.3561 Y-0.9637
G01 X-7.3461 Y-0.9569
G01 X-7.3263 Y-0.9468
G01 X-7.3050 Y-0.9399
G01 X-7.2830 Y-0.9365
G01 X-6.8793 Y-0.9361
G01 X-6.8793 Y-0.8161
G01 X-7.5327 Y-0.8161
G01 X-7.5327 Y-1.3979
G00 Z2.0000
G00 X-7.4627 Y-0.9867
G01 F70.00
G01 Z-0.0600
G01 F120.00
G01 X-7.4541 Y-0.9704
G01 X-7.4444 Y-0.9552
G01 X-7.4334 Y-0.9409
G01 X-7.4212 Y-0.9276
G01 X-7.4079 Y-0.9154
G01 X-7.3936 Y-0.9044
G01 X-7.3784 Y-0.8947
G01 X-7.3621 Y-0.8861
G01 X-7.4627 Y-0.8861
G01 X-7.4627 Y-0.9867
G00 Z2.0000
G00 X-8.6187 Y-0.7818
G01 F70.00
G01 Z-0.0600
G01 F120.00
G01 X-8.6031 Y-0.7888
G01 X-8.5532 Y-0.8140
G01 X-8.5060 Y-0.8408
G01 X-8.4573 Y-0.8717
G01 X-8.4130 Y-0.9029
G01 X-8.3689 Y-0.9374
G01 X-8.3265 Y-0.9739
G01 X-8.2860 Y-1.0125
G01 X-8.2474 Y-1.0530
G01 X-8.2109 Y-1.0954
G01 X-8.1764 Y-1.1395
G01 X-8.1452 Y-1.1838
G01 X-8.1143 Y-1.2325
G01 X-8.0875 Y-1.2797
G01 X-8.0623 Y-1.3296
G01 X-8.0553 Y-1.3453
G01 X-7.9246 Y-1.3453
G01 X-7.9531 Y-1.2799
G01 X-7.9809 Y-1.2247
G01 X-8.0114 Y-1.1709
G01 X-8.0445 Y-1.1186
G01 X-8.0801 Y-1.0680
G01 X-8.1181 Y-1.0193
G01 X-8.1585 Y-0.9725
G01 X-8.2012 Y-0.9277
G01 X-8.2460 Y-0.8850
G01 X-8.2928 Y-0.8446
G01 X-8.3415 Y-0.8066
G01 X-8.3921 Y-0.7710
G01 X-8.4444 Y-0.7379
G01 X-8.4982 Y-0.7074
G01 X-8.5534 Y-0.6796
G01 X-8.6187 Y-0.6512
G01 X-8.6187 Y-0.7818
G00 Z2.0000
G00 X-8.6887 Y-0.8277
G01 F70.00
G01 Z-0.0600
G01 F120.00
G01 X-8.6346 Y-0.8513
G01 X-8.5877 Y-0.8749
G01 X-8.5420 Y-0.9008
G01 X-8.4976 Y-0.9289
G01 X-8.4547 Y-0.9592
G01 X-8.4133 Y-0.9915
G01 X-8.3735 Y-1.0258
G01 X-8.3355 Y-1.0620
G01 X-8.2993 Y-1.1000
G01 X-8.2650 Y-1.1398
G01 X-8.2327 Y-1.1812
G01 X-8.2024 Y-1.2241
G01 X-8.1743 Y-1.2685
G01 X-8.1484 Y-1.3142
G01 X-8.1248 Y-1.3611
G01 X-8.1011 Y-1.4153
G01 X-7.8251 Y-1.4153
G01 X-7.8399 Y-1.3705
G01 X-7.8634 Y-1.3096
G01 X-7.8898 Y-1.2500
G01 X-7.9192 Y-1.1917
G01 X-7.9513 Y-1.1349
G01 X-7.9863 Y-1.0797
G01 X-8.0239 Y-1.0263
G01 X-8.0640 Y-0.9749
G01 X-8.1067 Y-0.9254
G01 X-8.1517 Y-0.8782
G01 X-8.1989 Y-0.8332
G01 X-8.2484 Y-0.7905
G01 X-8.2998 Y-0.7504
G01 X-8.3532 Y-0.7128
G01 X-8.4084 Y-0.6778
G01 X-8.4652 Y-0.6457
G01 X-8.5235 Y-0.6163
G01 X-8.5831 Y-0.5899
G01 X-8.6440 Y-0.5664
G01 X-8.6887 Y-0.5516
G01 X-8.6887 Y-0.8277
G00 Z2.0000
G00 X-8.7621 Y-1.8186
G01 F70.00
G01 Z-0.0600
G01 F120.00
G01 X-8.7637 Y-1.7863
G01 X-8.7685 Y-1.7542
G01 X-8.7763 Y-1.7228
G01 X-8.7872 Y-1.6923
G01 X-8.8011 Y-1.6630
G01 X-8.8177 Y-1.6353
G01 X-8.8370 Y-1.6093
G01 X-8.8588 Y-1.5853
G01 X-8.8828 Y-1.5635
G01 X-8.9088 Y-1.5442
G01 X-8.9365 Y-1.5276
G01 X-8.9658 Y-1.5137
G01 X-8.9963 Y-1.5028
G01 X-9.0277 Y-1.4950
G01 X-9.0598 Y-1.4902
G01 X-9.0921 Y-1.4886
G01 X-9.1244 Y-1.4902
G01 X-9.1565 Y-1.4950
G01 X-9.1879 Y-1.5028
G01 X-9.2184 Y-1.5137
G01 X-9.2477 Y-1.5276
G01 X-9.2754 Y-1.5442
G01 X-9.3014 Y-1.5635
G01 X-9.3254 Y-1.5853
G01 X-9.3472 Y-1.6093
G01 X-9.3665 Y-1.6353
G01 X-9.3831 Y-1.6630
G01 X-9.3970 Y-1.6923
G01 X-9.4079 Y-1.7228
G01 X-9.4157 Y-1.7542
G01 X-9.4205 Y-1.7863
G01 X-9.4221 Y-1.8186
G01 X-9.4205 Y-1.8509
G01 X-9.4157 Y-1.8830
G01 X-9.4079 Y-1.9144
G01 X-9.3970 Y-1.9449
G01 X-9.3831 Y-1.9742
G01 X-9.3665 Y-2.0019
G01 X-9.3472 Y-2.0279
G01 X-9.3254 Y-2.0519
G01 X-9.3014 Y-2.0737
G01 X-9.2754 Y-2.0930
G01 X-9.2477 Y-2.1096
G01 X-9.2184 Y-2.1235
G01 X-9.1879 Y-2.1344
G01 X-9.1565 Y-2.1422
G01 X-9.1244 Y-2.1470
G01 X-9.0921 Y-2.1486
G01 X-9.0598 Y-2.1470
G01 X-9.0277 Y-2.1422
G01 X-8.9963 Y-2.1344
G01 X-8.9658 Y-2.1235
G01 X-8.9365 Y-2.1096
G01 X-8.9088 Y-2.0930
G01 X-8.8828 Y-2.0737
G01 X-8.8588 Y-2.0519
G01 X-8.8370 Y-2.0279
G01 X-8.8177 Y-2.0019
G01 X-8.8011 Y-1.9742
G01 X-8.7872 Y-1.9449
G01 X-8.7763 Y-1.9144
G01 X-8.7685 Y-1.8830
G01 X-8.7637 Y-1.8509
G01 X-8.7621 Y-1.8186
G00 Z2.0000
G00 X-8.8321 Y-1.8186
G01 F70.00
G01 Z-0.0600
G01 F120.00
G01 X-8.8334 Y-1.7931
G01 X-8.8371 Y-1.7679
G01 X-8.8433 Y-1.7431
G01 X-8.8519 Y-1.7191
G01 X-8.8628 Y-1.6961
G01 X-8.8760 Y-1.6742
G01 X-8.8911 Y-1.6537
G01 X-8.9083 Y-1.6348
G01 X-8.9272 Y-1.6176
G01 X-8.9477 Y-1.6025
G01 X-8.9696 Y-1.5893
G01 X-8.9926 Y-1.5784
G01 X-9.0166 Y-1.5698
G01 X-9.0414 Y-1.5636
G01 X-9.0666 Y-1.5599
G01 X-9.0921 Y-1.5586
G01 X-9.1176 Y-1.5599
G01 X-9.1428 Y-1.5636
G01 X-9.1676 Y-1.5698
G01 X-9.1916 Y-1.5784
G01 X-9.2146 Y-1.5893
G01 X-9.2365 Y-1.6025
G01 X-9.2570 Y-1.6176
G01 X-9.2759 Y-1.6348
G01 X-9.2931 Y-1.6537
G01 X-9.3082 Y-1.6742
G01 X-9.3214 Y-1.6961
G01 X-9.3323 Y-1.7191
G01 X-9.3409 Y-1.7431
G01 X-9.3471 Y-1.7679
G01 X-9.3508 Y-1.7931
G01 X-9.3521 Y-1.8186
G01 X-9.3508 Y-1.8441
G01 X-9.3471 Y-1.8693
G01 X-9.3409 Y-1.8941
G01 X-9.3323 Y-1.9181
G01 X-9.3214 Y-1.9411
G01 X-9.3082 Y-1.9630
G01 X-9.2931 Y-1.9835
G01 X-9.2759 Y-2.0024
G01 X-9.2570 Y-2.0196
G01 X-9.2365 Y-2.0347
G01 X-9.2146 Y-2.0479
G01 X-9.1916 Y-2.0588
G01 X-9.1676 Y-2.0674
G01 X-9.1428 Y-2.0736
G01 X-9.1176 Y-2.0773
G01 X-9.0921 Y-2.0786
G01 X-9.0666 Y-2.0773
G01 X-9.0414 Y-2.0736
G01 X-9.0166 Y-2.0674
G01 X-8.9926 Y-2.0588
G01 X-8.9696 Y-2.0479
G01 X-8.9477 Y-2.0347
G01 X-8.9272 Y-2.0196
G01 X-8.9083 Y-2.0024
G01 X-8.8911 Y-1.9835
G01 X-8.8760 Y-1.9630
G01 X-8.8628 Y-1.9411
G01 X-8.8519 Y-1.9181
G01 X-8.8433 Y-1.8941
G01 X-8.8371 Y-1.8693
G01 X-8.8334 Y-1.8441
G01 X-8.8321 Y-1.8186
G00 Z2.0000
G00 X-8.9022 Y-1.8186
G01 F70.00
G01 Z-0.0600
G01 F120.00
G01 X-8.9031 Y-1.8000
G01 X-8.9058 Y-1.7815
G01 X-8.9103 Y-1.7635
G01 X-8.9166 Y-1.7459
G01 X-8.9246 Y-1.7291
G01 X-8.9342 Y-1.7131
G01 X-8.9453 Y-1.6981
G01 X-8.9578 Y-1.6843
G01 X-8.9716 Y-1.6718
G01 X-8.9866 Y-1.6607
G01 X-9.0026 Y-1.6511
G01 X-9.0194 Y-1.6431
G01 X-9.0370 Y-1.6368
G01 X-9.0550 Y-1.6323
G01 X-9.0735 Y-1.6296
G01 X-9.0921 Y-1.6287
G01 X-9.1107 Y-1.6296
G01 X-9.1292 Y-1.6323
G01 X-9.1472 Y-1.6368
G01 X-9.1648 Y-1.6431
G01 X-9.1816 Y-1.6511
G01 X-9.1976 Y-1.6607
G01 X-9.2126 Y-1.6718
G01 X-9.2264 Y-1.6843
G01 X-9.2389 Y-1.6981
G01 X-9.2500 Y-1.7131
G01 X-9.2596 Y-1.7291
G01 X-9.2676 Y-1.7459
G01 X-9.2739 Y-1.7635
G01 X-9.2784 Y-1.7815
G01 X-9.2811 Y-1.8000
G01 X-9.2820 Y-1.8186
G01 X-9.2811 Y-1.8372
G01 X-9.2784 Y-1.8557
G01 X-9.2739 Y-1.8737
G01 X-9.2676 Y-1.8913
G01 X-9.2596 Y-1.9081
G01 X-9.2500 Y-1.9241
G01 X-9.2389 Y-1.9391
G01 X-9.2264 Y-1.9529
G01 X-9.2126 Y-1.9654
G01 X-9.1976 Y-1.9765
G01 X-9.1816 Y-1.9861
G01 X-9.1648 Y-1.9941
G01 X-9.1472 Y-2.0004
G01 X-9.1292 Y-2.0049
G01 X-9.1107 Y-2.0076
G01 X-9.0921 Y-2.0085
G01 X-9.0735 Y-2.0076
G01 X-9.0550 Y-2.0049
G01 X-9.0370 Y-2.0004
G01 X-9.0194 Y-1.9941
G01 X-9.0026 Y-1.9861
G01 X-8.9866 Y-1.9765
G01 X-8.9716 Y-1.9654
G01 X-8.9578 Y-1.9529
G01 X-8.9453 Y-1.9391
G01 X-8.9342 Y-1.9241
G01 X-8.9246 Y-1.9081
G01 X-8.9166 Y-1.8913
G01 X-8.9103 Y-1.8737
G01 X-8.9058 Y-1.8557
G01 X-8.9031 Y-1.8372
G01 X-8.9022 Y-1.8186
G00 Z2.0000
G00 X-8.9722 Y-1.8186
G01 F70.00
G01 Z-0.0600
G01 F120.00
G01 X-8.9728 Y-1.8068
G01 X-8.9745 Y-1.7952
G01 X-8.9773 Y-1.7838
G01 X-8.9813 Y-1.7727
G01 X-8.9863 Y-1.7621
G01 X-8.9924 Y-1.7520
G01 X-8.9994 Y-1.7425
G01 X-9.0073 Y-1.7338
G01 X-9.0160 Y-1.7259
G01 X-9.0255 Y-1.7189
G01 X-9.0356 Y-1.7128
G01 X-9.0462 Y-1.7078
G01 X-9.0573 Y-1.7038
G01 X-9.0687 Y-1.7010
G01 X-9.0803 Y-1.6993
G01 X-9.0921 Y-1.6987
G01 X-9.1039 Y-1.6993
G01 X-9.1155 Y-1.7010
G01 X-9.1269 Y-1.7038
G01 X-9.1380 Y-1.7078
G01 X-9.1486 Y-1.7128
G01 X-9.1587 Y-1.7189
G01 X-9.1682 Y-1.7259
G01 X-9.1769 Y-1.7338
G01 X-9.1848 Y-1.7425
G01 X-9.1918 Y-1.7520
G01 X-9.1979 Y-1.7621
G01 X-9.2029 Y-1.7727
G01 X-9.2069 Y-1.7838
G01 X-9.2097 Y-1.7952
G01 X-9.2114 Y-1.8068
G01 X-9.2120 Y-1.8186
G01 X-9.2114 Y-1.8304
G01 X-9.2097 Y-1.8420
G01 X-9.2069 Y-1.8534
G01 X-9.2029 Y-1.8645
G01 X-9.1979 Y-1.8751
G01 X-9.1918 Y-1.8852
G01 X-9.1848 Y-1.8947
G01 X-9.1769 Y-1.9034
G01 X-9.1682 Y-1.9113
G01 X-9.1587 Y-1.9183
G01 X-9.1486 Y-1.9244
G01 X-9.1380 Y-1.9294
G01 X-9.1269 Y-1.9334
G01 X-9.1155 Y-1.9362
G01 X-9.1039 Y-1.9379
G01 X-9.0921 Y-1.9385
G01 X-9.0803 Y-1.9379
G01 X-9.0687 Y-1.9362
G01 X-9.0573 Y-1.9334
G01 X-9.0462 Y-1.9294
G01 X-9.0356 Y-1.9244
G01 X-9.0255 Y-1.9183
G01 X-9.0160 Y-1.9113
G01 X-9.0073 Y-1.9034
G01 X-8.9994 Y-1.8947
G01 X-8.9924 Y-1.8852
G01 X-8.9863 Y-1.8751
G01 X-8.9813 Y-1.8645
G01 X-8.9773 Y-1.8534
G01 X-8.9745 Y-1.8420
G01 X-8.9728 Y-1.8304
G01 X-8.9722 Y-1.8186
G00 Z2.0000
G00 X-8.6187 Y-2.9860
G01 F70.00
G01 Z-0.0600
G01 F120.00
G01 X-8.5534 Y-2.9576
G01 X-8.4982 Y-2.9298
G01 X-8.4444 Y-2.8993
G01 X-8.3921 Y-2.8662
G01 X-8.3415 Y-2.8306
G01 X-8.2928 Y-2.7926
G01 X-8.2460 Y-2.7522
G01 X-8.2012 Y-2.7095
G01 X-8.1585 Y-2.6647
G01 X-8.1181 Y-2.6179
G01 X-8.0801 Y-2.5692
G01 X-8.0445 Y-2.5186
G01 X-8.0114 Y-2.4663
G01 X-7.9809 Y-2.4125
G01 X-7.9531 Y-2.3573
G01 X-7.9247 Y-2.2920
G01 X-8.0553 Y-2.2920
G01 X-8.0623 Y-2.3076
G01 X-8.0875 Y-2.3575
G01 X-8.1143 Y-2.4047
G01 X-8.1452 Y-2.4534
G01 X-8.1764 Y-2.4977
G01 X-8.2109 Y-2.5418
G01 X-8.2474 Y-2.5842
G01 X-8.2860 Y-2.6247
G01 X-8.3265 Y-2.6633
G01 X-8.3689 Y-2.6998
G01 X-8.4130 Y-2.7343
G01 X-8.4573 Y-2.7655
G01 X-8.5060 Y-2.7964
G01 X-8.5532 Y-2.8232
G01 X-8.6031 Y-2.8484
G01 X-8.6187 Y-2.8554
G01 X-8.6187 Y-2.9860
G00 Z2.0000
G00 X-8.6887 Y-3.0856
G01 F70.00
G01 Z-0.0600
G01 F120.00
G01 X-8.6440 Y-3.0708
G01 X-8.5831 Y-3.0473
G01 X-8.5235 Y-3.0209
G01 X-8.4652 Y-2.9915
G01 X-8.4084 Y-2.9594
G01 X-8.3532 Y-2.9244
G01 X-8.2998 Y-2.8868
G01 X-8.2484 Y-2.8467
G01 X-8.1989 Y-2.8040
G01 X-8.1517 Y-2.7590
G01 X-8.1067 Y-2.7118
G01 X-8.0640 Y-2.6623
G01 X-8.0239 Y-2.6109
G01 X-7.9863 Y-2.5575
G01 X-7.9513 Y-2.5023
G01 X-7.9192 Y-2.4455
G01 X-7.8898 Y-2.3872
G01 X-7.8634 Y-2.3276
G01 X-7.8399 Y-2.2667
G01 X-7.8251 Y-2.2220
G01 X-8.1012 Y-2.2220
G01 X-8.1248 Y-2.2761
G01 X-8.1484 Y-2.3230
G01 X-8.1743 Y-2.3687
G01 X-8.2024 Y-2.4131
G01 X-8.2327 Y-2.4560
G01 X-8.2650 Y-2.4974
G01 X-8.2993 Y-2.5372
G01 X-8.3355 Y-2.5752
G01 X-8.3735 Y-2.6114
G01 X-8.4133 Y-2.6457
G01 X-8.4547 Y-2.6780
G01 X-8.4976 Y-2.7083
G01 X-8.5420 Y-2.7364
G01 X-8.5877 Y-2.7623
G01 X-8.6346 Y-2.7859
G01 X-8.6887 Y-2.8095
G01 X-8.6887 Y-3.0856
G00 Z2.0000
G00 X-10.2595 Y-2.2920
G01 F70.00
G01 Z-0.0600
G01 F120.00
G01 X-10.2311 Y-2.3573
G01 X-10.2033 Y-2.4125
G01 X-10.1728 Y-2.4663
G01 X-10.1397 Y-2.5186
G01 X-10.1041 Y-2.5692
G01 X-10.0661 Y-2.6179
G01 X-10.0257 Y-2.6647
G01 X-9.9830 Y-2.7095
G01 X-9.9382 Y-2.7522
G01 X-9.8914 Y-2.7926
G01 X-9.8427 Y-2.8306
G01 X-9.7921 Y-2.8662
G01 X-9.7398 Y-2.8993
G01 X-9.6860 Y-2.9298
G01 X-9.6308 Y-2.9576
G01 X-9.5654 Y-2.9861
G01 X-9.5654 Y-2.8554
G01 X-9.5811 Y-2.8484
G01 X-9.6310 Y-2.8232
G01 X-9.6782 Y-2.7964
G01 X-9.7269 Y-2.7655
G01 X-9.7712 Y-2.7343
G01 X-9.8153 Y-2.6998
G01 X-9.8577 Y-2.6633
G01 X-9.8982 Y-2.6247
G01 X-9.9368 Y-2.5842
G01 X-9.9733 Y-2.5418
G01 X-10.0078 Y-2.4977
G01 X-10.0390 Y-2.4534
G01 X-10.0699 Y-2.4047
G01 X-10.0967 Y-2.3575
G01 X-10.1219 Y-2.3076
G01 X-10.1289 Y-2.2920
G01 X-10.2595 Y-2.2920
G00 Z2.0000
G00 X-10.3591 Y-2.2220
G01 F70.00
G01 Z-0.0600
G01 F120.00
G01 X-10.3443 Y-2.2667
G01 X-10.3208 Y-2.3276
G01 X-10.2944 Y-2.3872
G01 X-10.2650 Y-2.4455
G01 X-10.2329 Y-2.5023
G01 X-10.1979 Y-2.5575
G01 X-10.1603 Y-2.6109
G01 X-10.1202 Y-2.6623
G01 X-10.0775 Y-2.7118
G01 X-10.0325 Y-2.7590
G01 X-9.9853 Y-2.8040
G01 X-9.9358 Y-2.8467
G01 X-9.8844 Y-2.8868
G01 X-9.8310 Y-2.9244
G01 X-9.7758 Y-2.9594
G01 X-9.7190 Y-2.9915
G01 X-9.6607 Y-3.0209
G01 X-9.6011 Y-3.0473
G01 X-9.5402 Y-3.0708
G01 X-9.4954 Y-3.0856
G01 X-9.4954 Y-2.8096
G01 X-9.5496 Y-2.7859
G01 X-9.5965 Y-2.7623
G01 X-9.6422 Y-2.7364
G01 X-9.6866 Y-2.7083
G01 X-9.7295 Y-2.6780
G01 X-9.7709 Y-2.6457
G01 X-9.8107 Y-2.6114
G01 X-9.8487 Y-2.5752
G01 X-9.8849 Y-2.5372
G01 X-9.9192 Y-2.4974
G01 X-9.9515 Y-2.4560
G01 X-9.9818 Y-2.4131
G01 X-10.0099 Y-2.3687
G01 X-10.0358 Y-2.3230
G01 X-10.0594 Y-2.2761
G01 X-10.0830 Y-2.2220
G01 X-10.3591 Y-2.2220
G00 Z2.0000
G00 X-10.3591 Y-1.4153
G01 F70.00
G01 Z-0.0600
G01 F120.00
G01 X-10.0831 Y-1.4153
G01 X-10.0594 Y-1.3611
G01 X-10.0358 Y-1.3142
G01 X-10.0099 Y-1.2685
G01 X-9.9818 Y-1.2241
G01 X-9.9515 Y-1.1812
G01 X-9.9192 Y-1.1398
G01 X-9.8849 Y-1.1000
G01 X-9.8487 Y-1.0620
G01 X-9.8107 Y-1.0258
G01 X-9.7709 Y-0.9915
G01 X-9.7295 Y-0.9592
G01 X-9.6866 Y-0.9289
G01 X-9.6422 Y-0.9008
G01 X-9.5965 Y-0.8749
G01 X-9.5496 Y-0.8513
G01 X-9.4954 Y-0.8276
G01 X-9.4954 Y-0.5516
G01 X-9.5402 Y-0.5664
G01 X-9.6011 Y-0.5899
G01 X-9.6607 Y-0.6163
G01 X-9.7190 Y-0.6457
G01 X-9.7758 Y-0.6778
G01 X-9.8310 Y-0.7128
G01 X-9.8844 Y-0.7504
G01 X-9.9358 Y-0.7905
G01 X-9.9853 Y-0.8332
G01 X-10.0325 Y-0.8782
G01 X-10.0775 Y-0.9254
G01 X-10.1202 Y-0.9749
G01 X-10.1603 Y-1.0263
G01 X-10.1979 Y-1.0797
G01 X-10.2329 Y-1.1349
G01 X-10.2650 Y-1.1917
G01 X-10.2944 Y-1.2500
G01 X-10.3208 Y-1.3096
G01 X-10.3443 Y-1.3705
G01 X-10.3591 Y-1.4153
G00 Z2.0000
G00 X-10.2596 Y-1.3453
G01 F70.00
G01 Z-0.0600
G01 F120.00
G01 X-10.1289 Y-1.3453
G01 X-10.1219 Y-1.3296
G01 X-10.0967 Y-1.2797
G01 X-10.0699 Y-1.2325
G01 X-10.0390 Y-1.1838
G01 X-10.0078 Y-1.1395
G01 X-9.9733 Y-1.0954
G01 X-9.9368 Y-1.0530
G01 X-9.8982 Y-1.0125
G01 X-9.8577 Y-0.9739
G01 X-9.8153 Y-0.9374
G01 X-9.7712 Y-0.9029
G01 X-9.7269 Y-0.8717
G01 X-9.6782 Y-0.8408
G01 X-9.6310 Y-0.8140
G01 X-9.5811 Y-0.7888
G01 X-9.5654 Y-0.7818
G01 X-9.5654 Y-0.6511
G01 X-9.6308 Y-0.6796
G01 X-9.6860 Y-0.7074
G01 X-9.7398 Y-0.7379
G01 X-9.7921 Y-0.7710
G01 X-9.8427 Y-0.8066
G01 X-9.8914 Y-0.8446
G01 X-9.9382 Y-0.8850
G01 X-9.9830 Y-0.9277
G01 X-10.0257 Y-0.9725
G01 X-10.0661 Y-1.0193
G01 X-10.1041 Y-1.0680
G01 X-10.1397 Y-1.1186
G01 X-10.1728 Y-1.1709
G01 X-10.2033 Y-1.2247
G01 X-10.2311 Y-1.2799
G01 X-10.2596 Y-1.3453
G00 Z2.0000
G00 X-4.9412 Y-6.0277
G01 F70.00
G01 Z-0.0600
G01 F120.00
G01 X-5.0418 Y-6.0277
G01 X-5.0418 Y-6.1283
G01 X-5.0332 Y-6.1120
G01 X-5.0235 Y-6.0968
G01 X-5.0125 Y-6.0825
G01 X-5.0003 Y-6.0692
G01 X-4.9870 Y-6.0570
G01 X-4.9727 Y-6.0460
G01 X-4.9575 Y-6.0363
G01 X-4.9412 Y-6.0277
G00 Z2.0000
G00 X-3.0618 Y-6.1283
G01 F70.00
G01 Z-0.0600
G01 F120.00
G01 X-3.0618 Y-6.0277
G01 X-3.1624 Y-6.0277
G01 X-3.1461 Y-6.0363
G01 X-3.1309 Y-6.0460
G01 X-3.1166 Y-6.0570
G01 X-3.1033 Y-6.0692
G01 X-3.0911 Y-6.0825
G01 X-3.0801 Y-6.0968
G01 X-3.0704 Y-6.1120
G01 X-3.0618 Y-6.1283
G00 Z2.0000
G00 X-3.1818 Y-7.1992
G01 F70.00
G01 Z-0.0600
G01 F120.00
G01 X-2.4966 Y-7.2070
G01 X-2.4790 Y-7.2607
G01 X-2.4607 Y-7.3081
G01 X-2.4386 Y-7.3576
G01 X-2.4158 Y-7.4030
G01 X-2.3899 Y-7.4487
G01 X-2.3618 Y-7.4931
G01 X-2.3305 Y-7.5374
G01 X-2.2992 Y-7.5774
G01 X-2.2649 Y-7.6172
G01 X-2.2287 Y-7.6552
G01 X-2.1907 Y-7.6914
G01 X-2.1509 Y-7.7257
G01 X-2.1095 Y-7.7580
G01 X-2.0666 Y-7.7883
G01 X-2.0222 Y-7.8164
G01 X-1.9765 Y-7.8423
G01 X-1.9296 Y-7.8659
G01 X-1.8816 Y-7.8872
G01 X-1.8342 Y-7.9055
G01 X-1.7827 Y-7.9225
G01 X-1.7338 Y-7.9361
G01 X-1.6792 Y-7.9484
G01 X-1.6291 Y-7.9570
G01 X-1.5770 Y-7.9634
G01 X-1.5246 Y-7.9673
G01 X-1.4721 Y-7.9686
G01 X-1.4196 Y-7.9673
G01 X-1.3672 Y-7.9634
G01 X-1.3151 Y-7.9570
G01 X-1.2642 Y-7.9482
G01 X-1.2121 Y-7.9365
G01 X-1.1615 Y-7.9225
G01 X-1.1116 Y-7.9061
G01 X-1.0626 Y-7.8872
G01 X-1.0146 Y-7.8659
G01 X-0.9677 Y-7.8423
G01 X-0.9220 Y-7.8164
G01 X-0.8776 Y-7.7883
G01 X-0.8347 Y-7.7580
G01 X-0.7933 Y-7.7257
G01 X-0.7535 Y-7.6914
G01 X-0.7155 Y-7.6552
G01 X-0.6793 Y-7.6172
G01 X-0.6450 Y-7.5774
G01 X-0.6127 Y-7.5360
G01 X-0.5824 Y-7.4931
G01 X-0.5543 Y-7.4487
G01 X-0.5284 Y-7.4030
G01 X-0.5048 Y-7.3561
G01 X-0.4835 Y-7.3081
G01 X-0.4646 Y-7.2591
G01 X-0.4482 Y-7.2092
G01 X-0.4342 Y-7.1586
G01 X-0.4227 Y-7.1073
G01 X-0.4137 Y-7.0556
G01 X-0.4073 Y-7.0035
G01 X-0.4034 Y-6.9511
G01 X-0.4021 Y-6.8986
G01 X-0.4034 Y-6.8461
G01 X-0.4073 Y-6.7937
G01 X-0.4137 Y-6.7416
G01 X-0.4225 Y-6.6907
G01 X-0.4346 Y-6.6369
G01 X-0.4482 Y-6.5880
G01 X-0.4646 Y-6.5381
G01 X-0.4835 Y-6.4891
G01 X-0.5041 Y-6.4427
G01 X-0.5293 Y-6.3927
G01 X-0.5543 Y-6.3485
G01 X-0.5824 Y-6.3041
G01 X-0.6127 Y-6.2612
G01 X-0.6439 Y-6.2211
G01 X-0.6805 Y-6.1788
G01 X-0.7155 Y-6.1420
G01 X-0.7535 Y-6.1058
G01 X-0.7933 Y-6.0715
G01 X-0.8333 Y-6.0402
G01 X-0.8776 Y-6.0089
G01 X-0.9220 Y-5.9808
G01 X-0.9662 Y-5.9558
G01 X-1.0162 Y-5.9306
G01 X-1.0626 Y-5.9100
G01 X-1.1116 Y-5.8911
G01 X-1.1615 Y-5.8747
G01 X-1.2104 Y-5.8611
G01 X-1.2650 Y-5.8488
G01 X-1.3151 Y-5.8402
G01 X-1.3664 Y-5.8338
G01 X-1.4196 Y-5.8299
G01 X-1.4704 Y-5.8286
G01 X-1.5263 Y-5.8300
G01 X-1.5770 Y-5.8338
G01 X-1.6291 Y-5.8402
G01 X-1.6808 Y-5.8492
G01 X-1.7321 Y-5.8607
G01 X-1.7827 Y-5.8747
G01 X-1.8309 Y-5.8906
G01 X-1.8832 Y-5.9107
G01 X-1.9296 Y-5.9313
G01 X-1.9765 Y-5.9549
G01 X-2.0222 Y-5.9808
G01 X-2.0658 Y-6.0085
G01 X-2.1095 Y-6.0392
G01 X-2.1496 Y-6.0704
G01 X-2.1919 Y-6.1070
G01 X-2.2287 Y-6.1420
G01 X-2.2649 Y-6.1800
G01 X-2.2992 Y-6.2198
G01 X-2.3310 Y-6.2605
G01 X-2.3618 Y-6.3041
G01 X-2.3890 Y-6.3470
G01 X-2.4162 Y-6.3950
G01 X-2.4394 Y-6.4411
G01 X-2.4603 Y-6.4883
G01 X-2.4793 Y-6.5373
G01 X-2.4891 Y-6.5668
G01 X-3.1818 Y-6.5589
G01 X-3.1818 Y-6.2177
G01 X-3.1826 Y-6.2074
G01 X-3.1851 Y-6.1966
G01 X-3.1893 Y-6.1862
G01 X-3.1951 Y-6.1767
G01 X-3.2023 Y-6.1682
G01 X-3.2108 Y-6.1610
G01 X-3.2203 Y-6.1552
G01 X-3.2298 Y-6.1512
G01 X-3.2407 Y-6.1486
G01 X-3.2518 Y-6.1477
G01 X-4.8535 Y-6.1477
G01 X-4.8621 Y-6.1485
G01 X-4.8705 Y-6.1502
G01 X-4.8794 Y-6.1534
G01 X-4.8870 Y-6.1572
G01 X-4.8949 Y-6.1625
G01 X-4.9013 Y-6.1682
G01 X-4.9070 Y-6.1746
G01 X-4.9123 Y-6.1825
G01 X-4.9161 Y-6.1901
G01 X-4.9193 Y-6.1990
G01 X-4.9212 Y-6.2083
G01 X-4.9218 Y-6.2177
G01 X-4.9218 Y-7.8186
G01 X-4.9210 Y-7.8280
G01 X-4.9193 Y-7.8364
G01 X-4.9161 Y-7.8453
G01 X-4.9123 Y-7.8529
G01 X-4.9075 Y-7.8601
G01 X-4.9013 Y-7.8672
G01 X-4.8949 Y-7.8729
G01 X-4.8870 Y-7.8782
G01 X-4.8786 Y-7.8824
G01 X-4.8705 Y-7.8852
G01 X-4.8612 Y-7.8871
G01 X-4.8518 Y-7.8877
G01 X-3.2518 Y-7.8877
G01 X-3.2381 Y-7.8864
G01 X-3.2258 Y-7.8827
G01 X-3.2173 Y-7.8786
G01 X-3.2087 Y-7.8729
G01 X-3.2011 Y-7.8660
G01 X-3.1951 Y-7.8587
G01 X-3.1897 Y-7.8499
G01 X-3.1859 Y-7.8413
G01 X-3.1831 Y-7.8314
G01 X-3.1819 Y-7.8220
G01 X-3.1818 Y-7.1992
G00 Z2.0000
G00 X-3.1118 Y-7.2700
G01 F70.00
G01 Z-0.0600
G01 F120.00
G01 X-2.5476 Y-7.2765
G01 X-2.5253 Y-7.3349
G01 X-2.5026 Y-7.3860
G01 X-2.4775 Y-7.4360
G01 X-2.4481 Y-7.4876
G01 X-2.4180 Y-7.5348
G01 X-2.3878 Y-7.5777
G01 X-2.3555 Y-7.6191
G01 X-2.3168 Y-7.6642
G01 X-2.2782 Y-7.7047
G01 X-2.2377 Y-7.7433
G01 X-2.1953 Y-7.7798
G01 X-2.1512 Y-7.8143
G01 X-2.1026 Y-7.8483
G01 X-2.0582 Y-7.8764
G01 X-2.0064 Y-7.9056
G01 X-1.9595 Y-7.9291
G01 X-1.9115 Y-7.9505
G01 X-1.8594 Y-7.9708
G01 X-1.7997 Y-7.9905
G01 X-1.7491 Y-8.0044
G01 X-1.6945 Y-8.0167
G01 X-1.6360 Y-8.0267
G01 X-1.5838 Y-8.0331
G01 X-1.5280 Y-8.0372
G01 X-1.4721 Y-8.0386
G01 X-1.4196 Y-8.0374
G01 X-1.3604 Y-8.0331
G01 X-1.3014 Y-8.0257
G01 X-1.2497 Y-8.0167
G01 X-1.1968 Y-8.0048
G01 X-1.1412 Y-7.9895
G01 X-1.0880 Y-7.9720
G01 X-1.0358 Y-7.9518
G01 X-0.9847 Y-7.9291
G01 X-0.9347 Y-7.9040
G01 X-0.8860 Y-7.8764
G01 X-0.8387 Y-7.8465
G01 X-0.7930 Y-7.8143
G01 X-0.7489 Y-7.7798
G01 X-0.7065 Y-7.7433
G01 X-0.6660 Y-7.7047
G01 X-0.6274 Y-7.6642
G01 X-0.5909 Y-7.6218
G01 X-0.5564 Y-7.5777
G01 X-0.5242 Y-7.5320
G01 X-0.4943 Y-7.4847
G01 X-0.4667 Y-7.4360
G01 X-0.4416 Y-7.3860
G01 X-0.4189 Y-7.3349
G01 X-0.3987 Y-7.2827
G01 X-0.3812 Y-7.2295
G01 X-0.3663 Y-7.1756
G01 X-0.3540 Y-7.1210
G01 X-0.3444 Y-7.0659
G01 X-0.3376 Y-7.0103
G01 X-0.3335 Y-6.9545
G01 X-0.3321 Y-6.8986
G01 X-0.3335 Y-6.8427
G01 X-0.3376 Y-6.7869
G01 X-0.3444 Y-6.7313
G01 X-0.3540 Y-6.6762
G01 X-0.3659 Y-6.6233
G01 X-0.3822 Y-6.5644
G01 X-0.3987 Y-6.5145
G01 X-0.4189 Y-6.4623
G01 X-0.4416 Y-6.4112
G01 X-0.4651 Y-6.3643
G01 X-0.4943 Y-6.3125
G01 X-0.5242 Y-6.2652
G01 X-0.5544 Y-6.2223
G01 X-0.5909 Y-6.1754
G01 X-0.6274 Y-6.1330
G01 X-0.6636 Y-6.0950
G01 X-0.7091 Y-6.0516
G01 X-0.7489 Y-6.0174
G01 X-0.7930 Y-5.9829
G01 X-0.8387 Y-5.9507
G01 X-0.8831 Y-5.9226
G01 X-0.9378 Y-5.8916
G01 X-0.9847 Y-5.8681
G01 X-1.0327 Y-5.8467
G01 X-1.0913 Y-5.8241
G01 X-1.1412 Y-5.8077
G01 X-1.1951 Y-5.7928
G01 X-1.2531 Y-5.7799
G01 X-1.3048 Y-5.7709
G01 X-1.3604 Y-5.7641
G01 X-1.4162 Y-5.7600
G01 X-1.4687 Y-5.7586
G01 X-1.5315 Y-5.7602
G01 X-1.5838 Y-5.7641
G01 X-1.6394 Y-5.7709
G01 X-1.6945 Y-5.7805
G01 X-1.7458 Y-5.7920
G01 X-1.8063 Y-5.8087
G01 X-1.8562 Y-5.8252
G01 X-1.9084 Y-5.8454
G01 X-1.9595 Y-5.8681
G01 X-2.0064 Y-5.8916
G01 X-2.0596 Y-5.9217
G01 X-2.1055 Y-5.9507
G01 X-2.1484 Y-5.9809
G01 X-2.1979 Y-6.0196
G01 X-2.2377 Y-6.0539
G01 X-2.2782 Y-6.0925
G01 X-2.3168 Y-6.1330
G01 X-2.3522 Y-6.1741
G01 X-2.3898 Y-6.2223
G01 X-2.4200 Y-6.2652
G01 X-2.4508 Y-6.3140
G01 X-2.4775 Y-6.3612
G01 X-2.5019 Y-6.4096
G01 X-2.5247 Y-6.4608
G01 X-2.5385 Y-6.4963
G01 X-3.1118 Y-6.4897
G01 X-3.1118 Y-6.2160
G01 X-3.1133 Y-6.1972
G01 X-3.1173 Y-6.1787
G01 X-3.1245 Y-6.1594
G01 X-3.1335 Y-6.1428
G01 X-3.1458 Y-6.1263
G01 X-3.1604 Y-6.1117
G01 X-3.1755 Y-6.1003
G01 X-3.1935 Y-6.0904
G01 X-3.2128 Y-6.0832
G01 X-3.2313 Y-6.0792
G01 X-3.2518 Y-6.0777
G01 X-4.8570 Y-6.0778
G01 X-4.8740 Y-6.0795
G01 X-4.8908 Y-6.0832
G01 X-4.9070 Y-6.0890
G01 X-4.9238 Y-6.0976
G01 X-4.9379 Y-6.1073
G01 X-4.9508 Y-6.1187
G01 X-4.9622 Y-6.1316
G01 X-4.9719 Y-6.1457
G01 X-4.9805 Y-6.1625
G01 X-4.9863 Y-6.1787
G01 X-4.9903 Y-6.1972
G01 X-4.9918 Y-6.2160
G01 X-4.9918 Y-7.8211
G01 X-4.9903 Y-7.8382
G01 X-4.9863 Y-7.8567
G01 X-4.9805 Y-7.8729
G01 X-4.9728 Y-7.8882
G01 X-4.9622 Y-7.9038
G01 X-4.9508 Y-7.9167
G01 X-4.9379 Y-7.9281
G01 X-4.9238 Y-7.9378
G01 X-4.9070 Y-7.9464
G01 X-4.8908 Y-7.9522
G01 X-4.8723 Y-7.9562
G01 X-4.8535 Y-7.9577
G01 X-3.2518 Y-7.9577
G01 X-3.2398 Y-7.9572
G01 X-3.2279 Y-7.9556
G01 X-3.2145 Y-7.9526
G01 X-3.2030 Y-7.9489
G01 X-3.1858 Y-7.9412
G01 X-3.1698 Y-7.9312
G01 X-3.1553 Y-7.9191
G01 X-3.1425 Y-7.9052
G01 X-3.1317 Y-7.8897
G01 X-3.1231 Y-7.8729
G01 X-3.1169 Y-7.8550
G01 X-3.1131 Y-7.8365
G01 X-3.1118 Y-7.8177
G01 X-3.1118 Y-7.2700
G00 Z2.0000
G00 X-3.0418 Y-7.3437
G01 F70.00
G01 Z-0.0600
G01 F120.00
G01 X-3.0417 Y-7.3434
G01 X-3.0404 Y-7.3408
G01 X-3.0418 Y-7.3408
G01 X-3.0418 Y-7.3437
G00 Z2.0000
G00 X-2.9918 Y-7.4331
G01 F70.00
G01 Z-0.0600
G01 F120.00
G01 X-2.9903 Y-7.4126
G01 X-2.9858 Y-7.3925
G01 X-2.9784 Y-7.3733
G01 X-2.9682 Y-7.3554
G01 X-2.9544 Y-7.3379
G01 X-2.9393 Y-7.3239
G01 X-2.9224 Y-7.3122
G01 X-2.9039 Y-7.3032
G01 X-2.8826 Y-7.2966
G01 X-2.8605 Y-7.2934
G01 X-2.7589 Y-7.2943
G01 X-2.7418 Y-7.2962
G01 X-2.7251 Y-7.3001
G01 X-2.7089 Y-7.3061
G01 X-2.6937 Y-7.3140
G01 X-2.6809 Y-7.3227
G01 X-2.6679 Y-7.3339
G01 X-2.6563 Y-7.3466
G01 X-2.6464 Y-7.3607
G01 X-2.6383 Y-7.3758
G01 X-2.6111 Y-7.4373
G01 X-2.5833 Y-7.4925
G01 X-2.5528 Y-7.5463
G01 X-2.5197 Y-7.5986
G01 X-2.4841 Y-7.6492
G01 X-2.4461 Y-7.6979
G01 X-2.4057 Y-7.7447
G01 X-2.3630 Y-7.7895
G01 X-2.3182 Y-7.8322
G01 X-2.2714 Y-7.8726
G01 X-2.2227 Y-7.9106
G01 X-2.1721 Y-7.9462
G01 X-2.1198 Y-7.9793
G01 X-2.0660 Y-8.0098
G01 X-2.0108 Y-8.0376
G01 X-1.9543 Y-8.0626
G01 X-1.8966 Y-8.0849
G01 X-1.8378 Y-8.1043
G01 X-1.7782 Y-8.1208
G01 X-1.7179 Y-8.1343
G01 X-1.6570 Y-8.1449
G01 X-1.5956 Y-8.1525
G01 X-1.5339 Y-8.1570
G01 X-1.4721 Y-8.1586
G01 X-1.4103 Y-8.1570
G01 X-1.3486 Y-8.1525
G01 X-1.2872 Y-8.1449
G01 X-1.2263 Y-8.1343
G01 X-1.1660 Y-8.1208
G01 X-1.1064 Y-8.1043
G01 X-1.0476 Y-8.0849
G01 X-0.9899 Y-8.0626
G01 X-0.9334 Y-8.0376
G01 X-0.8782 Y-8.0098
G01 X-0.8244 Y-7.9793
G01 X-0.7721 Y-7.9462
G01 X-0.7215 Y-7.9106
G01 X-0.6728 Y-7.8726
G01 X-0.6260 Y-7.8322
G01 X-0.5812 Y-7.7895
G01 X-0.5385 Y-7.7447
G01 X-0.4981 Y-7.6979
G01 X-0.4601 Y-7.6492
G01 X-0.4245 Y-7.5986
G01 X-0.3914 Y-7.5463
G01 X-0.3609 Y-7.4925
G01 X-0.3331 Y-7.4373
G01 X-0.3081 Y-7.3808
G01 X-0.2858 Y-7.3231
G01 X-0.2664 Y-7.2643
G01 X-0.2499 Y-7.2047
G01 X-0.2364 Y-7.1444
G01 X-0.2258 Y-7.0835
G01 X-0.2182 Y-7.0221
G01 X-0.2137 Y-6.9604
G01 X-0.2121 Y-6.8986
G01 X-0.2137 Y-6.8368
G01 X-0.2182 Y-6.7751
G01 X-0.2258 Y-6.7137
G01 X-0.2364 Y-6.6528
G01 X-0.2499 Y-6.5925
G01 X-0.2664 Y-6.5329
G01 X-0.2858 Y-6.4741
G01 X-0.3081 Y-6.4164
G01 X-0.3331 Y-6.3599
G01 X-0.3609 Y-6.3047
G01 X-0.3914 Y-6.2509
G01 X-0.4245 Y-6.1986
G01 X-0.4601 Y-6.1480
G01 X-0.4981 Y-6.0993
G01 X-0.5385 Y-6.0525
G01 X-0.5812 Y-6.0077
G01 X-0.6260 Y-5.9650
G01 X-0.6728 Y-5.9246
G01 X-0.7215 Y-5.8866
G01 X-0.7721 Y-5.8510
G01 X-0.8244 Y-5.8179
G01 X-0.8782 Y-5.7874
G01 X-0.9334 Y-5.7596
G01 X-0.9899 Y-5.7346
G01 X-1.0476 Y-5.7123
G01 X-1.1064 Y-5.6929
G01 X-1.1660 Y-5.6764
G01 X-1.2263 Y-5.6629
G01 X-1.2872 Y-5.6523
G01 X-1.3486 Y-5.6447
G01 X-1.4103 Y-5.6402
G01 X-1.4721 Y-5.6386
G01 X-1.5339 Y-5.6402
G01 X-1.5956 Y-5.6447
G01 X-1.6570 Y-5.6523
G01 X-1.7179 Y-5.6629
G01 X-1.7782 Y-5.6764
G01 X-1.8378 Y-5.6929
G01 X-1.8966 Y-5.7123
G01 X-1.9543 Y-5.7346
G01 X-2.0108 Y-5.7596
G01 X-2.0660 Y-5.7874
G01 X-2.1198 Y-5.8179
G01 X-2.1721 Y-5.8510
G01 X-2.2227 Y-5.8866
G01 X-2.2714 Y-5.9246
G01 X-2.3182 Y-5.9650
G01 X-2.3630 Y-6.0077
G01 X-2.4057 Y-6.0525
G01 X-2.4461 Y-6.0993
G01 X-2.4841 Y-6.1480
G01 X-2.5197 Y-6.1986
G01 X-2.5528 Y-6.2509
G01 X-2.5833 Y-6.3047
G01 X-2.6111 Y-6.3599
G01 X-2.6283 Y-6.3981
G01 X-2.6352 Y-6.4100
G01 X-2.6433 Y-6.4211
G01 X-2.6524 Y-6.4314
G01 X-2.6624 Y-6.4407
G01 X-2.6748 Y-6.4500
G01 X-2.6865 Y-6.4571
G01 X-2.6989 Y-6.4630
G01 X-2.7135 Y-6.4681
G01 X-2.7269 Y-6.4713
G01 X-2.7405 Y-6.4731
G01 X-2.7542 Y-6.4736
G01 X-2.8586 Y-6.4724
G01 X-2.8773 Y-6.4702
G01 X-2.8956 Y-6.4655
G01 X-2.9085 Y-6.4605
G01 X-2.9207 Y-6.4544
G01 X-2.9324 Y-6.4470
G01 X-2.9432 Y-6.4386
G01 X-2.9532 Y-6.4291
G01 X-2.9621 Y-6.4187
G01 X-2.9701 Y-6.4075
G01 X-2.9776 Y-6.3940
G01 X-2.9836 Y-6.3797
G01 X-2.9876 Y-6.3666
G01 X-2.9905 Y-6.3514
G01 X-2.9917 Y-6.3377
G01 X-2.9918 Y-5.9577
G01 X-5.1118 Y-5.9577
G01 X-5.1118 Y-8.0777
G01 X-2.9918 Y-8.0777
G01 X-2.9918 Y-7.4331
G00 Z2.0000
G00 X-2.9218 Y-7.4331
G01 F70.00
G01 Z-0.0600
G01 F120.00
G01 X-2.9209 Y-7.4220
G01 X-2.9183 Y-7.4112
G01 X-2.9135 Y-7.4002
G01 X-2.9075 Y-7.3908
G01 X-2.9001 Y-7.3825
G01 X-2.8907 Y-7.3750
G01 X-2.8810 Y-7.3695
G01 X-2.8705 Y-7.3657
G01 X-2.8613 Y-7.3638
G01 X-2.8527 Y-7.3631
G01 X-2.7597 Y-7.3644
G01 X-2.7503 Y-7.3658
G01 X-2.7413 Y-7.3685
G01 X-2.7326 Y-7.3724
G01 X-2.7246 Y-7.3774
G01 X-2.7132 Y-7.3878
G01 X-2.7047 Y-7.3996
G01 X-2.6744 Y-7.4672
G01 X-2.6450 Y-7.5255
G01 X-2.6129 Y-7.5823
G01 X-2.5779 Y-7.6375
G01 X-2.5403 Y-7.6909
G01 X-2.5002 Y-7.7423
G01 X-2.4575 Y-7.7918
G01 X-2.4125 Y-7.8390
G01 X-2.3653 Y-7.8840
G01 X-2.3158 Y-7.9267
G01 X-2.2644 Y-7.9668
G01 X-2.2110 Y-8.0044
G01 X-2.1558 Y-8.0394
G01 X-2.0990 Y-8.0715
G01 X-2.0407 Y-8.1009
G01 X-1.9811 Y-8.1273
G01 X-1.9202 Y-8.1508
G01 X-1.8582 Y-8.1713
G01 X-1.7953 Y-8.1887
G01 X-1.7316 Y-8.2030
G01 X-1.6672 Y-8.2142
G01 X-1.6025 Y-8.2222
G01 X-1.5374 Y-8.2270
G01 X-1.4721 Y-8.2286
G01 X-1.4068 Y-8.2270
G01 X-1.3417 Y-8.2222
G01 X-1.2770 Y-8.2142
G01 X-1.2126 Y-8.2030
G01 X-1.1489 Y-8.1887
G01 X-1.0860 Y-8.1713
G01 X-1.0240 Y-8.1508
G01 X-0.9631 Y-8.1273
G01 X-0.9035 Y-8.1009
G01 X-0.8452 Y-8.0715
G01 X-0.7884 Y-8.0394
G01 X-0.7332 Y-8.0044
G01 X-0.6798 Y-7.9668
G01 X-0.6284 Y-7.9267
G01 X-0.5789 Y-7.8840
G01 X-0.5317 Y-7.8390
G01 X-0.4867 Y-7.7918
G01 X-0.4440 Y-7.7423
G01 X-0.4039 Y-7.6909
G01 X-0.3663 Y-7.6375
G01 X-0.3313 Y-7.5823
G01 X-0.2992 Y-7.5255
G01 X-0.2698 Y-7.4672
G01 X-0.2434 Y-7.4076
G01 X-0.2199 Y-7.3467
G01 X-0.1994 Y-7.2847
G01 X-0.1820 Y-7.2218
G01 X-0.1677 Y-7.1581
G01 X-0.1565 Y-7.0937
G01 X-0.1485 Y-7.0290
G01 X-0.1437 Y-6.9639
G01 X-0.1421 Y-6.8986
G01 X-0.1437 Y-6.8333
G01 X-0.1485 Y-6.7682
G01 X-0.1565 Y-6.7035
G01 X-0.1677 Y-6.6391
G01 X-0.1820 Y-6.5754
G01 X-0.1994 Y-6.5125
G01 X-0.2199 Y-6.4505
G01 X-0.2434 Y-6.3896
G01 X-0.2698 Y-6.3300
G01 X-0.2992 Y-6.2717
G01 X-0.3313 Y-6.2149
G01 X-0.3663 Y-6.1597
G01 X-0.4039 Y-6.1063
G01 X-0.4440 Y-6.0549
G01 X-0.4867 Y-6.0054
G01 X-0.5317 Y-5.9582
G01 X-0.5789 Y-5.9132
G01 X-0.6284 Y-5.8705
G01 X-0.6798 Y-5.8304
G01 X-0.7332 Y-5.7928
G01 X-0.7884 Y-5.7578
G01 X-0.8452 Y-5.7257
G01 X-0.9035 Y-5.6963
G01 X-0.9631 Y-5.6699
G01 X-1.0240 Y-5.6464
G01 X-1.0860 Y-5.6259
G01 X-1.1489 Y-5.6085
G01 X-1.2126 Y-5.5942
G01 X-1.2770 Y-5.5830
G01 X-1.3417 Y-5.5750
G01 X-1.4068 Y-5.5702
G01 X-1.4721 Y-5.5686
G01 X-1.5374 Y-5.5702
G01 X-1.6025 Y-5.5750
G01 X-1.6672 Y-5.5830
G01 X-1.7316 Y-5.5942
G01 X-1.7953 Y-5.6085
G01 X-1.8582 Y-5.6259
G01 X-1.9202 Y-5.6464
G01 X-1.9811 Y-5.6699
G01 X-2.0407 Y-5.6963
G01 X-2.0990 Y-5.7257
G01 X-2.1558 Y-5.7578
G01 X-2.2110 Y-5.7928
G01 X-2.2644 Y-5.8304
G01 X-2.3158 Y-5.8705
G01 X-2.3653 Y-5.9132
G01 X-2.4125 Y-5.9582
G01 X-2.4575 Y-6.0054
G01 X-2.5002 Y-6.0549
G01 X-2.5403 Y-6.1063
G01 X-2.5779 Y-6.1597
G01 X-2.6129 Y-6.2149
G01 X-2.6450 Y-6.2717
G01 X-2.6744 Y-6.3300
G01 X-2.6897 Y-6.3644
G01 X-2.6959 Y-6.3747
G01 X-2.7062 Y-6.3861
G01 X-2.7181 Y-6.3945
G01 X-2.7322 Y-6.4006
G01 X-2.7465 Y-6.4034
G01 X-2.8535 Y-6.4025
G01 X-2.8620 Y-6.4018
G01 X-2.8704 Y-6.4000
G01 X-2.8785 Y-6.3972
G01 X-2.8863 Y-6.3934
G01 X-2.8994 Y-6.3838
G01 X-2.9053 Y-6.3776
G01 X-2.9105 Y-6.3707
G01 X-2.9147 Y-6.3632
G01 X-2.9180 Y-6.3553
G01 X-2.9208 Y-6.3445
G01 X-2.9218 Y-6.3334
G01 X-2.9218 Y-5.8877
G01 X-5.1818 Y-5.8877
G01 X-5.1818 Y-8.1477
G01 X-2.9218 Y-8.1477
G01 X-2.9218 Y-7.4331
G00 Z2.0000
G00 X-3.1624 Y-8.0077
G01 F70.00
G01 Z-0.0600
G01 F120.00
G01 X-3.0618 Y-8.0077
G01 X-3.0618 Y-7.9071
G01 X-3.0704 Y-7.9234
G01 X-3.0801 Y-7.9386
G01 X-3.0911 Y-7.9529
G01 X-3.1033 Y-7.9662
G01 X-3.1166 Y-7.9784
G01 X-3.1309 Y-7.9894
G01 X-3.1461 Y-7.9991
G01 X-3.1624 Y-8.0077
G00 Z2.0000
G00 X-3.0618 Y-8.9283
G01 F70.00
G01 Z-0.0600
G01 F120.00
G01 X-3.0618 Y-8.8277
G01 X-3.1624 Y-8.8277
G01 X-3.1461 Y-8.8363
G01 X-3.1309 Y-8.8460
G01 X-3.1166 Y-8.8570
G01 X-3.1033 Y-8.8692
G01 X-3.0911 Y-8.8825
G01 X-3.0801 Y-8.8968
G01 X-3.0704 Y-8.9120
G01 X-3.0618 Y-8.9283
G00 Z2.0000
G00 X-3.1624 Y-10.8077
G01 F70.00
G01 Z-0.0600
G01 F120.00
G01 X-3.0618 Y-10.8077
G01 X-3.0618 Y-10.7071
G01 X-3.0704 Y-10.7234
G01 X-3.0801 Y-10.7386
G01 X-3.0911 Y-10.7529
G01 X-3.1033 Y-10.7662
G01 X-3.1166 Y-10.7784
G01 X-3.1309 Y-10.7894
G01 X-3.1461 Y-10.7991
G01 X-3.1624 Y-10.8077
G00 Z2.0000
G00 X-4.8563 Y-10.8276
G01 F70.00
G01 Z-0.0600
G01 F120.00
G01 X-4.8423 Y-10.8349
G01 X-4.8292 Y-10.8429
G01 X-4.8167 Y-10.8520
G01 X-4.8030 Y-10.8636
G01 X-4.7918 Y-10.8277
G01 X-4.8563 Y-10.8276
G00 Z2.0000
G00 X-5.0418 Y-10.7071
G01 F70.00
G01 Z-0.0600
G01 F120.00
G01 X-5.0418 Y-10.8077
G01 X-4.9411 Y-10.8078
G01 X-4.9575 Y-10.7991
G01 X-4.9727 Y-10.7894
G01 X-4.9870 Y-10.7784
G01 X-5.0003 Y-10.7662
G01 X-5.0125 Y-10.7529
G01 X-5.0235 Y-10.7386
G01 X-5.0332 Y-10.7234
G01 X-5.0418 Y-10.7071
G00 Z2.0000
G00 X-5.0618 Y-9.4565
G01 F70.00
G01 Z-0.0600
G01 F120.00
G01 X-5.0618 Y-9.4566
G01 X-5.0628 Y-9.4586
G01 X-5.0618 Y-9.4586
G01 X-5.0618 Y-9.4565
G00 Z2.0000
G00 X-4.9412 Y-8.8277
G01 F70.00
G01 Z-0.0600
G01 F120.00
G01 X-5.0418 Y-8.8277
G01 X-5.0418 Y-8.9283
G01 X-5.0332 Y-8.9120
G01 X-5.0235 Y-8.8968
G01 X-5.0125 Y-8.8825
G01 X-5.0003 Y-8.8692
G01 X-4.9870 Y-8.8570
G01 X-4.9727 Y-8.8460
G01 X-4.9575 Y-8.8363
G01 X-4.9412 Y-8.8277
G00 Z2.0000
G00 X-5.0418 Y-7.9071
G01 F70.00
G01 Z-0.0600
G01 F120.00
G01 X-5.0418 Y-8.0077
G01 X-4.9412 Y-8.0077
G01 X-4.9575 Y-7.9991
G01 X-4.9727 Y-7.9894
G01 X-4.9870 Y-7.9784
G01 X-5.0003 Y-7.9662
G01 X-5.0125 Y-7.9529
G01 X-5.0235 Y-7.9386
G01 X-5.0332 Y-7.9234
G01 X-5.0418 Y-7.9071
G00 Z2.0000
G00 X-1.3522 Y-6.8986
G01 F70.00
G01 Z-0.0600
G01 F120.00
G01 X-1.3528 Y-6.8868
G01 X-1.3545 Y-6.8752
G01 X-1.3573 Y-6.8638
G01 X-1.3613 Y-6.8527
G01 X-1.3663 Y-6.8421
G01 X-1.3724 Y-6.8320
G01 X-1.3794 Y-6.8225
G01 X-1.3873 Y-6.8138
G01 X-1.3960 Y-6.8059
G01 X-1.4055 Y-6.7989
G01 X-1.4156 Y-6.7928
G01 X-1.4262 Y-6.7878
G01 X-1.4373 Y-6.7838
G01 X-1.4487 Y-6.7810
G01 X-1.4603 Y-6.7793
G01 X-1.4721 Y-6.7787
G01 X-1.4839 Y-6.7793
G01 X-1.4955 Y-6.7810
G01 X-1.5069 Y-6.7838
G01 X-1.5180 Y-6.7878
G01 X-1.5286 Y-6.7928
G01 X-1.5387 Y-6.7989
G01 X-1.5482 Y-6.8059
G01 X-1.5569 Y-6.8138
G01 X-1.5648 Y-6.8225
G01 X-1.5718 Y-6.8320
G01 X-1.5779 Y-6.8421
G01 X-1.5829 Y-6.8527
G01 X-1.5869 Y-6.8638
G01 X-1.5897 Y-6.8752
G01 X-1.5914 Y-6.8868
G01 X-1.5920 Y-6.8986
G01 X-1.5914 Y-6.9104
G01 X-1.5897 Y-6.9220
G01 X-1.5869 Y-6.9334
G01 X-1.5829 Y-6.9445
G01 X-1.5779 Y-6.9551
G01 X-1.5718 Y-6.9652
G01 X-1.5648 Y-6.9747
G01 X-1.5569 Y-6.9834
G01 X-1.5482 Y-6.9913
G01 X-1.5387 Y-6.9983
G01 X-1.5286 Y-7.0044
G01 X-1.5180 Y-7.0094
G01 X-1.5069 Y-7.0134
G01 X-1.4955 Y-7.0162
G01 X-1.4839 Y-7.0179
G01 X-1.4721 Y-7.0185
G01 X-1.4603 Y-7.0179
G01 X-1.4487 Y-7.0162
G01 X-1.4373 Y-7.0134
G01 X-1.4262 Y-7.0094
G01 X-1.4156 Y-7.0044
G01 X-1.4055 Y-6.9983
G01 X-1.3960 Y-6.9913
G01 X-1.3873 Y-6.9834
G01 X-1.3794 Y-6.9747
G01 X-1.3724 Y-6.9652
G01 X-1.3663 Y-6.9551
G01 X-1.3613 Y-6.9445
G01 X-1.3573 Y-6.9334
G01 X-1.3545 Y-6.9220
G01 X-1.3528 Y-6.9104
G01 X-1.3522 Y-6.8986
G00 Z2.0000
G00 X-1.2822 Y-6.8986
G01 F70.00
G01 Z-0.0600
G01 F120.00
G01 X-1.2831 Y-6.8800
G01 X-1.2858 Y-6.8615
G01 X-1.2903 Y-6.8435
G01 X-1.2966 Y-6.8259
G01 X-1.3046 Y-6.8091
G01 X-1.3142 Y-6.7931
G01 X-1.3253 Y-6.7781
G01 X-1.3378 Y-6.7643
G01 X-1.3516 Y-6.7518
G01 X-1.3666 Y-6.7407
G01 X-1.3826 Y-6.7311
G01 X-1.3994 Y-6.7231
G01 X-1.4170 Y-6.7168
G01 X-1.4350 Y-6.7123
G01 X-1.4535 Y-6.7096
G01 X-1.4721 Y-6.7087
G01 X-1.4907 Y-6.7096
G01 X-1.5092 Y-6.7123
G01 X-1.5272 Y-6.7168
G01 X-1.5448 Y-6.7231
G01 X-1.5616 Y-6.7311
G01 X-1.5776 Y-6.7407
G01 X-1.5926 Y-6.7518
G01 X-1.6064 Y-6.7643
G01 X-1.6189 Y-6.7781
G01 X-1.6300 Y-6.7931
G01 X-1.6396 Y-6.8091
G01 X-1.6476 Y-6.8259
G01 X-1.6539 Y-6.8435
G01 X-1.6584 Y-6.8615
G01 X-1.6611 Y-6.8800
G01 X-1.6620 Y-6.8986
G01 X-1.6611 Y-6.9172
G01 X-1.6584 Y-6.9357
G01 X-1.6539 Y-6.9537
G01 X-1.6476 Y-6.9713
G01 X-1.6396 Y-6.9881
G01 X-1.6300 Y-7.0041
G01 X-1.6189 Y-7.0191
G01 X-1.6064 Y-7.0329
G01 X-1.5926 Y-7.0454
G01 X-1.5776 Y-7.0565
G01 X-1.5616 Y-7.0661
G01 X-1.5448 Y-7.0741
G01 X-1.5272 Y-7.0804
G01 X-1.5092 Y-7.0849
G01 X-1.4907 Y-7.0876
G01 X-1.4721 Y-7.0885
G01 X-1.4535 Y-7.0876
G01 X-1.4350 Y-7.0849
G01 X-1.4170 Y-7.0804
G01 X-1.3994 Y-7.0741
G01 X-1.3826 Y-7.0661
G01 X-1.3666 Y-7.0565
G01 X-1.3516 Y-7.0454
G01 X-1.3378 Y-7.0329
G01 X-1.3253 Y-7.0191
G01 X-1.3142 Y-7.0041
G01 X-1.3046 Y-6.9881
G01 X-1.2966 Y-6.9713
G01 X-1.2903 Y-6.9537
G01 X-1.2858 Y-6.9357
G01 X-1.2831 Y-6.9172
G01 X-1.2822 Y-6.8986
G00 Z2.0000
G00 X-1.2121 Y-6.8986
G01 F70.00
G01 Z-0.0600
G01 F120.00
G01 X-1.2134 Y-6.8731
G01 X-1.2171 Y-6.8479
G01 X-1.2233 Y-6.8231
G01 X-1.2319 Y-6.7991
G01 X-1.2428 Y-6.7761
G01 X-1.2560 Y-6.7542
G01 X-1.2711 Y-6.7337
G01 X-1.2883 Y-6.7148
G01 X-1.3072 Y-6.6976
G01 X-1.3277 Y-6.6825
G01 X-1.3496 Y-6.6693
G01 X-1.3726 Y-6.6584
G01 X-1.3966 Y-6.6498
G01 X-1.4214 Y-6.6436
G01 X-1.4466 Y-6.6399
G01 X-1.4721 Y-6.6386
G01 X-1.4976 Y-6.6399
G01 X-1.5228 Y-6.6436
G01 X-1.5476 Y-6.6498
G01 X-1.5716 Y-6.6584
G01 X-1.5946 Y-6.6693
G01 X-1.6165 Y-6.6825
G01 X-1.6370 Y-6.6976
G01 X-1.6559 Y-6.7148
G01 X-1.6731 Y-6.7337
G01 X-1.6882 Y-6.7542
G01 X-1.7014 Y-6.7761
G01 X-1.7123 Y-6.7991
G01 X-1.7209 Y-6.8231
G01 X-1.7271 Y-6.8479
G01 X-1.7308 Y-6.8731
G01 X-1.7321 Y-6.8986
G01 X-1.7308 Y-6.9241
G01 X-1.7271 Y-6.9493
G01 X-1.7209 Y-6.9741
G01 X-1.7123 Y-6.9981
G01 X-1.7014 Y-7.0211
G01 X-1.6882 Y-7.0430
G01 X-1.6731 Y-7.0635
G01 X-1.6559 Y-7.0824
G01 X-1.6370 Y-7.0996
G01 X-1.6165 Y-7.1147
G01 X-1.5946 Y-7.1279
G01 X-1.5716 Y-7.1388
G01 X-1.5476 Y-7.1474
G01 X-1.5228 Y-7.1536
G01 X-1.4976 Y-7.1573
G01 X-1.4721 Y-7.1586
G01 X-1.4466 Y-7.1573
G01 X-1.4214 Y-7.1536
G01 X-1.3966 Y-7.1474
G01 X-1.3726 Y-7.1388
G01 X-1.3496 Y-7.1279
G01 X-1.3277 Y-7.1147
G01 X-1.3072 Y-7.0996
G01 X-1.2883 Y-7.0824
G01 X-1.2711 Y-7.0635
G01 X-1.2560 Y-7.0430
G01 X-1.2428 Y-7.0211
G01 X-1.2319 Y-6.9981
G01 X-1.2233 Y-6.9741
G01 X-1.2171 Y-6.9493
G01 X-1.2134 Y-6.9241
G01 X-1.2121 Y-6.8986
G00 Z2.0000
G00 X-1.1421 Y-6.8986
G01 F70.00
G01 Z-0.0600
G01 F120.00
G01 X-1.1437 Y-6.8663
G01 X-1.1485 Y-6.8342
G01 X-1.1563 Y-6.8028
G01 X-1.1672 Y-6.7723
G01 X-1.1811 Y-6.7430
G01 X-1.1977 Y-6.7153
G01 X-1.2170 Y-6.6893
G01 X-1.2388 Y-6.6653
G01 X-1.2628 Y-6.6435
G01 X-1.2888 Y-6.6242
G01 X-1.3165 Y-6.6076
G01 X-1.3458 Y-6.5937
G01 X-1.3763 Y-6.5828
G01 X-1.4077 Y-6.5750
G01 X-1.4398 Y-6.5702
G01 X-1.4721 Y-6.5686
G01 X-1.5044 Y-6.5702
G01 X-1.5365 Y-6.5750
G01 X-1.5679 Y-6.5828
G01 X-1.5984 Y-6.5937
G01 X-1.6277 Y-6.6076
G01 X-1.6554 Y-6.6242
G01 X-1.6814 Y-6.6435
G01 X-1.7054 Y-6.6653
G01 X-1.7272 Y-6.6893
G01 X-1.7465 Y-6.7153
G01 X-1.7631 Y-6.7430
G01 X-1.7770 Y-6.7723
G01 X-1.7879 Y-6.8028
G01 X-1.7957 Y-6.8342
G01 X-1.8005 Y-6.8663
G01 X-1.8021 Y-6.8986
G01 X-1.8005 Y-6.9309
G01 X-1.7957 Y-6.9630
G01 X-1.7879 Y-6.9944
G01 X-1.7770 Y-7.0249
G01 X-1.7631 Y-7.0542
G01 X-1.7465 Y-7.0819
G01 X-1.7272 Y-7.1079
G01 X-1.7054 Y-7.1319
G01 X-1.6814 Y-7.1537
G01 X-1.6554 Y-7.1730
G01 X-1.6277 Y-7.1896
G01 X-1.5984 Y-7.2035
G01 X-1.5679 Y-7.2144
G01 X-1.5365 Y-7.2222
G01 X-1.5044 Y-7.2270
G01 X-1.4721 Y-7.2286
G01 X-1.4398 Y-7.2270
G01 X-1.4077 Y-7.2222
G01 X-1.3763 Y-7.2144
G01 X-1.3458 Y-7.2035
G01 X-1.3165 Y-7.1896
G01 X-1.2888 Y-7.1730
G01 X-1.2628 Y-7.1537
G01 X-1.2388 Y-7.1319
G01 X-1.2170 Y-7.1079
G01 X-1.1977 Y-7.0819
G01 X-1.1811 Y-7.0542
G01 X-1.1672 Y-7.0249
G01 X-1.1563 Y-6.9944
G01 X-1.1485 Y-6.9630
G01 X-1.1437 Y-6.9309
G01 X-1.1421 Y-6.8986
G00 Z2.0000
G00 X-1.1821 Y-4.3586
G01 F70.00
G01 Z-0.0600
G01 F120.00
G01 X-1.1835 Y-4.3302
G01 X-1.1877 Y-4.3020
G01 X-1.1946 Y-4.2744
G01 X-1.2042 Y-4.2476
G01 X-1.2164 Y-4.2219
G01 X-1.2310 Y-4.1975
G01 X-1.2479 Y-4.1746
G01 X-1.2671 Y-4.1536
G01 X-1.2881 Y-4.1344
G01 X-1.3110 Y-4.1175
G01 X-1.3354 Y-4.1029
G01 X-1.3611 Y-4.0907
G01 X-1.3879 Y-4.0811
G01 X-1.4155 Y-4.0742
G01 X-1.4437 Y-4.0700
G01 X-1.4721 Y-4.0686
G01 X-1.5005 Y-4.0700
G01 X-1.5287 Y-4.0742
G01 X-1.5563 Y-4.0811
G01 X-1.5831 Y-4.0907
G01 X-1.6088 Y-4.1029
G01 X-1.6332 Y-4.1175
G01 X-1.6561 Y-4.1344
G01 X-1.6771 Y-4.1536
G01 X-1.6963 Y-4.1746
G01 X-1.7132 Y-4.1975
G01 X-1.7278 Y-4.2219
G01 X-1.7400 Y-4.2476
G01 X-1.7496 Y-4.2744
G01 X-1.7565 Y-4.3020
G01 X-1.7607 Y-4.3302
G01 X-1.7621 Y-4.3586
G01 X-1.7607 Y-4.3870
G01 X-1.7565 Y-4.4152
G01 X-1.7496 Y-4.4428
G01 X-1.7400 Y-4.4696
G01 X-1.7278 Y-4.4953
G01 X-1.7132 Y-4.5197
G01 X-1.6963 Y-4.5426
G01 X-1.6771 Y-4.5636
G01 X-1.6561 Y-4.5828
G01 X-1.6332 Y-4.5997
G01 X-1.6088 Y-4.6143
G01 X-1.5831 Y-4.6265
G01 X-1.5563 Y-4.6361
G01 X-1.5287 Y-4.6430
G01 X-1.5005 Y-4.6472
G01 X-1.4721 Y-4.6486
G01 X-1.4437 Y-4.6472
G01 X-1.4155 Y-4.6430
G01 X-1.3879 Y-4.6361
G01 X-1.3611 Y-4.6265
G01 X-1.3354 Y-4.6143
G01 X-1.3110 Y-4.5997
G01 X-1.2881 Y-4.5828
G01 X-1.2671 Y-4.5636
G01 X-1.2479 Y-4.5426
G01 X-1.2310 Y-4.5197
G01 X-1.2164 Y-4.4953
G01 X-1.2042 Y-4.4696
G01 X-1.1946 Y-4.4428
G01 X-1.1877 Y-4.4152
G01 X-1.1835 Y-4.3870
G01 X-1.1821 Y-4.3586
G00 Z2.0000
G00 X-1.2521 Y-4.3586
G01 F70.00
G01 Z-0.0600
G01 F120.00
G01 X-1.2532 Y-4.3370
G01 X-1.2564 Y-4.3157
G01 X-1.2616 Y-4.2947
G01 X-1.2689 Y-4.2744
G01 X-1.2781 Y-4.2549
G01 X-1.2892 Y-4.2364
G01 X-1.3021 Y-4.2191
G01 X-1.3166 Y-4.2031
G01 X-1.3326 Y-4.1886
G01 X-1.3499 Y-4.1757
G01 X-1.3684 Y-4.1646
G01 X-1.3879 Y-4.1554
G01 X-1.4082 Y-4.1481
G01 X-1.4292 Y-4.1429
G01 X-1.4505 Y-4.1397
G01 X-1.4721 Y-4.1386
G01 X-1.4937 Y-4.1397
G01 X-1.5150 Y-4.1429
G01 X-1.5360 Y-4.1481
G01 X-1.5563 Y-4.1554
G01 X-1.5758 Y-4.1646
G01 X-1.5943 Y-4.1757
G01 X-1.6116 Y-4.1886
G01 X-1.6276 Y-4.2031
G01 X-1.6421 Y-4.2191
G01 X-1.6550 Y-4.2364
G01 X-1.6661 Y-4.2549
G01 X-1.6753 Y-4.2744
G01 X-1.6826 Y-4.2947
G01 X-1.6878 Y-4.3157
G01 X-1.6910 Y-4.3370
G01 X-1.6921 Y-4.3586
G01 X-1.6910 Y-4.3802
G01 X-1.6878 Y-4.4015
G01 X-1.6826 Y-4.4225
G01 X-1.6753 Y-4.4428
G01 X-1.6661 Y-4.4623
G01 X-1.6550 Y-4.4808
G01 X-1.6421 Y-4.4981
G01 X-1.6276 Y-4.5141
G01 X-1.6116 Y-4.5286
G01 X-1.5943 Y-4.5415
G01 X-1.5758 Y-4.5526
G01 X-1.5563 Y-4.5618
G01 X-1.5360 Y-4.5691
G01 X-1.5150 Y-4.5743
G01 X-1.4937 Y-4.5775
G01 X-1.4721 Y-4.5786
G01 X-1.4505 Y-4.5775
G01 X-1.4292 Y-4.5743
G01 X-1.4082 Y-4.5691
G01 X-1.3879 Y-4.5618
G01 X-1.3684 Y-4.5526
G01 X-1.3499 Y-4.5415
G01 X-1.3326 Y-4.5286
G01 X-1.3166 Y-4.5141
G01 X-1.3021 Y-4.4981
G01 X-1.2892 Y-4.4808
G01 X-1.2781 Y-4.4623
G01 X-1.2689 Y-4.4428
G01 X-1.2616 Y-4.4225
G01 X-1.2564 Y-4.4015
G01 X-1.2532 Y-4.3802
G01 X-1.2521 Y-4.3586
G00 Z2.0000
G00 X-1.3222 Y-4.3586
G01 F70.00
G01 Z-0.0600
G01 F120.00
G01 X-1.3229 Y-4.3439
G01 X-1.3250 Y-4.3293
G01 X-1.3286 Y-4.3151
G01 X-1.3336 Y-4.3012
G01 X-1.3399 Y-4.2879
G01 X-1.3474 Y-4.2753
G01 X-1.3562 Y-4.2635
G01 X-1.3661 Y-4.2526
G01 X-1.3770 Y-4.2427
G01 X-1.3888 Y-4.2339
G01 X-1.4014 Y-4.2264
G01 X-1.4147 Y-4.2201
G01 X-1.4286 Y-4.2151
G01 X-1.4428 Y-4.2115
G01 X-1.4574 Y-4.2094
G01 X-1.4721 Y-4.2087
G01 X-1.4868 Y-4.2094
G01 X-1.5014 Y-4.2115
G01 X-1.5156 Y-4.2151
G01 X-1.5295 Y-4.2201
G01 X-1.5428 Y-4.2264
G01 X-1.5554 Y-4.2339
G01 X-1.5672 Y-4.2427
G01 X-1.5781 Y-4.2526
G01 X-1.5880 Y-4.2635
G01 X-1.5968 Y-4.2753
G01 X-1.6043 Y-4.2879
G01 X-1.6106 Y-4.3012
G01 X-1.6156 Y-4.3151
G01 X-1.6192 Y-4.3293
G01 X-1.6213 Y-4.3439
G01 X-1.6220 Y-4.3586
G01 X-1.6213 Y-4.3733
G01 X-1.6192 Y-4.3879
G01 X-1.6156 Y-4.4021
G01 X-1.6106 Y-4.4160
G01 X-1.6043 Y-4.4293
G01 X-1.5968 Y-4.4419
G01 X-1.5880 Y-4.4537
G01 X-1.5781 Y-4.4646
G01 X-1.5672 Y-4.4745
G01 X-1.5554 Y-4.4833
G01 X-1.5428 Y-4.4908
G01 X-1.5295 Y-4.4971
G01 X-1.5156 Y-4.5021
G01 X-1.5014 Y-4.5057
G01 X-1.4868 Y-4.5078
G01 X-1.4721 Y-4.5085
G01 X-1.4574 Y-4.5078
G01 X-1.4428 Y-4.5057
G01 X-1.4286 Y-4.5021
G01 X-1.4147 Y-4.4971
G01 X-1.4014 Y-4.4908
G01 X-1.3888 Y-4.4833
G01 X-1.3770 Y-4.4745
G01 X-1.3661 Y-4.4646
G01 X-1.3562 Y-4.4537
G01 X-1.3474 Y-4.4419
G01 X-1.3399 Y-4.4293
G01 X-1.3336 Y-4.4160
G01 X-1.3286 Y-4.4021
G01 X-1.3250 Y-4.3879
G01 X-1.3229 Y-4.3733
G01 X-1.3222 Y-4.3586
G00 Z2.0000
G00 X-1.3922 Y-4.3586
G01 F70.00
G01 Z-0.0600
G01 F120.00
G01 X-1.3937 Y-4.3430
G01 X-1.3983 Y-4.3280
G01 X-1.4057 Y-4.3142
G01 X-1.4156 Y-4.3021
G01 X-1.4277 Y-4.2922
G01 X-1.4415 Y-4.2848
G01 X-1.4565 Y-4.2802
G01 X-1.4721 Y-4.2787
G01 X-1.4877 Y-4.2802
G01 X-1.5027 Y-4.2848
G01 X-1.5165 Y-4.2922
G01 X-1.5286 Y-4.3021
G01 X-1.5385 Y-4.3142
G01 X-1.5459 Y-4.3280
G01 X-1.5505 Y-4.3430
G01 X-1.5520 Y-4.3586
G01 X-1.5505 Y-4.3742
G01 X-1.5459 Y-4.3892
G01 X-1.5385 Y-4.4030
G01 X-1.5286 Y-4.4151
G01 X-1.5165 Y-4.4250
G01 X-1.5027 Y-4.4324
G01 X-1.4877 Y-4.4370
G01 X-1.4721 Y-4.4385
G01 X-1.4565 Y-4.4370
G01 X-1.4415 Y-4.4324
G01 X-1.4277 Y-4.4250
G01 X-1.4156 Y-4.4151
G01 X-1.4057 Y-4.4030
G01 X-1.3983 Y-4.3892
G01 X-1.3937 Y-4.3742
G01 X-1.3922 Y-4.3586
G00 Z2.0000
G00 X-2.9639 Y-4.2411
G01 F70.00
G01 Z-0.0600
G01 F120.00
G01 X-2.8633 Y-4.2411
G01 X-2.8633 Y-4.1405
G01 X-2.8719 Y-4.1568
G01 X-2.8816 Y-4.1720
G01 X-2.8926 Y-4.1863
G01 X-2.9048 Y-4.1996
G01 X-2.9181 Y-4.2118
G01 X-2.9324 Y-4.2228
G01 X-2.9476 Y-4.2325
G01 X-2.9639 Y-4.2411
G00 Z2.0000
G00 X-1.3922 Y-11.9786
G01 F70.00
G01 Z-0.0600
G01 F120.00
G01 X-1.3937 Y-11.9630
G01 X-1.3983 Y-11.9480
G01 X-1.4057 Y-11.9342
G01 X-1.4156 Y-11.9221
G01 X-1.4277 Y-11.9122
G01 X-1.4415 Y-11.9048
G01 X-1.4565 Y-11.9002
G01 X-1.4721 Y-11.8987
G01 X-1.4877 Y-11.9002
G01 X-1.5027 Y-11.9048
G01 X-1.5165 Y-11.9122
G01 X-1.5286 Y-11.9221
G01 X-1.5385 Y-11.9342
G01 X-1.5459 Y-11.9480
G01 X-1.5505 Y-11.9630
G01 X-1.5520 Y-11.9786
G01 X-1.5505 Y-11.9942
G01 X-1.5459 Y-12.0092
G01 X-1.5385 Y-12.0230
G01 X-1.5286 Y-12.0351
G01 X-1.5165 Y-12.0450
G01 X-1.5027 Y-12.0524
G01 X-1.4877 Y-12.0570
G01 X-1.4721 Y-12.0585
G01 X-1.4565 Y-12.0570
G01 X-1.4415 Y-12.0524
G01 X-1.4277 Y-12.0450
G01 X-1.4156 Y-12.0351
G01 X-1.4057 Y-12.0230
G01 X-1.3983 Y-12.0092
G01 X-1.3937 Y-11.9942
G01 X-1.3922 Y-11.9786
G00 Z2.0000
G00 X-1.3222 Y-11.9786
G01 F70.00
G01 Z-0.0600
G01 F120.00
G01 X-1.3229 Y-11.9639
G01 X-1.3250 Y-11.9493
G01 X-1.3286 Y-11.9351
G01 X-1.3336 Y-11.9212
G01 X-1.3399 Y-11.9079
G01 X-1.3474 Y-11.8953
G01 X-1.3562 Y-11.8835
G01 X-1.3661 Y-11.8726
G01 X-1.3770 Y-11.8627
G01 X-1.3888 Y-11.8539
G01 X-1.4014 Y-11.8464
G01 X-1.4147 Y-11.8401
G01 X-1.4286 Y-11.8351
G01 X-1.4428 Y-11.8315
G01 X-1.4574 Y-11.8294
G01 X-1.4721 Y-11.8287
G01 X-1.4868 Y-11.8294
G01 X-1.5014 Y-11.8315
G01 X-1.5156 Y-11.8351
G01 X-1.5295 Y-11.8401
G01 X-1.5428 Y-11.8464
G01 X-1.5554 Y-11.8539
G01 X-1.5672 Y-11.8627
G01 X-1.5781 Y-11.8726
G01 X-1.5880 Y-11.8835
G01 X-1.5968 Y-11.8953
G01 X-1.6043 Y-11.9079
G01 X-1.6106 Y-11.9212
G01 X-1.6156 Y-11.9351
G01 X-1.6192 Y-11.9493
G01 X-1.6213 Y-11.9639
G01 X-1.6220 Y-11.9786
G01 X-1.6213 Y-11.9933
G01 X-1.6192 Y-12.0079
G01 X-1.6156 Y-12.0221
G01 X-1.6106 Y-12.0360
G01 X-1.6043 Y-12.0493
G01 X-1.5968 Y-12.0619
G01 X-1.5880 Y-12.0737
G01 X-1.5781 Y-12.0846
G01 X-1.5672 Y-12.0945
G01 X-1.5554 Y-12.1033
G01 X-1.5428 Y-12.1108
G01 X-1.5295 Y-12.1171
G01 X-1.5156 Y-12.1221
G01 X-1.5014 Y-12.1257
G01 X-1.4868 Y-12.1278
G01 X-1.4721 Y-12.1285
G01 X-1.4574 Y-12.1278
G01 X-1.4428 Y-12.1257
G01 X-1.4286 Y-12.1221
G01 X-1.4147 Y-12.1171
G01 X-1.4014 Y-12.1108
G01 X-1.3888 Y-12.1033
G01 X-1.3770 Y-12.0945
G01 X-1.3661 Y-12.0846
G01 X-1.3562 Y-12.0737
G01 X-1.3474 Y-12.0619
G01 X-1.3399 Y-12.0493
G01 X-1.3336 Y-12.0360
G01 X-1.3286 Y-12.0221
G01 X-1.3250 Y-12.0079
G01 X-1.3229 Y-11.9933
G01 X-1.3222 Y-11.9786
G00 Z2.0000
G00 X-1.2521 Y-11.9786
G01 F70.00
G01 Z-0.0600
G01 F120.00
G01 X-1.2532 Y-11.9570
G01 X-1.2564 Y-11.9357
G01 X-1.2616 Y-11.9147
G01 X-1.2689 Y-11.8944
G01 X-1.2781 Y-11.8749
G01 X-1.2892 Y-11.8564
G01 X-1.3021 Y-11.8391
G01 X-1.3166 Y-11.8231
G01 X-1.3326 Y-11.8086
G01 X-1.3499 Y-11.7957
G01 X-1.3684 Y-11.7846
G01 X-1.3879 Y-11.7754
G01 X-1.4082 Y-11.7681
G01 X-1.4292 Y-11.7629
G01 X-1.4505 Y-11.7597
G01 X-1.4721 Y-11.7586
G01 X-1.4937 Y-11.7597
G01 X-1.5150 Y-11.7629
G01 X-1.5360 Y-11.7681
G01 X-1.5563 Y-11.7754
G01 X-1.5758 Y-11.7846
G01 X-1.5943 Y-11.7957
G01 X-1.6116 Y-11.8086
G01 X-1.6276 Y-11.8231
G01 X-1.6421 Y-11.8391
G01 X-1.6550 Y-11.8564
G01 X-1.6661 Y-11.8749
G01 X-1.6753 Y-11.8944
G01 X-1.6826 Y-11.9147
G01 X-1.6878 Y-11.9357
G01 X-1.6910 Y-11.9570
G01 X-1.6921 Y-11.9786
G01 X-1.6910 Y-12.0002
G01 X-1.6878 Y-12.0215
G01 X-1.6826 Y-12.0425
G01 X-1.6753 Y-12.0628
G01 X-1.6661 Y-12.0823
G01 X-1.6550 Y-12.1008
G01 X-1.6421 Y-12.1181
G01 X-1.6276 Y-12.1341
G01 X-1.6116 Y-12.1486
G01 X-1.5943 Y-12.1615
G01 X-1.5758 Y-12.1726
G01 X-1.5563 Y-12.1818
G01 X-1.5360 Y-12.1891
G01 X-1.5150 Y-12.1943
G01 X-1.4937 Y-12.1975
G01 X-1.4721 Y-12.1986
G01 X-1.4505 Y-12.1975
G01 X-1.4292 Y-12.1943
G01 X-1.4082 Y-12.1891
G01 X-1.3879 Y-12.1818
G01 X-1.3684 Y-12.1726
G01 X-1.3499 Y-12.1615
G01 X-1.3326 Y-12.1486
G01 X-1.3166 Y-12.1341
G01 X-1.3021 Y-12.1181
G01 X-1.2892 Y-12.1008
G01 X-1.2781 Y-12.0823
G01 X-1.2689 Y-12.0628
G01 X-1.2616 Y-12.0425
G01 X-1.2564 Y-12.0215
G01 X-1.2532 Y-12.0002
G01 X-1.2521 Y-11.9786
G00 Z2.0000
G00 X-1.1821 Y-11.9786
G01 F70.00
G01 Z-0.0600
G01 F120.00
G01 X-1.1835 Y-11.9502
G01 X-1.1877 Y-11.9220
G01 X-1.1946 Y-11.8944
G01 X-1.2042 Y-11.8676
G01 X-1.2164 Y-11.8419
G01 X-1.2310 Y-11.8175
G01 X-1.2479 Y-11.7946
G01 X-1.2671 Y-11.7736
G01 X-1.2881 Y-11.7544
G01 X-1.3110 Y-11.7375
G01 X-1.3354 Y-11.7229
G01 X-1.3611 Y-11.7107
G01 X-1.3879 Y-11.7011
G01 X-1.4155 Y-11.6942
G01 X-1.4437 Y-11.6900
G01 X-1.4721 Y-11.6886
G01 X-1.5005 Y-11.6900
G01 X-1.5287 Y-11.6942
G01 X-1.5563 Y-11.7011
G01 X-1.5831 Y-11.7107
G01 X-1.6088 Y-11.7229
G01 X-1.6332 Y-11.7375
G01 X-1.6561 Y-11.7544
G01 X-1.6771 Y-11.7736
G01 X-1.6963 Y-11.7946
G01 X-1.7132 Y-11.8175
G01 X-1.7278 Y-11.8419
G01 X-1.7400 Y-11.8676
G01 X-1.7496 Y-11.8944
G01 X-1.7565 Y-11.9220
G01 X-1.7607 Y-11.9502
G01 X-1.7621 Y-11.9786
G01 X-1.7607 Y-12.0070
G01 X-1.7565 Y-12.0352
G01 X-1.7496 Y-12.0628
G01 X-1.7400 Y-12.0896
G01 X-1.7278 Y-12.1153
G01 X-1.7132 Y-12.1397
G01 X-1.6963 Y-12.1626
G01 X-1.6771 Y-12.1836
G01 X-1.6561 Y-12.2028
G01 X-1.6332 Y-12.2197
G01 X-1.6088 Y-12.2343
G01 X-1.5831 Y-12.2465
G01 X-1.5563 Y-12.2561
G01 X-1.5287 Y-12.2630
G01 X-1.5005 Y-12.2672
G01 X-1.4721 Y-12.2686
G01 X-1.4437 Y-12.2672
G01 X-1.4155 Y-12.2630
G01 X-1.3879 Y-12.2561
G01 X-1.3611 Y-12.2465
G01 X-1.3354 Y-12.2343
G01 X-1.3110 Y-12.2197
G01 X-1.2881 Y-12.2028
G01 X-1.2671 Y-12.1836
G01 X-1.2479 Y-12.1626
G01 X-1.2310 Y-12.1397
G01 X-1.2164 Y-12.1153
G01 X-1.2042 Y-12.0896
G01 X-1.1946 Y-12.0628
G01 X-1.1877 Y-12.0352
G01 X-1.1835 Y-12.0070
G01 X-1.1821 Y-11.9786
G00 Z2.0000
G00 X-1.1821 Y-14.5186
G01 F70.00
G01 Z-0.0600
G01 F120.00
G01 X-1.1835 Y-14.4902
G01 X-1.1877 Y-14.4620
G01 X-1.1946 Y-14.4344
G01 X-1.2042 Y-14.4076
G01 X-1.2164 Y-14.3819
G01 X-1.2310 Y-14.3575
G01 X-1.2479 Y-14.3346
G01 X-1.2671 Y-14.3136
G01 X-1.2881 Y-14.2944
G01 X-1.3110 Y-14.2775
G01 X-1.3354 Y-14.2629
G01 X-1.3611 Y-14.2507
G01 X-1.3879 Y-14.2411
G01 X-1.4155 Y-14.2342
G01 X-1.4437 Y-14.2300
G01 X-1.4721 Y-14.2286
G01 X-1.5005 Y-14.2300
G01 X-1.5287 Y-14.2342
G01 X-1.5563 Y-14.2411
G01 X-1.5831 Y-14.2507
G01 X-1.6088 Y-14.2629
G01 X-1.6332 Y-14.2775
G01 X-1.6561 Y-14.2944
G01 X-1.6771 Y-14.3136
G01 X-1.6963 Y-14.3346
G01 X-1.7132 Y-14.3575
G01 X-1.7278 Y-14.3819
G01 X-1.7400 Y-14.4076
G01 X-1.7496 Y-14.4344
G01 X-1.7565 Y-14.4620
G01 X-1.7607 Y-14.4902
G01 X-1.7621 Y-14.5186
G01 X-1.7607 Y-14.5470
G01 X-1.7565 Y-14.5752
G01 X-1.7496 Y-14.6028
G01 X-1.7400 Y-14.6296
G01 X-1.7278 Y-14.6553
G01 X-1.7132 Y-14.6797
G01 X-1.6963 Y-14.7026
G01 X-1.6771 Y-14.7236
G01 X-1.6561 Y-14.7428
G01 X-1.6332 Y-14.7597
G01 X-1.6088 Y-14.7743
G01 X-1.5831 Y-14.7865
G01 X-1.5563 Y-14.7961
G01 X-1.5287 Y-14.8030
G01 X-1.5005 Y-14.8072
G01 X-1.4721 Y-14.8086
G01 X-1.4437 Y-14.8072
G01 X-1.4155 Y-14.8030
G01 X-1.3879 Y-14.7961
G01 X-1.3611 Y-14.7865
G01 X-1.3354 Y-14.7743
G01 X-1.3110 Y-14.7597
G01 X-1.2881 Y-14.7428
G01 X-1.2671 Y-14.7236
G01 X-1.2479 Y-14.7026
G01 X-1.2310 Y-14.6797
G01 X-1.2164 Y-14.6553
G01 X-1.2042 Y-14.6296
G01 X-1.1946 Y-14.6028
G01 X-1.1877 Y-14.5752
G01 X-1.1835 Y-14.5470
G01 X-1.1821 Y-14.5186
G00 Z2.0000
G00 X-1.2521 Y-14.5186
G01 F70.00
G01 Z-0.0600
G01 F120.00
G01 X-1.2532 Y-14.4970
G01 X-1.2564 Y-14.4757
G01 X-1.2616 Y-14.4547
G01 X-1.2689 Y-14.4344
G01 X-1.2781 Y-14.4149
G01 X-1.2892 Y-14.3964
G01 X-1.3021 Y-14.3791
G01 X-1.3166 Y-14.3631
G01 X-1.3326 Y-14.3486
G01 X-1.3499 Y-14.3357
G01 X-1.3684 Y-14.3246
G01 X-1.3879 Y-14.3154
G01 X-1.4082 Y-14.3081
G01 X-1.4292 Y-14.3029
G01 X-1.4505 Y-14.2997
G01 X-1.4721 Y-14.2986
G01 X-1.4937 Y-14.2997
G01 X-1.5150 Y-14.3029
G01 X-1.5360 Y-14.3081
G01 X-1.5563 Y-14.3154
G01 X-1.5758 Y-14.3246
G01 X-1.5943 Y-14.3357
G01 X-1.6116 Y-14.3486
G01 X-1.6276 Y-14.3631
G01 X-1.6421 Y-14.3791
G01 X-1.6550 Y-14.3964
G01 X-1.6661 Y-14.4149
G01 X-1.6753 Y-14.4344
G01 X-1.6826 Y-14.4547
G01 X-1.6878 Y-14.4757
G01 X-1.6910 Y-14.4970
G01 X-1.6921 Y-14.5186
G01 X-1.6910 Y-14.5402
G01 X-1.6878 Y-14.5615
G01 X-1.6826 Y-14.5825
G01 X-1.6753 Y-14.6028
G01 X-1.6661 Y-14.6223
G01 X-1.6550 Y-14.6408
G01 X-1.6421 Y-14.6581
G01 X-1.6276 Y-14.6741
G01 X-1.6116 Y-14.6886
G01 X-1.5943 Y-14.7015
G01 X-1.5758 Y-14.7126
G01 X-1.5563 Y-14.7218
G01 X-1.5360 Y-14.7291
G01 X-1.5150 Y-14.7343
G01 X-1.4937 Y-14.7375
G01 X-1.4721 Y-14.7386
G01 X-1.4505 Y-14.7375
G01 X-1.4292 Y-14.7343
G01 X-1.4082 Y-14.7291
G01 X-1.3879 Y-14.7218
G01 X-1.3684 Y-14.7126
G01 X-1.3499 Y-14.7015
G01 X-1.3326 Y-14.6886
G01 X-1.3166 Y-14.6741
G01 X-1.3021 Y-14.6581
G01 X-1.2892 Y-14.6408
G01 X-1.2781 Y-14.6223
G01 X-1.2689 Y-14.6028
G01 X-1.2616 Y-14.5825
G01 X-1.2564 Y-14.5615
G01 X-1.2532 Y-14.5402
G01 X-1.2521 Y-14.5186
G00 Z2.0000
G00 X-1.3222 Y-14.5186
G01 F70.00
G01 Z-0.0600
G01 F120.00
G01 X-1.3229 Y-14.5039
G01 X-1.3250 Y-14.4893
G01 X-1.3286 Y-14.4751
G01 X-1.3336 Y-14.4612
G01 X-1.3399 Y-14.4479
G01 X-1.3474 Y-14.4353
G01 X-1.3562 Y-14.4235
G01 X-1.3661 Y-14.4126
G01 X-1.3770 Y-14.4027
G01 X-1.3888 Y-14.3939
G01 X-1.4014 Y-14.3864
G01 X-1.4147 Y-14.3801
G01 X-1.4286 Y-14.3751
G01 X-1.4428 Y-14.3715
G01 X-1.4574 Y-14.3694
G01 X-1.4721 Y-14.3687
G01 X-1.4868 Y-14.3694
G01 X-1.5014 Y-14.3715
G01 X-1.5156 Y-14.3751
G01 X-1.5295 Y-14.3801
G01 X-1.5428 Y-14.3864
G01 X-1.5554 Y-14.3939
G01 X-1.5672 Y-14.4027
G01 X-1.5781 Y-14.4126
G01 X-1.5880 Y-14.4235
G01 X-1.5968 Y-14.4353
G01 X-1.6043 Y-14.4479
G01 X-1.6106 Y-14.4612
G01 X-1.6156 Y-14.4751
G01 X-1.6192 Y-14.4893
G01 X-1.6213 Y-14.5039
G01 X-1.6220 Y-14.5186
G01 X-1.6213 Y-14.5333
G01 X-1.6192 Y-14.5479
G01 X-1.6156 Y-14.5621
G01 X-1.6106 Y-14.5760
G01 X-1.6043 Y-14.5893
G01 X-1.5968 Y-14.6019
G01 X-1.5880 Y-14.6137
G01 X-1.5781 Y-14.6246
G01 X-1.5672 Y-14.6345
G01 X-1.5554 Y-14.6433
G01 X-1.5428 Y-14.6508
G01 X-1.5295 Y-14.6571
G01 X-1.5156 Y-14.6621
G01 X-1.5014 Y-14.6657
G01 X-1.4868 Y-14.6678
G01 X-1.4721 Y-14.6685
G01 X-1.4574 Y-14.6678
G01 X-1.4428 Y-14.6657
G01 X-1.4286 Y-14.6621
G01 X-1.4147 Y-14.6571
G01 X-1.4014 Y-14.6508
G01 X-1.3888 Y-14.6433
G01 X-1.3770 Y-14.6345
G01 X-1.3661 Y-14.6246
G01 X-1.3562 Y-14.6137
G01 X-1.3474 Y-14.6019
G01 X-1.3399 Y-14.5893
G01 X-1.3336 Y-14.5760
G01 X-1.3286 Y-14.5621
G01 X-1.3250 Y-14.5479
G01 X-1.3229 Y-14.5333
G01 X-1.3222 Y-14.5186
G00 Z2.0000
G00 X-1.3922 Y-14.5186
G01 F70.00
G01 Z-0.0600
G01 F120.00
G01 X-1.3937 Y-14.5030
G01 X-1.3983 Y-14.4880
G01 X-1.4057 Y-14.4742
G01 X-1.4156 Y-14.4621
G01 X-1.4277 Y-14.4522
G01 X-1.4415 Y-14.4448
G01 X-1.4565 Y-14.4402
G01 X-1.4721 Y-14.4387
G01 X-1.4877 Y-14.4402
G01 X-1.5027 Y-14.4448
G01 X-1.5165 Y-14.4522
G01 X-1.5286 Y-14.4621
G01 X-1.5385 Y-14.4742
G01 X-1.5459 Y-14.4880
G01 X-1.5505 Y-14.5030
G01 X-1.5520 Y-14.5186
G01 X-1.5505 Y-14.5342
G01 X-1.5459 Y-14.5492
G01 X-1.5385 Y-14.5630
G01 X-1.5286 Y-14.5751
G01 X-1.5165 Y-14.5850
G01 X-1.5027 Y-14.5924
G01 X-1.4877 Y-14.5970
G01 X-1.4721 Y-14.5985
G01 X-1.4565 Y-14.5970
G01 X-1.4415 Y-14.5924
G01 X-1.4277 Y-14.5850
G01 X-1.4156 Y-14.5751
G01 X-1.4057 Y-14.5630
G01 X-1.3983 Y-14.5492
G01 X-1.3937 Y-14.5342
G01 X-1.3922 Y-14.5186
G00 Z2.0000
G00 X-1.3522 Y-17.0586
G01 F70.00
G01 Z-0.0600
G01 F120.00
G01 X-1.3528 Y-17.0468
G01 X-1.3545 Y-17.0352
G01 X-1.3573 Y-17.0238
G01 X-1.3613 Y-17.0127
G01 X-1.3663 Y-17.0021
G01 X-1.3724 Y-16.9920
G01 X-1.3794 Y-16.9825
G01 X-1.3873 Y-16.9738
G01 X-1.3960 Y-16.9659
G01 X-1.4055 Y-16.9589
G01 X-1.4156 Y-16.9528
G01 X-1.4262 Y-16.9478
G01 X-1.4373 Y-16.9438
G01 X-1.4487 Y-16.9410
G01 X-1.4603 Y-16.9393
G01 X-1.4721 Y-16.9387
G01 X-1.4839 Y-16.9393
G01 X-1.4955 Y-16.9410
G01 X-1.5069 Y-16.9438
G01 X-1.5180 Y-16.9478
G01 X-1.5286 Y-16.9528
G01 X-1.5387 Y-16.9589
G01 X-1.5482 Y-16.9659
G01 X-1.5569 Y-16.9738
G01 X-1.5648 Y-16.9825
G01 X-1.5718 Y-16.9920
G01 X-1.5779 Y-17.0021
G01 X-1.5829 Y-17.0127
G01 X-1.5869 Y-17.0238
G01 X-1.5897 Y-17.0352
G01 X-1.5914 Y-17.0468
G01 X-1.5920 Y-17.0586
G01 X-1.5914 Y-17.0704
G01 X-1.5897 Y-17.0820
G01 X-1.5869 Y-17.0934
G01 X-1.5829 Y-17.1045
G01 X-1.5779 Y-17.1151
G01 X-1.5718 Y-17.1252
G01 X-1.5648 Y-17.1347
G01 X-1.5569 Y-17.1434
G01 X-1.5482 Y-17.1513
G01 X-1.5387 Y-17.1583
G01 X-1.5286 Y-17.1644
G01 X-1.5180 Y-17.1694
G01 X-1.5069 Y-17.1734
G01 X-1.4955 Y-17.1762
G01 X-1.4839 Y-17.1779
G01 X-1.4721 Y-17.1785
G01 X-1.4603 Y-17.1779
G01 X-1.4487 Y-17.1762
G01 X-1.4373 Y-17.1734
G01 X-1.4262 Y-17.1694
G01 X-1.4156 Y-17.1644
G01 X-1.4055 Y-17.1583
G01 X-1.3960 Y-17.1513
G01 X-1.3873 Y-17.1434
G01 X-1.3794 Y-17.1347
G01 X-1.3724 Y-17.1252
G01 X-1.3663 Y-17.1151
G01 X-1.3613 Y-17.1045
G01 X-1.3573 Y-17.0934
G01 X-1.3545 Y-17.0820
G01 X-1.3528 Y-17.0704
G01 X-1.3522 Y-17.0586
G00 Z2.0000
G00 X-1.2822 Y-17.0586
G01 F70.00
G01 Z-0.0600
G01 F120.00
G01 X-1.2831 Y-17.0400
G01 X-1.2858 Y-17.0215
G01 X-1.2903 Y-17.0035
G01 X-1.2966 Y-16.9859
G01 X-1.3046 Y-16.9691
G01 X-1.3142 Y-16.9531
G01 X-1.3253 Y-16.9381
G01 X-1.3378 Y-16.9243
G01 X-1.3516 Y-16.9118
G01 X-1.3666 Y-16.9007
G01 X-1.3826 Y-16.8911
G01 X-1.3994 Y-16.8831
G01 X-1.4170 Y-16.8768
G01 X-1.4350 Y-16.8723
G01 X-1.4535 Y-16.8696
G01 X-1.4721 Y-16.8687
G01 X-1.4907 Y-16.8696
G01 X-1.5092 Y-16.8723
G01 X-1.5272 Y-16.8768
G01 X-1.5448 Y-16.8831
G01 X-1.5616 Y-16.8911
G01 X-1.5776 Y-16.9007
G01 X-1.5926 Y-16.9118
G01 X-1.6064 Y-16.9243
G01 X-1.6189 Y-16.9381
G01 X-1.6300 Y-16.9531
G01 X-1.6396 Y-16.9691
G01 X-1.6476 Y-16.9859
G01 X-1.6539 Y-17.0035
G01 X-1.6584 Y-17.0215
G01 X-1.6611 Y-17.0400
G01 X-1.6620 Y-17.0586
G01 X-1.6611 Y-17.0772
G01 X-1.6584 Y-17.0957
G01 X-1.6539 Y-17.1137
G01 X-1.6476 Y-17.1313
G01 X-1.6396 Y-17.1481
G01 X-1.6300 Y-17.1641
G01 X-1.6189 Y-17.1791
G01 X-1.6064 Y-17.1929
G01 X-1.5926 Y-17.2054
G01 X-1.5776 Y-17.2165
G01 X-1.5616 Y-17.2261
G01 X-1.5448 Y-17.2341
G01 X-1.5272 Y-17.2404
G01 X-1.5092 Y-17.2449
G01 X-1.4907 Y-17.2476
G01 X-1.4721 Y-17.2485
G01 X-1.4535 Y-17.2476
G01 X-1.4350 Y-17.2449
G01 X-1.4170 Y-17.2404
G01 X-1.3994 Y-17.2341
G01 X-1.3826 Y-17.2261
G01 X-1.3666 Y-17.2165
G01 X-1.3516 Y-17.2054
G01 X-1.3378 Y-17.1929
G01 X-1.3253 Y-17.1791
G01 X-1.3142 Y-17.1641
G01 X-1.3046 Y-17.1481
G01 X-1.2966 Y-17.1313
G01 X-1.2903 Y-17.1137
G01 X-1.2858 Y-17.0957
G01 X-1.2831 Y-17.0772
G01 X-1.2822 Y-17.0586
G00 Z2.0000
G00 X-1.2121 Y-17.0586
G01 F70.00
G01 Z-0.0600
G01 F120.00
G01 X-1.2134 Y-17.0331
G01 X-1.2171 Y-17.0079
G01 X-1.2233 Y-16.9831
G01 X-1.2319 Y-16.9591
G01 X-1.2428 Y-16.9361
G01 X-1.2560 Y-16.9142
G01 X-1.2711 Y-16.8937
G01 X-1.2883 Y-16.8748
G01 X-1.3072 Y-16.8576
G01 X-1.3277 Y-16.8425
G01 X-1.3496 Y-16.8293
G01 X-1.3726 Y-16.8184
G01 X-1.3966 Y-16.8098
G01 X-1.4214 Y-16.8036
G01 X-1.4466 Y-16.7999
G01 X-1.4721 Y-16.7986
G01 X-1.4976 Y-16.7999
G01 X-1.5228 Y-16.8036
G01 X-1.5476 Y-16.8098
G01 X-1.5716 Y-16.8184
G01 X-1.5946 Y-16.8293
G01 X-1.6165 Y-16.8425
G01 X-1.6370 Y-16.8576
G01 X-1.6559 Y-16.8748
G01 X-1.6731 Y-16.8937
G01 X-1.6882 Y-16.9142
G01 X-1.7014 Y-16.9361
G01 X-1.7123 Y-16.9591
G01 X-1.7209 Y-16.9831
G01 X-1.7271 Y-17.0079
G01 X-1.7308 Y-17.0331
G01 X-1.7321 Y-17.0586
G01 X-1.7308 Y-17.0841
G01 X-1.7271 Y-17.1093
G01 X-1.7209 Y-17.1341
G01 X-1.7123 Y-17.1581
G01 X-1.7014 Y-17.1811
G01 X-1.6882 Y-17.2030
G01 X-1.6731 Y-17.2235
G01 X-1.6559 Y-17.2424
G01 X-1.6370 Y-17.2596
G01 X-1.6165 Y-17.2747
G01 X-1.5946 Y-17.2879
G01 X-1.5716 Y-17.2988
G01 X-1.5476 Y-17.3074
G01 X-1.5228 Y-17.3136
G01 X-1.4976 Y-17.3173
G01 X-1.4721 Y-17.3186
G01 X-1.4466 Y-17.3173
G01 X-1.4214 Y-17.3136
G01 X-1.3966 Y-17.3074
G01 X-1.3726 Y-17.2988
G01 X-1.3496 Y-17.2879
G01 X-1.3277 Y-17.2747
G01 X-1.3072 Y-17.2596
G01 X-1.2883 Y-17.2424
G01 X-1.2711 Y-17.2235
G01 X-1.2560 Y-17.2030
G01 X-1.2428 Y-17.1811
G01 X-1.2319 Y-17.1581
G01 X-1.2233 Y-17.1341
G01 X-1.2171 Y-17.1093
G01 X-1.2134 Y-17.0841
G01 X-1.2121 Y-17.0586
G00 Z2.0000
G00 X-1.1421 Y-17.0586
G01 F70.00
G01 Z-0.0600
G01 F120.00
G01 X-1.1437 Y-17.0263
G01 X-1.1485 Y-16.9942
G01 X-1.1563 Y-16.9628
G01 X-1.1672 Y-16.9323
G01 X-1.1811 Y-16.9030
G01 X-1.1977 Y-16.8753
G01 X-1.2170 Y-16.8493
G01 X-1.2388 Y-16.8253
G01 X-1.2628 Y-16.8035
G01 X-1.2888 Y-16.7842
G01 X-1.3165 Y-16.7676
G01 X-1.3458 Y-16.7537
G01 X-1.3763 Y-16.7428
G01 X-1.4077 Y-16.7350
G01 X-1.4398 Y-16.7302
G01 X-1.4721 Y-16.7286
G01 X-1.5044 Y-16.7302
G01 X-1.5365 Y-16.7350
G01 X-1.5679 Y-16.7428
G01 X-1.5984 Y-16.7537
G01 X-1.6277 Y-16.7676
G01 X-1.6554 Y-16.7842
G01 X-1.6814 Y-16.8035
G01 X-1.7054 Y-16.8253
G01 X-1.7272 Y-16.8493
G01 X-1.7465 Y-16.8753
G01 X-1.7631 Y-16.9030
G01 X-1.7770 Y-16.9323
G01 X-1.7879 Y-16.9628
G01 X-1.7957 Y-16.9942
G01 X-1.8005 Y-17.0263
G01 X-1.8021 Y-17.0586
G01 X-1.8005 Y-17.0909
G01 X-1.7957 Y-17.1230
G01 X-1.7879 Y-17.1544
G01 X-1.7770 Y-17.1849
G01 X-1.7631 Y-17.2142
G01 X-1.7465 Y-17.2419
G01 X-1.7272 Y-17.2679
G01 X-1.7054 Y-17.2919
G01 X-1.6814 Y-17.3137
G01 X-1.6554 Y-17.3330
G01 X-1.6277 Y-17.3496
G01 X-1.5984 Y-17.3635
G01 X-1.5679 Y-17.3744
G01 X-1.5365 Y-17.3822
G01 X-1.5044 Y-17.3870
G01 X-1.4721 Y-17.3886
G01 X-1.4398 Y-17.3870
G01 X-1.4077 Y-17.3822
G01 X-1.3763 Y-17.3744
G01 X-1.3458 Y-17.3635
G01 X-1.3165 Y-17.3496
G01 X-1.2888 Y-17.3330
G01 X-1.2628 Y-17.3137
G01 X-1.2388 Y-17.2919
G01 X-1.2170 Y-17.2679
G01 X-1.1977 Y-17.2419
G01 X-1.1811 Y-17.2142
G01 X-1.1672 Y-17.1849
G01 X-1.1563 Y-17.1544
G01 X-1.1485 Y-17.1230
G01 X-1.1437 Y-17.0909
G01 X-1.1421 Y-17.0586
G00 Z2.0000
G00 X-0.2121 Y-17.0586
G01 F70.00
G01 Z-0.0600
G01 F120.00
G01 X-0.2137 Y-16.9968
G01 X-0.2182 Y-16.9351
G01 X-0.2258 Y-16.8737
G01 X-0.2364 Y-16.8128
G01 X-0.2499 Y-16.7525
G01 X-0.2664 Y-16.6929
G01 X-0.2858 Y-16.6341
G01 X-0.3081 Y-16.5764
G01 X-0.3331 Y-16.5199
G01 X-0.3609 Y-16.4647
G01 X-0.3914 Y-16.4109
G01 X-0.4245 Y-16.3586
G01 X-0.4601 Y-16.3080
G01 X-0.4981 Y-16.2593
G01 X-0.5385 Y-16.2125
G01 X-0.5812 Y-16.1677
G01 X-0.6260 Y-16.1250
G01 X-0.6728 Y-16.0846
G01 X-0.7215 Y-16.0466
G01 X-0.7721 Y-16.0110
G01 X-0.8244 Y-15.9779
G01 X-0.8782 Y-15.9474
G01 X-0.9334 Y-15.9196
G01 X-0.9899 Y-15.8946
G01 X-1.0476 Y-15.8723
G01 X-1.1064 Y-15.8529
G01 X-1.1660 Y-15.8364
G01 X-1.2263 Y-15.8229
G01 X-1.2872 Y-15.8123
G01 X-1.3486 Y-15.8047
G01 X-1.4103 Y-15.8002
G01 X-1.4721 Y-15.7986
G01 X-1.5339 Y-15.8002
G01 X-1.5956 Y-15.8047
G01 X-1.6570 Y-15.8123
G01 X-1.7179 Y-15.8229
G01 X-1.7782 Y-15.8364
G01 X-1.8378 Y-15.8529
G01 X-1.8966 Y-15.8723
G01 X-1.9543 Y-15.8946
G01 X-2.0108 Y-15.9196
G01 X-2.0660 Y-15.9474
G01 X-2.1198 Y-15.9779
G01 X-2.1721 Y-16.0110
G01 X-2.2227 Y-16.0466
G01 X-2.2714 Y-16.0846
G01 X-2.3182 Y-16.1250
G01 X-2.3630 Y-16.1677
G01 X-2.4057 Y-16.2125
G01 X-2.4461 Y-16.2593
G01 X-2.4841 Y-16.3080
G01 X-2.5019 Y-16.3326
G01 X-2.5111 Y-16.3428
G01 X-2.5226 Y-16.3531
G01 X-2.5351 Y-16.3620
G01 X-2.5470 Y-16.3688
G01 X-2.5612 Y-16.3750
G01 X-2.5743 Y-16.3791
G01 X-2.5877 Y-16.3820
G01 X-2.6013 Y-16.3835
G01 X-2.6167 Y-16.3836
G01 X-2.6304 Y-16.3823
G01 X-2.6472 Y-16.3788
G01 X-3.9223 Y-16.0284
G01 X-3.9370 Y-16.0233
G01 X-3.9524 Y-16.0158
G01 X-3.9655 Y-16.0075
G01 X-3.9775 Y-15.9978
G01 X-3.9872 Y-15.9880
G01 X-3.9960 Y-15.9774
G01 X-4.0036 Y-15.9660
G01 X-4.0101 Y-15.9538
G01 X-4.0154 Y-15.9411
G01 X-4.0194 Y-15.9280
G01 X-4.0221 Y-15.9145
G01 X-4.0234 Y-15.9008
G01 X-4.0236 Y-15.1255
G01 X-6.1436 Y-15.1255
G01 X-6.1436 Y-17.2455
G01 X-4.0236 Y-17.2455
G01 X-4.0234 Y-17.0284
G01 X-4.0221 Y-17.0147
G01 X-4.0190 Y-16.9996
G01 X-4.0148 Y-16.9865
G01 X-4.0094 Y-16.9739
G01 X-4.0037 Y-16.9633
G01 X-3.9971 Y-16.9533
G01 X-3.9897 Y-16.9439
G01 X-3.9815 Y-16.9351
G01 X-3.9725 Y-16.9271
G01 X-3.9629 Y-16.9199
G01 X-3.9436 Y-16.9087
G01 X-3.9325 Y-16.9041
G01 X-3.9211 Y-16.9004
G01 X-3.8992 Y-16.8961
G01 X-3.8873 Y-16.8953
G01 X-3.8752 Y-16.8955
G01 X-3.8532 Y-16.8986
G01 X-2.8102 Y-17.1850
G01 X-2.7923 Y-17.1912
G01 X-2.7769 Y-17.1989
G01 X-2.7586 Y-17.2116
G01 X-2.7424 Y-17.2271
G01 X-2.7299 Y-17.2435
G01 X-2.7193 Y-17.2632
G01 X-2.7119 Y-17.2843
G01 X-2.6943 Y-17.3647
G01 X-2.6778 Y-17.4243
G01 X-2.6584 Y-17.4831
G01 X-2.6361 Y-17.5408
G01 X-2.6111 Y-17.5973
G01 X-2.5833 Y-17.6525
G01 X-2.5528 Y-17.7063
G01 X-2.5197 Y-17.7586
G01 X-2.4841 Y-17.8092
G01 X-2.4461 Y-17.8579
G01 X-2.4057 Y-17.9047
G01 X-2.3630 Y-17.9495
G01 X-2.3182 Y-17.9922
G01 X-2.2714 Y-18.0326
G01 X-2.2227 Y-18.0706
G01 X-2.1721 Y-18.1062
G01 X-2.1198 Y-18.1393
G01 X-2.0660 Y-18.1698
G01 X-2.0108 Y-18.1976
G01 X-1.9543 Y-18.2226
G01 X-1.8966 Y-18.2449
G01 X-1.8378 Y-18.2643
G01 X-1.7782 Y-18.2808
G01 X-1.7179 Y-18.2943
G01 X-1.6570 Y-18.3049
G01 X-1.5956 Y-18.3125
G01 X-1.5339 Y-18.3170
G01 X-1.4721 Y-18.3186
G01 X-1.4103 Y-18.3170
G01 X-1.3486 Y-18.3125
G01 X-1.2872 Y-18.3049
G01 X-1.2263 Y-18.2943
G01 X-1.1660 Y-18.2808
G01 X-1.1064 Y-18.2643
G01 X-1.0476 Y-18.2449
G01 X-0.9899 Y-18.2226
G01 X-0.9334 Y-18.1976
G01 X-0.8782 Y-18.1698
G01 X-0.8244 Y-18.1393
G01 X-0.7721 Y-18.1062
G01 X-0.7215 Y-18.0706
G01 X-0.6728 Y-18.0326
G01 X-0.6260 Y-17.9922
G01 X-0.5812 Y-17.9495
G01 X-0.5385 Y-17.9047
G01 X-0.4981 Y-17.8579
G01 X-0.4601 Y-17.8092
G01 X-0.4245 Y-17.7586
G01 X-0.3914 Y-17.7063
G01 X-0.3609 Y-17.6525
G01 X-0.3331 Y-17.5973
G01 X-0.3081 Y-17.5408
G01 X-0.2858 Y-17.4831
G01 X-0.2664 Y-17.4243
G01 X-0.2499 Y-17.3647
G01 X-0.2364 Y-17.3044
G01 X-0.2258 Y-17.2435
G01 X-0.2182 Y-17.1821
G01 X-0.2137 Y-17.1204
G01 X-0.2121 Y-17.0586
G00 Z2.0000
G00 X-0.1421 Y-17.0586
G01 F70.00
G01 Z-0.0600
G01 F120.00
G01 X-0.1437 Y-16.9933
G01 X-0.1485 Y-16.9282
G01 X-0.1565 Y-16.8635
G01 X-0.1677 Y-16.7991
G01 X-0.1820 Y-16.7354
G01 X-0.1994 Y-16.6725
G01 X-0.2199 Y-16.6105
G01 X-0.2434 Y-16.5496
G01 X-0.2698 Y-16.4900
G01 X-0.2992 Y-16.4317
G01 X-0.3313 Y-16.3749
G01 X-0.3663 Y-16.3197
G01 X-0.4039 Y-16.2663
G01 X-0.4440 Y-16.2149
G01 X-0.4867 Y-16.1654
G01 X-0.5317 Y-16.1182
G01 X-0.5789 Y-16.0732
G01 X-0.6284 Y-16.0305
G01 X-0.6798 Y-15.9904
G01 X-0.7332 Y-15.9528
G01 X-0.7884 Y-15.9178
G01 X-0.8452 Y-15.8857
G01 X-0.9035 Y-15.8563
G01 X-0.9631 Y-15.8299
G01 X-1.0240 Y-15.8064
G01 X-1.0860 Y-15.7859
G01 X-1.1489 Y-15.7685
G01 X-1.2126 Y-15.7542
G01 X-1.2770 Y-15.7430
G01 X-1.3417 Y-15.7350
G01 X-1.4068 Y-15.7302
G01 X-1.4721 Y-15.7286
G01 X-1.5374 Y-15.7302
G01 X-1.6025 Y-15.7350
G01 X-1.6672 Y-15.7430
G01 X-1.7316 Y-15.7542
G01 X-1.7953 Y-15.7685
G01 X-1.8582 Y-15.7859
G01 X-1.9202 Y-15.8064
G01 X-1.9811 Y-15.8299
G01 X-2.0407 Y-15.8563
G01 X-2.0990 Y-15.8857
G01 X-2.1558 Y-15.9178
G01 X-2.2110 Y-15.9528
G01 X-2.2644 Y-15.9904
G01 X-2.3158 Y-16.0305
G01 X-2.3653 Y-16.0732
G01 X-2.4125 Y-16.1182
G01 X-2.4575 Y-16.1654
G01 X-2.5002 Y-16.2149
G01 X-2.5403 Y-16.2663
G01 X-2.5549 Y-16.2868
G01 X-2.5631 Y-16.2956
G01 X-2.5755 Y-16.3047
G01 X-2.5897 Y-16.3108
G01 X-2.6048 Y-16.3136
G01 X-2.6202 Y-16.3130
G01 X-2.6286 Y-16.3113
G01 X-3.9021 Y-15.9614
G01 X-3.9103 Y-15.9586
G01 X-3.9180 Y-15.9549
G01 X-3.9252 Y-15.9502
G01 X-3.9318 Y-15.9447
G01 X-3.9408 Y-15.9343
G01 X-3.9476 Y-15.9223
G01 X-3.9519 Y-15.9093
G01 X-3.9536 Y-15.8956
G01 X-3.9536 Y-15.0555
G01 X-6.2136 Y-15.0555
G01 X-6.2136 Y-17.3155
G01 X-3.9536 Y-17.3155
G01 X-3.9536 Y-17.0344
G01 X-3.9515 Y-17.0182
G01 X-3.9469 Y-17.0053
G01 X-3.9399 Y-16.9936
G01 X-3.9307 Y-16.9834
G01 X-3.9204 Y-16.9757
G01 X-3.9081 Y-16.9697
G01 X-3.8948 Y-16.9661
G01 X-3.8820 Y-16.9653
G01 X-3.8684 Y-16.9669
G01 X-2.8287 Y-17.2525
G01 X-2.8206 Y-17.2552
G01 X-2.8121 Y-17.2594
G01 X-2.8022 Y-17.2663
G01 X-2.7937 Y-17.2748
G01 X-2.7864 Y-17.2854
G01 X-2.7813 Y-17.2964
G01 X-2.7789 Y-17.3046
G01 X-2.7622 Y-17.3818
G01 X-2.7448 Y-17.4447
G01 X-2.7243 Y-17.5067
G01 X-2.7008 Y-17.5676
G01 X-2.6744 Y-17.6272
G01 X-2.6450 Y-17.6855
G01 X-2.6129 Y-17.7423
G01 X-2.5779 Y-17.7975
G01 X-2.5403 Y-17.8509
G01 X-2.5002 Y-17.9023
G01 X-2.4575 Y-17.9518
G01 X-2.4125 Y-17.9990
G01 X-2.3653 Y-18.0440
G01 X-2.3158 Y-18.0867
G01 X-2.2644 Y-18.1268
G01 X-2.2110 Y-18.1644
G01 X-2.1558 Y-18.1994
G01 X-2.0990 Y-18.2315
G01 X-2.0407 Y-18.2609
G01 X-1.9811 Y-18.2873
G01 X-1.9202 Y-18.3108
G01 X-1.8582 Y-18.3313
G01 X-1.7953 Y-18.3487
G01 X-1.7316 Y-18.3630
G01 X-1.6672 Y-18.3742
G01 X-1.6025 Y-18.3822
G01 X-1.5374 Y-18.3870
G01 X-1.4721 Y-18.3886
G01 X-1.4068 Y-18.3870
G01 X-1.3417 Y-18.3822
G01 X-1.2770 Y-18.3742
G01 X-1.2126 Y-18.3630
G01 X-1.1489 Y-18.3487
G01 X-1.0860 Y-18.3313
G01 X-1.0240 Y-18.3108
G01 X-0.9631 Y-18.2873
G01 X-0.9035 Y-18.2609
G01 X-0.8452 Y-18.2315
G01 X-0.7884 Y-18.1994
G01 X-0.7332 Y-18.1644
G01 X-0.6798 Y-18.1268
G01 X-0.6284 Y-18.0867
G01 X-0.5789 Y-18.0440
G01 X-0.5317 Y-17.9990
G01 X-0.4867 Y-17.9518
G01 X-0.4440 Y-17.9023
G01 X-0.4039 Y-17.8509
G01 X-0.3663 Y-17.7975
G01 X-0.3313 Y-17.7423
G01 X-0.2992 Y-17.6855
G01 X-0.2698 Y-17.6272
G01 X-0.2434 Y-17.5676
G01 X-0.2199 Y-17.5067
G01 X-0.1994 Y-17.4447
G01 X-0.1820 Y-17.3818
G01 X-0.1677 Y-17.3181
G01 X-0.1565 Y-17.2537
G01 X-0.1485 Y-17.1890
G01 X-0.1437 Y-17.1239
G01 X-0.1421 Y-17.0586
G00 Z2.0000
G00 X-2.5366 Y-17.1666
G01 F70.00
G01 Z-0.0600
G01 F120.00
G01 X-2.5305 Y-17.2156
G01 X-2.5215 Y-17.2673
G01 X-2.5100 Y-17.3186
G01 X-2.4960 Y-17.3692
G01 X-2.4796 Y-17.4191
G01 X-2.4607 Y-17.4681
G01 X-2.4394 Y-17.5161
G01 X-2.4158 Y-17.5630
G01 X-2.3899 Y-17.6087
G01 X-2.3618 Y-17.6531
G01 X-2.3315 Y-17.6960
G01 X-2.2992 Y-17.7374
G01 X-2.2649 Y-17.7772
G01 X-2.2287 Y-17.8152
G01 X-2.1907 Y-17.8514
G01 X-2.1509 Y-17.8857
G01 X-2.1095 Y-17.9180
G01 X-2.0666 Y-17.9483
G01 X-2.0222 Y-17.9764
G01 X-1.9765 Y-18.0023
G01 X-1.9296 Y-18.0259
G01 X-1.8816 Y-18.0472
G01 X-1.8326 Y-18.0661
G01 X-1.7827 Y-18.0825
G01 X-1.7321 Y-18.0965
G01 X-1.6808 Y-18.1080
G01 X-1.6291 Y-18.1170
G01 X-1.5770 Y-18.1234
G01 X-1.5246 Y-18.1273
G01 X-1.4721 Y-18.1286
G01 X-1.4196 Y-18.1273
G01 X-1.3672 Y-18.1234
G01 X-1.3151 Y-18.1170
G01 X-1.2634 Y-18.1080
G01 X-1.2121 Y-18.0965
G01 X-1.1615 Y-18.0825
G01 X-1.1116 Y-18.0661
G01 X-1.0626 Y-18.0472
G01 X-1.0146 Y-18.0259
G01 X-0.9677 Y-18.0023
G01 X-0.9220 Y-17.9764
G01 X-0.8776 Y-17.9483
G01 X-0.8347 Y-17.9180
G01 X-0.7933 Y-17.8857
G01 X-0.7535 Y-17.8514
G01 X-0.7155 Y-17.8152
G01 X-0.6793 Y-17.7772
G01 X-0.6450 Y-17.7374
G01 X-0.6127 Y-17.6960
G01 X-0.5824 Y-17.6531
G01 X-0.5543 Y-17.6087
G01 X-0.5284 Y-17.5630
G01 X-0.5048 Y-17.5161
G01 X-0.4835 Y-17.4681
G01 X-0.4646 Y-17.4191
G01 X-0.4482 Y-17.3692
G01 X-0.4342 Y-17.3186
G01 X-0.4227 Y-17.2673
G01 X-0.4137 Y-17.2156
G01 X-0.4073 Y-17.1635
G01 X-0.4034 Y-17.1111
G01 X-0.4021 Y-17.0586
G01 X-0.4034 Y-17.0061
G01 X-0.4073 Y-16.9537
G01 X-0.4137 Y-16.9016
G01 X-0.4223 Y-16.8515
G01 X-0.4342 Y-16.7986
G01 X-0.4487 Y-16.7464
G01 X-0.4646 Y-16.6981
G01 X-0.4835 Y-16.6491
G01 X-0.5048 Y-16.6011
G01 X-0.5277 Y-16.5557
G01 X-0.5543 Y-16.5085
G01 X-0.5834 Y-16.4627
G01 X-0.6127 Y-16.4212
G01 X-0.6450 Y-16.3798
G01 X-0.6793 Y-16.3400
G01 X-0.7143 Y-16.3032
G01 X-0.7535 Y-16.2658
G01 X-0.7933 Y-16.2315
G01 X-0.8333 Y-16.2002
G01 X-0.8776 Y-16.1689
G01 X-0.9220 Y-16.1408
G01 X-0.9662 Y-16.1158
G01 X-1.0146 Y-16.0913
G01 X-1.0626 Y-16.0700
G01 X-1.1100 Y-16.0517
G01 X-1.1623 Y-16.0344
G01 X-1.2121 Y-16.0207
G01 X-1.2634 Y-16.0092
G01 X-1.3151 Y-16.0002
G01 X-1.3655 Y-15.9939
G01 X-1.4213 Y-15.9898
G01 X-1.4721 Y-15.9886
G01 X-1.5246 Y-15.9899
G01 X-1.5770 Y-15.9938
G01 X-1.6274 Y-15.9999
G01 X-1.6825 Y-16.0095
G01 X-1.7321 Y-16.0207
G01 X-1.7827 Y-16.0347
G01 X-1.8326 Y-16.0511
G01 X-1.8808 Y-16.0697
G01 X-1.9296 Y-16.0913
G01 X-1.9750 Y-16.1142
G01 X-2.0237 Y-16.1417
G01 X-2.0666 Y-16.1689
G01 X-2.1095 Y-16.1992
G01 X-2.1509 Y-16.2315
G01 X-2.1900 Y-16.2652
G01 X-2.2287 Y-16.3020
G01 X-2.2637 Y-16.3388
G01 X-2.2998 Y-16.3805
G01 X-2.3315 Y-16.4212
G01 X-2.3613 Y-16.4634
G01 X-2.3899 Y-16.5085
G01 X-2.4068 Y-16.5383
G01 X-4.2136 Y-16.0419
G01 X-4.2137 Y-15.3812
G01 X-4.2151 Y-15.3710
G01 X-4.2180 Y-15.3611
G01 X-4.2223 Y-15.3517
G01 X-4.2279 Y-15.3431
G01 X-4.2347 Y-15.3354
G01 X-4.2426 Y-15.3288
G01 X-4.2514 Y-15.3234
G01 X-4.2616 Y-15.3190
G01 X-4.2725 Y-15.3164
G01 X-4.2836 Y-15.3155
G01 X-5.8853 Y-15.3155
G01 X-5.8947 Y-15.3164
G01 X-5.9031 Y-15.3183
G01 X-5.9120 Y-15.3215
G01 X-5.9203 Y-15.3259
G01 X-5.9280 Y-15.3314
G01 X-5.9343 Y-15.3372
G01 X-5.9403 Y-15.3445
G01 X-5.9453 Y-15.3525
G01 X-5.9489 Y-15.3603
G01 X-5.9515 Y-15.3685
G01 X-5.9531 Y-15.3769
G01 X-5.9536 Y-15.3855
G01 X-5.9536 Y-16.9864
G01 X-5.9528 Y-16.9958
G01 X-5.9508 Y-17.0050
G01 X-5.9476 Y-17.0139
G01 X-5.9432 Y-17.0222
G01 X-5.9377 Y-17.0299
G01 X-5.9319 Y-17.0362
G01 X-5.9246 Y-17.0422
G01 X-5.9166 Y-17.0472
G01 X-5.9088 Y-17.0508
G01 X-5.9006 Y-17.0534
G01 X-5.8922 Y-17.0550
G01 X-5.8836 Y-17.0555
G01 X-4.2836 Y-17.0555
G01 X-4.2699 Y-17.0542
G01 X-4.2600 Y-17.0514
G01 X-4.2498 Y-17.0468
G01 X-4.2412 Y-17.0412
G01 X-4.2335 Y-17.0344
G01 X-4.2264 Y-17.0258
G01 X-4.2211 Y-17.0170
G01 X-4.2169 Y-17.0066
G01 X-4.2145 Y-16.9966
G01 X-4.2136 Y-16.9855
G01 X-4.2136 Y-16.7059
G01 X-2.5366 Y-17.1666
G00 Z2.0000
G00 X-2.6003 Y-17.2217
G01 F70.00
G01 Z-0.0600
G01 F120.00
G01 X-2.5902 Y-17.2810
G01 X-2.5779 Y-17.3356
G01 X-2.5630 Y-17.3895
G01 X-2.5455 Y-17.4427
G01 X-2.5253 Y-17.4949
G01 X-2.5026 Y-17.5460
G01 X-2.4775 Y-17.5960
G01 X-2.4499 Y-17.6447
G01 X-2.4200 Y-17.6920
G01 X-2.3878 Y-17.7377
G01 X-2.3533 Y-17.7818
G01 X-2.3168 Y-17.8242
G01 X-2.2782 Y-17.8647
G01 X-2.2377 Y-17.9033
G01 X-2.1953 Y-17.9398
G01 X-2.1512 Y-17.9743
G01 X-2.1055 Y-18.0065
G01 X-2.0582 Y-18.0364
G01 X-2.0095 Y-18.0640
G01 X-1.9595 Y-18.0891
G01 X-1.9084 Y-18.1118
G01 X-1.8562 Y-18.1320
G01 X-1.8030 Y-18.1495
G01 X-1.7491 Y-18.1644
G01 X-1.6945 Y-18.1767
G01 X-1.6394 Y-18.1863
G01 X-1.5838 Y-18.1931
G01 X-1.5280 Y-18.1972
G01 X-1.4721 Y-18.1986
G01 X-1.4162 Y-18.1972
G01 X-1.3604 Y-18.1931
G01 X-1.3048 Y-18.1863
G01 X-1.2497 Y-18.1767
G01 X-1.1951 Y-18.1644
G01 X-1.1412 Y-18.1495
G01 X-1.0880 Y-18.1320
G01 X-1.0358 Y-18.1118
G01 X-0.9847 Y-18.0891
G01 X-0.9347 Y-18.0640
G01 X-0.8860 Y-18.0364
G01 X-0.8387 Y-18.0065
G01 X-0.7930 Y-17.9743
G01 X-0.7489 Y-17.9398
G01 X-0.7065 Y-17.9033
G01 X-0.6660 Y-17.8647
G01 X-0.6274 Y-17.8242
G01 X-0.5909 Y-17.7818
G01 X-0.5564 Y-17.7377
G01 X-0.5242 Y-17.6920
G01 X-0.4943 Y-17.6447
G01 X-0.4667 Y-17.5960
G01 X-0.4416 Y-17.5460
G01 X-0.4189 Y-17.4949
G01 X-0.3987 Y-17.4427
G01 X-0.3812 Y-17.3895
G01 X-0.3663 Y-17.3356
G01 X-0.3540 Y-17.2810
G01 X-0.3444 Y-17.2259
G01 X-0.3376 Y-17.1703
G01 X-0.3335 Y-17.1145
G01 X-0.3321 Y-17.0586
G01 X-0.3335 Y-17.0027
G01 X-0.3376 Y-16.9469
G01 X-0.3444 Y-16.8913
G01 X-0.3547 Y-16.8328
G01 X-0.3663 Y-16.7816
G01 X-0.3812 Y-16.7277
G01 X-0.3987 Y-16.6745
G01 X-0.4176 Y-16.6255
G01 X-0.4416 Y-16.5712
G01 X-0.4684 Y-16.5182
G01 X-0.4943 Y-16.4725
G01 X-0.5242 Y-16.4252
G01 X-0.5585 Y-16.3768
G01 X-0.5909 Y-16.3354
G01 X-0.6251 Y-16.2956
G01 X-0.6660 Y-16.2525
G01 X-0.7091 Y-16.2116
G01 X-0.7489 Y-16.1774
G01 X-0.7903 Y-16.1450
G01 X-0.8416 Y-16.1089
G01 X-0.8860 Y-16.0808
G01 X-0.9317 Y-16.0549
G01 X-0.9847 Y-16.0281
G01 X-1.0358 Y-16.0054
G01 X-1.0848 Y-15.9864
G01 X-1.1445 Y-15.9667
G01 X-1.1951 Y-15.9528
G01 X-1.2463 Y-15.9412
G01 X-1.3082 Y-15.9305
G01 X-1.3604 Y-15.9241
G01 X-1.4162 Y-15.9200
G01 X-1.4721 Y-15.9186
G01 X-1.5246 Y-15.9198
G01 X-1.5873 Y-15.9245
G01 X-1.6394 Y-15.9309
G01 X-1.6945 Y-15.9405
G01 X-1.7491 Y-15.9528
G01 X-1.7997 Y-15.9667
G01 X-1.8578 Y-15.9858
G01 X-1.9084 Y-16.0054
G01 X-1.9564 Y-16.0266
G01 X-2.0125 Y-16.0549
G01 X-2.0582 Y-16.0808
G01 X-2.1055 Y-16.1107
G01 X-2.1512 Y-16.1429
G01 X-2.1940 Y-16.1763
G01 X-2.2377 Y-16.2139
G01 X-2.2757 Y-16.2501
G01 X-2.3179 Y-16.2943
G01 X-2.3533 Y-16.3354
G01 X-2.3867 Y-16.3781
G01 X-2.4190 Y-16.4238
G01 X-2.4399 Y-16.4566
G01 X-4.1436 Y-15.9886
G01 X-4.1436 Y-15.3855
G01 X-4.1449 Y-15.3667
G01 X-4.1491 Y-15.3465
G01 X-4.1556 Y-15.3288
G01 X-4.1653 Y-15.3106
G01 X-4.1765 Y-15.2954
G01 X-4.1909 Y-15.2806
G01 X-4.2058 Y-15.2691
G01 X-4.2237 Y-15.2589
G01 X-4.2413 Y-15.2520
G01 X-4.2631 Y-15.2470
G01 X-4.2836 Y-15.2455
G01 X-5.8888 Y-15.2456
G01 X-5.9075 Y-15.2476
G01 X-5.9242 Y-15.2515
G01 X-5.9419 Y-15.2582
G01 X-5.9570 Y-15.2663
G01 X-5.9711 Y-15.2762
G01 X-5.9850 Y-15.2890
G01 X-5.9960 Y-15.3021
G01 X-6.0054 Y-15.3165
G01 X-6.0129 Y-15.3319
G01 X-6.0185 Y-15.3482
G01 X-6.0221 Y-15.3650
G01 X-6.0236 Y-15.3838
G01 X-6.0236 Y-16.9889
G01 X-6.0221 Y-17.0060
G01 X-6.0181 Y-17.0245
G01 X-6.0123 Y-17.0407
G01 X-6.0037 Y-17.0575
G01 X-5.9940 Y-17.0716
G01 X-5.9814 Y-17.0857
G01 X-5.9670 Y-17.0979
G01 X-5.9526 Y-17.1073
G01 X-5.9372 Y-17.1148
G01 X-5.9193 Y-17.1209
G01 X-5.9024 Y-17.1242
G01 X-5.8853 Y-17.1255
G01 X-4.2836 Y-17.1255
G01 X-4.2716 Y-17.1250
G01 X-4.2597 Y-17.1234
G01 X-4.2413 Y-17.1190
G01 X-4.2253 Y-17.1128
G01 X-4.2087 Y-17.1038
G01 X-4.1935 Y-17.0926
G01 X-4.1799 Y-17.0795
G01 X-4.1682 Y-17.0647
G01 X-4.1593 Y-17.0500
G01 X-4.1518 Y-17.0327
G01 X-4.1460 Y-17.0111
G01 X-4.1437 Y-16.9907
G01 X-4.1436 Y-16.7977
G01 X-2.6003 Y-17.2217
G00 Z2.0000
G00 X-4.0426 Y-16.8981
G01 F70.00
G01 Z-0.0600
G01 F120.00
G01 X-4.0736 Y-16.8895
G01 X-4.0736 Y-16.9458
G01 X-4.0597 Y-16.9208
G01 X-4.0426 Y-16.8981
G00 Z2.0000
G00 X-4.0936 Y-17.0749
G01 F70.00
G01 Z-0.0600
G01 F120.00
G01 X-4.1022 Y-17.0912
G01 X-4.1119 Y-17.1064
G01 X-4.1229 Y-17.1207
G01 X-4.1351 Y-17.1340
G01 X-4.1484 Y-17.1462
G01 X-4.1627 Y-17.1572
G01 X-4.1779 Y-17.1669
G01 X-4.1942 Y-17.1755
G01 X-4.0936 Y-17.1755
G01 X-4.0936 Y-17.0749
G00 Z2.0000
G00 X-4.1942 Y-15.1955
G01 F70.00
G01 Z-0.0600
G01 F120.00
G01 X-4.1779 Y-15.2041
G01 X-4.1627 Y-15.2138
G01 X-4.1484 Y-15.2248
G01 X-4.1351 Y-15.2370
G01 X-4.1229 Y-15.2503
G01 X-4.1119 Y-15.2646
G01 X-4.1022 Y-15.2798
G01 X-4.0936 Y-15.2961
G01 X-4.0936 Y-15.1955
G01 X-4.1942 Y-15.1955
G00 Z2.0000
G00 X-4.1942 Y-14.3755
G01 F70.00
G01 Z-0.0600
G01 F120.00
G01 X-4.0936 Y-14.3755
G01 X-4.0936 Y-14.2749
G01 X-4.1022 Y-14.2912
G01 X-4.1119 Y-14.3064
G01 X-4.1229 Y-14.3207
G01 X-4.1351 Y-14.3340
G01 X-4.1484 Y-14.3462
G01 X-4.1627 Y-14.3572
G01 X-4.1779 Y-14.3669
G01 X-4.1942 Y-14.3755
G00 Z2.0000
G00 X-4.0936 Y-12.4961
G01 F70.00
G01 Z-0.0600
G01 F120.00
G01 X-4.0936 Y-12.3955
G01 X-4.1704 Y-12.3951
G01 X-4.1908 Y-12.3928
G01 X-4.2099 Y-12.3888
G01 X-4.1915 Y-12.3968
G01 X-4.1734 Y-12.4067
G01 X-4.1564 Y-12.4184
G01 X-4.1407 Y-12.4316
G01 X-4.1263 Y-12.4464
G01 X-4.1134 Y-12.4625
G01 X-4.1022 Y-12.4798
G01 X-4.0936 Y-12.4961
G00 Z2.0000
G00 X-4.2312 Y-12.3822
G01 F70.00
G01 Z-0.0600
G01 F120.00
G01 X-4.2494 Y-12.3743
G01 X-4.2675 Y-12.3644
G01 X-4.2844 Y-12.3528
G01 X-4.3001 Y-12.3396
G01 X-4.3113 Y-12.3755
G01 X-4.2656 Y-12.3763
G01 X-4.2477 Y-12.3786
G01 X-4.2312 Y-12.3822
G00 Z2.0000
G00 X-4.1575 Y-12.3255
G01 F70.00
G01 Z-0.0600
G01 F120.00
G01 X-4.1729 Y-12.3247
G01 X-4.1881 Y-12.3221
G01 X-4.2030 Y-12.3179
G01 X-4.2172 Y-12.3121
G01 X-4.2308 Y-12.3048
G01 X-4.2435 Y-12.2960
G01 X-4.2551 Y-12.2859
G01 X-4.2656 Y-12.2745
G01 X-4.2747 Y-12.2621
G01 X-4.2824 Y-12.2487
G01 X-4.2880 Y-12.2362
G01 X-4.2928 Y-12.2216
G01 X-4.2959 Y-12.2065
G01 X-4.2974 Y-12.1911
G01 X-4.2972 Y-12.1757
G01 X-4.2952 Y-12.1604
G01 X-4.2911 Y-12.1437
G01 X-3.9257 Y-10.9743
G01 X-3.9215 Y-10.9630
G01 X-3.9163 Y-10.9521
G01 X-3.9092 Y-10.9403
G01 X-3.9021 Y-10.9305
G01 X-3.8930 Y-10.9202
G01 X-3.8816 Y-10.9097
G01 X-3.8706 Y-10.9014
G01 X-3.8573 Y-10.8935
G01 X-3.8447 Y-10.8878
G01 X-3.8300 Y-10.8828
G01 X-3.8166 Y-10.8798
G01 X-3.8012 Y-10.8780
G01 X-2.9918 Y-10.8777
G01 X-2.9918 Y-8.7577
G01 X-5.1118 Y-8.7577
G01 X-5.1118 Y-9.3688
G01 X-5.1126 Y-9.3825
G01 X-5.1145 Y-9.3943
G01 X-5.1178 Y-9.4076
G01 X-5.1224 Y-9.4205
G01 X-5.1307 Y-9.4374
G01 X-5.1402 Y-9.4516
G01 X-5.1526 Y-9.4658
G01 X-5.1653 Y-9.4772
G01 X-5.1809 Y-9.4878
G01 X-5.1962 Y-9.4956
G01 X-5.2122 Y-9.5014
G01 X-5.2289 Y-9.5052
G01 X-5.2494 Y-9.5071
G01 X-5.3120 Y-9.5067
G01 X-5.3256 Y-9.5059
G01 X-5.3392 Y-9.5038
G01 X-5.3590 Y-9.4982
G01 X-5.3762 Y-9.4906
G01 X-5.3922 Y-9.4807
G01 X-5.4068 Y-9.4687
G01 X-5.4163 Y-9.4589
G01 X-5.4258 Y-9.4467
G01 X-6.0779 Y-8.5110
G01 X-6.0850 Y-8.4994
G01 X-6.0910 Y-8.4871
G01 X-6.0962 Y-8.4727
G01 X-6.0995 Y-8.4595
G01 X-6.1015 Y-8.4460
G01 X-6.1021 Y-8.4324
G01 X-6.1021 Y-5.8761
G01 X-6.1009 Y-5.8573
G01 X-6.0961 Y-5.8355
G01 X-6.0879 Y-5.8147
G01 X-6.0766 Y-5.7955
G01 X-6.0623 Y-5.7783
G01 X-6.0469 Y-5.7647
G01 X-6.0281 Y-5.7526
G01 X-6.0077 Y-5.7437
G01 X-5.9861 Y-5.7382
G01 X-5.9741 Y-5.7366
G01 X-5.9621 Y-5.7361
G01 X-5.4127 Y-5.7361
G01 X-5.4126 Y-5.0191
G01 X-5.4100 Y-4.9969
G01 X-5.4039 Y-4.9754
G01 X-5.3945 Y-4.9552
G01 X-5.3820 Y-4.9367
