(G-CODE GENERATED BY FLATCAM v8.993 - www.flatcam.org - Version Date: 2020/06/05)

(Name: display_window_Ф2_низ.gbr_iso_combined_cnc)
(Type: G-code from Geometry)
(Units: MM)

(Created on Sunday, 15 November 2020 at 17:01)

(This preprocessor is the default preprocessor used by FlatCAM.)
(It is made to work with MACH3 compatible motion controllers.)

(TOOL DIAMETER: 2.0 mm)
(Feedrate_XY: 120.0 mm/min)
(Feedrate_Z: 70.0 mm/min)
(Feedrate rapids 1500.0 mm/min)

(Z_Cut: -2.1 mm)
(DepthPerCut: 0.1 mm <=>21 passes)
(Z_Move: 2.0 mm)
(Z Start: None mm)
(Z End: 25.0 mm)
(Steps per circle: 128)
(Preprocessor Geometry: default)

(X range:   -0.9706 ...   37.5625  mm)
(Y range:  -11.6069 ...    0.9707  mm)

(Spindle Speed: 10000 RPM)
G21
G90
G94



G01 F120.00
G00 Z2.0000

M03 S10000
G00 X-0.9705 Y-1.0983
G01 F70.00
G01 Z-0.1000
G01 F120.00
G01 X-0.9706 Y-9.5250
G01 X-0.9682 Y-9.6259
G01 X-0.9628 Y-9.7034
G01 X-0.9592 Y-9.7425
G01 X-0.9479 Y-9.8317
G01 X-0.9308 Y-9.9299
G01 X-0.9142 Y-10.0058
G01 X-0.9049 Y-10.0439
G01 X-0.8806 Y-10.1305
G01 X-0.8493 Y-10.2252
G01 X-0.8217 Y-10.2978
G01 X-0.8069 Y-10.3341
G01 X-0.7702 Y-10.4162
G01 X-0.7254 Y-10.5053
G01 X-0.6874 Y-10.5730
G01 X-0.6674 Y-10.6068
G01 X-0.6191 Y-10.6826
G01 X-0.5617 Y-10.7641
G01 X-0.5142 Y-10.8256
G01 X-0.4894 Y-10.8561
G01 X-0.4305 Y-10.9240
G01 X-0.3617 Y-10.9962
G01 X-0.3057 Y-11.0500
G01 X-0.2768 Y-11.0765
G01 X-0.2085 Y-11.1350
G01 X-0.1299 Y-11.1964
G01 X-0.0667 Y-11.2414
G01 X-0.0341 Y-11.2634
G01 X0.0420 Y-11.3113
G01 X0.1288 Y-11.3604
G01 X0.1979 Y-11.3956
G01 X0.2333 Y-11.4126
G01 X0.3157 Y-11.4488
G01 X0.4087 Y-11.4847
G01 X0.4823 Y-11.5094
G01 X0.5316 Y-11.5244
G01 X0.6185 Y-11.5476
G01 X0.6918 Y-11.5641
G01 X0.7304 Y-11.5715
G01 X0.8045 Y-11.5841
G01 X0.8815 Y-11.5940
G01 X0.9206 Y-11.5980
G01 X0.9951 Y-11.6035
G01 X1.0327 Y-11.6052
G01 X1.1112 Y-11.6069
G01 X35.4806 Y-11.6069
G01 X35.5693 Y-11.6050
G01 X35.6590 Y-11.5991
G01 X35.7103 Y-11.5941
G01 X35.7873 Y-11.5842
G01 X35.8880 Y-11.5667
G01 X35.9853 Y-11.5448
G01 X36.0720 Y-11.5211
G01 X36.1576 Y-11.4936
G01 X36.2061 Y-11.4762
G01 X36.2784 Y-11.4480
G01 X36.3696 Y-11.4075
G01 X36.4609 Y-11.3617
G01 X36.5287 Y-11.3237
G01 X36.5729 Y-11.2972
G01 X36.6484 Y-11.2485
G01 X36.7218 Y-11.1965
G01 X36.8004 Y-11.1351
G01 X36.8778 Y-11.0684
G01 X36.9343 Y-11.0151
G01 X36.9707 Y-10.9787
G01 X37.0322 Y-10.9131
G01 X37.0907 Y-10.8448
G01 X37.1521 Y-10.7662
G01 X37.2110 Y-10.6827
G01 X37.2528 Y-10.6173
G01 X37.2793 Y-10.5731
G01 X37.3230 Y-10.4945
G01 X37.3631 Y-10.4140
G01 X37.4036 Y-10.3228
G01 X37.4404 Y-10.2275
G01 X37.4651 Y-10.1539
G01 X37.4801 Y-10.1046
G01 X37.5033 Y-10.0177
G01 X37.5198 Y-9.9444
G01 X37.5272 Y-9.9058
G01 X37.5398 Y-9.8317
G01 X37.5497 Y-9.7547
G01 X37.5537 Y-9.7156
G01 X37.5593 Y-9.6406
G01 X37.5610 Y-9.6014
G01 X37.5625 Y-9.5250
G01 X37.5625 Y-1.1112
G01 X37.5606 Y-1.0225
G01 X37.5584 Y-0.9833
G01 X37.5524 Y-0.9059
G01 X37.5419 Y-0.8191
G01 X37.5272 Y-0.7304
G01 X37.5172 Y-0.6798
G01 X37.4998 Y-0.6041
G01 X37.4732 Y-0.5080
G01 X37.4453 Y-0.4226
G01 X37.4318 Y-0.3857
G01 X37.4036 Y-0.3134
G01 X37.3631 Y-0.2222
G01 X37.3230 Y-0.1417
G01 X37.3043 Y-0.1072
G01 X37.2657 Y-0.0398
G01 X37.2123 Y0.0444
G01 X37.1608 Y0.1181
G01 X37.1372 Y0.1495
G01 X37.0892 Y0.2105
G01 X37.0240 Y0.2860
G01 X36.9622 Y0.3513
G01 X36.9343 Y0.3789
G01 X36.8778 Y0.4322
G01 X36.8023 Y0.4974
G01 X36.7218 Y0.5603
G01 X36.6585 Y0.6053
G01 X36.6260 Y0.6273
G01 X36.5499 Y0.6751
G01 X36.4631 Y0.7243
G01 X36.3939 Y0.7595
G01 X36.3585 Y0.7765
G01 X36.2762 Y0.8127
G01 X36.1831 Y0.8486
G01 X36.1095 Y0.8733
G01 X36.0602 Y0.8883
G01 X35.9733 Y0.9115
G01 X35.9000 Y0.9280
G01 X35.8614 Y0.9354
G01 X35.7873 Y0.9480
G01 X35.7103 Y0.9579
G01 X35.6712 Y0.9619
G01 X35.5957 Y0.9675
G01 X35.5549 Y0.9692
G01 X35.4806 Y0.9706
G01 X1.1113 Y0.9707
G01 X1.0079 Y0.9681
G01 X0.9085 Y0.9608
G01 X0.8070 Y0.9484
G01 X0.7063 Y0.9309
G01 X0.6066 Y0.9086
G01 X0.5081 Y0.8814
G01 X0.4111 Y0.8494
G01 X0.3157 Y0.8127
G01 X0.2334 Y0.7765
G01 X0.1418 Y0.7312
G01 X0.0526 Y0.6814
G01 X-0.0341 Y0.6273
G01 X-0.1080 Y0.5761
G01 X-0.1397 Y0.5529
G01 X-0.1990 Y0.5066
G01 X-0.2675 Y0.4485
G01 X-0.2968 Y0.4223
G01 X-0.3424 Y0.3789
G01 X-0.3788 Y0.3425
G01 X-0.4403 Y0.2769
G01 X-0.5065 Y0.1991
G01 X-0.5689 Y0.1181
G01 X-0.6272 Y0.0342
G01 X-0.6750 Y-0.0419
G01 X-0.7254 Y-0.1309
G01 X-0.7712 Y-0.2222
G01 X-0.8126 Y-0.3156
G01 X-0.8485 Y-0.4087
G01 X-0.8806 Y-0.5057
G01 X-0.9079 Y-0.6041
G01 X-0.9304 Y-0.7038
G01 X-0.9479 Y-0.8045
G01 X-0.9605 Y-0.9059
G01 X-0.9680 Y-1.0078
G01 X-0.9705 Y-1.0983
G00 X-0.9705 Y-1.0983
G01 F70.00
G01 Z-0.2000
G01 F120.00
G01 X-0.9706 Y-9.5250
G01 X-0.9682 Y-9.6259
G01 X-0.9628 Y-9.7034
G01 X-0.9592 Y-9.7425
G01 X-0.9479 Y-9.8317
G01 X-0.9308 Y-9.9299
G01 X-0.9142 Y-10.0058
G01 X-0.9049 Y-10.0439
G01 X-0.8806 Y-10.1305
G01 X-0.8493 Y-10.2252
G01 X-0.8217 Y-10.2978
G01 X-0.8069 Y-10.3341
G01 X-0.7702 Y-10.4162
G01 X-0.7254 Y-10.5053
G01 X-0.6874 Y-10.5730
G01 X-0.6674 Y-10.6068
G01 X-0.6191 Y-10.6826
G01 X-0.5617 Y-10.7641
G01 X-0.5142 Y-10.8256
G01 X-0.4894 Y-10.8561
G01 X-0.4305 Y-10.9240
G01 X-0.3617 Y-10.9962
G01 X-0.3057 Y-11.0500
G01 X-0.2768 Y-11.0765
G01 X-0.2085 Y-11.1350
G01 X-0.1299 Y-11.1964
G01 X-0.0667 Y-11.2414
G01 X-0.0341 Y-11.2634
G01 X0.0420 Y-11.3113
G01 X0.1288 Y-11.3604
G01 X0.1979 Y-11.3956
G01 X0.2333 Y-11.4126
G01 X0.3157 Y-11.4488
G01 X0.4087 Y-11.4847
G01 X0.4823 Y-11.5094
G01 X0.5316 Y-11.5244
G01 X0.6185 Y-11.5476
G01 X0.6918 Y-11.5641
G01 X0.7304 Y-11.5715
G01 X0.8045 Y-11.5841
G01 X0.8815 Y-11.5940
G01 X0.9206 Y-11.5980
G01 X0.9951 Y-11.6035
G01 X1.0327 Y-11.6052
G01 X1.1112 Y-11.6069
G01 X35.4806 Y-11.6069
G01 X35.5693 Y-11.6050
G01 X35.6590 Y-11.5991
G01 X35.7103 Y-11.5941
G01 X35.7873 Y-11.5842
G01 X35.8880 Y-11.5667
G01 X35.9853 Y-11.5448
G01 X36.0720 Y-11.5211
G01 X36.1576 Y-11.4936
G01 X36.2061 Y-11.4762
G01 X36.2784 Y-11.4480
G01 X36.3696 Y-11.4075
G01 X36.4609 Y-11.3617
G01 X36.5287 Y-11.3237
G01 X36.5729 Y-11.2972
G01 X36.6484 Y-11.2485
G01 X36.7218 Y-11.1965
G01 X36.8004 Y-11.1351
G01 X36.8778 Y-11.0684
G01 X36.9343 Y-11.0151
G01 X36.9707 Y-10.9787
G01 X37.0322 Y-10.9131
G01 X37.0907 Y-10.8448
G01 X37.1521 Y-10.7662
G01 X37.2110 Y-10.6827
G01 X37.2528 Y-10.6173
G01 X37.2793 Y-10.5731
G01 X37.3230 Y-10.4945
G01 X37.3631 Y-10.4140
G01 X37.4036 Y-10.3228
G01 X37.4404 Y-10.2275
G01 X37.4651 Y-10.1539
G01 X37.4801 Y-10.1046
G01 X37.5033 Y-10.0177
G01 X37.5198 Y-9.9444
G01 X37.5272 Y-9.9058
G01 X37.5398 Y-9.8317
G01 X37.5497 Y-9.7547
G01 X37.5537 Y-9.7156
G01 X37.5593 Y-9.6406
G01 X37.5610 Y-9.6014
G01 X37.5625 Y-9.5250
G01 X37.5625 Y-1.1112
G01 X37.5606 Y-1.0225
G01 X37.5584 Y-0.9833
G01 X37.5524 Y-0.9059
G01 X37.5419 Y-0.8191
G01 X37.5272 Y-0.7304
G01 X37.5172 Y-0.6798
G01 X37.4998 Y-0.6041
G01 X37.4732 Y-0.5080
G01 X37.4453 Y-0.4226
G01 X37.4318 Y-0.3857
G01 X37.4036 Y-0.3134
G01 X37.3631 Y-0.2222
G01 X37.3230 Y-0.1417
G01 X37.3043 Y-0.1072
G01 X37.2657 Y-0.0398
G01 X37.2123 Y0.0444
G01 X37.1608 Y0.1181
G01 X37.1372 Y0.1495
G01 X37.0892 Y0.2105
G01 X37.0240 Y0.2860
G01 X36.9622 Y0.3513
G01 X36.9343 Y0.3789
G01 X36.8778 Y0.4322
G01 X36.8023 Y0.4974
G01 X36.7218 Y0.5603
G01 X36.6585 Y0.6053
G01 X36.6260 Y0.6273
G01 X36.5499 Y0.6751
G01 X36.4631 Y0.7243
G01 X36.3939 Y0.7595
G01 X36.3585 Y0.7765
G01 X36.2762 Y0.8127
G01 X36.1831 Y0.8486
G01 X36.1095 Y0.8733
G01 X36.0602 Y0.8883
G01 X35.9733 Y0.9115
G01 X35.9000 Y0.9280
G01 X35.8614 Y0.9354
G01 X35.7873 Y0.9480
G01 X35.7103 Y0.9579
G01 X35.6712 Y0.9619
G01 X35.5957 Y0.9675
G01 X35.5549 Y0.9692
G01 X35.4806 Y0.9706
G01 X1.1113 Y0.9707
G01 X1.0079 Y0.9681
G01 X0.9085 Y0.9608
G01 X0.8070 Y0.9484
G01 X0.7063 Y0.9309
G01 X0.6066 Y0.9086
G01 X0.5081 Y0.8814
G01 X0.4111 Y0.8494
G01 X0.3157 Y0.8127
G01 X0.2334 Y0.7765
G01 X0.1418 Y0.7312
G01 X0.0526 Y0.6814
G01 X-0.0341 Y0.6273
G01 X-0.1080 Y0.5761
G01 X-0.1397 Y0.5529
G01 X-0.1990 Y0.5066
G01 X-0.2675 Y0.4485
G01 X-0.2968 Y0.4223
G01 X-0.3424 Y0.3789
G01 X-0.3788 Y0.3425
G01 X-0.4403 Y0.2769
G01 X-0.5065 Y0.1991
G01 X-0.5689 Y0.1181
G01 X-0.6272 Y0.0342
G01 X-0.6750 Y-0.0419
G01 X-0.7254 Y-0.1309
G01 X-0.7712 Y-0.2222
G01 X-0.8126 Y-0.3156
G01 X-0.8485 Y-0.4087
G01 X-0.8806 Y-0.5057
G01 X-0.9079 Y-0.6041
G01 X-0.9304 Y-0.7038
G01 X-0.9479 Y-0.8045
G01 X-0.9605 Y-0.9059
G01 X-0.9680 Y-1.0078
G01 X-0.9705 Y-1.0983
G00 X-0.9705 Y-1.0983
G01 F70.00
G01 Z-0.3000
G01 F120.00
G01 X-0.9706 Y-9.5250
G01 X-0.9682 Y-9.6259
G01 X-0.9628 Y-9.7034
G01 X-0.9592 Y-9.7425
G01 X-0.9479 Y-9.8317
G01 X-0.9308 Y-9.9299
G01 X-0.9142 Y-10.0058
G01 X-0.9049 Y-10.0439
G01 X-0.8806 Y-10.1305
G01 X-0.8493 Y-10.2252
G01 X-0.8217 Y-10.2978
G01 X-0.8069 Y-10.3341
G01 X-0.7702 Y-10.4162
G01 X-0.7254 Y-10.5053
G01 X-0.6874 Y-10.5730
G01 X-0.6674 Y-10.6068
G01 X-0.6191 Y-10.6826
G01 X-0.5617 Y-10.7641
G01 X-0.5142 Y-10.8256
G01 X-0.4894 Y-10.8561
G01 X-0.4305 Y-10.9240
G01 X-0.3617 Y-10.9962
G01 X-0.3057 Y-11.0500
G01 X-0.2768 Y-11.0765
G01 X-0.2085 Y-11.1350
G01 X-0.1299 Y-11.1964
G01 X-0.0667 Y-11.2414
G01 X-0.0341 Y-11.2634
G01 X0.0420 Y-11.3113
G01 X0.1288 Y-11.3604
G01 X0.1979 Y-11.3956
G01 X0.2333 Y-11.4126
G01 X0.3157 Y-11.4488
G01 X0.4087 Y-11.4847
G01 X0.4823 Y-11.5094
G01 X0.5316 Y-11.5244
G01 X0.6185 Y-11.5476
G01 X0.6918 Y-11.5641
G01 X0.7304 Y-11.5715
G01 X0.8045 Y-11.5841
G01 X0.8815 Y-11.5940
G01 X0.9206 Y-11.5980
G01 X0.9951 Y-11.6035
G01 X1.0327 Y-11.6052
G01 X1.1112 Y-11.6069
G01 X35.4806 Y-11.6069
G01 X35.5693 Y-11.6050
G01 X35.6590 Y-11.5991
G01 X35.7103 Y-11.5941
G01 X35.7873 Y-11.5842
G01 X35.8880 Y-11.5667
G01 X35.9853 Y-11.5448
G01 X36.0720 Y-11.5211
G01 X36.1576 Y-11.4936
G01 X36.2061 Y-11.4762
G01 X36.2784 Y-11.4480
G01 X36.3696 Y-11.4075
G01 X36.4609 Y-11.3617
G01 X36.5287 Y-11.3237
G01 X36.5729 Y-11.2972
G01 X36.6484 Y-11.2485
G01 X36.7218 Y-11.1965
G01 X36.8004 Y-11.1351
G01 X36.8778 Y-11.0684
G01 X36.9343 Y-11.0151
G01 X36.9707 Y-10.9787
G01 X37.0322 Y-10.9131
G01 X37.0907 Y-10.8448
G01 X37.1521 Y-10.7662
G01 X37.2110 Y-10.6827
G01 X37.2528 Y-10.6173
G01 X37.2793 Y-10.5731
G01 X37.3230 Y-10.4945
G01 X37.3631 Y-10.4140
G01 X37.4036 Y-10.3228
G01 X37.4404 Y-10.2275
G01 X37.4651 Y-10.1539
G01 X37.4801 Y-10.1046
G01 X37.5033 Y-10.0177
G01 X37.5198 Y-9.9444
G01 X37.5272 Y-9.9058
G01 X37.5398 Y-9.8317
G01 X37.5497 Y-9.7547
G01 X37.5537 Y-9.7156
G01 X37.5593 Y-9.6406
G01 X37.5610 Y-9.6014
G01 X37.5625 Y-9.5250
G01 X37.5625 Y-1.1112
G01 X37.5606 Y-1.0225
G01 X37.5584 Y-0.9833
G01 X37.5524 Y-0.9059
G01 X37.5419 Y-0.8191
G01 X37.5272 Y-0.7304
G01 X37.5172 Y-0.6798
G01 X37.4998 Y-0.6041
G01 X37.4732 Y-0.5080
G01 X37.4453 Y-0.4226
G01 X37.4318 Y-0.3857
G01 X37.4036 Y-0.3134
G01 X37.3631 Y-0.2222
G01 X37.3230 Y-0.1417
G01 X37.3043 Y-0.1072
G01 X37.2657 Y-0.0398
G01 X37.2123 Y0.0444
G01 X37.1608 Y0.1181
G01 X37.1372 Y0.1495
G01 X37.0892 Y0.2105
G01 X37.0240 Y0.2860
G01 X36.9622 Y0.3513
G01 X36.9343 Y0.3789
G01 X36.8778 Y0.4322
G01 X36.8023 Y0.4974
G01 X36.7218 Y0.5603
G01 X36.6585 Y0.6053
G01 X36.6260 Y0.6273
G01 X36.5499 Y0.6751
G01 X36.4631 Y0.7243
G01 X36.3939 Y0.7595
G01 X36.3585 Y0.7765
G01 X36.2762 Y0.8127
G01 X36.1831 Y0.8486
G01 X36.1095 Y0.8733
G01 X36.0602 Y0.8883
G01 X35.9733 Y0.9115
G01 X35.9000 Y0.9280
G01 X35.8614 Y0.9354
G01 X35.7873 Y0.9480
G01 X35.7103 Y0.9579
G01 X35.6712 Y0.9619
G01 X35.5957 Y0.9675
G01 X35.5549 Y0.9692
G01 X35.4806 Y0.9706
G01 X1.1113 Y0.9707
G01 X1.0079 Y0.9681
G01 X0.9085 Y0.9608
G01 X0.8070 Y0.9484
G01 X0.7063 Y0.9309
G01 X0.6066 Y0.9086
G01 X0.5081 Y0.8814
G01 X0.4111 Y0.8494
G01 X0.3157 Y0.8127
G01 X0.2334 Y0.7765
G01 X0.1418 Y0.7312
G01 X0.0526 Y0.6814
G01 X-0.0341 Y0.6273
G01 X-0.1080 Y0.5761
G01 X-0.1397 Y0.5529
G01 X-0.1990 Y0.5066
G01 X-0.2675 Y0.4485
G01 X-0.2968 Y0.4223
G01 X-0.3424 Y0.3789
G01 X-0.3788 Y0.3425
G01 X-0.4403 Y0.2769
G01 X-0.5065 Y0.1991
G01 X-0.5689 Y0.1181
G01 X-0.6272 Y0.0342
G01 X-0.6750 Y-0.0419
G01 X-0.7254 Y-0.1309
G01 X-0.7712 Y-0.2222
G01 X-0.8126 Y-0.3156
G01 X-0.8485 Y-0.4087
G01 X-0.8806 Y-0.5057
G01 X-0.9079 Y-0.6041
G01 X-0.9304 Y-0.7038
G01 X-0.9479 Y-0.8045
G01 X-0.9605 Y-0.9059
G01 X-0.9680 Y-1.0078
G01 X-0.9705 Y-1.0983
G00 X-0.9705 Y-1.0983
G01 F70.00
G01 Z-0.4000
G01 F120.00
G01 X-0.9706 Y-9.5250
G01 X-0.9682 Y-9.6259
G01 X-0.9628 Y-9.7034
G01 X-0.9592 Y-9.7425
G01 X-0.9479 Y-9.8317
G01 X-0.9308 Y-9.9299
G01 X-0.9142 Y-10.0058
G01 X-0.9049 Y-10.0439
G01 X-0.8806 Y-10.1305
G01 X-0.8493 Y-10.2252
G01 X-0.8217 Y-10.2978
G01 X-0.8069 Y-10.3341
G01 X-0.7702 Y-10.4162
G01 X-0.7254 Y-10.5053
G01 X-0.6874 Y-10.5730
G01 X-0.6674 Y-10.6068
G01 X-0.6191 Y-10.6826
G01 X-0.5617 Y-10.7641
G01 X-0.5142 Y-10.8256
G01 X-0.4894 Y-10.8561
G01 X-0.4305 Y-10.9240
G01 X-0.3617 Y-10.9962
G01 X-0.3057 Y-11.0500
G01 X-0.2768 Y-11.0765
G01 X-0.2085 Y-11.1350
G01 X-0.1299 Y-11.1964
G01 X-0.0667 Y-11.2414
G01 X-0.0341 Y-11.2634
G01 X0.0420 Y-11.3113
G01 X0.1288 Y-11.3604
G01 X0.1979 Y-11.3956
G01 X0.2333 Y-11.4126
G01 X0.3157 Y-11.4488
G01 X0.4087 Y-11.4847
G01 X0.4823 Y-11.5094
G01 X0.5316 Y-11.5244
G01 X0.6185 Y-11.5476
G01 X0.6918 Y-11.5641
G01 X0.7304 Y-11.5715
G01 X0.8045 Y-11.5841
G01 X0.8815 Y-11.5940
G01 X0.9206 Y-11.5980
G01 X0.9951 Y-11.6035
G01 X1.0327 Y-11.6052
G01 X1.1112 Y-11.6069
G01 X35.4806 Y-11.6069
G01 X35.5693 Y-11.6050
G01 X35.6590 Y-11.5991
G01 X35.7103 Y-11.5941
G01 X35.7873 Y-11.5842
G01 X35.8880 Y-11.5667
G01 X35.9853 Y-11.5448
G01 X36.0720 Y-11.5211
G01 X36.1576 Y-11.4936
G01 X36.2061 Y-11.4762
G01 X36.2784 Y-11.4480
G01 X36.3696 Y-11.4075
G01 X36.4609 Y-11.3617
G01 X36.5287 Y-11.3237
G01 X36.5729 Y-11.2972
G01 X36.6484 Y-11.2485
G01 X36.7218 Y-11.1965
G01 X36.8004 Y-11.1351
G01 X36.8778 Y-11.0684
G01 X36.9343 Y-11.0151
G01 X36.9707 Y-10.9787
G01 X37.0322 Y-10.9131
G01 X37.0907 Y-10.8448
G01 X37.1521 Y-10.7662
G01 X37.2110 Y-10.6827
G01 X37.2528 Y-10.6173
G01 X37.2793 Y-10.5731
G01 X37.3230 Y-10.4945
G01 X37.3631 Y-10.4140
G01 X37.4036 Y-10.3228
G01 X37.4404 Y-10.2275
G01 X37.4651 Y-10.1539
G01 X37.4801 Y-10.1046
G01 X37.5033 Y-10.0177
G01 X37.5198 Y-9.9444
G01 X37.5272 Y-9.9058
G01 X37.5398 Y-9.8317
G01 X37.5497 Y-9.7547
G01 X37.5537 Y-9.7156
G01 X37.5593 Y-9.6406
G01 X37.5610 Y-9.6014
G01 X37.5625 Y-9.5250
G01 X37.5625 Y-1.1112
G01 X37.5606 Y-1.0225
G01 X37.5584 Y-0.9833
G01 X37.5524 Y-0.9059
G01 X37.5419 Y-0.8191
G01 X37.5272 Y-0.7304
G01 X37.5172 Y-0.6798
G01 X37.4998 Y-0.6041
G01 X37.4732 Y-0.5080
G01 X37.4453 Y-0.4226
G01 X37.4318 Y-0.3857
G01 X37.4036 Y-0.3134
G01 X37.3631 Y-0.2222
G01 X37.3230 Y-0.1417
G01 X37.3043 Y-0.1072
G01 X37.2657 Y-0.0398
G01 X37.2123 Y0.0444
G01 X37.1608 Y0.1181
G01 X37.1372 Y0.1495
G01 X37.0892 Y0.2105
G01 X37.0240 Y0.2860
G01 X36.9622 Y0.3513
G01 X36.9343 Y0.3789
G01 X36.8778 Y0.4322
G01 X36.8023 Y0.4974
G01 X36.7218 Y0.5603
G01 X36.6585 Y0.6053
G01 X36.6260 Y0.6273
G01 X36.5499 Y0.6751
G01 X36.4631 Y0.7243
G01 X36.3939 Y0.7595
G01 X36.3585 Y0.7765
G01 X36.2762 Y0.8127
G01 X36.1831 Y0.8486
G01 X36.1095 Y0.8733
G01 X36.0602 Y0.8883
G01 X35.9733 Y0.9115
G01 X35.9000 Y0.9280
G01 X35.8614 Y0.9354
G01 X35.7873 Y0.9480
G01 X35.7103 Y0.9579
G01 X35.6712 Y0.9619
G01 X35.5957 Y0.9675
G01 X35.5549 Y0.9692
G01 X35.4806 Y0.9706
G01 X1.1113 Y0.9707
G01 X1.0079 Y0.9681
G01 X0.9085 Y0.9608
G01 X0.8070 Y0.9484
G01 X0.7063 Y0.9309
G01 X0.6066 Y0.9086
G01 X0.5081 Y0.8814
G01 X0.4111 Y0.8494
G01 X0.3157 Y0.8127
G01 X0.2334 Y0.7765
G01 X0.1418 Y0.7312
G01 X0.0526 Y0.6814
G01 X-0.0341 Y0.6273
G01 X-0.1080 Y0.5761
G01 X-0.1397 Y0.5529
G01 X-0.1990 Y0.5066
G01 X-0.2675 Y0.4485
G01 X-0.2968 Y0.4223
G01 X-0.3424 Y0.3789
G01 X-0.3788 Y0.3425
G01 X-0.4403 Y0.2769
G01 X-0.5065 Y0.1991
G01 X-0.5689 Y0.1181
G01 X-0.6272 Y0.0342
G01 X-0.6750 Y-0.0419
G01 X-0.7254 Y-0.1309
G01 X-0.7712 Y-0.2222
G01 X-0.8126 Y-0.3156
G01 X-0.8485 Y-0.4087
G01 X-0.8806 Y-0.5057
G01 X-0.9079 Y-0.6041
G01 X-0.9304 Y-0.7038
G01 X-0.9479 Y-0.8045
G01 X-0.9605 Y-0.9059
G01 X-0.9680 Y-1.0078
G01 X-0.9705 Y-1.0983
G00 X-0.9705 Y-1.0983
G01 F70.00
G01 Z-0.5000
G01 F120.00
G01 X-0.9706 Y-9.5250
G01 X-0.9682 Y-9.6259
G01 X-0.9628 Y-9.7034
G01 X-0.9592 Y-9.7425
G01 X-0.9479 Y-9.8317
G01 X-0.9308 Y-9.9299
G01 X-0.9142 Y-10.0058
G01 X-0.9049 Y-10.0439
G01 X-0.8806 Y-10.1305
G01 X-0.8493 Y-10.2252
G01 X-0.8217 Y-10.2978
G01 X-0.8069 Y-10.3341
G01 X-0.7702 Y-10.4162
G01 X-0.7254 Y-10.5053
G01 X-0.6874 Y-10.5730
G01 X-0.6674 Y-10.6068
G01 X-0.6191 Y-10.6826
G01 X-0.5617 Y-10.7641
G01 X-0.5142 Y-10.8256
G01 X-0.4894 Y-10.8561
G01 X-0.4305 Y-10.9240
G01 X-0.3617 Y-10.9962
G01 X-0.3057 Y-11.0500
G01 X-0.2768 Y-11.0765
G01 X-0.2085 Y-11.1350
G01 X-0.1299 Y-11.1964
G01 X-0.0667 Y-11.2414
G01 X-0.0341 Y-11.2634
G01 X0.0420 Y-11.3113
G01 X0.1288 Y-11.3604
G01 X0.1979 Y-11.3956
G01 X0.2333 Y-11.4126
G01 X0.3157 Y-11.4488
G01 X0.4087 Y-11.4847
G01 X0.4823 Y-11.5094
G01 X0.5316 Y-11.5244
G01 X0.6185 Y-11.5476
G01 X0.6918 Y-11.5641
G01 X0.7304 Y-11.5715
G01 X0.8045 Y-11.5841
G01 X0.8815 Y-11.5940
G01 X0.9206 Y-11.5980
G01 X0.9951 Y-11.6035
G01 X1.0327 Y-11.6052
G01 X1.1112 Y-11.6069
G01 X35.4806 Y-11.6069
G01 X35.5693 Y-11.6050
G01 X35.6590 Y-11.5991
G01 X35.7103 Y-11.5941
G01 X35.7873 Y-11.5842
G01 X35.8880 Y-11.5667
G01 X35.9853 Y-11.5448
G01 X36.0720 Y-11.5211
G01 X36.1576 Y-11.4936
G01 X36.2061 Y-11.4762
G01 X36.2784 Y-11.4480
G01 X36.3696 Y-11.4075
G01 X36.4609 Y-11.3617
G01 X36.5287 Y-11.3237
G01 X36.5729 Y-11.2972
G01 X36.6484 Y-11.2485
G01 X36.7218 Y-11.1965
G01 X36.8004 Y-11.1351
G01 X36.8778 Y-11.0684
G01 X36.9343 Y-11.0151
G01 X36.9707 Y-10.9787
G01 X37.0322 Y-10.9131
G01 X37.0907 Y-10.8448
G01 X37.1521 Y-10.7662
G01 X37.2110 Y-10.6827
G01 X37.2528 Y-10.6173
G01 X37.2793 Y-10.5731
G01 X37.3230 Y-10.4945
G01 X37.3631 Y-10.4140
G01 X37.4036 Y-10.3228
G01 X37.4404 Y-10.2275
G01 X37.4651 Y-10.1539
G01 X37.4801 Y-10.1046
G01 X37.5033 Y-10.0177
G01 X37.5198 Y-9.9444
G01 X37.5272 Y-9.9058
G01 X37.5398 Y-9.8317
G01 X37.5497 Y-9.7547
G01 X37.5537 Y-9.7156
G01 X37.5593 Y-9.6406
G01 X37.5610 Y-9.6014
G01 X37.5625 Y-9.5250
G01 X37.5625 Y-1.1112
G01 X37.5606 Y-1.0225
G01 X37.5584 Y-0.9833
G01 X37.5524 Y-0.9059
G01 X37.5419 Y-0.8191
G01 X37.5272 Y-0.7304
G01 X37.5172 Y-0.6798
G01 X37.4998 Y-0.6041
G01 X37.4732 Y-0.5080
G01 X37.4453 Y-0.4226
G01 X37.4318 Y-0.3857
G01 X37.4036 Y-0.3134
G01 X37.3631 Y-0.2222
G01 X37.3230 Y-0.1417
G01 X37.3043 Y-0.1072
G01 X37.2657 Y-0.0398
G01 X37.2123 Y0.0444
G01 X37.1608 Y0.1181
G01 X37.1372 Y0.1495
G01 X37.0892 Y0.2105
G01 X37.0240 Y0.2860
G01 X36.9622 Y0.3513
G01 X36.9343 Y0.3789
G01 X36.8778 Y0.4322
G01 X36.8023 Y0.4974
G01 X36.7218 Y0.5603
G01 X36.6585 Y0.6053
G01 X36.6260 Y0.6273
G01 X36.5499 Y0.6751
G01 X36.4631 Y0.7243
G01 X36.3939 Y0.7595
G01 X36.3585 Y0.7765
G01 X36.2762 Y0.8127
G01 X36.1831 Y0.8486
G01 X36.1095 Y0.8733
G01 X36.0602 Y0.8883
G01 X35.9733 Y0.9115
G01 X35.9000 Y0.9280
G01 X35.8614 Y0.9354
G01 X35.7873 Y0.9480
G01 X35.7103 Y0.9579
G01 X35.6712 Y0.9619
G01 X35.5957 Y0.9675
G01 X35.5549 Y0.9692
G01 X35.4806 Y0.9706
G01 X1.1113 Y0.9707
G01 X1.0079 Y0.9681
G01 X0.9085 Y0.9608
G01 X0.8070 Y0.9484
G01 X0.7063 Y0.9309
G01 X0.6066 Y0.9086
G01 X0.5081 Y0.8814
G01 X0.4111 Y0.8494
G01 X0.3157 Y0.8127
G01 X0.2334 Y0.7765
G01 X0.1418 Y0.7312
G01 X0.0526 Y0.6814
G01 X-0.0341 Y0.6273
G01 X-0.1080 Y0.5761
G01 X-0.1397 Y0.5529
G01 X-0.1990 Y0.5066
G01 X-0.2675 Y0.4485
G01 X-0.2968 Y0.4223
G01 X-0.3424 Y0.3789
G01 X-0.3788 Y0.3425
G01 X-0.4403 Y0.2769
G01 X-0.5065 Y0.1991
G01 X-0.5689 Y0.1181
G01 X-0.6272 Y0.0342
G01 X-0.6750 Y-0.0419
G01 X-0.7254 Y-0.1309
G01 X-0.7712 Y-0.2222
G01 X-0.8126 Y-0.3156
G01 X-0.8485 Y-0.4087
G01 X-0.8806 Y-0.5057
G01 X-0.9079 Y-0.6041
G01 X-0.9304 Y-0.7038
G01 X-0.9479 Y-0.8045
G01 X-0.9605 Y-0.9059
G01 X-0.9680 Y-1.0078
G01 X-0.9705 Y-1.0983
G00 X-0.9705 Y-1.0983
G01 F70.00
G01 Z-0.6000
G01 F120.00
G01 X-0.9706 Y-9.5250
G01 X-0.9682 Y-9.6259
G01 X-0.9628 Y-9.7034
G01 X-0.9592 Y-9.7425
G01 X-0.9479 Y-9.8317
G01 X-0.9308 Y-9.9299
G01 X-0.9142 Y-10.0058
G01 X-0.9049 Y-10.0439
G01 X-0.8806 Y-10.1305
G01 X-0.8493 Y-10.2252
G01 X-0.8217 Y-10.2978
G01 X-0.8069 Y-10.3341
G01 X-0.7702 Y-10.4162
G01 X-0.7254 Y-10.5053
G01 X-0.6874 Y-10.5730
G01 X-0.6674 Y-10.6068
G01 X-0.6191 Y-10.6826
G01 X-0.5617 Y-10.7641
G01 X-0.5142 Y-10.8256
G01 X-0.4894 Y-10.8561
G01 X-0.4305 Y-10.9240
G01 X-0.3617 Y-10.9962
G01 X-0.3057 Y-11.0500
G01 X-0.2768 Y-11.0765
G01 X-0.2085 Y-11.1350
G01 X-0.1299 Y-11.1964
G01 X-0.0667 Y-11.2414
G01 X-0.0341 Y-11.2634
G01 X0.0420 Y-11.3113
G01 X0.1288 Y-11.3604
G01 X0.1979 Y-11.3956
G01 X0.2333 Y-11.4126
G01 X0.3157 Y-11.4488
G01 X0.4087 Y-11.4847
G01 X0.4823 Y-11.5094
G01 X0.5316 Y-11.5244
G01 X0.6185 Y-11.5476
G01 X0.6918 Y-11.5641
G01 X0.7304 Y-11.5715
G01 X0.8045 Y-11.5841
G01 X0.8815 Y-11.5940
G01 X0.9206 Y-11.5980
G01 X0.9951 Y-11.6035
G01 X1.0327 Y-11.6052
G01 X1.1112 Y-11.6069
G01 X35.4806 Y-11.6069
G01 X35.5693 Y-11.6050
G01 X35.6590 Y-11.5991
G01 X35.7103 Y-11.5941
G01 X35.7873 Y-11.5842
G01 X35.8880 Y-11.5667
G01 X35.9853 Y-11.5448
G01 X36.0720 Y-11.5211
G01 X36.1576 Y-11.4936
G01 X36.2061 Y-11.4762
G01 X36.2784 Y-11.4480
G01 X36.3696 Y-11.4075
G01 X36.4609 Y-11.3617
G01 X36.5287 Y-11.3237
G01 X36.5729 Y-11.2972
G01 X36.6484 Y-11.2485
G01 X36.7218 Y-11.1965
G01 X36.8004 Y-11.1351
G01 X36.8778 Y-11.0684
G01 X36.9343 Y-11.0151
G01 X36.9707 Y-10.9787
G01 X37.0322 Y-10.9131
G01 X37.0907 Y-10.8448
G01 X37.1521 Y-10.7662
G01 X37.2110 Y-10.6827
G01 X37.2528 Y-10.6173
G01 X37.2793 Y-10.5731
G01 X37.3230 Y-10.4945
G01 X37.3631 Y-10.4140
G01 X37.4036 Y-10.3228
G01 X37.4404 Y-10.2275
G01 X37.4651 Y-10.1539
G01 X37.4801 Y-10.1046
G01 X37.5033 Y-10.0177
G01 X37.5198 Y-9.9444
G01 X37.5272 Y-9.9058
G01 X37.5398 Y-9.8317
G01 X37.5497 Y-9.7547
G01 X37.5537 Y-9.7156
G01 X37.5593 Y-9.6406
G01 X37.5610 Y-9.6014
G01 X37.5625 Y-9.5250
G01 X37.5625 Y-1.1112
G01 X37.5606 Y-1.0225
G01 X37.5584 Y-0.9833
G01 X37.5524 Y-0.9059
G01 X37.5419 Y-0.8191
G01 X37.5272 Y-0.7304
G01 X37.5172 Y-0.6798
G01 X37.4998 Y-0.6041
G01 X37.4732 Y-0.5080
G01 X37.4453 Y-0.4226
G01 X37.4318 Y-0.3857
G01 X37.4036 Y-0.3134
G01 X37.3631 Y-0.2222
G01 X37.3230 Y-0.1417
G01 X37.3043 Y-0.1072
G01 X37.2657 Y-0.0398
G01 X37.2123 Y0.0444
G01 X37.1608 Y0.1181
G01 X37.1372 Y0.1495
G01 X37.0892 Y0.2105
G01 X37.0240 Y0.2860
G01 X36.9622 Y0.3513
G01 X36.9343 Y0.3789
G01 X36.8778 Y0.4322
G01 X36.8023 Y0.4974
G01 X36.7218 Y0.5603
G01 X36.6585 Y0.6053
G01 X36.6260 Y0.6273
G01 X36.5499 Y0.6751
G01 X36.4631 Y0.7243
G01 X36.3939 Y0.7595
G01 X36.3585 Y0.7765
G01 X36.2762 Y0.8127
G01 X36.1831 Y0.8486
G01 X36.1095 Y0.8733
G01 X36.0602 Y0.8883
G01 X35.9733 Y0.9115
G01 X35.9000 Y0.9280
G01 X35.8614 Y0.9354
G01 X35.7873 Y0.9480
G01 X35.7103 Y0.9579
G01 X35.6712 Y0.9619
G01 X35.5957 Y0.9675
G01 X35.5549 Y0.9692
G01 X35.4806 Y0.9706
G01 X1.1113 Y0.9707
G01 X1.0079 Y0.9681
G01 X0.9085 Y0.9608
G01 X0.8070 Y0.9484
G01 X0.7063 Y0.9309
G01 X0.6066 Y0.9086
G01 X0.5081 Y0.8814
G01 X0.4111 Y0.8494
G01 X0.3157 Y0.8127
G01 X0.2334 Y0.7765
G01 X0.1418 Y0.7312
G01 X0.0526 Y0.6814
G01 X-0.0341 Y0.6273
G01 X-0.1080 Y0.5761
G01 X-0.1397 Y0.5529
G01 X-0.1990 Y0.5066
G01 X-0.2675 Y0.4485
G01 X-0.2968 Y0.4223
G01 X-0.3424 Y0.3789
G01 X-0.3788 Y0.3425
G01 X-0.4403 Y0.2769
G01 X-0.5065 Y0.1991
G01 X-0.5689 Y0.1181
G01 X-0.6272 Y0.0342
G01 X-0.6750 Y-0.0419
G01 X-0.7254 Y-0.1309
G01 X-0.7712 Y-0.2222
G01 X-0.8126 Y-0.3156
G01 X-0.8485 Y-0.4087
G01 X-0.8806 Y-0.5057
G01 X-0.9079 Y-0.6041
G01 X-0.9304 Y-0.7038
G01 X-0.9479 Y-0.8045
G01 X-0.9605 Y-0.9059
G01 X-0.9680 Y-1.0078
G01 X-0.9705 Y-1.0983
G00 X-0.9705 Y-1.0983
G01 F70.00
G01 Z-0.7000
G01 F120.00
G01 X-0.9706 Y-9.5250
G01 X-0.9682 Y-9.6259
G01 X-0.9628 Y-9.7034
G01 X-0.9592 Y-9.7425
G01 X-0.9479 Y-9.8317
G01 X-0.9308 Y-9.9299
G01 X-0.9142 Y-10.0058
G01 X-0.9049 Y-10.0439
G01 X-0.8806 Y-10.1305
G01 X-0.8493 Y-10.2252
G01 X-0.8217 Y-10.2978
G01 X-0.8069 Y-10.3341
G01 X-0.7702 Y-10.4162
G01 X-0.7254 Y-10.5053
G01 X-0.6874 Y-10.5730
G01 X-0.6674 Y-10.6068
G01 X-0.6191 Y-10.6826
G01 X-0.5617 Y-10.7641
G01 X-0.5142 Y-10.8256
G01 X-0.4894 Y-10.8561
G01 X-0.4305 Y-10.9240
G01 X-0.3617 Y-10.9962
G01 X-0.3057 Y-11.0500
G01 X-0.2768 Y-11.0765
G01 X-0.2085 Y-11.1350
G01 X-0.1299 Y-11.1964
G01 X-0.0667 Y-11.2414
G01 X-0.0341 Y-11.2634
G01 X0.0420 Y-11.3113
G01 X0.1288 Y-11.3604
G01 X0.1979 Y-11.3956
G01 X0.2333 Y-11.4126
G01 X0.3157 Y-11.4488
G01 X0.4087 Y-11.4847
G01 X0.4823 Y-11.5094
G01 X0.5316 Y-11.5244
G01 X0.6185 Y-11.5476
G01 X0.6918 Y-11.5641
G01 X0.7304 Y-11.5715
G01 X0.8045 Y-11.5841
G01 X0.8815 Y-11.5940
G01 X0.9206 Y-11.5980
G01 X0.9951 Y-11.6035
G01 X1.0327 Y-11.6052
G01 X1.1112 Y-11.6069
G01 X35.4806 Y-11.6069
G01 X35.5693 Y-11.6050
G01 X35.6590 Y-11.5991
G01 X35.7103 Y-11.5941
G01 X35.7873 Y-11.5842
G01 X35.8880 Y-11.5667
G01 X35.9853 Y-11.5448
G01 X36.0720 Y-11.5211
G01 X36.1576 Y-11.4936
G01 X36.2061 Y-11.4762
G01 X36.2784 Y-11.4480
G01 X36.3696 Y-11.4075
G01 X36.4609 Y-11.3617
G01 X36.5287 Y-11.3237
G01 X36.5729 Y-11.2972
G01 X36.6484 Y-11.2485
G01 X36.7218 Y-11.1965
G01 X36.8004 Y-11.1351
G01 X36.8778 Y-11.0684
G01 X36.9343 Y-11.0151
G01 X36.9707 Y-10.9787
G01 X37.0322 Y-10.9131
G01 X37.0907 Y-10.8448
G01 X37.1521 Y-10.7662
G01 X37.2110 Y-10.6827
G01 X37.2528 Y-10.6173
G01 X37.2793 Y-10.5731
G01 X37.3230 Y-10.4945
G01 X37.3631 Y-10.4140
G01 X37.4036 Y-10.3228
G01 X37.4404 Y-10.2275
G01 X37.4651 Y-10.1539
G01 X37.4801 Y-10.1046
G01 X37.5033 Y-10.0177
G01 X37.5198 Y-9.9444
G01 X37.5272 Y-9.9058
G01 X37.5398 Y-9.8317
G01 X37.5497 Y-9.7547
G01 X37.5537 Y-9.7156
G01 X37.5593 Y-9.6406
G01 X37.5610 Y-9.6014
G01 X37.5625 Y-9.5250
G01 X37.5625 Y-1.1112
G01 X37.5606 Y-1.0225
G01 X37.5584 Y-0.9833
G01 X37.5524 Y-0.9059
G01 X37.5419 Y-0.8191
G01 X37.5272 Y-0.7304
G01 X37.5172 Y-0.6798
G01 X37.4998 Y-0.6041
G01 X37.4732 Y-0.5080
G01 X37.4453 Y-0.4226
G01 X37.4318 Y-0.3857
G01 X37.4036 Y-0.3134
G01 X37.3631 Y-0.2222
G01 X37.3230 Y-0.1417
G01 X37.3043 Y-0.1072
G01 X37.2657 Y-0.0398
G01 X37.2123 Y0.0444
G01 X37.1608 Y0.1181
G01 X37.1372 Y0.1495
G01 X37.0892 Y0.2105
G01 X37.0240 Y0.2860
G01 X36.9622 Y0.3513
G01 X36.9343 Y0.3789
G01 X36.8778 Y0.4322
G01 X36.8023 Y0.4974
G01 X36.7218 Y0.5603
G01 X36.6585 Y0.6053
G01 X36.6260 Y0.6273
G01 X36.5499 Y0.6751
G01 X36.4631 Y0.7243
G01 X36.3939 Y0.7595
G01 X36.3585 Y0.7765
G01 X36.2762 Y0.8127
G01 X36.1831 Y0.8486
G01 X36.1095 Y0.8733
G01 X36.0602 Y0.8883
G01 X35.9733 Y0.9115
G01 X35.9000 Y0.9280
G01 X35.8614 Y0.9354
G01 X35.7873 Y0.9480
G01 X35.7103 Y0.9579
G01 X35.6712 Y0.9619
G01 X35.5957 Y0.9675
G01 X35.5549 Y0.9692
G01 X35.4806 Y0.9706
G01 X1.1113 Y0.9707
G01 X1.0079 Y0.9681
G01 X0.9085 Y0.9608
G01 X0.8070 Y0.9484
G01 X0.7063 Y0.9309
G01 X0.6066 Y0.9086
G01 X0.5081 Y0.8814
G01 X0.4111 Y0.8494
G01 X0.3157 Y0.8127
G01 X0.2334 Y0.7765
G01 X0.1418 Y0.7312
G01 X0.0526 Y0.6814
G01 X-0.0341 Y0.6273
G01 X-0.1080 Y0.5761
G01 X-0.1397 Y0.5529
G01 X-0.1990 Y0.5066
G01 X-0.2675 Y0.4485
G01 X-0.2968 Y0.4223
G01 X-0.3424 Y0.3789
G01 X-0.3788 Y0.3425
G01 X-0.4403 Y0.2769
G01 X-0.5065 Y0.1991
G01 X-0.5689 Y0.1181
G01 X-0.6272 Y0.0342
G01 X-0.6750 Y-0.0419
G01 X-0.7254 Y-0.1309
G01 X-0.7712 Y-0.2222
G01 X-0.8126 Y-0.3156
G01 X-0.8485 Y-0.4087
G01 X-0.8806 Y-0.5057
G01 X-0.9079 Y-0.6041
G01 X-0.9304 Y-0.7038
G01 X-0.9479 Y-0.8045
G01 X-0.9605 Y-0.9059
G01 X-0.9680 Y-1.0078
G01 X-0.9705 Y-1.0983
G00 X-0.9705 Y-1.0983
G01 F70.00
G01 Z-0.8000
G01 F120.00
G01 X-0.9706 Y-9.5250
G01 X-0.9682 Y-9.6259
G01 X-0.9628 Y-9.7034
G01 X-0.9592 Y-9.7425
G01 X-0.9479 Y-9.8317
G01 X-0.9308 Y-9.9299
G01 X-0.9142 Y-10.0058
G01 X-0.9049 Y-10.0439
G01 X-0.8806 Y-10.1305
G01 X-0.8493 Y-10.2252
G01 X-0.8217 Y-10.2978
G01 X-0.8069 Y-10.3341
G01 X-0.7702 Y-10.4162
G01 X-0.7254 Y-10.5053
G01 X-0.6874 Y-10.5730
G01 X-0.6674 Y-10.6068
G01 X-0.6191 Y-10.6826
G01 X-0.5617 Y-10.7641
G01 X-0.5142 Y-10.8256
G01 X-0.4894 Y-10.8561
G01 X-0.4305 Y-10.9240
G01 X-0.3617 Y-10.9962
G01 X-0.3057 Y-11.0500
G01 X-0.2768 Y-11.0765
G01 X-0.2085 Y-11.1350
G01 X-0.1299 Y-11.1964
G01 X-0.0667 Y-11.2414
G01 X-0.0341 Y-11.2634
G01 X0.0420 Y-11.3113
G01 X0.1288 Y-11.3604
G01 X0.1979 Y-11.3956
G01 X0.2333 Y-11.4126
G01 X0.3157 Y-11.4488
G01 X0.4087 Y-11.4847
G01 X0.4823 Y-11.5094
G01 X0.5316 Y-11.5244
G01 X0.6185 Y-11.5476
G01 X0.6918 Y-11.5641
G01 X0.7304 Y-11.5715
G01 X0.8045 Y-11.5841
G01 X0.8815 Y-11.5940
G01 X0.9206 Y-11.5980
G01 X0.9951 Y-11.6035
G01 X1.0327 Y-11.6052
G01 X1.1112 Y-11.6069
G01 X35.4806 Y-11.6069
G01 X35.5693 Y-11.6050
G01 X35.6590 Y-11.5991
G01 X35.7103 Y-11.5941
G01 X35.7873 Y-11.5842
G01 X35.8880 Y-11.5667
G01 X35.9853 Y-11.5448
G01 X36.0720 Y-11.5211
G01 X36.1576 Y-11.4936
G01 X36.2061 Y-11.4762
G01 X36.2784 Y-11.4480
G01 X36.3696 Y-11.4075
G01 X36.4609 Y-11.3617
G01 X36.5287 Y-11.3237
G01 X36.5729 Y-11.2972
G01 X36.6484 Y-11.2485
G01 X36.7218 Y-11.1965
G01 X36.8004 Y-11.1351
G01 X36.8778 Y-11.0684
G01 X36.9343 Y-11.0151
G01 X36.9707 Y-10.9787
G01 X37.0322 Y-10.9131
G01 X37.0907 Y-10.8448
G01 X37.1521 Y-10.7662
G01 X37.2110 Y-10.6827
G01 X37.2528 Y-10.6173
G01 X37.2793 Y-10.5731
G01 X37.3230 Y-10.4945
G01 X37.3631 Y-10.4140
G01 X37.4036 Y-10.3228
G01 X37.4404 Y-10.2275
G01 X37.4651 Y-10.1539
G01 X37.4801 Y-10.1046
G01 X37.5033 Y-10.0177
G01 X37.5198 Y-9.9444
G01 X37.5272 Y-9.9058
G01 X37.5398 Y-9.8317
G01 X37.5497 Y-9.7547
G01 X37.5537 Y-9.7156
G01 X37.5593 Y-9.6406
G01 X37.5610 Y-9.6014
G01 X37.5625 Y-9.5250
G01 X37.5625 Y-1.1112
G01 X37.5606 Y-1.0225
G01 X37.5584 Y-0.9833
G01 X37.5524 Y-0.9059
G01 X37.5419 Y-0.8191
G01 X37.5272 Y-0.7304
G01 X37.5172 Y-0.6798
G01 X37.4998 Y-0.6041
G01 X37.4732 Y-0.5080
G01 X37.4453 Y-0.4226
G01 X37.4318 Y-0.3857
G01 X37.4036 Y-0.3134
G01 X37.3631 Y-0.2222
G01 X37.3230 Y-0.1417
G01 X37.3043 Y-0.1072
G01 X37.2657 Y-0.0398
G01 X37.2123 Y0.0444
G01 X37.1608 Y0.1181
G01 X37.1372 Y0.1495
G01 X37.0892 Y0.2105
G01 X37.0240 Y0.2860
G01 X36.9622 Y0.3513
G01 X36.9343 Y0.3789
G01 X36.8778 Y0.4322
G01 X36.8023 Y0.4974
G01 X36.7218 Y0.5603
G01 X36.6585 Y0.6053
G01 X36.6260 Y0.6273
G01 X36.5499 Y0.6751
G01 X36.4631 Y0.7243
G01 X36.3939 Y0.7595
G01 X36.3585 Y0.7765
G01 X36.2762 Y0.8127
G01 X36.1831 Y0.8486
G01 X36.1095 Y0.8733
G01 X36.0602 Y0.8883
G01 X35.9733 Y0.9115
G01 X35.9000 Y0.9280
G01 X35.8614 Y0.9354
G01 X35.7873 Y0.9480
G01 X35.7103 Y0.9579
G01 X35.6712 Y0.9619
G01 X35.5957 Y0.9675
G01 X35.5549 Y0.9692
G01 X35.4806 Y0.9706
G01 X1.1113 Y0.9707
G01 X1.0079 Y0.9681
G01 X0.9085 Y0.9608
G01 X0.8070 Y0.9484
G01 X0.7063 Y0.9309
G01 X0.6066 Y0.9086
G01 X0.5081 Y0.8814
G01 X0.4111 Y0.8494
G01 X0.3157 Y0.8127
G01 X0.2334 Y0.7765
G01 X0.1418 Y0.7312
G01 X0.0526 Y0.6814
G01 X-0.0341 Y0.6273
G01 X-0.1080 Y0.5761
G01 X-0.1397 Y0.5529
G01 X-0.1990 Y0.5066
G01 X-0.2675 Y0.4485
G01 X-0.2968 Y0.4223
G01 X-0.3424 Y0.3789
G01 X-0.3788 Y0.3425
G01 X-0.4403 Y0.2769
G01 X-0.5065 Y0.1991
G01 X-0.5689 Y0.1181
G01 X-0.6272 Y0.0342
G01 X-0.6750 Y-0.0419
G01 X-0.7254 Y-0.1309
G01 X-0.7712 Y-0.2222
G01 X-0.8126 Y-0.3156
G01 X-0.8485 Y-0.4087
G01 X-0.8806 Y-0.5057
G01 X-0.9079 Y-0.6041
G01 X-0.9304 Y-0.7038
G01 X-0.9479 Y-0.8045
G01 X-0.9605 Y-0.9059
G01 X-0.9680 Y-1.0078
G01 X-0.9705 Y-1.0983
G00 X-0.9705 Y-1.0983
G01 F70.00
G01 Z-0.9000
G01 F120.00
G01 X-0.9706 Y-9.5250
G01 X-0.9682 Y-9.6259
G01 X-0.9628 Y-9.7034
G01 X-0.9592 Y-9.7425
G01 X-0.9479 Y-9.8317
G01 X-0.9308 Y-9.9299
G01 X-0.9142 Y-10.0058
G01 X-0.9049 Y-10.0439
G01 X-0.8806 Y-10.1305
G01 X-0.8493 Y-10.2252
G01 X-0.8217 Y-10.2978
G01 X-0.8069 Y-10.3341
G01 X-0.7702 Y-10.4162
G01 X-0.7254 Y-10.5053
G01 X-0.6874 Y-10.5730
G01 X-0.6674 Y-10.6068
G01 X-0.6191 Y-10.6826
G01 X-0.5617 Y-10.7641
G01 X-0.5142 Y-10.8256
G01 X-0.4894 Y-10.8561
G01 X-0.4305 Y-10.9240
G01 X-0.3617 Y-10.9962
G01 X-0.3057 Y-11.0500
G01 X-0.2768 Y-11.0765
G01 X-0.2085 Y-11.1350
G01 X-0.1299 Y-11.1964
G01 X-0.0667 Y-11.2414
G01 X-0.0341 Y-11.2634
G01 X0.0420 Y-11.3113
G01 X0.1288 Y-11.3604
G01 X0.1979 Y-11.3956
G01 X0.2333 Y-11.4126
G01 X0.3157 Y-11.4488
G01 X0.4087 Y-11.4847
G01 X0.4823 Y-11.5094
G01 X0.5316 Y-11.5244
G01 X0.6185 Y-11.5476
G01 X0.6918 Y-11.5641
G01 X0.7304 Y-11.5715
G01 X0.8045 Y-11.5841
G01 X0.8815 Y-11.5940
G01 X0.9206 Y-11.5980
G01 X0.9951 Y-11.6035
G01 X1.0327 Y-11.6052
G01 X1.1112 Y-11.6069
G01 X35.4806 Y-11.6069
G01 X35.5693 Y-11.6050
G01 X35.6590 Y-11.5991
G01 X35.7103 Y-11.5941
G01 X35.7873 Y-11.5842
G01 X35.8880 Y-11.5667
G01 X35.9853 Y-11.5448
G01 X36.0720 Y-11.5211
G01 X36.1576 Y-11.4936
G01 X36.2061 Y-11.4762
G01 X36.2784 Y-11.4480
G01 X36.3696 Y-11.4075
G01 X36.4609 Y-11.3617
G01 X36.5287 Y-11.3237
G01 X36.5729 Y-11.2972
G01 X36.6484 Y-11.2485
G01 X36.7218 Y-11.1965
G01 X36.8004 Y-11.1351
G01 X36.8778 Y-11.0684
G01 X36.9343 Y-11.0151
G01 X36.9707 Y-10.9787
G01 X37.0322 Y-10.9131
G01 X37.0907 Y-10.8448
G01 X37.1521 Y-10.7662
G01 X37.2110 Y-10.6827
G01 X37.2528 Y-10.6173
G01 X37.2793 Y-10.5731
G01 X37.3230 Y-10.4945
G01 X37.3631 Y-10.4140
G01 X37.4036 Y-10.3228
G01 X37.4404 Y-10.2275
G01 X37.4651 Y-10.1539
G01 X37.4801 Y-10.1046
G01 X37.5033 Y-10.0177
G01 X37.5198 Y-9.9444
G01 X37.5272 Y-9.9058
G01 X37.5398 Y-9.8317
G01 X37.5497 Y-9.7547
G01 X37.5537 Y-9.7156
G01 X37.5593 Y-9.6406
G01 X37.5610 Y-9.6014
G01 X37.5625 Y-9.5250
G01 X37.5625 Y-1.1112
G01 X37.5606 Y-1.0225
G01 X37.5584 Y-0.9833
G01 X37.5524 Y-0.9059
G01 X37.5419 Y-0.8191
G01 X37.5272 Y-0.7304
G01 X37.5172 Y-0.6798
G01 X37.4998 Y-0.6041
G01 X37.4732 Y-0.5080
G01 X37.4453 Y-0.4226
G01 X37.4318 Y-0.3857
G01 X37.4036 Y-0.3134
G01 X37.3631 Y-0.2222
G01 X37.3230 Y-0.1417
G01 X37.3043 Y-0.1072
G01 X37.2657 Y-0.0398
G01 X37.2123 Y0.0444
G01 X37.1608 Y0.1181
G01 X37.1372 Y0.1495
G01 X37.0892 Y0.2105
G01 X37.0240 Y0.2860
G01 X36.9622 Y0.3513
G01 X36.9343 Y0.3789
G01 X36.8778 Y0.4322
G01 X36.8023 Y0.4974
G01 X36.7218 Y0.5603
G01 X36.6585 Y0.6053
G01 X36.6260 Y0.6273
G01 X36.5499 Y0.6751
G01 X36.4631 Y0.7243
G01 X36.3939 Y0.7595
G01 X36.3585 Y0.7765
G01 X36.2762 Y0.8127
G01 X36.1831 Y0.8486
G01 X36.1095 Y0.8733
G01 X36.0602 Y0.8883
G01 X35.9733 Y0.9115
G01 X35.9000 Y0.9280
G01 X35.8614 Y0.9354
G01 X35.7873 Y0.9480
G01 X35.7103 Y0.9579
G01 X35.6712 Y0.9619
G01 X35.5957 Y0.9675
G01 X35.5549 Y0.9692
G01 X35.4806 Y0.9706
G01 X1.1113 Y0.9707
G01 X1.0079 Y0.9681
G01 X0.9085 Y0.9608
G01 X0.8070 Y0.9484
G01 X0.7063 Y0.9309
G01 X0.6066 Y0.9086
G01 X0.5081 Y0.8814
G01 X0.4111 Y0.8494
G01 X0.3157 Y0.8127
G01 X0.2334 Y0.7765
G01 X0.1418 Y0.7312
G01 X0.0526 Y0.6814
G01 X-0.0341 Y0.6273
G01 X-0.1080 Y0.5761
G01 X-0.1397 Y0.5529
G01 X-0.1990 Y0.5066
G01 X-0.2675 Y0.4485
G01 X-0.2968 Y0.4223
G01 X-0.3424 Y0.3789
G01 X-0.3788 Y0.3425
G01 X-0.4403 Y0.2769
G01 X-0.5065 Y0.1991
G01 X-0.5689 Y0.1181
G01 X-0.6272 Y0.0342
G01 X-0.6750 Y-0.0419
G01 X-0.7254 Y-0.1309
G01 X-0.7712 Y-0.2222
G01 X-0.8126 Y-0.3156
G01 X-0.8485 Y-0.4087
G01 X-0.8806 Y-0.5057
G01 X-0.9079 Y-0.6041
G01 X-0.9304 Y-0.7038
G01 X-0.9479 Y-0.8045
G01 X-0.9605 Y-0.9059
G01 X-0.9680 Y-1.0078
G01 X-0.9705 Y-1.0983
G00 X-0.9705 Y-1.0983
G01 F70.00
G01 Z-1.0000
G01 F120.00
G01 X-0.9706 Y-9.5250
G01 X-0.9682 Y-9.6259
G01 X-0.9628 Y-9.7034
G01 X-0.9592 Y-9.7425
G01 X-0.9479 Y-9.8317
G01 X-0.9308 Y-9.9299
G01 X-0.9142 Y-10.0058
G01 X-0.9049 Y-10.0439
G01 X-0.8806 Y-10.1305
G01 X-0.8493 Y-10.2252
G01 X-0.8217 Y-10.2978
G01 X-0.8069 Y-10.3341
G01 X-0.7702 Y-10.4162
G01 X-0.7254 Y-10.5053
G01 X-0.6874 Y-10.5730
G01 X-0.6674 Y-10.6068
G01 X-0.6191 Y-10.6826
G01 X-0.5617 Y-10.7641
G01 X-0.5142 Y-10.8256
G01 X-0.4894 Y-10.8561
G01 X-0.4305 Y-10.9240
G01 X-0.3617 Y-10.9962
G01 X-0.3057 Y-11.0500
G01 X-0.2768 Y-11.0765
G01 X-0.2085 Y-11.1350
G01 X-0.1299 Y-11.1964
G01 X-0.0667 Y-11.2414
G01 X-0.0341 Y-11.2634
G01 X0.0420 Y-11.3113
G01 X0.1288 Y-11.3604
G01 X0.1979 Y-11.3956
G01 X0.2333 Y-11.4126
G01 X0.3157 Y-11.4488
G01 X0.4087 Y-11.4847
G01 X0.4823 Y-11.5094
G01 X0.5316 Y-11.5244
G01 X0.6185 Y-11.5476
G01 X0.6918 Y-11.5641
G01 X0.7304 Y-11.5715
G01 X0.8045 Y-11.5841
G01 X0.8815 Y-11.5940
G01 X0.9206 Y-11.5980
G01 X0.9951 Y-11.6035
G01 X1.0327 Y-11.6052
G01 X1.1112 Y-11.6069
G01 X35.4806 Y-11.6069
G01 X35.5693 Y-11.6050
G01 X35.6590 Y-11.5991
G01 X35.7103 Y-11.5941
G01 X35.7873 Y-11.5842
G01 X35.8880 Y-11.5667
G01 X35.9853 Y-11.5448
G01 X36.0720 Y-11.5211
G01 X36.1576 Y-11.4936
G01 X36.2061 Y-11.4762
G01 X36.2784 Y-11.4480
G01 X36.3696 Y-11.4075
G01 X36.4609 Y-11.3617
G01 X36.5287 Y-11.3237
G01 X36.5729 Y-11.2972
G01 X36.6484 Y-11.2485
G01 X36.7218 Y-11.1965
G01 X36.8004 Y-11.1351
G01 X36.8778 Y-11.0684
G01 X36.9343 Y-11.0151
G01 X36.9707 Y-10.9787
G01 X37.0322 Y-10.9131
G01 X37.0907 Y-10.8448
G01 X37.1521 Y-10.7662
G01 X37.2110 Y-10.6827
G01 X37.2528 Y-10.6173
G01 X37.2793 Y-10.5731
G01 X37.3230 Y-10.4945
G01 X37.3631 Y-10.4140
G01 X37.4036 Y-10.3228
G01 X37.4404 Y-10.2275
G01 X37.4651 Y-10.1539
G01 X37.4801 Y-10.1046
G01 X37.5033 Y-10.0177
G01 X37.5198 Y-9.9444
G01 X37.5272 Y-9.9058
G01 X37.5398 Y-9.8317
G01 X37.5497 Y-9.7547
G01 X37.5537 Y-9.7156
G01 X37.5593 Y-9.6406
G01 X37.5610 Y-9.6014
G01 X37.5625 Y-9.5250
G01 X37.5625 Y-1.1112
G01 X37.5606 Y-1.0225
G01 X37.5584 Y-0.9833
G01 X37.5524 Y-0.9059
G01 X37.5419 Y-0.8191
G01 X37.5272 Y-0.7304
G01 X37.5172 Y-0.6798
G01 X37.4998 Y-0.6041
G01 X37.4732 Y-0.5080
G01 X37.4453 Y-0.4226
G01 X37.4318 Y-0.3857
G01 X37.4036 Y-0.3134
G01 X37.3631 Y-0.2222
G01 X37.3230 Y-0.1417
G01 X37.3043 Y-0.1072
G01 X37.2657 Y-0.0398
G01 X37.2123 Y0.0444
G01 X37.1608 Y0.1181
G01 X37.1372 Y0.1495
G01 X37.0892 Y0.2105
G01 X37.0240 Y0.2860
G01 X36.9622 Y0.3513
G01 X36.9343 Y0.3789
G01 X36.8778 Y0.4322
G01 X36.8023 Y0.4974
G01 X36.7218 Y0.5603
G01 X36.6585 Y0.6053
G01 X36.6260 Y0.6273
G01 X36.5499 Y0.6751
G01 X36.4631 Y0.7243
G01 X36.3939 Y0.7595
G01 X36.3585 Y0.7765
G01 X36.2762 Y0.8127
G01 X36.1831 Y0.8486
G01 X36.1095 Y0.8733
G01 X36.0602 Y0.8883
G01 X35.9733 Y0.9115
G01 X35.9000 Y0.9280
G01 X35.8614 Y0.9354
G01 X35.7873 Y0.9480
G01 X35.7103 Y0.9579
G01 X35.6712 Y0.9619
G01 X35.5957 Y0.9675
G01 X35.5549 Y0.9692
G01 X35.4806 Y0.9706
G01 X1.1113 Y0.9707
G01 X1.0079 Y0.9681
G01 X0.9085 Y0.9608
G01 X0.8070 Y0.9484
G01 X0.7063 Y0.9309
G01 X0.6066 Y0.9086
G01 X0.5081 Y0.8814
G01 X0.4111 Y0.8494
G01 X0.3157 Y0.8127
G01 X0.2334 Y0.7765
G01 X0.1418 Y0.7312
G01 X0.0526 Y0.6814
G01 X-0.0341 Y0.6273
G01 X-0.1080 Y0.5761
G01 X-0.1397 Y0.5529
G01 X-0.1990 Y0.5066
G01 X-0.2675 Y0.4485
G01 X-0.2968 Y0.4223
G01 X-0.3424 Y0.3789
G01 X-0.3788 Y0.3425
G01 X-0.4403 Y0.2769
G01 X-0.5065 Y0.1991
G01 X-0.5689 Y0.1181
G01 X-0.6272 Y0.0342
G01 X-0.6750 Y-0.0419
G01 X-0.7254 Y-0.1309
G01 X-0.7712 Y-0.2222
G01 X-0.8126 Y-0.3156
G01 X-0.8485 Y-0.4087
G01 X-0.8806 Y-0.5057
G01 X-0.9079 Y-0.6041
G01 X-0.9304 Y-0.7038
G01 X-0.9479 Y-0.8045
G01 X-0.9605 Y-0.9059
G01 X-0.9680 Y-1.0078
G01 X-0.9705 Y-1.0983
G00 X-0.9705 Y-1.0983
G01 F70.00
G01 Z-1.1000
G01 F120.00
G01 X-0.9706 Y-9.5250
G01 X-0.9682 Y-9.6259
G01 X-0.9628 Y-9.7034
G01 X-0.9592 Y-9.7425
G01 X-0.9479 Y-9.8317
G01 X-0.9308 Y-9.9299
G01 X-0.9142 Y-10.0058
G01 X-0.9049 Y-10.0439
G01 X-0.8806 Y-10.1305
G01 X-0.8493 Y-10.2252
G01 X-0.8217 Y-10.2978
G01 X-0.8069 Y-10.3341
G01 X-0.7702 Y-10.4162
G01 X-0.7254 Y-10.5053
G01 X-0.6874 Y-10.5730
G01 X-0.6674 Y-10.6068
G01 X-0.6191 Y-10.6826
G01 X-0.5617 Y-10.7641
G01 X-0.5142 Y-10.8256
G01 X-0.4894 Y-10.8561
G01 X-0.4305 Y-10.9240
G01 X-0.3617 Y-10.9962
G01 X-0.3057 Y-11.0500
G01 X-0.2768 Y-11.0765
G01 X-0.2085 Y-11.1350
G01 X-0.1299 Y-11.1964
G01 X-0.0667 Y-11.2414
G01 X-0.0341 Y-11.2634
G01 X0.0420 Y-11.3113
G01 X0.1288 Y-11.3604
G01 X0.1979 Y-11.3956
G01 X0.2333 Y-11.4126
G01 X0.3157 Y-11.4488
G01 X0.4087 Y-11.4847
G01 X0.4823 Y-11.5094
G01 X0.5316 Y-11.5244
G01 X0.6185 Y-11.5476
G01 X0.6918 Y-11.5641
G01 X0.7304 Y-11.5715
G01 X0.8045 Y-11.5841
G01 X0.8815 Y-11.5940
G01 X0.9206 Y-11.5980
G01 X0.9951 Y-11.6035
G01 X1.0327 Y-11.6052
G01 X1.1112 Y-11.6069
G01 X35.4806 Y-11.6069
G01 X35.5693 Y-11.6050
G01 X35.6590 Y-11.5991
G01 X35.7103 Y-11.5941
G01 X35.7873 Y-11.5842
G01 X35.8880 Y-11.5667
G01 X35.9853 Y-11.5448
G01 X36.0720 Y-11.5211
G01 X36.1576 Y-11.4936
G01 X36.2061 Y-11.4762
G01 X36.2784 Y-11.4480
G01 X36.3696 Y-11.4075
G01 X36.4609 Y-11.3617
G01 X36.5287 Y-11.3237
G01 X36.5729 Y-11.2972
G01 X36.6484 Y-11.2485
G01 X36.7218 Y-11.1965
G01 X36.8004 Y-11.1351
G01 X36.8778 Y-11.0684
G01 X36.9343 Y-11.0151
G01 X36.9707 Y-10.9787
G01 X37.0322 Y-10.9131
G01 X37.0907 Y-10.8448
G01 X37.1521 Y-10.7662
G01 X37.2110 Y-10.6827
G01 X37.2528 Y-10.6173
G01 X37.2793 Y-10.5731
G01 X37.3230 Y-10.4945
G01 X37.3631 Y-10.4140
G01 X37.4036 Y-10.3228
G01 X37.4404 Y-10.2275
G01 X37.4651 Y-10.1539
G01 X37.4801 Y-10.1046
G01 X37.5033 Y-10.0177
G01 X37.5198 Y-9.9444
G01 X37.5272 Y-9.9058
G01 X37.5398 Y-9.8317
G01 X37.5497 Y-9.7547
G01 X37.5537 Y-9.7156
G01 X37.5593 Y-9.6406
G01 X37.5610 Y-9.6014
G01 X37.5625 Y-9.5250
G01 X37.5625 Y-1.1112
G01 X37.5606 Y-1.0225
G01 X37.5584 Y-0.9833
G01 X37.5524 Y-0.9059
G01 X37.5419 Y-0.8191
G01 X37.5272 Y-0.7304
G01 X37.5172 Y-0.6798
G01 X37.4998 Y-0.6041
G01 X37.4732 Y-0.5080
G01 X37.4453 Y-0.4226
G01 X37.4318 Y-0.3857
G01 X37.4036 Y-0.3134
G01 X37.3631 Y-0.2222
G01 X37.3230 Y-0.1417
G01 X37.3043 Y-0.1072
G01 X37.2657 Y-0.0398
G01 X37.2123 Y0.0444
G01 X37.1608 Y0.1181
G01 X37.1372 Y0.1495
G01 X37.0892 Y0.2105
G01 X37.0240 Y0.2860
G01 X36.9622 Y0.3513
G01 X36.9343 Y0.3789
G01 X36.8778 Y0.4322
G01 X36.8023 Y0.4974
G01 X36.7218 Y0.5603
G01 X36.6585 Y0.6053
G01 X36.6260 Y0.6273
G01 X36.5499 Y0.6751
G01 X36.4631 Y0.7243
G01 X36.3939 Y0.7595
G01 X36.3585 Y0.7765
G01 X36.2762 Y0.8127
G01 X36.1831 Y0.8486
G01 X36.1095 Y0.8733
G01 X36.0602 Y0.8883
G01 X35.9733 Y0.9115
G01 X35.9000 Y0.9280
G01 X35.8614 Y0.9354
G01 X35.7873 Y0.9480
G01 X35.7103 Y0.9579
G01 X35.6712 Y0.9619
G01 X35.5957 Y0.9675
G01 X35.5549 Y0.9692
G01 X35.4806 Y0.9706
G01 X1.1113 Y0.9707
G01 X1.0079 Y0.9681
G01 X0.9085 Y0.9608
G01 X0.8070 Y0.9484
G01 X0.7063 Y0.9309
G01 X0.6066 Y0.9086
G01 X0.5081 Y0.8814
G01 X0.4111 Y0.8494
G01 X0.3157 Y0.8127
G01 X0.2334 Y0.7765
G01 X0.1418 Y0.7312
G01 X0.0526 Y0.6814
G01 X-0.0341 Y0.6273
G01 X-0.1080 Y0.5761
G01 X-0.1397 Y0.5529
G01 X-0.1990 Y0.5066
G01 X-0.2675 Y0.4485
G01 X-0.2968 Y0.4223
G01 X-0.3424 Y0.3789
G01 X-0.3788 Y0.3425
G01 X-0.4403 Y0.2769
G01 X-0.5065 Y0.1991
G01 X-0.5689 Y0.1181
G01 X-0.6272 Y0.0342
G01 X-0.6750 Y-0.0419
G01 X-0.7254 Y-0.1309
G01 X-0.7712 Y-0.2222
G01 X-0.8126 Y-0.3156
G01 X-0.8485 Y-0.4087
G01 X-0.8806 Y-0.5057
G01 X-0.9079 Y-0.6041
G01 X-0.9304 Y-0.7038
G01 X-0.9479 Y-0.8045
G01 X-0.9605 Y-0.9059
G01 X-0.9680 Y-1.0078
G01 X-0.9705 Y-1.0983
G00 X-0.9705 Y-1.0983
G01 F70.00
G01 Z-1.2000
G01 F120.00
G01 X-0.9706 Y-9.5250
G01 X-0.9682 Y-9.6259
G01 X-0.9628 Y-9.7034
G01 X-0.9592 Y-9.7425
G01 X-0.9479 Y-9.8317
G01 X-0.9308 Y-9.9299
G01 X-0.9142 Y-10.0058
G01 X-0.9049 Y-10.0439
G01 X-0.8806 Y-10.1305
G01 X-0.8493 Y-10.2252
G01 X-0.8217 Y-10.2978
G01 X-0.8069 Y-10.3341
G01 X-0.7702 Y-10.4162
G01 X-0.7254 Y-10.5053
G01 X-0.6874 Y-10.5730
G01 X-0.6674 Y-10.6068
G01 X-0.6191 Y-10.6826
G01 X-0.5617 Y-10.7641
G01 X-0.5142 Y-10.8256
G01 X-0.4894 Y-10.8561
G01 X-0.4305 Y-10.9240
G01 X-0.3617 Y-10.9962
G01 X-0.3057 Y-11.0500
G01 X-0.2768 Y-11.0765
G01 X-0.2085 Y-11.1350
G01 X-0.1299 Y-11.1964
G01 X-0.0667 Y-11.2414
G01 X-0.0341 Y-11.2634
G01 X0.0420 Y-11.3113
G01 X0.1288 Y-11.3604
G01 X0.1979 Y-11.3956
G01 X0.2333 Y-11.4126
G01 X0.3157 Y-11.4488
G01 X0.4087 Y-11.4847
G01 X0.4823 Y-11.5094
G01 X0.5316 Y-11.5244
G01 X0.6185 Y-11.5476
G01 X0.6918 Y-11.5641
G01 X0.7304 Y-11.5715
G01 X0.8045 Y-11.5841
G01 X0.8815 Y-11.5940
G01 X0.9206 Y-11.5980
G01 X0.9951 Y-11.6035
G01 X1.0327 Y-11.6052
G01 X1.1112 Y-11.6069
G01 X35.4806 Y-11.6069
G01 X35.5693 Y-11.6050
G01 X35.6590 Y-11.5991
G01 X35.7103 Y-11.5941
G01 X35.7873 Y-11.5842
G01 X35.8880 Y-11.5667
G01 X35.9853 Y-11.5448
G01 X36.0720 Y-11.5211
G01 X36.1576 Y-11.4936
G01 X36.2061 Y-11.4762
G01 X36.2784 Y-11.4480
G01 X36.3696 Y-11.4075
G01 X36.4609 Y-11.3617
G01 X36.5287 Y-11.3237
G01 X36.5729 Y-11.2972
G01 X36.6484 Y-11.2485
G01 X36.7218 Y-11.1965
G01 X36.8004 Y-11.1351
G01 X36.8778 Y-11.0684
G01 X36.9343 Y-11.0151
G01 X36.9707 Y-10.9787
G01 X37.0322 Y-10.9131
G01 X37.0907 Y-10.8448
G01 X37.1521 Y-10.7662
G01 X37.2110 Y-10.6827
G01 X37.2528 Y-10.6173
G01 X37.2793 Y-10.5731
G01 X37.3230 Y-10.4945
G01 X37.3631 Y-10.4140
G01 X37.4036 Y-10.3228
G01 X37.4404 Y-10.2275
G01 X37.4651 Y-10.1539
G01 X37.4801 Y-10.1046
G01 X37.5033 Y-10.0177
G01 X37.5198 Y-9.9444
G01 X37.5272 Y-9.9058
G01 X37.5398 Y-9.8317
G01 X37.5497 Y-9.7547
G01 X37.5537 Y-9.7156
G01 X37.5593 Y-9.6406
G01 X37.5610 Y-9.6014
G01 X37.5625 Y-9.5250
G01 X37.5625 Y-1.1112
G01 X37.5606 Y-1.0225
G01 X37.5584 Y-0.9833
G01 X37.5524 Y-0.9059
G01 X37.5419 Y-0.8191
G01 X37.5272 Y-0.7304
G01 X37.5172 Y-0.6798
G01 X37.4998 Y-0.6041
G01 X37.4732 Y-0.5080
G01 X37.4453 Y-0.4226
G01 X37.4318 Y-0.3857
G01 X37.4036 Y-0.3134
G01 X37.3631 Y-0.2222
G01 X37.3230 Y-0.1417
G01 X37.3043 Y-0.1072
G01 X37.2657 Y-0.0398
G01 X37.2123 Y0.0444
G01 X37.1608 Y0.1181
G01 X37.1372 Y0.1495
G01 X37.0892 Y0.2105
G01 X37.0240 Y0.2860
G01 X36.9622 Y0.3513
G01 X36.9343 Y0.3789
G01 X36.8778 Y0.4322
G01 X36.8023 Y0.4974
G01 X36.7218 Y0.5603
G01 X36.6585 Y0.6053
G01 X36.6260 Y0.6273
G01 X36.5499 Y0.6751
G01 X36.4631 Y0.7243
G01 X36.3939 Y0.7595
G01 X36.3585 Y0.7765
G01 X36.2762 Y0.8127
G01 X36.1831 Y0.8486
G01 X36.1095 Y0.8733
G01 X36.0602 Y0.8883
G01 X35.9733 Y0.9115
G01 X35.9000 Y0.9280
G01 X35.8614 Y0.9354
G01 X35.7873 Y0.9480
G01 X35.7103 Y0.9579
G01 X35.6712 Y0.9619
G01 X35.5957 Y0.9675
G01 X35.5549 Y0.9692
G01 X35.4806 Y0.9706
G01 X1.1113 Y0.9707
G01 X1.0079 Y0.9681
G01 X0.9085 Y0.9608
G01 X0.8070 Y0.9484
G01 X0.7063 Y0.9309
G01 X0.6066 Y0.9086
G01 X0.5081 Y0.8814
G01 X0.4111 Y0.8494
G01 X0.3157 Y0.8127
G01 X0.2334 Y0.7765
G01 X0.1418 Y0.7312
G01 X0.0526 Y0.6814
G01 X-0.0341 Y0.6273
G01 X-0.1080 Y0.5761
G01 X-0.1397 Y0.5529
G01 X-0.1990 Y0.5066
G01 X-0.2675 Y0.4485
G01 X-0.2968 Y0.4223
G01 X-0.3424 Y0.3789
G01 X-0.3788 Y0.3425
G01 X-0.4403 Y0.2769
G01 X-0.5065 Y0.1991
G01 X-0.5689 Y0.1181
G01 X-0.6272 Y0.0342
G01 X-0.6750 Y-0.0419
G01 X-0.7254 Y-0.1309
G01 X-0.7712 Y-0.2222
G01 X-0.8126 Y-0.3156
G01 X-0.8485 Y-0.4087
G01 X-0.8806 Y-0.5057
G01 X-0.9079 Y-0.6041
G01 X-0.9304 Y-0.7038
G01 X-0.9479 Y-0.8045
G01 X-0.9605 Y-0.9059
G01 X-0.9680 Y-1.0078
G01 X-0.9705 Y-1.0983
G00 X-0.9705 Y-1.0983
G01 F70.00
G01 Z-1.3000
G01 F120.00
G01 X-0.9706 Y-9.5250
G01 X-0.9682 Y-9.6259
G01 X-0.9628 Y-9.7034
G01 X-0.9592 Y-9.7425
G01 X-0.9479 Y-9.8317
G01 X-0.9308 Y-9.9299
G01 X-0.9142 Y-10.0058
G01 X-0.9049 Y-10.0439
G01 X-0.8806 Y-10.1305
G01 X-0.8493 Y-10.2252
G01 X-0.8217 Y-10.2978
G01 X-0.8069 Y-10.3341
G01 X-0.7702 Y-10.4162
G01 X-0.7254 Y-10.5053
G01 X-0.6874 Y-10.5730
G01 X-0.6674 Y-10.6068
G01 X-0.6191 Y-10.6826
G01 X-0.5617 Y-10.7641
G01 X-0.5142 Y-10.8256
G01 X-0.4894 Y-10.8561
G01 X-0.4305 Y-10.9240
G01 X-0.3617 Y-10.9962
G01 X-0.3057 Y-11.0500
G01 X-0.2768 Y-11.0765
G01 X-0.2085 Y-11.1350
G01 X-0.1299 Y-11.1964
G01 X-0.0667 Y-11.2414
G01 X-0.0341 Y-11.2634
G01 X0.0420 Y-11.3113
G01 X0.1288 Y-11.3604
G01 X0.1979 Y-11.3956
G01 X0.2333 Y-11.4126
G01 X0.3157 Y-11.4488
G01 X0.4087 Y-11.4847
G01 X0.4823 Y-11.5094
G01 X0.5316 Y-11.5244
G01 X0.6185 Y-11.5476
G01 X0.6918 Y-11.5641
G01 X0.7304 Y-11.5715
G01 X0.8045 Y-11.5841
G01 X0.8815 Y-11.5940
G01 X0.9206 Y-11.5980
G01 X0.9951 Y-11.6035
G01 X1.0327 Y-11.6052
G01 X1.1112 Y-11.6069
G01 X35.4806 Y-11.6069
G01 X35.5693 Y-11.6050
G01 X35.6590 Y-11.5991
G01 X35.7103 Y-11.5941
G01 X35.7873 Y-11.5842
G01 X35.8880 Y-11.5667
G01 X35.9853 Y-11.5448
G01 X36.0720 Y-11.5211
G01 X36.1576 Y-11.4936
G01 X36.2061 Y-11.4762
G01 X36.2784 Y-11.4480
G01 X36.3696 Y-11.4075
G01 X36.4609 Y-11.3617
G01 X36.5287 Y-11.3237
G01 X36.5729 Y-11.2972
G01 X36.6484 Y-11.2485
G01 X36.7218 Y-11.1965
G01 X36.8004 Y-11.1351
G01 X36.8778 Y-11.0684
G01 X36.9343 Y-11.0151
G01 X36.9707 Y-10.9787
G01 X37.0322 Y-10.9131
G01 X37.0907 Y-10.8448
G01 X37.1521 Y-10.7662
G01 X37.2110 Y-10.6827
G01 X37.2528 Y-10.6173
G01 X37.2793 Y-10.5731
G01 X37.3230 Y-10.4945
G01 X37.3631 Y-10.4140
G01 X37.4036 Y-10.3228
G01 X37.4404 Y-10.2275
G01 X37.4651 Y-10.1539
G01 X37.4801 Y-10.1046
G01 X37.5033 Y-10.0177
G01 X37.5198 Y-9.9444
G01 X37.5272 Y-9.9058
G01 X37.5398 Y-9.8317
G01 X37.5497 Y-9.7547
G01 X37.5537 Y-9.7156
G01 X37.5593 Y-9.6406
G01 X37.5610 Y-9.6014
G01 X37.5625 Y-9.5250
G01 X37.5625 Y-1.1112
G01 X37.5606 Y-1.0225
G01 X37.5584 Y-0.9833
G01 X37.5524 Y-0.9059
G01 X37.5419 Y-0.8191
G01 X37.5272 Y-0.7304
G01 X37.5172 Y-0.6798
G01 X37.4998 Y-0.6041
G01 X37.4732 Y-0.5080
G01 X37.4453 Y-0.4226
G01 X37.4318 Y-0.3857
G01 X37.4036 Y-0.3134
G01 X37.3631 Y-0.2222
G01 X37.3230 Y-0.1417
G01 X37.3043 Y-0.1072
G01 X37.2657 Y-0.0398
G01 X37.2123 Y0.0444
G01 X37.1608 Y0.1181
G01 X37.1372 Y0.1495
G01 X37.0892 Y0.2105
G01 X37.0240 Y0.2860
G01 X36.9622 Y0.3513
G01 X36.9343 Y0.3789
G01 X36.8778 Y0.4322
G01 X36.8023 Y0.4974
G01 X36.7218 Y0.5603
G01 X36.6585 Y0.6053
G01 X36.6260 Y0.6273
G01 X36.5499 Y0.6751
G01 X36.4631 Y0.7243
G01 X36.3939 Y0.7595
G01 X36.3585 Y0.7765
G01 X36.2762 Y0.8127
G01 X36.1831 Y0.8486
G01 X36.1095 Y0.8733
G01 X36.0602 Y0.8883
G01 X35.9733 Y0.9115
G01 X35.9000 Y0.9280
G01 X35.8614 Y0.9354
G01 X35.7873 Y0.9480
G01 X35.7103 Y0.9579
G01 X35.6712 Y0.9619
G01 X35.5957 Y0.9675
G01 X35.5549 Y0.9692
G01 X35.4806 Y0.9706
G01 X1.1113 Y0.9707
G01 X1.0079 Y0.9681
G01 X0.9085 Y0.9608
G01 X0.8070 Y0.9484
G01 X0.7063 Y0.9309
G01 X0.6066 Y0.9086
G01 X0.5081 Y0.8814
G01 X0.4111 Y0.8494
G01 X0.3157 Y0.8127
G01 X0.2334 Y0.7765
G01 X0.1418 Y0.7312
G01 X0.0526 Y0.6814
G01 X-0.0341 Y0.6273
G01 X-0.1080 Y0.5761
G01 X-0.1397 Y0.5529
G01 X-0.1990 Y0.5066
G01 X-0.2675 Y0.4485
G01 X-0.2968 Y0.4223
G01 X-0.3424 Y0.3789
G01 X-0.3788 Y0.3425
G01 X-0.4403 Y0.2769
G01 X-0.5065 Y0.1991
G01 X-0.5689 Y0.1181
G01 X-0.6272 Y0.0342
G01 X-0.6750 Y-0.0419
G01 X-0.7254 Y-0.1309
G01 X-0.7712 Y-0.2222
G01 X-0.8126 Y-0.3156
G01 X-0.8485 Y-0.4087
G01 X-0.8806 Y-0.5057
G01 X-0.9079 Y-0.6041
G01 X-0.9304 Y-0.7038
G01 X-0.9479 Y-0.8045
G01 X-0.9605 Y-0.9059
G01 X-0.9680 Y-1.0078
G01 X-0.9705 Y-1.0983
G00 X-0.9705 Y-1.0983
G01 F70.00
G01 Z-1.4000
G01 F120.00
G01 X-0.9706 Y-9.5250
G01 X-0.9682 Y-9.6259
G01 X-0.9628 Y-9.7034
G01 X-0.9592 Y-9.7425
G01 X-0.9479 Y-9.8317
G01 X-0.9308 Y-9.9299
G01 X-0.9142 Y-10.0058
G01 X-0.9049 Y-10.0439
G01 X-0.8806 Y-10.1305
G01 X-0.8493 Y-10.2252
G01 X-0.8217 Y-10.2978
G01 X-0.8069 Y-10.3341
G01 X-0.7702 Y-10.4162
G01 X-0.7254 Y-10.5053
G01 X-0.6874 Y-10.5730
G01 X-0.6674 Y-10.6068
G01 X-0.6191 Y-10.6826
G01 X-0.5617 Y-10.7641
G01 X-0.5142 Y-10.8256
G01 X-0.4894 Y-10.8561
G01 X-0.4305 Y-10.9240
G01 X-0.3617 Y-10.9962
G01 X-0.3057 Y-11.0500
G01 X-0.2768 Y-11.0765
G01 X-0.2085 Y-11.1350
G01 X-0.1299 Y-11.1964
G01 X-0.0667 Y-11.2414
G01 X-0.0341 Y-11.2634
G01 X0.0420 Y-11.3113
G01 X0.1288 Y-11.3604
G01 X0.1979 Y-11.3956
G01 X0.2333 Y-11.4126
G01 X0.3157 Y-11.4488
G01 X0.4087 Y-11.4847
G01 X0.4823 Y-11.5094
G01 X0.5316 Y-11.5244
G01 X0.6185 Y-11.5476
G01 X0.6918 Y-11.5641
G01 X0.7304 Y-11.5715
G01 X0.8045 Y-11.5841
G01 X0.8815 Y-11.5940
G01 X0.9206 Y-11.5980
G01 X0.9951 Y-11.6035
G01 X1.0327 Y-11.6052
G01 X1.1112 Y-11.6069
G01 X35.4806 Y-11.6069
G01 X35.5693 Y-11.6050
G01 X35.6590 Y-11.5991
G01 X35.7103 Y-11.5941
G01 X35.7873 Y-11.5842
G01 X35.8880 Y-11.5667
G01 X35.9853 Y-11.5448
G01 X36.0720 Y-11.5211
G01 X36.1576 Y-11.4936
G01 X36.2061 Y-11.4762
G01 X36.2784 Y-11.4480
G01 X36.3696 Y-11.4075
G01 X36.4609 Y-11.3617
G01 X36.5287 Y-11.3237
G01 X36.5729 Y-11.2972
G01 X36.6484 Y-11.2485
G01 X36.7218 Y-11.1965
G01 X36.8004 Y-11.1351
G01 X36.8778 Y-11.0684
G01 X36.9343 Y-11.0151
G01 X36.9707 Y-10.9787
G01 X37.0322 Y-10.9131
G01 X37.0907 Y-10.8448
G01 X37.1521 Y-10.7662
G01 X37.2110 Y-10.6827
G01 X37.2528 Y-10.6173
G01 X37.2793 Y-10.5731
G01 X37.3230 Y-10.4945
G01 X37.3631 Y-10.4140
G01 X37.4036 Y-10.3228
G01 X37.4404 Y-10.2275
G01 X37.4651 Y-10.1539
G01 X37.4801 Y-10.1046
G01 X37.5033 Y-10.0177
G01 X37.5198 Y-9.9444
G01 X37.5272 Y-9.9058
G01 X37.5398 Y-9.8317
G01 X37.5497 Y-9.7547
G01 X37.5537 Y-9.7156
G01 X37.5593 Y-9.6406
G01 X37.5610 Y-9.6014
G01 X37.5625 Y-9.5250
G01 X37.5625 Y-1.1112
G01 X37.5606 Y-1.0225
G01 X37.5584 Y-0.9833
G01 X37.5524 Y-0.9059
G01 X37.5419 Y-0.8191
G01 X37.5272 Y-0.7304
G01 X37.5172 Y-0.6798
G01 X37.4998 Y-0.6041
G01 X37.4732 Y-0.5080
G01 X37.4453 Y-0.4226
G01 X37.4318 Y-0.3857
G01 X37.4036 Y-0.3134
G01 X37.3631 Y-0.2222
G01 X37.3230 Y-0.1417
G01 X37.3043 Y-0.1072
G01 X37.2657 Y-0.0398
G01 X37.2123 Y0.0444
G01 X37.1608 Y0.1181
G01 X37.1372 Y0.1495
G01 X37.0892 Y0.2105
G01 X37.0240 Y0.2860
G01 X36.9622 Y0.3513
G01 X36.9343 Y0.3789
G01 X36.8778 Y0.4322
G01 X36.8023 Y0.4974
G01 X36.7218 Y0.5603
G01 X36.6585 Y0.6053
G01 X36.6260 Y0.6273
G01 X36.5499 Y0.6751
G01 X36.4631 Y0.7243
G01 X36.3939 Y0.7595
G01 X36.3585 Y0.7765
G01 X36.2762 Y0.8127
G01 X36.1831 Y0.8486
G01 X36.1095 Y0.8733
G01 X36.0602 Y0.8883
G01 X35.9733 Y0.9115
G01 X35.9000 Y0.9280
G01 X35.8614 Y0.9354
G01 X35.7873 Y0.9480
G01 X35.7103 Y0.9579
G01 X35.6712 Y0.9619
G01 X35.5957 Y0.9675
G01 X35.5549 Y0.9692
G01 X35.4806 Y0.9706
G01 X1.1113 Y0.9707
G01 X1.0079 Y0.9681
G01 X0.9085 Y0.9608
G01 X0.8070 Y0.9484
G01 X0.7063 Y0.9309
G01 X0.6066 Y0.9086
G01 X0.5081 Y0.8814
G01 X0.4111 Y0.8494
G01 X0.3157 Y0.8127
G01 X0.2334 Y0.7765
G01 X0.1418 Y0.7312
G01 X0.0526 Y0.6814
G01 X-0.0341 Y0.6273
G01 X-0.1080 Y0.5761
G01 X-0.1397 Y0.5529
G01 X-0.1990 Y0.5066
G01 X-0.2675 Y0.4485
G01 X-0.2968 Y0.4223
G01 X-0.3424 Y0.3789
G01 X-0.3788 Y0.3425
G01 X-0.4403 Y0.2769
G01 X-0.5065 Y0.1991
G01 X-0.5689 Y0.1181
G01 X-0.6272 Y0.0342
G01 X-0.6750 Y-0.0419
G01 X-0.7254 Y-0.1309
G01 X-0.7712 Y-0.2222
G01 X-0.8126 Y-0.3156
G01 X-0.8485 Y-0.4087
G01 X-0.8806 Y-0.5057
G01 X-0.9079 Y-0.6041
G01 X-0.9304 Y-0.7038
G01 X-0.9479 Y-0.8045
G01 X-0.9605 Y-0.9059
G01 X-0.9680 Y-1.0078
G01 X-0.9705 Y-1.0983
G00 X-0.9705 Y-1.0983
G01 F70.00
G01 Z-1.5000
G01 F120.00
G01 X-0.9706 Y-9.5250
G01 X-0.9682 Y-9.6259
G01 X-0.9628 Y-9.7034
G01 X-0.9592 Y-9.7425
G01 X-0.9479 Y-9.8317
G01 X-0.9308 Y-9.9299
G01 X-0.9142 Y-10.0058
G01 X-0.9049 Y-10.0439
G01 X-0.8806 Y-10.1305
G01 X-0.8493 Y-10.2252
G01 X-0.8217 Y-10.2978
G01 X-0.8069 Y-10.3341
G01 X-0.7702 Y-10.4162
G01 X-0.7254 Y-10.5053
G01 X-0.6874 Y-10.5730
G01 X-0.6674 Y-10.6068
G01 X-0.6191 Y-10.6826
G01 X-0.5617 Y-10.7641
G01 X-0.5142 Y-10.8256
G01 X-0.4894 Y-10.8561
G01 X-0.4305 Y-10.9240
G01 X-0.3617 Y-10.9962
G01 X-0.3057 Y-11.0500
G01 X-0.2768 Y-11.0765
G01 X-0.2085 Y-11.1350
G01 X-0.1299 Y-11.1964
G01 X-0.0667 Y-11.2414
G01 X-0.0341 Y-11.2634
G01 X0.0420 Y-11.3113
G01 X0.1288 Y-11.3604
G01 X0.1979 Y-11.3956
G01 X0.2333 Y-11.4126
G01 X0.3157 Y-11.4488
G01 X0.4087 Y-11.4847
G01 X0.4823 Y-11.5094
G01 X0.5316 Y-11.5244
G01 X0.6185 Y-11.5476
G01 X0.6918 Y-11.5641
G01 X0.7304 Y-11.5715
G01 X0.8045 Y-11.5841
G01 X0.8815 Y-11.5940
G01 X0.9206 Y-11.5980
G01 X0.9951 Y-11.6035
G01 X1.0327 Y-11.6052
G01 X1.1112 Y-11.6069
G01 X35.4806 Y-11.6069
G01 X35.5693 Y-11.6050
G01 X35.6590 Y-11.5991
G01 X35.7103 Y-11.5941
G01 X35.7873 Y-11.5842
G01 X35.8880 Y-11.5667
G01 X35.9853 Y-11.5448
G01 X36.0720 Y-11.5211
G01 X36.1576 Y-11.4936
G01 X36.2061 Y-11.4762
G01 X36.2784 Y-11.4480
G01 X36.3696 Y-11.4075
G01 X36.4609 Y-11.3617
G01 X36.5287 Y-11.3237
G01 X36.5729 Y-11.2972
G01 X36.6484 Y-11.2485
G01 X36.7218 Y-11.1965
G01 X36.8004 Y-11.1351
G01 X36.8778 Y-11.0684
G01 X36.9343 Y-11.0151
G01 X36.9707 Y-10.9787
G01 X37.0322 Y-10.9131
G01 X37.0907 Y-10.8448
G01 X37.1521 Y-10.7662
G01 X37.2110 Y-10.6827
G01 X37.2528 Y-10.6173
G01 X37.2793 Y-10.5731
G01 X37.3230 Y-10.4945
G01 X37.3631 Y-10.4140
G01 X37.4036 Y-10.3228
G01 X37.4404 Y-10.2275
G01 X37.4651 Y-10.1539
G01 X37.4801 Y-10.1046
G01 X37.5033 Y-10.0177
G01 X37.5198 Y-9.9444
G01 X37.5272 Y-9.9058
G01 X37.5398 Y-9.8317
G01 X37.5497 Y-9.7547
G01 X37.5537 Y-9.7156
G01 X37.5593 Y-9.6406
G01 X37.5610 Y-9.6014
G01 X37.5625 Y-9.5250
G01 X37.5625 Y-1.1112
G01 X37.5606 Y-1.0225
G01 X37.5584 Y-0.9833
G01 X37.5524 Y-0.9059
G01 X37.5419 Y-0.8191
G01 X37.5272 Y-0.7304
G01 X37.5172 Y-0.6798
G01 X37.4998 Y-0.6041
G01 X37.4732 Y-0.5080
G01 X37.4453 Y-0.4226
G01 X37.4318 Y-0.3857
G01 X37.4036 Y-0.3134
G01 X37.3631 Y-0.2222
G01 X37.3230 Y-0.1417
G01 X37.3043 Y-0.1072
G01 X37.2657 Y-0.0398
G01 X37.2123 Y0.0444
G01 X37.1608 Y0.1181
G01 X37.1372 Y0.1495
G01 X37.0892 Y0.2105
G01 X37.0240 Y0.2860
G01 X36.9622 Y0.3513
G01 X36.9343 Y0.3789
G01 X36.8778 Y0.4322
G01 X36.8023 Y0.4974
G01 X36.7218 Y0.5603
G01 X36.6585 Y0.6053
G01 X36.6260 Y0.6273
G01 X36.5499 Y0.6751
G01 X36.4631 Y0.7243
G01 X36.3939 Y0.7595
G01 X36.3585 Y0.7765
G01 X36.2762 Y0.8127
G01 X36.1831 Y0.8486
G01 X36.1095 Y0.8733
G01 X36.0602 Y0.8883
G01 X35.9733 Y0.9115
G01 X35.9000 Y0.9280
G01 X35.8614 Y0.9354
G01 X35.7873 Y0.9480
G01 X35.7103 Y0.9579
G01 X35.6712 Y0.9619
G01 X35.5957 Y0.9675
G01 X35.5549 Y0.9692
G01 X35.4806 Y0.9706
G01 X1.1113 Y0.9707
G01 X1.0079 Y0.9681
G01 X0.9085 Y0.9608
G01 X0.8070 Y0.9484
G01 X0.7063 Y0.9309
G01 X0.6066 Y0.9086
G01 X0.5081 Y0.8814
G01 X0.4111 Y0.8494
G01 X0.3157 Y0.8127
G01 X0.2334 Y0.7765
G01 X0.1418 Y0.7312
G01 X0.0526 Y0.6814
G01 X-0.0341 Y0.6273
G01 X-0.1080 Y0.5761
G01 X-0.1397 Y0.5529
G01 X-0.1990 Y0.5066
G01 X-0.2675 Y0.4485
G01 X-0.2968 Y0.4223
G01 X-0.3424 Y0.3789
G01 X-0.3788 Y0.3425
G01 X-0.4403 Y0.2769
G01 X-0.5065 Y0.1991
G01 X-0.5689 Y0.1181
G01 X-0.6272 Y0.0342
G01 X-0.6750 Y-0.0419
G01 X-0.7254 Y-0.1309
G01 X-0.7712 Y-0.2222
G01 X-0.8126 Y-0.3156
G01 X-0.8485 Y-0.4087
G01 X-0.8806 Y-0.5057
G01 X-0.9079 Y-0.6041
G01 X-0.9304 Y-0.7038
G01 X-0.9479 Y-0.8045
G01 X-0.9605 Y-0.9059
G01 X-0.9680 Y-1.0078
G01 X-0.9705 Y-1.0983
G00 X-0.9705 Y-1.0983
G01 F70.00
G01 Z-1.6000
G01 F120.00
G01 X-0.9706 Y-9.5250
G01 X-0.9682 Y-9.6259
G01 X-0.9628 Y-9.7034
G01 X-0.9592 Y-9.7425
G01 X-0.9479 Y-9.8317
G01 X-0.9308 Y-9.9299
G01 X-0.9142 Y-10.0058
G01 X-0.9049 Y-10.0439
G01 X-0.8806 Y-10.1305
G01 X-0.8493 Y-10.2252
G01 X-0.8217 Y-10.2978
G01 X-0.8069 Y-10.3341
G01 X-0.7702 Y-10.4162
G01 X-0.7254 Y-10.5053
G01 X-0.6874 Y-10.5730
G01 X-0.6674 Y-10.6068
G01 X-0.6191 Y-10.6826
G01 X-0.5617 Y-10.7641
G01 X-0.5142 Y-10.8256
G01 X-0.4894 Y-10.8561
G01 X-0.4305 Y-10.9240
G01 X-0.3617 Y-10.9962
G01 X-0.3057 Y-11.0500
G01 X-0.2768 Y-11.0765
G01 X-0.2085 Y-11.1350
G01 X-0.1299 Y-11.1964
G01 X-0.0667 Y-11.2414
G01 X-0.0341 Y-11.2634
G01 X0.0420 Y-11.3113
G01 X0.1288 Y-11.3604
G01 X0.1979 Y-11.3956
G01 X0.2333 Y-11.4126
G01 X0.3157 Y-11.4488
G01 X0.4087 Y-11.4847
G01 X0.4823 Y-11.5094
G01 X0.5316 Y-11.5244
G01 X0.6185 Y-11.5476
G01 X0.6918 Y-11.5641
G01 X0.7304 Y-11.5715
G01 X0.8045 Y-11.5841
G01 X0.8815 Y-11.5940
G01 X0.9206 Y-11.5980
G01 X0.9951 Y-11.6035
G01 X1.0327 Y-11.6052
G01 X1.1112 Y-11.6069
G01 X35.4806 Y-11.6069
G01 X35.5693 Y-11.6050
G01 X35.6590 Y-11.5991
G01 X35.7103 Y-11.5941
G01 X35.7873 Y-11.5842
G01 X35.8880 Y-11.5667
G01 X35.9853 Y-11.5448
G01 X36.0720 Y-11.5211
G01 X36.1576 Y-11.4936
G01 X36.2061 Y-11.4762
G01 X36.2784 Y-11.4480
G01 X36.3696 Y-11.4075
G01 X36.4609 Y-11.3617
G01 X36.5287 Y-11.3237
G01 X36.5729 Y-11.2972
G01 X36.6484 Y-11.2485
G01 X36.7218 Y-11.1965
G01 X36.8004 Y-11.1351
G01 X36.8778 Y-11.0684
G01 X36.9343 Y-11.0151
G01 X36.9707 Y-10.9787
G01 X37.0322 Y-10.9131
G01 X37.0907 Y-10.8448
G01 X37.1521 Y-10.7662
G01 X37.2110 Y-10.6827
G01 X37.2528 Y-10.6173
G01 X37.2793 Y-10.5731
G01 X37.3230 Y-10.4945
G01 X37.3631 Y-10.4140
G01 X37.4036 Y-10.3228
G01 X37.4404 Y-10.2275
G01 X37.4651 Y-10.1539
G01 X37.4801 Y-10.1046
G01 X37.5033 Y-10.0177
G01 X37.5198 Y-9.9444
G01 X37.5272 Y-9.9058
G01 X37.5398 Y-9.8317
G01 X37.5497 Y-9.7547
G01 X37.5537 Y-9.7156
G01 X37.5593 Y-9.6406
G01 X37.5610 Y-9.6014
G01 X37.5625 Y-9.5250
G01 X37.5625 Y-1.1112
G01 X37.5606 Y-1.0225
G01 X37.5584 Y-0.9833
G01 X37.5524 Y-0.9059
G01 X37.5419 Y-0.8191
G01 X37.5272 Y-0.7304
G01 X37.5172 Y-0.6798
G01 X37.4998 Y-0.6041
G01 X37.4732 Y-0.5080
G01 X37.4453 Y-0.4226
G01 X37.4318 Y-0.3857
G01 X37.4036 Y-0.3134
G01 X37.3631 Y-0.2222
G01 X37.3230 Y-0.1417
G01 X37.3043 Y-0.1072
G01 X37.2657 Y-0.0398
G01 X37.2123 Y0.0444
G01 X37.1608 Y0.1181
G01 X37.1372 Y0.1495
G01 X37.0892 Y0.2105
G01 X37.0240 Y0.2860
G01 X36.9622 Y0.3513
G01 X36.9343 Y0.3789
G01 X36.8778 Y0.4322
G01 X36.8023 Y0.4974
G01 X36.7218 Y0.5603
G01 X36.6585 Y0.6053
G01 X36.6260 Y0.6273
G01 X36.5499 Y0.6751
G01 X36.4631 Y0.7243
G01 X36.3939 Y0.7595
G01 X36.3585 Y0.7765
G01 X36.2762 Y0.8127
G01 X36.1831 Y0.8486
G01 X36.1095 Y0.8733
G01 X36.0602 Y0.8883
G01 X35.9733 Y0.9115
G01 X35.9000 Y0.9280
G01 X35.8614 Y0.9354
G01 X35.7873 Y0.9480
G01 X35.7103 Y0.9579
G01 X35.6712 Y0.9619
G01 X35.5957 Y0.9675
G01 X35.5549 Y0.9692
G01 X35.4806 Y0.9706
G01 X1.1113 Y0.9707
G01 X1.0079 Y0.9681
G01 X0.9085 Y0.9608
G01 X0.8070 Y0.9484
G01 X0.7063 Y0.9309
G01 X0.6066 Y0.9086
G01 X0.5081 Y0.8814
G01 X0.4111 Y0.8494
G01 X0.3157 Y0.8127
G01 X0.2334 Y0.7765
G01 X0.1418 Y0.7312
G01 X0.0526 Y0.6814
G01 X-0.0341 Y0.6273
G01 X-0.1080 Y0.5761
G01 X-0.1397 Y0.5529
G01 X-0.1990 Y0.5066
G01 X-0.2675 Y0.4485
G01 X-0.2968 Y0.4223
G01 X-0.3424 Y0.3789
G01 X-0.3788 Y0.3425
G01 X-0.4403 Y0.2769
G01 X-0.5065 Y0.1991
G01 X-0.5689 Y0.1181
G01 X-0.6272 Y0.0342
G01 X-0.6750 Y-0.0419
G01 X-0.7254 Y-0.1309
G01 X-0.7712 Y-0.2222
G01 X-0.8126 Y-0.3156
G01 X-0.8485 Y-0.4087
G01 X-0.8806 Y-0.5057
G01 X-0.9079 Y-0.6041
G01 X-0.9304 Y-0.7038
G01 X-0.9479 Y-0.8045
G01 X-0.9605 Y-0.9059
G01 X-0.9680 Y-1.0078
G01 X-0.9705 Y-1.0983
G00 X-0.9705 Y-1.0983
G01 F70.00
G01 Z-1.7000
G01 F120.00
G01 X-0.9706 Y-9.5250
G01 X-0.9682 Y-9.6259
G01 X-0.9628 Y-9.7034
G01 X-0.9592 Y-9.7425
G01 X-0.9479 Y-9.8317
G01 X-0.9308 Y-9.9299
G01 X-0.9142 Y-10.0058
G01 X-0.9049 Y-10.0439
G01 X-0.8806 Y-10.1305
G01 X-0.8493 Y-10.2252
G01 X-0.8217 Y-10.2978
G01 X-0.8069 Y-10.3341
G01 X-0.7702 Y-10.4162
G01 X-0.7254 Y-10.5053
G01 X-0.6874 Y-10.5730
G01 X-0.6674 Y-10.6068
G01 X-0.6191 Y-10.6826
G01 X-0.5617 Y-10.7641
G01 X-0.5142 Y-10.8256
G01 X-0.4894 Y-10.8561
G01 X-0.4305 Y-10.9240
G01 X-0.3617 Y-10.9962
G01 X-0.3057 Y-11.0500
G01 X-0.2768 Y-11.0765
G01 X-0.2085 Y-11.1350
G01 X-0.1299 Y-11.1964
G01 X-0.0667 Y-11.2414
G01 X-0.0341 Y-11.2634
G01 X0.0420 Y-11.3113
G01 X0.1288 Y-11.3604
G01 X0.1979 Y-11.3956
G01 X0.2333 Y-11.4126
G01 X0.3157 Y-11.4488
G01 X0.4087 Y-11.4847
G01 X0.4823 Y-11.5094
G01 X0.5316 Y-11.5244
G01 X0.6185 Y-11.5476
G01 X0.6918 Y-11.5641
G01 X0.7304 Y-11.5715
G01 X0.8045 Y-11.5841
G01 X0.8815 Y-11.5940
G01 X0.9206 Y-11.5980
G01 X0.9951 Y-11.6035
G01 X1.0327 Y-11.6052
G01 X1.1112 Y-11.6069
G01 X35.4806 Y-11.6069
G01 X35.5693 Y-11.6050
G01 X35.6590 Y-11.5991
G01 X35.7103 Y-11.5941
G01 X35.7873 Y-11.5842
G01 X35.8880 Y-11.5667
G01 X35.9853 Y-11.5448
G01 X36.0720 Y-11.5211
G01 X36.1576 Y-11.4936
G01 X36.2061 Y-11.4762
G01 X36.2784 Y-11.4480
G01 X36.3696 Y-11.4075
G01 X36.4609 Y-11.3617
G01 X36.5287 Y-11.3237
G01 X36.5729 Y-11.2972
G01 X36.6484 Y-11.2485
G01 X36.7218 Y-11.1965
G01 X36.8004 Y-11.1351
G01 X36.8778 Y-11.0684
G01 X36.9343 Y-11.0151
G01 X36.9707 Y-10.9787
G01 X37.0322 Y-10.9131
G01 X37.0907 Y-10.8448
G01 X37.1521 Y-10.7662
G01 X37.2110 Y-10.6827
G01 X37.2528 Y-10.6173
G01 X37.2793 Y-10.5731
G01 X37.3230 Y-10.4945
G01 X37.3631 Y-10.4140
G01 X37.4036 Y-10.3228
G01 X37.4404 Y-10.2275
G01 X37.4651 Y-10.1539
G01 X37.4801 Y-10.1046
G01 X37.5033 Y-10.0177
G01 X37.5198 Y-9.9444
G01 X37.5272 Y-9.9058
G01 X37.5398 Y-9.8317
G01 X37.5497 Y-9.7547
G01 X37.5537 Y-9.7156
G01 X37.5593 Y-9.6406
G01 X37.5610 Y-9.6014
G01 X37.5625 Y-9.5250
G01 X37.5625 Y-1.1112
G01 X37.5606 Y-1.0225
G01 X37.5584 Y-0.9833
G01 X37.5524 Y-0.9059
G01 X37.5419 Y-0.8191
G01 X37.5272 Y-0.7304
G01 X37.5172 Y-0.6798
G01 X37.4998 Y-0.6041
G01 X37.4732 Y-0.5080
G01 X37.4453 Y-0.4226
G01 X37.4318 Y-0.3857
G01 X37.4036 Y-0.3134
G01 X37.3631 Y-0.2222
G01 X37.3230 Y-0.1417
G01 X37.3043 Y-0.1072
G01 X37.2657 Y-0.0398
G01 X37.2123 Y0.0444
G01 X37.1608 Y0.1181
G01 X37.1372 Y0.1495
G01 X37.0892 Y0.2105
G01 X37.0240 Y0.2860
G01 X36.9622 Y0.3513
G01 X36.9343 Y0.3789
G01 X36.8778 Y0.4322
G01 X36.8023 Y0.4974
G01 X36.7218 Y0.5603
G01 X36.6585 Y0.6053
G01 X36.6260 Y0.6273
G01 X36.5499 Y0.6751
G01 X36.4631 Y0.7243
G01 X36.3939 Y0.7595
G01 X36.3585 Y0.7765
G01 X36.2762 Y0.8127
G01 X36.1831 Y0.8486
G01 X36.1095 Y0.8733
G01 X36.0602 Y0.8883
G01 X35.9733 Y0.9115
G01 X35.9000 Y0.9280
G01 X35.8614 Y0.9354
G01 X35.7873 Y0.9480
G01 X35.7103 Y0.9579
G01 X35.6712 Y0.9619
G01 X35.5957 Y0.9675
G01 X35.5549 Y0.9692
G01 X35.4806 Y0.9706
G01 X1.1113 Y0.9707
G01 X1.0079 Y0.9681
G01 X0.9085 Y0.9608
G01 X0.8070 Y0.9484
G01 X0.7063 Y0.9309
G01 X0.6066 Y0.9086
G01 X0.5081 Y0.8814
G01 X0.4111 Y0.8494
G01 X0.3157 Y0.8127
G01 X0.2334 Y0.7765
G01 X0.1418 Y0.7312
G01 X0.0526 Y0.6814
G01 X-0.0341 Y0.6273
G01 X-0.1080 Y0.5761
G01 X-0.1397 Y0.5529
G01 X-0.1990 Y0.5066
G01 X-0.2675 Y0.4485
G01 X-0.2968 Y0.4223
G01 X-0.3424 Y0.3789
G01 X-0.3788 Y0.3425
G01 X-0.4403 Y0.2769
G01 X-0.5065 Y0.1991
G01 X-0.5689 Y0.1181
G01 X-0.6272 Y0.0342
G01 X-0.6750 Y-0.0419
G01 X-0.7254 Y-0.1309
G01 X-0.7712 Y-0.2222
G01 X-0.8126 Y-0.3156
G01 X-0.8485 Y-0.4087
G01 X-0.8806 Y-0.5057
G01 X-0.9079 Y-0.6041
G01 X-0.9304 Y-0.7038
G01 X-0.9479 Y-0.8045
G01 X-0.9605 Y-0.9059
G01 X-0.9680 Y-1.0078
G01 X-0.9705 Y-1.0983
G00 X-0.9705 Y-1.0983
G01 F70.00
G01 Z-1.8000
G01 F120.00
G01 X-0.9706 Y-9.5250
G01 X-0.9682 Y-9.6259
G01 X-0.9628 Y-9.7034
G01 X-0.9592 Y-9.7425
G01 X-0.9479 Y-9.8317
G01 X-0.9308 Y-9.9299
G01 X-0.9142 Y-10.0058
G01 X-0.9049 Y-10.0439
G01 X-0.8806 Y-10.1305
G01 X-0.8493 Y-10.2252
G01 X-0.8217 Y-10.2978
G01 X-0.8069 Y-10.3341
G01 X-0.7702 Y-10.4162
G01 X-0.7254 Y-10.5053
G01 X-0.6874 Y-10.5730
G01 X-0.6674 Y-10.6068
G01 X-0.6191 Y-10.6826
G01 X-0.5617 Y-10.7641
G01 X-0.5142 Y-10.8256
G01 X-0.4894 Y-10.8561
G01 X-0.4305 Y-10.9240
G01 X-0.3617 Y-10.9962
G01 X-0.3057 Y-11.0500
G01 X-0.2768 Y-11.0765
G01 X-0.2085 Y-11.1350
G01 X-0.1299 Y-11.1964
G01 X-0.0667 Y-11.2414
G01 X-0.0341 Y-11.2634
G01 X0.0420 Y-11.3113
G01 X0.1288 Y-11.3604
G01 X0.1979 Y-11.3956
G01 X0.2333 Y-11.4126
G01 X0.3157 Y-11.4488
G01 X0.4087 Y-11.4847
G01 X0.4823 Y-11.5094
G01 X0.5316 Y-11.5244
G01 X0.6185 Y-11.5476
G01 X0.6918 Y-11.5641
G01 X0.7304 Y-11.5715
G01 X0.8045 Y-11.5841
G01 X0.8815 Y-11.5940
G01 X0.9206 Y-11.5980
G01 X0.9951 Y-11.6035
G01 X1.0327 Y-11.6052
G01 X1.1112 Y-11.6069
G01 X35.4806 Y-11.6069
G01 X35.5693 Y-11.6050
G01 X35.6590 Y-11.5991
G01 X35.7103 Y-11.5941
G01 X35.7873 Y-11.5842
G01 X35.8880 Y-11.5667
G01 X35.9853 Y-11.5448
G01 X36.0720 Y-11.5211
G01 X36.1576 Y-11.4936
G01 X36.2061 Y-11.4762
G01 X36.2784 Y-11.4480
G01 X36.3696 Y-11.4075
G01 X36.4609 Y-11.3617
G01 X36.5287 Y-11.3237
G01 X36.5729 Y-11.2972
G01 X36.6484 Y-11.2485
G01 X36.7218 Y-11.1965
G01 X36.8004 Y-11.1351
G01 X36.8778 Y-11.0684
G01 X36.9343 Y-11.0151
G01 X36.9707 Y-10.9787
G01 X37.0322 Y-10.9131
G01 X37.0907 Y-10.8448
G01 X37.1521 Y-10.7662
G01 X37.2110 Y-10.6827
G01 X37.2528 Y-10.6173
G01 X37.2793 Y-10.5731
G01 X37.3230 Y-10.4945
G01 X37.3631 Y-10.4140
G01 X37.4036 Y-10.3228
G01 X37.4404 Y-10.2275
G01 X37.4651 Y-10.1539
G01 X37.4801 Y-10.1046
G01 X37.5033 Y-10.0177
G01 X37.5198 Y-9.9444
G01 X37.5272 Y-9.9058
G01 X37.5398 Y-9.8317
G01 X37.5497 Y-9.7547
G01 X37.5537 Y-9.7156
G01 X37.5593 Y-9.6406
G01 X37.5610 Y-9.6014
G01 X37.5625 Y-9.5250
G01 X37.5625 Y-1.1112
G01 X37.5606 Y-1.0225
G01 X37.5584 Y-0.9833
G01 X37.5524 Y-0.9059
G01 X37.5419 Y-0.8191
G01 X37.5272 Y-0.7304
G01 X37.5172 Y-0.6798
G01 X37.4998 Y-0.6041
G01 X37.4732 Y-0.5080
G01 X37.4453 Y-0.4226
G01 X37.4318 Y-0.3857
G01 X37.4036 Y-0.3134
G01 X37.3631 Y-0.2222
G01 X37.3230 Y-0.1417
G01 X37.3043 Y-0.1072
G01 X37.2657 Y-0.0398
G01 X37.2123 Y0.0444
G01 X37.1608 Y0.1181
G01 X37.1372 Y0.1495
G01 X37.0892 Y0.2105
G01 X37.0240 Y0.2860
G01 X36.9622 Y0.3513
G01 X36.9343 Y0.3789
G01 X36.8778 Y0.4322
G01 X36.8023 Y0.4974
G01 X36.7218 Y0.5603
G01 X36.6585 Y0.6053
G01 X36.6260 Y0.6273
G01 X36.5499 Y0.6751
G01 X36.4631 Y0.7243
G01 X36.3939 Y0.7595
G01 X36.3585 Y0.7765
G01 X36.2762 Y0.8127
G01 X36.1831 Y0.8486
G01 X36.1095 Y0.8733
G01 X36.0602 Y0.8883
G01 X35.9733 Y0.9115
G01 X35.9000 Y0.9280
G01 X35.8614 Y0.9354
G01 X35.7873 Y0.9480
G01 X35.7103 Y0.9579
G01 X35.6712 Y0.9619
G01 X35.5957 Y0.9675
G01 X35.5549 Y0.9692
G01 X35.4806 Y0.9706
G01 X1.1113 Y0.9707
G01 X1.0079 Y0.9681
G01 X0.9085 Y0.9608
G01 X0.8070 Y0.9484
G01 X0.7063 Y0.9309
G01 X0.6066 Y0.9086
G01 X0.5081 Y0.8814
G01 X0.4111 Y0.8494
G01 X0.3157 Y0.8127
G01 X0.2334 Y0.7765
G01 X0.1418 Y0.7312
G01 X0.0526 Y0.6814
G01 X-0.0341 Y0.6273
G01 X-0.1080 Y0.5761
G01 X-0.1397 Y0.5529
G01 X-0.1990 Y0.5066
G01 X-0.2675 Y0.4485
G01 X-0.2968 Y0.4223
G01 X-0.3424 Y0.3789
G01 X-0.3788 Y0.3425
G01 X-0.4403 Y0.2769
G01 X-0.5065 Y0.1991
G01 X-0.5689 Y0.1181
G01 X-0.6272 Y0.0342
G01 X-0.6750 Y-0.0419
G01 X-0.7254 Y-0.1309
G01 X-0.7712 Y-0.2222
G01 X-0.8126 Y-0.3156
G01 X-0.8485 Y-0.4087
G01 X-0.8806 Y-0.5057
G01 X-0.9079 Y-0.6041
G01 X-0.9304 Y-0.7038
G01 X-0.9479 Y-0.8045
G01 X-0.9605 Y-0.9059
G01 X-0.9680 Y-1.0078
G01 X-0.9705 Y-1.0983
G00 X-0.9705 Y-1.0983
G01 F70.00
G01 Z-1.9000
G01 F120.00
G01 X-0.9706 Y-9.5250
G01 X-0.9682 Y-9.6259
G01 X-0.9628 Y-9.7034
G01 X-0.9592 Y-9.7425
G01 X-0.9479 Y-9.8317
G01 X-0.9308 Y-9.9299
G01 X-0.9142 Y-10.0058
G01 X-0.9049 Y-10.0439
G01 X-0.8806 Y-10.1305
G01 X-0.8493 Y-10.2252
G01 X-0.8217 Y-10.2978
G01 X-0.8069 Y-10.3341
G01 X-0.7702 Y-10.4162
G01 X-0.7254 Y-10.5053
G01 X-0.6874 Y-10.5730
G01 X-0.6674 Y-10.6068
G01 X-0.6191 Y-10.6826
G01 X-0.5617 Y-10.7641
G01 X-0.5142 Y-10.8256
G01 X-0.4894 Y-10.8561
G01 X-0.4305 Y-10.9240
G01 X-0.3617 Y-10.9962
G01 X-0.3057 Y-11.0500
G01 X-0.2768 Y-11.0765
G01 X-0.2085 Y-11.1350
G01 X-0.1299 Y-11.1964
G01 X-0.0667 Y-11.2414
G01 X-0.0341 Y-11.2634
G01 X0.0420 Y-11.3113
G01 X0.1288 Y-11.3604
G01 X0.1979 Y-11.3956
G01 X0.2333 Y-11.4126
G01 X0.3157 Y-11.4488
G01 X0.4087 Y-11.4847
G01 X0.4823 Y-11.5094
G01 X0.5316 Y-11.5244
G01 X0.6185 Y-11.5476
G01 X0.6918 Y-11.5641
G01 X0.7304 Y-11.5715
G01 X0.8045 Y-11.5841
G01 X0.8815 Y-11.5940
G01 X0.9206 Y-11.5980
G01 X0.9951 Y-11.6035
G01 X1.0327 Y-11.6052
G01 X1.1112 Y-11.6069
G01 X35.4806 Y-11.6069
G01 X35.5693 Y-11.6050
G01 X35.6590 Y-11.5991
G01 X35.7103 Y-11.5941
G01 X35.7873 Y-11.5842
G01 X35.8880 Y-11.5667
G01 X35.9853 Y-11.5448
G01 X36.0720 Y-11.5211
G01 X36.1576 Y-11.4936
G01 X36.2061 Y-11.4762
G01 X36.2784 Y-11.4480
G01 X36.3696 Y-11.4075
G01 X36.4609 Y-11.3617
G01 X36.5287 Y-11.3237
G01 X36.5729 Y-11.2972
G01 X36.6484 Y-11.2485
G01 X36.7218 Y-11.1965
G01 X36.8004 Y-11.1351
G01 X36.8778 Y-11.0684
G01 X36.9343 Y-11.0151
G01 X36.9707 Y-10.9787
G01 X37.0322 Y-10.9131
G01 X37.0907 Y-10.8448
G01 X37.1521 Y-10.7662
G01 X37.2110 Y-10.6827
G01 X37.2528 Y-10.6173
G01 X37.2793 Y-10.5731
G01 X37.3230 Y-10.4945
G01 X37.3631 Y-10.4140
G01 X37.4036 Y-10.3228
G01 X37.4404 Y-10.2275
G01 X37.4651 Y-10.1539
G01 X37.4801 Y-10.1046
G01 X37.5033 Y-10.0177
G01 X37.5198 Y-9.9444
G01 X37.5272 Y-9.9058
G01 X37.5398 Y-9.8317
G01 X37.5497 Y-9.7547
G01 X37.5537 Y-9.7156
G01 X37.5593 Y-9.6406
G01 X37.5610 Y-9.6014
G01 X37.5625 Y-9.5250
G01 X37.5625 Y-1.1112
G01 X37.5606 Y-1.0225
G01 X37.5584 Y-0.9833
G01 X37.5524 Y-0.9059
G01 X37.5419 Y-0.8191
G01 X37.5272 Y-0.7304
G01 X37.5172 Y-0.6798
G01 X37.4998 Y-0.6041
G01 X37.4732 Y-0.5080
G01 X37.4453 Y-0.4226
G01 X37.4318 Y-0.3857
G01 X37.4036 Y-0.3134
G01 X37.3631 Y-0.2222
G01 X37.3230 Y-0.1417
G01 X37.3043 Y-0.1072
G01 X37.2657 Y-0.0398
G01 X37.2123 Y0.0444
G01 X37.1608 Y0.1181
G01 X37.1372 Y0.1495
G01 X37.0892 Y0.2105
G01 X37.0240 Y0.2860
G01 X36.9622 Y0.3513
G01 X36.9343 Y0.3789
G01 X36.8778 Y0.4322
G01 X36.8023 Y0.4974
G01 X36.7218 Y0.5603
G01 X36.6585 Y0.6053
G01 X36.6260 Y0.6273
G01 X36.5499 Y0.6751
G01 X36.4631 Y0.7243
G01 X36.3939 Y0.7595
G01 X36.3585 Y0.7765
G01 X36.2762 Y0.8127
G01 X36.1831 Y0.8486
G01 X36.1095 Y0.8733
G01 X36.0602 Y0.8883
G01 X35.9733 Y0.9115
G01 X35.9000 Y0.9280
G01 X35.8614 Y0.9354
G01 X35.7873 Y0.9480
G01 X35.7103 Y0.9579
G01 X35.6712 Y0.9619
G01 X35.5957 Y0.9675
G01 X35.5549 Y0.9692
G01 X35.4806 Y0.9706
G01 X1.1113 Y0.9707
G01 X1.0079 Y0.9681
G01 X0.9085 Y0.9608
G01 X0.8070 Y0.9484
G01 X0.7063 Y0.9309
G01 X0.6066 Y0.9086
G01 X0.5081 Y0.8814
G01 X0.4111 Y0.8494
G01 X0.3157 Y0.8127
G01 X0.2334 Y0.7765
G01 X0.1418 Y0.7312
G01 X0.0526 Y0.6814
G01 X-0.0341 Y0.6273
G01 X-0.1080 Y0.5761
G01 X-0.1397 Y0.5529
G01 X-0.1990 Y0.5066
G01 X-0.2675 Y0.4485
G01 X-0.2968 Y0.4223
G01 X-0.3424 Y0.3789
G01 X-0.3788 Y0.3425
G01 X-0.4403 Y0.2769
G01 X-0.5065 Y0.1991
G01 X-0.5689 Y0.1181
G01 X-0.6272 Y0.0342
G01 X-0.6750 Y-0.0419
G01 X-0.7254 Y-0.1309
G01 X-0.7712 Y-0.2222
G01 X-0.8126 Y-0.3156
G01 X-0.8485 Y-0.4087
G01 X-0.8806 Y-0.5057
G01 X-0.9079 Y-0.6041
G01 X-0.9304 Y-0.7038
G01 X-0.9479 Y-0.8045
G01 X-0.9605 Y-0.9059
G01 X-0.9680 Y-1.0078
G01 X-0.9705 Y-1.0983
G00 X-0.9705 Y-1.0983
G01 F70.00
G01 Z-2.0000
G01 F120.00
G01 X-0.9706 Y-9.5250
G01 X-0.9682 Y-9.6259
G01 X-0.9628 Y-9.7034
G01 X-0.9592 Y-9.7425
G01 X-0.9479 Y-9.8317
G01 X-0.9308 Y-9.9299
G01 X-0.9142 Y-10.0058
G01 X-0.9049 Y-10.0439
G01 X-0.8806 Y-10.1305
G01 X-0.8493 Y-10.2252
G01 X-0.8217 Y-10.2978
G01 X-0.8069 Y-10.3341
G01 X-0.7702 Y-10.4162
G01 X-0.7254 Y-10.5053
G01 X-0.6874 Y-10.5730
G01 X-0.6674 Y-10.6068
G01 X-0.6191 Y-10.6826
G01 X-0.5617 Y-10.7641
G01 X-0.5142 Y-10.8256
G01 X-0.4894 Y-10.8561
G01 X-0.4305 Y-10.9240
G01 X-0.3617 Y-10.9962
G01 X-0.3057 Y-11.0500
G01 X-0.2768 Y-11.0765
G01 X-0.2085 Y-11.1350
G01 X-0.1299 Y-11.1964
G01 X-0.0667 Y-11.2414
G01 X-0.0341 Y-11.2634
G01 X0.0420 Y-11.3113
G01 X0.1288 Y-11.3604
G01 X0.1979 Y-11.3956
G01 X0.2333 Y-11.4126
G01 X0.3157 Y-11.4488
G01 X0.4087 Y-11.4847
G01 X0.4823 Y-11.5094
G01 X0.5316 Y-11.5244
G01 X0.6185 Y-11.5476
G01 X0.6918 Y-11.5641
G01 X0.7304 Y-11.5715
G01 X0.8045 Y-11.5841
G01 X0.8815 Y-11.5940
G01 X0.9206 Y-11.5980
G01 X0.9951 Y-11.6035
G01 X1.0327 Y-11.6052
G01 X1.1112 Y-11.6069
G01 X35.4806 Y-11.6069
G01 X35.5693 Y-11.6050
G01 X35.6590 Y-11.5991
G01 X35.7103 Y-11.5941
G01 X35.7873 Y-11.5842
G01 X35.8880 Y-11.5667
G01 X35.9853 Y-11.5448
G01 X36.0720 Y-11.5211
G01 X36.1576 Y-11.4936
G01 X36.2061 Y-11.4762
G01 X36.2784 Y-11.4480
G01 X36.3696 Y-11.4075
G01 X36.4609 Y-11.3617
G01 X36.5287 Y-11.3237
G01 X36.5729 Y-11.2972
G01 X36.6484 Y-11.2485
G01 X36.7218 Y-11.1965
G01 X36.8004 Y-11.1351
G01 X36.8778 Y-11.0684
G01 X36.9343 Y-11.0151
G01 X36.9707 Y-10.9787
G01 X37.0322 Y-10.9131
G01 X37.0907 Y-10.8448
G01 X37.1521 Y-10.7662
G01 X37.2110 Y-10.6827
G01 X37.2528 Y-10.6173
G01 X37.2793 Y-10.5731
G01 X37.3230 Y-10.4945
G01 X37.3631 Y-10.4140
G01 X37.4036 Y-10.3228
G01 X37.4404 Y-10.2275
G01 X37.4651 Y-10.1539
G01 X37.4801 Y-10.1046
G01 X37.5033 Y-10.0177
G01 X37.5198 Y-9.9444
G01 X37.5272 Y-9.9058
G01 X37.5398 Y-9.8317
G01 X37.5497 Y-9.7547
G01 X37.5537 Y-9.7156
G01 X37.5593 Y-9.6406
G01 X37.5610 Y-9.6014
G01 X37.5625 Y-9.5250
G01 X37.5625 Y-1.1112
G01 X37.5606 Y-1.0225
G01 X37.5584 Y-0.9833
G01 X37.5524 Y-0.9059
G01 X37.5419 Y-0.8191
G01 X37.5272 Y-0.7304
G01 X37.5172 Y-0.6798
G01 X37.4998 Y-0.6041
G01 X37.4732 Y-0.5080
G01 X37.4453 Y-0.4226
G01 X37.4318 Y-0.3857
G01 X37.4036 Y-0.3134
G01 X37.3631 Y-0.2222
G01 X37.3230 Y-0.1417
G01 X37.3043 Y-0.1072
G01 X37.2657 Y-0.0398
G01 X37.2123 Y0.0444
G01 X37.1608 Y0.1181
G01 X37.1372 Y0.1495
G01 X37.0892 Y0.2105
G01 X37.0240 Y0.2860
G01 X36.9622 Y0.3513
G01 X36.9343 Y0.3789
G01 X36.8778 Y0.4322
G01 X36.8023 Y0.4974
G01 X36.7218 Y0.5603
G01 X36.6585 Y0.6053
G01 X36.6260 Y0.6273
G01 X36.5499 Y0.6751
G01 X36.4631 Y0.7243
G01 X36.3939 Y0.7595
G01 X36.3585 Y0.7765
G01 X36.2762 Y0.8127
G01 X36.1831 Y0.8486
G01 X36.1095 Y0.8733
G01 X36.0602 Y0.8883
G01 X35.9733 Y0.9115
G01 X35.9000 Y0.9280
G01 X35.8614 Y0.9354
G01 X35.7873 Y0.9480
G01 X35.7103 Y0.9579
G01 X35.6712 Y0.9619
G01 X35.5957 Y0.9675
G01 X35.5549 Y0.9692
G01 X35.4806 Y0.9706
G01 X1.1113 Y0.9707
G01 X1.0079 Y0.9681
G01 X0.9085 Y0.9608
G01 X0.8070 Y0.9484
G01 X0.7063 Y0.9309
G01 X0.6066 Y0.9086
G01 X0.5081 Y0.8814
G01 X0.4111 Y0.8494
G01 X0.3157 Y0.8127
G01 X0.2334 Y0.7765
G01 X0.1418 Y0.7312
G01 X0.0526 Y0.6814
G01 X-0.0341 Y0.6273
G01 X-0.1080 Y0.5761
G01 X-0.1397 Y0.5529
G01 X-0.1990 Y0.5066
G01 X-0.2675 Y0.4485
G01 X-0.2968 Y0.4223
G01 X-0.3424 Y0.3789
G01 X-0.3788 Y0.3425
G01 X-0.4403 Y0.2769
G01 X-0.5065 Y0.1991
G01 X-0.5689 Y0.1181
G01 X-0.6272 Y0.0342
G01 X-0.6750 Y-0.0419
G01 X-0.7254 Y-0.1309
G01 X-0.7712 Y-0.2222
G01 X-0.8126 Y-0.3156
G01 X-0.8485 Y-0.4087
G01 X-0.8806 Y-0.5057
G01 X-0.9079 Y-0.6041
G01 X-0.9304 Y-0.7038
G01 X-0.9479 Y-0.8045
G01 X-0.9605 Y-0.9059
G01 X-0.9680 Y-1.0078
G01 X-0.9705 Y-1.0983
G00 X-0.9705 Y-1.0983
G01 F70.00
G01 Z-2.1000
G01 F120.00
G01 X-0.9706 Y-9.5250
G01 X-0.9682 Y-9.6259
G01 X-0.9628 Y-9.7034
G01 X-0.9592 Y-9.7425
G01 X-0.9479 Y-9.8317
G01 X-0.9308 Y-9.9299
G01 X-0.9142 Y-10.0058
G01 X-0.9049 Y-10.0439
G01 X-0.8806 Y-10.1305
G01 X-0.8493 Y-10.2252
G01 X-0.8217 Y-10.2978
G01 X-0.8069 Y-10.3341
G01 X-0.7702 Y-10.4162
G01 X-0.7254 Y-10.5053
G01 X-0.6874 Y-10.5730
G01 X-0.6674 Y-10.6068
G01 X-0.6191 Y-10.6826
G01 X-0.5617 Y-10.7641
G01 X-0.5142 Y-10.8256
G01 X-0.4894 Y-10.8561
G01 X-0.4305 Y-10.9240
G01 X-0.3617 Y-10.9962
G01 X-0.3057 Y-11.0500
G01 X-0.2768 Y-11.0765
G01 X-0.2085 Y-11.1350
G01 X-0.1299 Y-11.1964
G01 X-0.0667 Y-11.2414
G01 X-0.0341 Y-11.2634
G01 X0.0420 Y-11.3113
G01 X0.1288 Y-11.3604
G01 X0.1979 Y-11.3956
G01 X0.2333 Y-11.4126
G01 X0.3157 Y-11.4488
G01 X0.4087 Y-11.4847
G01 X0.4823 Y-11.5094
G01 X0.5316 Y-11.5244
G01 X0.6185 Y-11.5476
G01 X0.6918 Y-11.5641
G01 X0.7304 Y-11.5715
G01 X0.8045 Y-11.5841
G01 X0.8815 Y-11.5940
G01 X0.9206 Y-11.5980
G01 X0.9951 Y-11.6035
G01 X1.0327 Y-11.6052
G01 X1.1112 Y-11.6069
G01 X35.4806 Y-11.6069
G01 X35.5693 Y-11.6050
G01 X35.6590 Y-11.5991
G01 X35.7103 Y-11.5941
G01 X35.7873 Y-11.5842
G01 X35.8880 Y-11.5667
G01 X35.9853 Y-11.5448
G01 X36.0720 Y-11.5211
G01 X36.1576 Y-11.4936
G01 X36.2061 Y-11.4762
G01 X36.2784 Y-11.4480
G01 X36.3696 Y-11.4075
G01 X36.4609 Y-11.3617
G01 X36.5287 Y-11.3237
G01 X36.5729 Y-11.2972
G01 X36.6484 Y-11.2485
G01 X36.7218 Y-11.1965
G01 X36.8004 Y-11.1351
G01 X36.8778 Y-11.0684
G01 X36.9343 Y-11.0151
G01 X36.9707 Y-10.9787
G01 X37.0322 Y-10.9131
G01 X37.0907 Y-10.8448
G01 X37.1521 Y-10.7662
G01 X37.2110 Y-10.6827
G01 X37.2528 Y-10.6173
G01 X37.2793 Y-10.5731
G01 X37.3230 Y-10.4945
G01 X37.3631 Y-10.4140
G01 X37.4036 Y-10.3228
G01 X37.4404 Y-10.2275
G01 X37.4651 Y-10.1539
G01 X37.4801 Y-10.1046
G01 X37.5033 Y-10.0177
G01 X37.5198 Y-9.9444
G01 X37.5272 Y-9.9058
G01 X37.5398 Y-9.8317
G01 X37.5497 Y-9.7547
G01 X37.5537 Y-9.7156
G01 X37.5593 Y-9.6406
G01 X37.5610 Y-9.6014
G01 X37.5625 Y-9.5250
G01 X37.5625 Y-1.1112
G01 X37.5606 Y-1.0225
G01 X37.5584 Y-0.9833
G01 X37.5524 Y-0.9059
G01 X37.5419 Y-0.8191
G01 X37.5272 Y-0.7304
G01 X37.5172 Y-0.6798
G01 X37.4998 Y-0.6041
G01 X37.4732 Y-0.5080
G01 X37.4453 Y-0.4226
G01 X37.4318 Y-0.3857
G01 X37.4036 Y-0.3134
G01 X37.3631 Y-0.2222
G01 X37.3230 Y-0.1417
G01 X37.3043 Y-0.1072
G01 X37.2657 Y-0.0398
G01 X37.2123 Y0.0444
G01 X37.1608 Y0.1181
G01 X37.1372 Y0.1495
G01 X37.0892 Y0.2105
G01 X37.0240 Y0.2860
G01 X36.9622 Y0.3513
G01 X36.9343 Y0.3789
G01 X36.8778 Y0.4322
G01 X36.8023 Y0.4974
G01 X36.7218 Y0.5603
G01 X36.6585 Y0.6053
G01 X36.6260 Y0.6273
G01 X36.5499 Y0.6751
G01 X36.4631 Y0.7243
G01 X36.3939 Y0.7595
G01 X36.3585 Y0.7765
G01 X36.2762 Y0.8127
G01 X36.1831 Y0.8486
G01 X36.1095 Y0.8733
G01 X36.0602 Y0.8883
G01 X35.9733 Y0.9115
G01 X35.9000 Y0.9280
G01 X35.8614 Y0.9354
G01 X35.7873 Y0.9480
G01 X35.7103 Y0.9579
G01 X35.6712 Y0.9619
G01 X35.5957 Y0.9675
G01 X35.5549 Y0.9692
G01 X35.4806 Y0.9706
G01 X1.1113 Y0.9707
G01 X1.0079 Y0.9681
G01 X0.9085 Y0.9608
G01 X0.8070 Y0.9484
G01 X0.7063 Y0.9309
G01 X0.6066 Y0.9086
G01 X0.5081 Y0.8814
G01 X0.4111 Y0.8494
G01 X0.3157 Y0.8127
G01 X0.2334 Y0.7765
G01 X0.1418 Y0.7312
G01 X0.0526 Y0.6814
G01 X-0.0341 Y0.6273
G01 X-0.1080 Y0.5761
G01 X-0.1397 Y0.5529
G01 X-0.1990 Y0.5066
G01 X-0.2675 Y0.4485
G01 X-0.2968 Y0.4223
G01 X-0.3424 Y0.3789
G01 X-0.3788 Y0.3425
G01 X-0.4403 Y0.2769
G01 X-0.5065 Y0.1991
G01 X-0.5689 Y0.1181
G01 X-0.6272 Y0.0342
G01 X-0.6750 Y-0.0419
G01 X-0.7254 Y-0.1309
G01 X-0.7712 Y-0.2222
G01 X-0.8126 Y-0.3156
G01 X-0.8485 Y-0.4087
G01 X-0.8806 Y-0.5057
G01 X-0.9079 Y-0.6041
G01 X-0.9304 Y-0.7038
G01 X-0.9479 Y-0.8045
G01 X-0.9605 Y-0.9059
G01 X-0.9680 Y-1.0078
G01 X-0.9705 Y-1.0983
G00 Z2.0000
M05
G00 Z2.0000
G00 Z25.00

