(G-CODE GENERATED BY FLATCAM v8.994 - www.flatcam.org - Version Date: 2020/11/7)

(Name: display_window_new1_Ф2_низ.gbr_cutout_cnc)
(Type: G-code from Geometry)
(Units: MM)

(Created on Sunday, 05 June 2022 at 23:17)

(This preprocessor is the default preprocessor used by FlatCAM.)
(It is made to work with MACH3 compatible motion controllers.)

(TOOL DIAMETER: 2.0 mm)
(Feedrate_XY: 150.0 mm/min)
(Feedrate_Z: 60.0 mm/min)
(Feedrate rapids 1500.0 mm/min)

(Z_Cut: -2.0 mm)
(DepthPerCut: 0.1 mm <=>20 passes)
(Z_Move: 2.0 mm)
(Z Start: None mm)
(Z End: 30.0 mm)
(X,Y End: None mm)
(Steps per circle: 64)
(Preprocessor Geometry: default)

(X range:   -0.9706 ...   36.7688  mm)
(Y range:  -11.1306 ...    0.9707  mm)

(Spindle Speed: 10000.0 RPM)
G21
G90
G94

G01 F150.00

M5
G00 Z15.0000
G00 X0.0000 Y0.0000
T1
M6    
(MSG, Change to Tool Dia = 2.0000)
M0
G00 Z15.0000

M03 S10000.0
G01 F150.00
G00 X-0.9706 Y-4.0050
G01 F60.00
G01 Z-0.1000
G01 F150.00
G01 X-0.9706 Y-1.1112
G01 X-0.9703 Y-1.0867
G01 X-0.9694 Y-1.0597
G01 X-0.9644 Y-0.9585
G01 X-0.9603 Y-0.9047
G01 X-0.9543 Y-0.8560
G01 X-0.9394 Y-0.7558
G01 X-0.9301 Y-0.7026
G01 X-0.9193 Y-0.6548
G01 X-0.8947 Y-0.5565
G01 X-0.8802 Y-0.5045
G01 X-0.8648 Y-0.4579
G01 X-0.8307 Y-0.3626
G01 X-0.8112 Y-0.3122
G01 X-0.7913 Y-0.2674
G01 X-0.7480 Y-0.1758
G01 X-0.7259 Y-0.1320
G01 X-0.6994 Y-0.0849
G01 X-0.6473 Y0.0019
G01 X-0.6183 Y0.0475
G01 X-0.5901 Y0.0876
G01 X-0.5298 Y0.1689
G01 X-0.4964 Y0.2114
G01 X-0.4644 Y0.2486
G01 X-0.3964 Y0.3236
G01 X-0.3625 Y0.3592
G01 X-0.3235 Y0.3965
G01 X-0.2485 Y0.4645
G01 X-0.2075 Y0.4997
G01 X-0.1688 Y0.5299
G01 X-0.0875 Y0.5902
G01 X-0.0433 Y0.6212
G01 X-0.0018 Y0.6474
G01 X0.0850 Y0.6995
G01 X0.1278 Y0.7237
G01 X0.1759 Y0.7481
G01 X0.2675 Y0.7914
G01 X0.3169 Y0.8131
G01 X0.3627 Y0.8308
G01 X0.4580 Y0.8649
G01 X0.5093 Y0.8817
G01 X0.5566 Y0.8948
G01 X0.6549 Y0.9194
G01 X0.7027 Y0.9302
G01 X0.7559 Y0.9395
G01 X0.8561 Y0.9544
G01 X0.9097 Y0.9609
G01 X0.9586 Y0.9645
G01 X1.0598 Y0.9695
G01 X1.0843 Y0.9704
G01 X1.1113 Y0.9707
G01 X34.6869 Y0.9706
G01 X34.7109 Y0.9703
G01 X34.7374 Y0.9694
G01 X34.8385 Y0.9645
G01 X34.8929 Y0.9604
G01 X34.9421 Y0.9544
G01 X35.0423 Y0.9395
G01 X35.0955 Y0.9302
G01 X35.1433 Y0.9194
G01 X35.2416 Y0.8948
G01 X35.2936 Y0.8803
G01 X35.3402 Y0.8649
G01 X35.4355 Y0.8308
G01 X35.4859 Y0.8113
G01 X35.5307 Y0.7914
G01 X35.6223 Y0.7481
G01 X35.6704 Y0.7237
G01 X35.7132 Y0.6995
G01 X35.8000 Y0.6474
G01 X35.8456 Y0.6184
G01 X35.8857 Y0.5902
G01 X35.9670 Y0.5299
G01 X36.0057 Y0.4997
G01 X36.0467 Y0.4645
G01 X36.1217 Y0.3965
G01 X36.1607 Y0.3592
G01 X36.1946 Y0.3236
G01 X36.2626 Y0.2486
G01 X36.2978 Y0.2076
G01 X36.3280 Y0.1689
G01 X36.3883 Y0.0876
G01 X36.4193 Y0.0434
G01 X36.4455 Y0.0019
G01 X36.4976 Y-0.0849
G01 X36.5241 Y-0.1320
G01 X36.5462 Y-0.1758
G01 X36.5895 Y-0.2674
G01 X36.6112 Y-0.3168
G01 X36.6289 Y-0.3626
G01 X36.6630 Y-0.4579
G01 X36.6798 Y-0.5092
G01 X36.6929 Y-0.5565
G01 X36.7175 Y-0.6548
G01 X36.7292 Y-0.7075
G01 X36.7376 Y-0.7558
G01 X36.7525 Y-0.8560
G01 X36.7585 Y-0.9047
G01 X36.7626 Y-0.9585
G01 X36.7676 Y-1.0597
G01 X36.7685 Y-1.0842
G01 X36.7688 Y-1.1112
G01 X36.7688 Y-4.0050
G00 X36.7688 Y-4.0050
G01 F60.00
G01 Z-0.2000
G01 F150.00
G01 X36.7688 Y-1.1112
G01 X36.7685 Y-1.0842
G01 X36.7676 Y-1.0597
G01 X36.7626 Y-0.9585
G01 X36.7585 Y-0.9047
G01 X36.7525 Y-0.8560
G01 X36.7376 Y-0.7558
G01 X36.7292 Y-0.7075
G01 X36.7175 Y-0.6548
G01 X36.6929 Y-0.5565
G01 X36.6798 Y-0.5092
G01 X36.6630 Y-0.4579
G01 X36.6289 Y-0.3626
G01 X36.6112 Y-0.3168
G01 X36.5895 Y-0.2674
G01 X36.5462 Y-0.1758
G01 X36.5241 Y-0.1320
G01 X36.4976 Y-0.0849
G01 X36.4455 Y0.0019
G01 X36.4193 Y0.0434
G01 X36.3883 Y0.0876
G01 X36.3280 Y0.1689
G01 X36.2978 Y0.2076
G01 X36.2626 Y0.2486
G01 X36.1946 Y0.3236
G01 X36.1607 Y0.3592
G01 X36.1217 Y0.3965
G01 X36.0467 Y0.4645
G01 X36.0057 Y0.4997
G01 X35.9670 Y0.5299
G01 X35.8857 Y0.5902
G01 X35.8456 Y0.6184
G01 X35.8000 Y0.6474
G01 X35.7132 Y0.6995
G01 X35.6704 Y0.7237
G01 X35.6223 Y0.7481
G01 X35.5307 Y0.7914
G01 X35.4859 Y0.8113
G01 X35.4355 Y0.8308
G01 X35.3402 Y0.8649
G01 X35.2936 Y0.8803
G01 X35.2416 Y0.8948
G01 X35.1433 Y0.9194
G01 X35.0955 Y0.9302
G01 X35.0423 Y0.9395
G01 X34.9421 Y0.9544
G01 X34.8929 Y0.9604
G01 X34.8385 Y0.9645
G01 X34.7374 Y0.9694
G01 X34.7109 Y0.9703
G01 X34.6869 Y0.9706
G01 X1.1113 Y0.9707
G01 X1.0843 Y0.9704
G01 X1.0598 Y0.9695
G01 X0.9586 Y0.9645
G01 X0.9097 Y0.9609
G01 X0.8561 Y0.9544
G01 X0.7559 Y0.9395
G01 X0.7027 Y0.9302
G01 X0.6549 Y0.9194
G01 X0.5566 Y0.8948
G01 X0.5093 Y0.8817
G01 X0.4580 Y0.8649
G01 X0.3627 Y0.8308
G01 X0.3169 Y0.8131
G01 X0.2675 Y0.7914
G01 X0.1759 Y0.7481
G01 X0.1278 Y0.7237
G01 X0.0850 Y0.6995
G01 X-0.0018 Y0.6474
G01 X-0.0433 Y0.6212
G01 X-0.0875 Y0.5902
G01 X-0.1688 Y0.5299
G01 X-0.2075 Y0.4997
G01 X-0.2485 Y0.4645
G01 X-0.3235 Y0.3965
G01 X-0.3625 Y0.3592
G01 X-0.3964 Y0.3236
G01 X-0.4644 Y0.2486
G01 X-0.4964 Y0.2114
G01 X-0.5298 Y0.1689
G01 X-0.5901 Y0.0876
G01 X-0.6183 Y0.0475
G01 X-0.6473 Y0.0019
G01 X-0.6994 Y-0.0849
G01 X-0.7259 Y-0.1320
G01 X-0.7480 Y-0.1758
G01 X-0.7913 Y-0.2674
G01 X-0.8112 Y-0.3122
G01 X-0.8307 Y-0.3626
G01 X-0.8648 Y-0.4579
G01 X-0.8802 Y-0.5045
G01 X-0.8947 Y-0.5565
G01 X-0.9193 Y-0.6548
G01 X-0.9301 Y-0.7026
G01 X-0.9394 Y-0.7558
G01 X-0.9543 Y-0.8560
G01 X-0.9603 Y-0.9047
G01 X-0.9644 Y-0.9585
G01 X-0.9694 Y-1.0597
G01 X-0.9703 Y-1.0867
G01 X-0.9706 Y-1.1112
G01 X-0.9706 Y-4.0050
G00 X-0.9706 Y-4.0050
G01 F60.00
G01 Z-0.3000
G01 F150.00
G01 X-0.9706 Y-1.1112
G01 X-0.9703 Y-1.0867
G01 X-0.9694 Y-1.0597
G01 X-0.9644 Y-0.9585
G01 X-0.9603 Y-0.9047
G01 X-0.9543 Y-0.8560
G01 X-0.9394 Y-0.7558
G01 X-0.9301 Y-0.7026
G01 X-0.9193 Y-0.6548
G01 X-0.8947 Y-0.5565
G01 X-0.8802 Y-0.5045
G01 X-0.8648 Y-0.4579
G01 X-0.8307 Y-0.3626
G01 X-0.8112 Y-0.3122
G01 X-0.7913 Y-0.2674
G01 X-0.7480 Y-0.1758
G01 X-0.7259 Y-0.1320
G01 X-0.6994 Y-0.0849
G01 X-0.6473 Y0.0019
G01 X-0.6183 Y0.0475
G01 X-0.5901 Y0.0876
G01 X-0.5298 Y0.1689
G01 X-0.4964 Y0.2114
G01 X-0.4644 Y0.2486
G01 X-0.3964 Y0.3236
G01 X-0.3625 Y0.3592
G01 X-0.3235 Y0.3965
G01 X-0.2485 Y0.4645
G01 X-0.2075 Y0.4997
G01 X-0.1688 Y0.5299
G01 X-0.0875 Y0.5902
G01 X-0.0433 Y0.6212
G01 X-0.0018 Y0.6474
G01 X0.0850 Y0.6995
G01 X0.1278 Y0.7237
G01 X0.1759 Y0.7481
G01 X0.2675 Y0.7914
G01 X0.3169 Y0.8131
G01 X0.3627 Y0.8308
G01 X0.4580 Y0.8649
G01 X0.5093 Y0.8817
G01 X0.5566 Y0.8948
G01 X0.6549 Y0.9194
G01 X0.7027 Y0.9302
G01 X0.7559 Y0.9395
G01 X0.8561 Y0.9544
G01 X0.9097 Y0.9609
G01 X0.9586 Y0.9645
G01 X1.0598 Y0.9695
G01 X1.0843 Y0.9704
G01 X1.1113 Y0.9707
G01 X34.6869 Y0.9706
G01 X34.7109 Y0.9703
G01 X34.7374 Y0.9694
G01 X34.8385 Y0.9645
G01 X34.8929 Y0.9604
G01 X34.9421 Y0.9544
G01 X35.0423 Y0.9395
G01 X35.0955 Y0.9302
G01 X35.1433 Y0.9194
G01 X35.2416 Y0.8948
G01 X35.2936 Y0.8803
G01 X35.3402 Y0.8649
G01 X35.4355 Y0.8308
G01 X35.4859 Y0.8113
G01 X35.5307 Y0.7914
G01 X35.6223 Y0.7481
G01 X35.6704 Y0.7237
G01 X35.7132 Y0.6995
G01 X35.8000 Y0.6474
G01 X35.8456 Y0.6184
G01 X35.8857 Y0.5902
G01 X35.9670 Y0.5299
G01 X36.0057 Y0.4997
G01 X36.0467 Y0.4645
G01 X36.1217 Y0.3965
G01 X36.1607 Y0.3592
G01 X36.1946 Y0.3236
G01 X36.2626 Y0.2486
G01 X36.2978 Y0.2076
G01 X36.3280 Y0.1689
G01 X36.3883 Y0.0876
G01 X36.4193 Y0.0434
G01 X36.4455 Y0.0019
G01 X36.4976 Y-0.0849
G01 X36.5241 Y-0.1320
G01 X36.5462 Y-0.1758
G01 X36.5895 Y-0.2674
G01 X36.6112 Y-0.3168
G01 X36.6289 Y-0.3626
G01 X36.6630 Y-0.4579
G01 X36.6798 Y-0.5092
G01 X36.6929 Y-0.5565
G01 X36.7175 Y-0.6548
G01 X36.7292 Y-0.7075
G01 X36.7376 Y-0.7558
G01 X36.7525 Y-0.8560
G01 X36.7585 Y-0.9047
G01 X36.7626 Y-0.9585
G01 X36.7676 Y-1.0597
G01 X36.7685 Y-1.0842
G01 X36.7688 Y-1.1112
G01 X36.7688 Y-4.0050
G00 X36.7688 Y-4.0050
G01 F60.00
G01 Z-0.4000
G01 F150.00
G01 X36.7688 Y-1.1112
G01 X36.7685 Y-1.0842
G01 X36.7676 Y-1.0597
G01 X36.7626 Y-0.9585
G01 X36.7585 Y-0.9047
G01 X36.7525 Y-0.8560
G01 X36.7376 Y-0.7558
G01 X36.7292 Y-0.7075
G01 X36.7175 Y-0.6548
G01 X36.6929 Y-0.5565
G01 X36.6798 Y-0.5092
G01 X36.6630 Y-0.4579
G01 X36.6289 Y-0.3626
G01 X36.6112 Y-0.3168
G01 X36.5895 Y-0.2674
G01 X36.5462 Y-0.1758
G01 X36.5241 Y-0.1320
G01 X36.4976 Y-0.0849
G01 X36.4455 Y0.0019
G01 X36.4193 Y0.0434
G01 X36.3883 Y0.0876
G01 X36.3280 Y0.1689
G01 X36.2978 Y0.2076
G01 X36.2626 Y0.2486
G01 X36.1946 Y0.3236
G01 X36.1607 Y0.3592
G01 X36.1217 Y0.3965
G01 X36.0467 Y0.4645
G01 X36.0057 Y0.4997
G01 X35.9670 Y0.5299
G01 X35.8857 Y0.5902
G01 X35.8456 Y0.6184
G01 X35.8000 Y0.6474
G01 X35.7132 Y0.6995
G01 X35.6704 Y0.7237
G01 X35.6223 Y0.7481
G01 X35.5307 Y0.7914
G01 X35.4859 Y0.8113
G01 X35.4355 Y0.8308
G01 X35.3402 Y0.8649
G01 X35.2936 Y0.8803
G01 X35.2416 Y0.8948
G01 X35.1433 Y0.9194
G01 X35.0955 Y0.9302
G01 X35.0423 Y0.9395
G01 X34.9421 Y0.9544
G01 X34.8929 Y0.9604
G01 X34.8385 Y0.9645
G01 X34.7374 Y0.9694
G01 X34.7109 Y0.9703
G01 X34.6869 Y0.9706
G01 X1.1113 Y0.9707
G01 X1.0843 Y0.9704
G01 X1.0598 Y0.9695
G01 X0.9586 Y0.9645
G01 X0.9097 Y0.9609
G01 X0.8561 Y0.9544
G01 X0.7559 Y0.9395
G01 X0.7027 Y0.9302
G01 X0.6549 Y0.9194
G01 X0.5566 Y0.8948
G01 X0.5093 Y0.8817
G01 X0.4580 Y0.8649
G01 X0.3627 Y0.8308
G01 X0.3169 Y0.8131
G01 X0.2675 Y0.7914
G01 X0.1759 Y0.7481
G01 X0.1278 Y0.7237
G01 X0.0850 Y0.6995
G01 X-0.0018 Y0.6474
G01 X-0.0433 Y0.6212
G01 X-0.0875 Y0.5902
G01 X-0.1688 Y0.5299
G01 X-0.2075 Y0.4997
G01 X-0.2485 Y0.4645
G01 X-0.3235 Y0.3965
G01 X-0.3625 Y0.3592
G01 X-0.3964 Y0.3236
G01 X-0.4644 Y0.2486
G01 X-0.4964 Y0.2114
G01 X-0.5298 Y0.1689
G01 X-0.5901 Y0.0876
G01 X-0.6183 Y0.0475
G01 X-0.6473 Y0.0019
G01 X-0.6994 Y-0.0849
G01 X-0.7259 Y-0.1320
G01 X-0.7480 Y-0.1758
G01 X-0.7913 Y-0.2674
G01 X-0.8112 Y-0.3122
G01 X-0.8307 Y-0.3626
G01 X-0.8648 Y-0.4579
G01 X-0.8802 Y-0.5045
G01 X-0.8947 Y-0.5565
G01 X-0.9193 Y-0.6548
G01 X-0.9301 Y-0.7026
G01 X-0.9394 Y-0.7558
G01 X-0.9543 Y-0.8560
G01 X-0.9603 Y-0.9047
G01 X-0.9644 Y-0.9585
G01 X-0.9694 Y-1.0597
G01 X-0.9703 Y-1.0867
G01 X-0.9706 Y-1.1112
G01 X-0.9706 Y-4.0050
G00 X-0.9706 Y-4.0050
G01 F60.00
G01 Z-0.5000
G01 F150.00
G01 X-0.9706 Y-1.1112
G01 X-0.9703 Y-1.0867
G01 X-0.9694 Y-1.0597
G01 X-0.9644 Y-0.9585
G01 X-0.9603 Y-0.9047
G01 X-0.9543 Y-0.8560
G01 X-0.9394 Y-0.7558
G01 X-0.9301 Y-0.7026
G01 X-0.9193 Y-0.6548
G01 X-0.8947 Y-0.5565
G01 X-0.8802 Y-0.5045
G01 X-0.8648 Y-0.4579
G01 X-0.8307 Y-0.3626
G01 X-0.8112 Y-0.3122
G01 X-0.7913 Y-0.2674
G01 X-0.7480 Y-0.1758
G01 X-0.7259 Y-0.1320
G01 X-0.6994 Y-0.0849
G01 X-0.6473 Y0.0019
G01 X-0.6183 Y0.0475
G01 X-0.5901 Y0.0876
G01 X-0.5298 Y0.1689
G01 X-0.4964 Y0.2114
G01 X-0.4644 Y0.2486
G01 X-0.3964 Y0.3236
G01 X-0.3625 Y0.3592
G01 X-0.3235 Y0.3965
G01 X-0.2485 Y0.4645
G01 X-0.2075 Y0.4997
G01 X-0.1688 Y0.5299
G01 X-0.0875 Y0.5902
G01 X-0.0433 Y0.6212
G01 X-0.0018 Y0.6474
G01 X0.0850 Y0.6995
G01 X0.1278 Y0.7237
G01 X0.1759 Y0.7481
G01 X0.2675 Y0.7914
G01 X0.3169 Y0.8131
G01 X0.3627 Y0.8308
G01 X0.4580 Y0.8649
G01 X0.5093 Y0.8817
G01 X0.5566 Y0.8948
G01 X0.6549 Y0.9194
G01 X0.7027 Y0.9302
G01 X0.7559 Y0.9395
G01 X0.8561 Y0.9544
G01 X0.9097 Y0.9609
G01 X0.9586 Y0.9645
G01 X1.0598 Y0.9695
G01 X1.0843 Y0.9704
G01 X1.1113 Y0.9707
G01 X34.6869 Y0.9706
G01 X34.7109 Y0.9703
G01 X34.7374 Y0.9694
G01 X34.8385 Y0.9645
G01 X34.8929 Y0.9604
G01 X34.9421 Y0.9544
G01 X35.0423 Y0.9395
G01 X35.0955 Y0.9302
G01 X35.1433 Y0.9194
G01 X35.2416 Y0.8948
G01 X35.2936 Y0.8803
G01 X35.3402 Y0.8649
G01 X35.4355 Y0.8308
G01 X35.4859 Y0.8113
G01 X35.5307 Y0.7914
G01 X35.6223 Y0.7481
G01 X35.6704 Y0.7237
G01 X35.7132 Y0.6995
G01 X35.8000 Y0.6474
G01 X35.8456 Y0.6184
G01 X35.8857 Y0.5902
G01 X35.9670 Y0.5299
G01 X36.0057 Y0.4997
G01 X36.0467 Y0.4645
G01 X36.1217 Y0.3965
G01 X36.1607 Y0.3592
G01 X36.1946 Y0.3236
G01 X36.2626 Y0.2486
G01 X36.2978 Y0.2076
G01 X36.3280 Y0.1689
G01 X36.3883 Y0.0876
G01 X36.4193 Y0.0434
G01 X36.4455 Y0.0019
G01 X36.4976 Y-0.0849
G01 X36.5241 Y-0.1320
G01 X36.5462 Y-0.1758
G01 X36.5895 Y-0.2674
G01 X36.6112 Y-0.3168
G01 X36.6289 Y-0.3626
G01 X36.6630 Y-0.4579
G01 X36.6798 Y-0.5092
G01 X36.6929 Y-0.5565
G01 X36.7175 Y-0.6548
G01 X36.7292 Y-0.7075
G01 X36.7376 Y-0.7558
G01 X36.7525 Y-0.8560
G01 X36.7585 Y-0.9047
G01 X36.7626 Y-0.9585
G01 X36.7676 Y-1.0597
G01 X36.7685 Y-1.0842
G01 X36.7688 Y-1.1112
G01 X36.7688 Y-4.0050
G00 X36.7688 Y-4.0050
G01 F60.00
G01 Z-0.6000
G01 F150.00
G01 X36.7688 Y-1.1112
G01 X36.7685 Y-1.0842
G01 X36.7676 Y-1.0597
G01 X36.7626 Y-0.9585
G01 X36.7585 Y-0.9047
G01 X36.7525 Y-0.8560
G01 X36.7376 Y-0.7558
G01 X36.7292 Y-0.7075
G01 X36.7175 Y-0.6548
G01 X36.6929 Y-0.5565
G01 X36.6798 Y-0.5092
G01 X36.6630 Y-0.4579
G01 X36.6289 Y-0.3626
G01 X36.6112 Y-0.3168
G01 X36.5895 Y-0.2674
G01 X36.5462 Y-0.1758
G01 X36.5241 Y-0.1320
G01 X36.4976 Y-0.0849
G01 X36.4455 Y0.0019
G01 X36.4193 Y0.0434
G01 X36.3883 Y0.0876
G01 X36.3280 Y0.1689
G01 X36.2978 Y0.2076
G01 X36.2626 Y0.2486
G01 X36.1946 Y0.3236
G01 X36.1607 Y0.3592
G01 X36.1217 Y0.3965
G01 X36.0467 Y0.4645
G01 X36.0057 Y0.4997
G01 X35.9670 Y0.5299
G01 X35.8857 Y0.5902
G01 X35.8456 Y0.6184
G01 X35.8000 Y0.6474
G01 X35.7132 Y0.6995
G01 X35.6704 Y0.7237
G01 X35.6223 Y0.7481
G01 X35.5307 Y0.7914
G01 X35.4859 Y0.8113
G01 X35.4355 Y0.8308
G01 X35.3402 Y0.8649
G01 X35.2936 Y0.8803
G01 X35.2416 Y0.8948
G01 X35.1433 Y0.9194
G01 X35.0955 Y0.9302
G01 X35.0423 Y0.9395
G01 X34.9421 Y0.9544
G01 X34.8929 Y0.9604
G01 X34.8385 Y0.9645
G01 X34.7374 Y0.9694
G01 X34.7109 Y0.9703
G01 X34.6869 Y0.9706
G01 X1.1113 Y0.9707
G01 X1.0843 Y0.9704
G01 X1.0598 Y0.9695
G01 X0.9586 Y0.9645
G01 X0.9097 Y0.9609
G01 X0.8561 Y0.9544
G01 X0.7559 Y0.9395
G01 X0.7027 Y0.9302
G01 X0.6549 Y0.9194
G01 X0.5566 Y0.8948
G01 X0.5093 Y0.8817
G01 X0.4580 Y0.8649
G01 X0.3627 Y0.8308
G01 X0.3169 Y0.8131
G01 X0.2675 Y0.7914
G01 X0.1759 Y0.7481
G01 X0.1278 Y0.7237
G01 X0.0850 Y0.6995
G01 X-0.0018 Y0.6474
G01 X-0.0433 Y0.6212
G01 X-0.0875 Y0.5902
G01 X-0.1688 Y0.5299
G01 X-0.2075 Y0.4997
G01 X-0.2485 Y0.4645
G01 X-0.3235 Y0.3965
G01 X-0.3625 Y0.3592
G01 X-0.3964 Y0.3236
G01 X-0.4644 Y0.2486
G01 X-0.4964 Y0.2114
G01 X-0.5298 Y0.1689
G01 X-0.5901 Y0.0876
G01 X-0.6183 Y0.0475
G01 X-0.6473 Y0.0019
G01 X-0.6994 Y-0.0849
G01 X-0.7259 Y-0.1320
G01 X-0.7480 Y-0.1758
G01 X-0.7913 Y-0.2674
G01 X-0.8112 Y-0.3122
G01 X-0.8307 Y-0.3626
G01 X-0.8648 Y-0.4579
G01 X-0.8802 Y-0.5045
G01 X-0.8947 Y-0.5565
G01 X-0.9193 Y-0.6548
G01 X-0.9301 Y-0.7026
G01 X-0.9394 Y-0.7558
G01 X-0.9543 Y-0.8560
G01 X-0.9603 Y-0.9047
G01 X-0.9644 Y-0.9585
G01 X-0.9694 Y-1.0597
G01 X-0.9703 Y-1.0867
G01 X-0.9706 Y-1.1112
G01 X-0.9706 Y-4.0050
G00 X-0.9706 Y-4.0050
G01 F60.00
G01 Z-0.7000
G01 F150.00
G01 X-0.9706 Y-1.1112
G01 X-0.9703 Y-1.0867
G01 X-0.9694 Y-1.0597
G01 X-0.9644 Y-0.9585
G01 X-0.9603 Y-0.9047
G01 X-0.9543 Y-0.8560
G01 X-0.9394 Y-0.7558
G01 X-0.9301 Y-0.7026
G01 X-0.9193 Y-0.6548
G01 X-0.8947 Y-0.5565
G01 X-0.8802 Y-0.5045
G01 X-0.8648 Y-0.4579
G01 X-0.8307 Y-0.3626
G01 X-0.8112 Y-0.3122
G01 X-0.7913 Y-0.2674
G01 X-0.7480 Y-0.1758
G01 X-0.7259 Y-0.1320
G01 X-0.6994 Y-0.0849
G01 X-0.6473 Y0.0019
G01 X-0.6183 Y0.0475
G01 X-0.5901 Y0.0876
G01 X-0.5298 Y0.1689
G01 X-0.4964 Y0.2114
G01 X-0.4644 Y0.2486
G01 X-0.3964 Y0.3236
G01 X-0.3625 Y0.3592
G01 X-0.3235 Y0.3965
G01 X-0.2485 Y0.4645
G01 X-0.2075 Y0.4997
G01 X-0.1688 Y0.5299
G01 X-0.0875 Y0.5902
G01 X-0.0433 Y0.6212
G01 X-0.0018 Y0.6474
G01 X0.0850 Y0.6995
G01 X0.1278 Y0.7237
G01 X0.1759 Y0.7481
G01 X0.2675 Y0.7914
G01 X0.3169 Y0.8131
G01 X0.3627 Y0.8308
G01 X0.4580 Y0.8649
G01 X0.5093 Y0.8817
G01 X0.5566 Y0.8948
G01 X0.6549 Y0.9194
G01 X0.7027 Y0.9302
G01 X0.7559 Y0.9395
G01 X0.8561 Y0.9544
G01 X0.9097 Y0.9609
G01 X0.9586 Y0.9645
G01 X1.0598 Y0.9695
G01 X1.0843 Y0.9704
G01 X1.1113 Y0.9707
G01 X34.6869 Y0.9706
G01 X34.7109 Y0.9703
G01 X34.7374 Y0.9694
G01 X34.8385 Y0.9645
G01 X34.8929 Y0.9604
G01 X34.9421 Y0.9544
G01 X35.0423 Y0.9395
G01 X35.0955 Y0.9302
G01 X35.1433 Y0.9194
G01 X35.2416 Y0.8948
G01 X35.2936 Y0.8803
G01 X35.3402 Y0.8649
G01 X35.4355 Y0.8308
G01 X35.4859 Y0.8113
G01 X35.5307 Y0.7914
G01 X35.6223 Y0.7481
G01 X35.6704 Y0.7237
G01 X35.7132 Y0.6995
G01 X35.8000 Y0.6474
G01 X35.8456 Y0.6184
G01 X35.8857 Y0.5902
G01 X35.9670 Y0.5299
G01 X36.0057 Y0.4997
G01 X36.0467 Y0.4645
G01 X36.1217 Y0.3965
G01 X36.1607 Y0.3592
G01 X36.1946 Y0.3236
G01 X36.2626 Y0.2486
G01 X36.2978 Y0.2076
G01 X36.3280 Y0.1689
G01 X36.3883 Y0.0876
G01 X36.4193 Y0.0434
G01 X36.4455 Y0.0019
G01 X36.4976 Y-0.0849
G01 X36.5241 Y-0.1320
G01 X36.5462 Y-0.1758
G01 X36.5895 Y-0.2674
G01 X36.6112 Y-0.3168
G01 X36.6289 Y-0.3626
G01 X36.6630 Y-0.4579
G01 X36.6798 Y-0.5092
G01 X36.6929 Y-0.5565
G01 X36.7175 Y-0.6548
G01 X36.7292 Y-0.7075
G01 X36.7376 Y-0.7558
G01 X36.7525 Y-0.8560
G01 X36.7585 Y-0.9047
G01 X36.7626 Y-0.9585
G01 X36.7676 Y-1.0597
G01 X36.7685 Y-1.0842
G01 X36.7688 Y-1.1112
G01 X36.7688 Y-4.0050
G00 X36.7688 Y-4.0050
G01 F60.00
G01 Z-0.8000
G01 F150.00
G01 X36.7688 Y-1.1112
G01 X36.7685 Y-1.0842
G01 X36.7676 Y-1.0597
G01 X36.7626 Y-0.9585
G01 X36.7585 Y-0.9047
G01 X36.7525 Y-0.8560
G01 X36.7376 Y-0.7558
G01 X36.7292 Y-0.7075
G01 X36.7175 Y-0.6548
G01 X36.6929 Y-0.5565
G01 X36.6798 Y-0.5092
G01 X36.6630 Y-0.4579
G01 X36.6289 Y-0.3626
G01 X36.6112 Y-0.3168
G01 X36.5895 Y-0.2674
G01 X36.5462 Y-0.1758
G01 X36.5241 Y-0.1320
G01 X36.4976 Y-0.0849
G01 X36.4455 Y0.0019
G01 X36.4193 Y0.0434
G01 X36.3883 Y0.0876
G01 X36.3280 Y0.1689
G01 X36.2978 Y0.2076
G01 X36.2626 Y0.2486
G01 X36.1946 Y0.3236
G01 X36.1607 Y0.3592
G01 X36.1217 Y0.3965
G01 X36.0467 Y0.4645
G01 X36.0057 Y0.4997
G01 X35.9670 Y0.5299
G01 X35.8857 Y0.5902
G01 X35.8456 Y0.6184
G01 X35.8000 Y0.6474
G01 X35.7132 Y0.6995
G01 X35.6704 Y0.7237
G01 X35.6223 Y0.7481
G01 X35.5307 Y0.7914
G01 X35.4859 Y0.8113
G01 X35.4355 Y0.8308
G01 X35.3402 Y0.8649
G01 X35.2936 Y0.8803
G01 X35.2416 Y0.8948
G01 X35.1433 Y0.9194
G01 X35.0955 Y0.9302
G01 X35.0423 Y0.9395
G01 X34.9421 Y0.9544
G01 X34.8929 Y0.9604
G01 X34.8385 Y0.9645
G01 X34.7374 Y0.9694
G01 X34.7109 Y0.9703
G01 X34.6869 Y0.9706
G01 X1.1113 Y0.9707
G01 X1.0843 Y0.9704
G01 X1.0598 Y0.9695
G01 X0.9586 Y0.9645
G01 X0.9097 Y0.9609
G01 X0.8561 Y0.9544
G01 X0.7559 Y0.9395
G01 X0.7027 Y0.9302
G01 X0.6549 Y0.9194
G01 X0.5566 Y0.8948
G01 X0.5093 Y0.8817
G01 X0.4580 Y0.8649
G01 X0.3627 Y0.8308
G01 X0.3169 Y0.8131
G01 X0.2675 Y0.7914
G01 X0.1759 Y0.7481
G01 X0.1278 Y0.7237
G01 X0.0850 Y0.6995
G01 X-0.0018 Y0.6474
G01 X-0.0433 Y0.6212
G01 X-0.0875 Y0.5902
G01 X-0.1688 Y0.5299
G01 X-0.2075 Y0.4997
G01 X-0.2485 Y0.4645
G01 X-0.3235 Y0.3965
G01 X-0.3625 Y0.3592
G01 X-0.3964 Y0.3236
G01 X-0.4644 Y0.2486
G01 X-0.4964 Y0.2114
G01 X-0.5298 Y0.1689
G01 X-0.5901 Y0.0876
G01 X-0.6183 Y0.0475
G01 X-0.6473 Y0.0019
G01 X-0.6994 Y-0.0849
G01 X-0.7259 Y-0.1320
G01 X-0.7480 Y-0.1758
G01 X-0.7913 Y-0.2674
G01 X-0.8112 Y-0.3122
G01 X-0.8307 Y-0.3626
G01 X-0.8648 Y-0.4579
G01 X-0.8802 Y-0.5045
G01 X-0.8947 Y-0.5565
G01 X-0.9193 Y-0.6548
G01 X-0.9301 Y-0.7026
G01 X-0.9394 Y-0.7558
G01 X-0.9543 Y-0.8560
G01 X-0.9603 Y-0.9047
G01 X-0.9644 Y-0.9585
G01 X-0.9694 Y-1.0597
G01 X-0.9703 Y-1.0867
G01 X-0.9706 Y-1.1112
G01 X-0.9706 Y-4.0050
G00 X-0.9706 Y-4.0050
G01 F60.00
G01 Z-0.9000
G01 F150.00
G01 X-0.9706 Y-1.1112
G01 X-0.9703 Y-1.0867
G01 X-0.9694 Y-1.0597
G01 X-0.9644 Y-0.9585
G01 X-0.9603 Y-0.9047
G01 X-0.9543 Y-0.8560
G01 X-0.9394 Y-0.7558
G01 X-0.9301 Y-0.7026
G01 X-0.9193 Y-0.6548
G01 X-0.8947 Y-0.5565
G01 X-0.8802 Y-0.5045
G01 X-0.8648 Y-0.4579
G01 X-0.8307 Y-0.3626
G01 X-0.8112 Y-0.3122
G01 X-0.7913 Y-0.2674
G01 X-0.7480 Y-0.1758
G01 X-0.7259 Y-0.1320
G01 X-0.6994 Y-0.0849
G01 X-0.6473 Y0.0019
G01 X-0.6183 Y0.0475
G01 X-0.5901 Y0.0876
G01 X-0.5298 Y0.1689
G01 X-0.4964 Y0.2114
G01 X-0.4644 Y0.2486
G01 X-0.3964 Y0.3236
G01 X-0.3625 Y0.3592
G01 X-0.3235 Y0.3965
G01 X-0.2485 Y0.4645
G01 X-0.2075 Y0.4997
G01 X-0.1688 Y0.5299
G01 X-0.0875 Y0.5902
G01 X-0.0433 Y0.6212
G01 X-0.0018 Y0.6474
G01 X0.0850 Y0.6995
G01 X0.1278 Y0.7237
G01 X0.1759 Y0.7481
G01 X0.2675 Y0.7914
G01 X0.3169 Y0.8131
G01 X0.3627 Y0.8308
G01 X0.4580 Y0.8649
G01 X0.5093 Y0.8817
G01 X0.5566 Y0.8948
G01 X0.6549 Y0.9194
G01 X0.7027 Y0.9302
G01 X0.7559 Y0.9395
G01 X0.8561 Y0.9544
G01 X0.9097 Y0.9609
G01 X0.9586 Y0.9645
G01 X1.0598 Y0.9695
G01 X1.0843 Y0.9704
G01 X1.1113 Y0.9707
G01 X34.6869 Y0.9706
G01 X34.7109 Y0.9703
G01 X34.7374 Y0.9694
G01 X34.8385 Y0.9645
G01 X34.8929 Y0.9604
G01 X34.9421 Y0.9544
G01 X35.0423 Y0.9395
G01 X35.0955 Y0.9302
G01 X35.1433 Y0.9194
G01 X35.2416 Y0.8948
G01 X35.2936 Y0.8803
G01 X35.3402 Y0.8649
G01 X35.4355 Y0.8308
G01 X35.4859 Y0.8113
G01 X35.5307 Y0.7914
G01 X35.6223 Y0.7481
G01 X35.6704 Y0.7237
G01 X35.7132 Y0.6995
G01 X35.8000 Y0.6474
G01 X35.8456 Y0.6184
G01 X35.8857 Y0.5902
G01 X35.9670 Y0.5299
G01 X36.0057 Y0.4997
G01 X36.0467 Y0.4645
G01 X36.1217 Y0.3965
G01 X36.1607 Y0.3592
G01 X36.1946 Y0.3236
G01 X36.2626 Y0.2486
G01 X36.2978 Y0.2076
G01 X36.3280 Y0.1689
G01 X36.3883 Y0.0876
G01 X36.4193 Y0.0434
G01 X36.4455 Y0.0019
G01 X36.4976 Y-0.0849
G01 X36.5241 Y-0.1320
G01 X36.5462 Y-0.1758
G01 X36.5895 Y-0.2674
G01 X36.6112 Y-0.3168
G01 X36.6289 Y-0.3626
G01 X36.6630 Y-0.4579
G01 X36.6798 Y-0.5092
G01 X36.6929 Y-0.5565
G01 X36.7175 Y-0.6548
G01 X36.7292 Y-0.7075
G01 X36.7376 Y-0.7558
G01 X36.7525 Y-0.8560
G01 X36.7585 Y-0.9047
G01 X36.7626 Y-0.9585
G01 X36.7676 Y-1.0597
G01 X36.7685 Y-1.0842
G01 X36.7688 Y-1.1112
G01 X36.7688 Y-4.0050
G00 X36.7688 Y-4.0050
G01 F60.00
G01 Z-1.0000
G01 F150.00
G01 X36.7688 Y-1.1112
G01 X36.7685 Y-1.0842
G01 X36.7676 Y-1.0597
G01 X36.7626 Y-0.9585
G01 X36.7585 Y-0.9047
G01 X36.7525 Y-0.8560
G01 X36.7376 Y-0.7558
G01 X36.7292 Y-0.7075
G01 X36.7175 Y-0.6548
G01 X36.6929 Y-0.5565
G01 X36.6798 Y-0.5092
G01 X36.6630 Y-0.4579
G01 X36.6289 Y-0.3626
G01 X36.6112 Y-0.3168
G01 X36.5895 Y-0.2674
G01 X36.5462 Y-0.1758
G01 X36.5241 Y-0.1320
G01 X36.4976 Y-0.0849
G01 X36.4455 Y0.0019
G01 X36.4193 Y0.0434
G01 X36.3883 Y0.0876
G01 X36.3280 Y0.1689
G01 X36.2978 Y0.2076
G01 X36.2626 Y0.2486
G01 X36.1946 Y0.3236
G01 X36.1607 Y0.3592
G01 X36.1217 Y0.3965
G01 X36.0467 Y0.4645
G01 X36.0057 Y0.4997
G01 X35.9670 Y0.5299
G01 X35.8857 Y0.5902
G01 X35.8456 Y0.6184
G01 X35.8000 Y0.6474
G01 X35.7132 Y0.6995
G01 X35.6704 Y0.7237
G01 X35.6223 Y0.7481
G01 X35.5307 Y0.7914
G01 X35.4859 Y0.8113
G01 X35.4355 Y0.8308
G01 X35.3402 Y0.8649
G01 X35.2936 Y0.8803
G01 X35.2416 Y0.8948
G01 X35.1433 Y0.9194
G01 X35.0955 Y0.9302
G01 X35.0423 Y0.9395
G01 X34.9421 Y0.9544
G01 X34.8929 Y0.9604
G01 X34.8385 Y0.9645
G01 X34.7374 Y0.9694
G01 X34.7109 Y0.9703
G01 X34.6869 Y0.9706
G01 X1.1113 Y0.9707
G01 X1.0843 Y0.9704
G01 X1.0598 Y0.9695
G01 X0.9586 Y0.9645
G01 X0.9097 Y0.9609
G01 X0.8561 Y0.9544
G01 X0.7559 Y0.9395
G01 X0.7027 Y0.9302
G01 X0.6549 Y0.9194
G01 X0.5566 Y0.8948
G01 X0.5093 Y0.8817
G01 X0.4580 Y0.8649
G01 X0.3627 Y0.8308
G01 X0.3169 Y0.8131
G01 X0.2675 Y0.7914
G01 X0.1759 Y0.7481
G01 X0.1278 Y0.7237
G01 X0.0850 Y0.6995
G01 X-0.0018 Y0.6474
G01 X-0.0433 Y0.6212
G01 X-0.0875 Y0.5902
G01 X-0.1688 Y0.5299
G01 X-0.2075 Y0.4997
G01 X-0.2485 Y0.4645
G01 X-0.3235 Y0.3965
G01 X-0.3625 Y0.3592
G01 X-0.3964 Y0.3236
G01 X-0.4644 Y0.2486
G01 X-0.4964 Y0.2114
G01 X-0.5298 Y0.1689
G01 X-0.5901 Y0.0876
G01 X-0.6183 Y0.0475
G01 X-0.6473 Y0.0019
G01 X-0.6994 Y-0.0849
G01 X-0.7259 Y-0.1320
G01 X-0.7480 Y-0.1758
G01 X-0.7913 Y-0.2674
G01 X-0.8112 Y-0.3122
G01 X-0.8307 Y-0.3626
G01 X-0.8648 Y-0.4579
G01 X-0.8802 Y-0.5045
G01 X-0.8947 Y-0.5565
G01 X-0.9193 Y-0.6548
G01 X-0.9301 Y-0.7026
G01 X-0.9394 Y-0.7558
G01 X-0.9543 Y-0.8560
G01 X-0.9603 Y-0.9047
G01 X-0.9644 Y-0.9585
G01 X-0.9694 Y-1.0597
G01 X-0.9703 Y-1.0867
G01 X-0.9706 Y-1.1112
G01 X-0.9706 Y-4.0050
G00 X-0.9706 Y-4.0050
G01 F60.00
G01 Z-1.1000
G01 F150.00
G01 X-0.9706 Y-1.1112
G01 X-0.9703 Y-1.0867
G01 X-0.9694 Y-1.0597
G01 X-0.9644 Y-0.9585
G01 X-0.9603 Y-0.9047
G01 X-0.9543 Y-0.8560
G01 X-0.9394 Y-0.7558
G01 X-0.9301 Y-0.7026
G01 X-0.9193 Y-0.6548
G01 X-0.8947 Y-0.5565
G01 X-0.8802 Y-0.5045
G01 X-0.8648 Y-0.4579
G01 X-0.8307 Y-0.3626
G01 X-0.8112 Y-0.3122
G01 X-0.7913 Y-0.2674
G01 X-0.7480 Y-0.1758
G01 X-0.7259 Y-0.1320
G01 X-0.6994 Y-0.0849
G01 X-0.6473 Y0.0019
G01 X-0.6183 Y0.0475
G01 X-0.5901 Y0.0876
G01 X-0.5298 Y0.1689
G01 X-0.4964 Y0.2114
G01 X-0.4644 Y0.2486
G01 X-0.3964 Y0.3236
G01 X-0.3625 Y0.3592
G01 X-0.3235 Y0.3965
G01 X-0.2485 Y0.4645
G01 X-0.2075 Y0.4997
G01 X-0.1688 Y0.5299
G01 X-0.0875 Y0.5902
G01 X-0.0433 Y0.6212
G01 X-0.0018 Y0.6474
G01 X0.0850 Y0.6995
G01 X0.1278 Y0.7237
G01 X0.1759 Y0.7481
G01 X0.2675 Y0.7914
G01 X0.3169 Y0.8131
G01 X0.3627 Y0.8308
G01 X0.4580 Y0.8649
G01 X0.5093 Y0.8817
G01 X0.5566 Y0.8948
G01 X0.6549 Y0.9194
G01 X0.7027 Y0.9302
G01 X0.7559 Y0.9395
G01 X0.8561 Y0.9544
G01 X0.9097 Y0.9609
G01 X0.9586 Y0.9645
G01 X1.0598 Y0.9695
G01 X1.0843 Y0.9704
G01 X1.1113 Y0.9707
G01 X34.6869 Y0.9706
G01 X34.7109 Y0.9703
G01 X34.7374 Y0.9694
G01 X34.8385 Y0.9645
G01 X34.8929 Y0.9604
G01 X34.9421 Y0.9544
G01 X35.0423 Y0.9395
G01 X35.0955 Y0.9302
G01 X35.1433 Y0.9194
G01 X35.2416 Y0.8948
G01 X35.2936 Y0.8803
G01 X35.3402 Y0.8649
G01 X35.4355 Y0.8308
G01 X35.4859 Y0.8113
G01 X35.5307 Y0.7914
G01 X35.6223 Y0.7481
G01 X35.6704 Y0.7237
G01 X35.7132 Y0.6995
G01 X35.8000 Y0.6474
G01 X35.8456 Y0.6184
G01 X35.8857 Y0.5902
G01 X35.9670 Y0.5299
G01 X36.0057 Y0.4997
G01 X36.0467 Y0.4645
G01 X36.1217 Y0.3965
G01 X36.1607 Y0.3592
G01 X36.1946 Y0.3236
G01 X36.2626 Y0.2486
G01 X36.2978 Y0.2076
G01 X36.3280 Y0.1689
G01 X36.3883 Y0.0876
G01 X36.4193 Y0.0434
G01 X36.4455 Y0.0019
G01 X36.4976 Y-0.0849
G01 X36.5241 Y-0.1320
G01 X36.5462 Y-0.1758
G01 X36.5895 Y-0.2674
G01 X36.6112 Y-0.3168
G01 X36.6289 Y-0.3626
G01 X36.6630 Y-0.4579
G01 X36.6798 Y-0.5092
G01 X36.6929 Y-0.5565
G01 X36.7175 Y-0.6548
G01 X36.7292 Y-0.7075
G01 X36.7376 Y-0.7558
G01 X36.7525 Y-0.8560
G01 X36.7585 Y-0.9047
G01 X36.7626 Y-0.9585
G01 X36.7676 Y-1.0597
G01 X36.7685 Y-1.0842
G01 X36.7688 Y-1.1112
G01 X36.7688 Y-4.0050
G00 X36.7688 Y-4.0050
G01 F60.00
G01 Z-1.2000
G01 F150.00
G01 X36.7688 Y-1.1112
G01 X36.7685 Y-1.0842
G01 X36.7676 Y-1.0597
G01 X36.7626 Y-0.9585
G01 X36.7585 Y-0.9047
G01 X36.7525 Y-0.8560
G01 X36.7376 Y-0.7558
G01 X36.7292 Y-0.7075
G01 X36.7175 Y-0.6548
G01 X36.6929 Y-0.5565
G01 X36.6798 Y-0.5092
G01 X36.6630 Y-0.4579
G01 X36.6289 Y-0.3626
G01 X36.6112 Y-0.3168
G01 X36.5895 Y-0.2674
G01 X36.5462 Y-0.1758
G01 X36.5241 Y-0.1320
G01 X36.4976 Y-0.0849
G01 X36.4455 Y0.0019
G01 X36.4193 Y0.0434
G01 X36.3883 Y0.0876
G01 X36.3280 Y0.1689
G01 X36.2978 Y0.2076
G01 X36.2626 Y0.2486
G01 X36.1946 Y0.3236
G01 X36.1607 Y0.3592
G01 X36.1217 Y0.3965
G01 X36.0467 Y0.4645
G01 X36.0057 Y0.4997
G01 X35.9670 Y0.5299
G01 X35.8857 Y0.5902
G01 X35.8456 Y0.6184
G01 X35.8000 Y0.6474
G01 X35.7132 Y0.6995
G01 X35.6704 Y0.7237
G01 X35.6223 Y0.7481
G01 X35.5307 Y0.7914
G01 X35.4859 Y0.8113
G01 X35.4355 Y0.8308
G01 X35.3402 Y0.8649
G01 X35.2936 Y0.8803
G01 X35.2416 Y0.8948
G01 X35.1433 Y0.9194
G01 X35.0955 Y0.9302
G01 X35.0423 Y0.9395
G01 X34.9421 Y0.9544
G01 X34.8929 Y0.9604
G01 X34.8385 Y0.9645
G01 X34.7374 Y0.9694
G01 X34.7109 Y0.9703
G01 X34.6869 Y0.9706
G01 X1.1113 Y0.9707
G01 X1.0843 Y0.9704
G01 X1.0598 Y0.9695
G01 X0.9586 Y0.9645
G01 X0.9097 Y0.9609
G01 X0.8561 Y0.9544
G01 X0.7559 Y0.9395
G01 X0.7027 Y0.9302
G01 X0.6549 Y0.9194
G01 X0.5566 Y0.8948
G01 X0.5093 Y0.8817
G01 X0.4580 Y0.8649
G01 X0.3627 Y0.8308
G01 X0.3169 Y0.8131
G01 X0.2675 Y0.7914
G01 X0.1759 Y0.7481
G01 X0.1278 Y0.7237
G01 X0.0850 Y0.6995
G01 X-0.0018 Y0.6474
G01 X-0.0433 Y0.6212
G01 X-0.0875 Y0.5902
G01 X-0.1688 Y0.5299
G01 X-0.2075 Y0.4997
G01 X-0.2485 Y0.4645
G01 X-0.3235 Y0.3965
G01 X-0.3625 Y0.3592
G01 X-0.3964 Y0.3236
G01 X-0.4644 Y0.2486
G01 X-0.4964 Y0.2114
G01 X-0.5298 Y0.1689
G01 X-0.5901 Y0.0876
G01 X-0.6183 Y0.0475
G01 X-0.6473 Y0.0019
G01 X-0.6994 Y-0.0849
G01 X-0.7259 Y-0.1320
G01 X-0.7480 Y-0.1758
G01 X-0.7913 Y-0.2674
G01 X-0.8112 Y-0.3122
G01 X-0.8307 Y-0.3626
G01 X-0.8648 Y-0.4579
G01 X-0.8802 Y-0.5045
G01 X-0.8947 Y-0.5565
G01 X-0.9193 Y-0.6548
G01 X-0.9301 Y-0.7026
G01 X-0.9394 Y-0.7558
G01 X-0.9543 Y-0.8560
G01 X-0.9603 Y-0.9047
G01 X-0.9644 Y-0.9585
G01 X-0.9694 Y-1.0597
G01 X-0.9703 Y-1.0867
G01 X-0.9706 Y-1.1112
G01 X-0.9706 Y-4.0050
G00 X-0.9706 Y-4.0050
G01 F60.00
G01 Z-1.3000
G01 F150.00
G01 X-0.9706 Y-1.1112
G01 X-0.9703 Y-1.0867
G01 X-0.9694 Y-1.0597
G01 X-0.9644 Y-0.9585
G01 X-0.9603 Y-0.9047
G01 X-0.9543 Y-0.8560
G01 X-0.9394 Y-0.7558
G01 X-0.9301 Y-0.7026
G01 X-0.9193 Y-0.6548
G01 X-0.8947 Y-0.5565
G01 X-0.8802 Y-0.5045
G01 X-0.8648 Y-0.4579
G01 X-0.8307 Y-0.3626
G01 X-0.8112 Y-0.3122
G01 X-0.7913 Y-0.2674
G01 X-0.7480 Y-0.1758
G01 X-0.7259 Y-0.1320
G01 X-0.6994 Y-0.0849
G01 X-0.6473 Y0.0019
G01 X-0.6183 Y0.0475
G01 X-0.5901 Y0.0876
G01 X-0.5298 Y0.1689
G01 X-0.4964 Y0.2114
G01 X-0.4644 Y0.2486
G01 X-0.3964 Y0.3236
G01 X-0.3625 Y0.3592
G01 X-0.3235 Y0.3965
G01 X-0.2485 Y0.4645
G01 X-0.2075 Y0.4997
G01 X-0.1688 Y0.5299
G01 X-0.0875 Y0.5902
G01 X-0.0433 Y0.6212
G01 X-0.0018 Y0.6474
G01 X0.0850 Y0.6995
G01 X0.1278 Y0.7237
G01 X0.1759 Y0.7481
G01 X0.2675 Y0.7914
G01 X0.3169 Y0.8131
G01 X0.3627 Y0.8308
G01 X0.4580 Y0.8649
G01 X0.5093 Y0.8817
G01 X0.5566 Y0.8948
G01 X0.6549 Y0.9194
G01 X0.7027 Y0.9302
G01 X0.7559 Y0.9395
G01 X0.8561 Y0.9544
G01 X0.9097 Y0.9609
G01 X0.9586 Y0.9645
G01 X1.0598 Y0.9695
G01 X1.0843 Y0.9704
G01 X1.1113 Y0.9707
G01 X34.6869 Y0.9706
G01 X34.7109 Y0.9703
G01 X34.7374 Y0.9694
G01 X34.8385 Y0.9645
G01 X34.8929 Y0.9604
G01 X34.9421 Y0.9544
G01 X35.0423 Y0.9395
G01 X35.0955 Y0.9302
G01 X35.1433 Y0.9194
G01 X35.2416 Y0.8948
G01 X35.2936 Y0.8803
G01 X35.3402 Y0.8649
G01 X35.4355 Y0.8308
G01 X35.4859 Y0.8113
G01 X35.5307 Y0.7914
G01 X35.6223 Y0.7481
G01 X35.6704 Y0.7237
G01 X35.7132 Y0.6995
G01 X35.8000 Y0.6474
G01 X35.8456 Y0.6184
G01 X35.8857 Y0.5902
G01 X35.9670 Y0.5299
G01 X36.0057 Y0.4997
G01 X36.0467 Y0.4645
G01 X36.1217 Y0.3965
G01 X36.1607 Y0.3592
G01 X36.1946 Y0.3236
G01 X36.2626 Y0.2486
G01 X36.2978 Y0.2076
G01 X36.3280 Y0.1689
G01 X36.3883 Y0.0876
G01 X36.4193 Y0.0434
G01 X36.4455 Y0.0019
G01 X36.4976 Y-0.0849
G01 X36.5241 Y-0.1320
G01 X36.5462 Y-0.1758
G01 X36.5895 Y-0.2674
G01 X36.6112 Y-0.3168
G01 X36.6289 Y-0.3626
G01 X36.6630 Y-0.4579
G01 X36.6798 Y-0.5092
G01 X36.6929 Y-0.5565
G01 X36.7175 Y-0.6548
G01 X36.7292 Y-0.7075
G01 X36.7376 Y-0.7558
G01 X36.7525 Y-0.8560
G01 X36.7585 Y-0.9047
G01 X36.7626 Y-0.9585
G01 X36.7676 Y-1.0597
G01 X36.7685 Y-1.0842
G01 X36.7688 Y-1.1112
G01 X36.7688 Y-4.0050
G00 X36.7688 Y-4.0050
G01 F60.00
G01 Z-1.4000
G01 F150.00
G01 X36.7688 Y-1.1112
G01 X36.7685 Y-1.0842
G01 X36.7676 Y-1.0597
G01 X36.7626 Y-0.9585
G01 X36.7585 Y-0.9047
G01 X36.7525 Y-0.8560
G01 X36.7376 Y-0.7558
G01 X36.7292 Y-0.7075
G01 X36.7175 Y-0.6548
G01 X36.6929 Y-0.5565
G01 X36.6798 Y-0.5092
G01 X36.6630 Y-0.4579
G01 X36.6289 Y-0.3626
G01 X36.6112 Y-0.3168
G01 X36.5895 Y-0.2674
G01 X36.5462 Y-0.1758
G01 X36.5241 Y-0.1320
G01 X36.4976 Y-0.0849
G01 X36.4455 Y0.0019
G01 X36.4193 Y0.0434
G01 X36.3883 Y0.0876
G01 X36.3280 Y0.1689
G01 X36.2978 Y0.2076
G01 X36.2626 Y0.2486
G01 X36.1946 Y0.3236
G01 X36.1607 Y0.3592
G01 X36.1217 Y0.3965
G01 X36.0467 Y0.4645
G01 X36.0057 Y0.4997
G01 X35.9670 Y0.5299
G01 X35.8857 Y0.5902
G01 X35.8456 Y0.6184
G01 X35.8000 Y0.6474
G01 X35.7132 Y0.6995
G01 X35.6704 Y0.7237
G01 X35.6223 Y0.7481
G01 X35.5307 Y0.7914
G01 X35.4859 Y0.8113
G01 X35.4355 Y0.8308
G01 X35.3402 Y0.8649
G01 X35.2936 Y0.8803
G01 X35.2416 Y0.8948
G01 X35.1433 Y0.9194
G01 X35.0955 Y0.9302
G01 X35.0423 Y0.9395
G01 X34.9421 Y0.9544
G01 X34.8929 Y0.9604
G01 X34.8385 Y0.9645
G01 X34.7374 Y0.9694
G01 X34.7109 Y0.9703
G01 X34.6869 Y0.9706
G01 X1.1113 Y0.9707
G01 X1.0843 Y0.9704
G01 X1.0598 Y0.9695
G01 X0.9586 Y0.9645
G01 X0.9097 Y0.9609
G01 X0.8561 Y0.9544
G01 X0.7559 Y0.9395
G01 X0.7027 Y0.9302
G01 X0.6549 Y0.9194
G01 X0.5566 Y0.8948
G01 X0.5093 Y0.8817
G01 X0.4580 Y0.8649
G01 X0.3627 Y0.8308
G01 X0.3169 Y0.8131
G01 X0.2675 Y0.7914
G01 X0.1759 Y0.7481
G01 X0.1278 Y0.7237
G01 X0.0850 Y0.6995
G01 X-0.0018 Y0.6474
G01 X-0.0433 Y0.6212
G01 X-0.0875 Y0.5902
G01 X-0.1688 Y0.5299
G01 X-0.2075 Y0.4997
G01 X-0.2485 Y0.4645
G01 X-0.3235 Y0.3965
G01 X-0.3625 Y0.3592
G01 X-0.3964 Y0.3236
G01 X-0.4644 Y0.2486
G01 X-0.4964 Y0.2114
G01 X-0.5298 Y0.1689
G01 X-0.5901 Y0.0876
G01 X-0.6183 Y0.0475
G01 X-0.6473 Y0.0019
G01 X-0.6994 Y-0.0849
G01 X-0.7259 Y-0.1320
G01 X-0.7480 Y-0.1758
G01 X-0.7913 Y-0.2674
G01 X-0.8112 Y-0.3122
G01 X-0.8307 Y-0.3626
G01 X-0.8648 Y-0.4579
G01 X-0.8802 Y-0.5045
G01 X-0.8947 Y-0.5565
G01 X-0.9193 Y-0.6548
G01 X-0.9301 Y-0.7026
G01 X-0.9394 Y-0.7558
G01 X-0.9543 Y-0.8560
G01 X-0.9603 Y-0.9047
G01 X-0.9644 Y-0.9585
G01 X-0.9694 Y-1.0597
G01 X-0.9703 Y-1.0867
G01 X-0.9706 Y-1.1112
G01 X-0.9706 Y-4.0050
G00 X-0.9706 Y-4.0050
G01 F60.00
G01 Z-1.5000
G01 F150.00
G01 X-0.9706 Y-1.1112
G01 X-0.9703 Y-1.0867
G01 X-0.9694 Y-1.0597
G01 X-0.9644 Y-0.9585
G01 X-0.9603 Y-0.9047
G01 X-0.9543 Y-0.8560
G01 X-0.9394 Y-0.7558
G01 X-0.9301 Y-0.7026
G01 X-0.9193 Y-0.6548
G01 X-0.8947 Y-0.5565
G01 X-0.8802 Y-0.5045
G01 X-0.8648 Y-0.4579
G01 X-0.8307 Y-0.3626
G01 X-0.8112 Y-0.3122
G01 X-0.7913 Y-0.2674
G01 X-0.7480 Y-0.1758
G01 X-0.7259 Y-0.1320
G01 X-0.6994 Y-0.0849
G01 X-0.6473 Y0.0019
G01 X-0.6183 Y0.0475
G01 X-0.5901 Y0.0876
G01 X-0.5298 Y0.1689
G01 X-0.4964 Y0.2114
G01 X-0.4644 Y0.2486
G01 X-0.3964 Y0.3236
G01 X-0.3625 Y0.3592
G01 X-0.3235 Y0.3965
G01 X-0.2485 Y0.4645
G01 X-0.2075 Y0.4997
G01 X-0.1688 Y0.5299
G01 X-0.0875 Y0.5902
G01 X-0.0433 Y0.6212
G01 X-0.0018 Y0.6474
G01 X0.0850 Y0.6995
G01 X0.1278 Y0.7237
G01 X0.1759 Y0.7481
G01 X0.2675 Y0.7914
G01 X0.3169 Y0.8131
G01 X0.3627 Y0.8308
G01 X0.4580 Y0.8649
G01 X0.5093 Y0.8817
G01 X0.5566 Y0.8948
G01 X0.6549 Y0.9194
G01 X0.7027 Y0.9302
G01 X0.7559 Y0.9395
G01 X0.8561 Y0.9544
G01 X0.9097 Y0.9609
G01 X0.9586 Y0.9645
G01 X1.0598 Y0.9695
G01 X1.0843 Y0.9704
G01 X1.1113 Y0.9707
G01 X34.6869 Y0.9706
G01 X34.7109 Y0.9703
G01 X34.7374 Y0.9694
G01 X34.8385 Y0.9645
G01 X34.8929 Y0.9604
G01 X34.9421 Y0.9544
G01 X35.0423 Y0.9395
G01 X35.0955 Y0.9302
G01 X35.1433 Y0.9194
G01 X35.2416 Y0.8948
G01 X35.2936 Y0.8803
G01 X35.3402 Y0.8649
G01 X35.4355 Y0.8308
G01 X35.4859 Y0.8113
G01 X35.5307 Y0.7914
G01 X35.6223 Y0.7481
G01 X35.6704 Y0.7237
G01 X35.7132 Y0.6995
G01 X35.8000 Y0.6474
G01 X35.8456 Y0.6184
G01 X35.8857 Y0.5902
G01 X35.9670 Y0.5299
G01 X36.0057 Y0.4997
G01 X36.0467 Y0.4645
G01 X36.1217 Y0.3965
G01 X36.1607 Y0.3592
G01 X36.1946 Y0.3236
G01 X36.2626 Y0.2486
G01 X36.2978 Y0.2076
G01 X36.3280 Y0.1689
G01 X36.3883 Y0.0876
G01 X36.4193 Y0.0434
G01 X36.4455 Y0.0019
G01 X36.4976 Y-0.0849
G01 X36.5241 Y-0.1320
G01 X36.5462 Y-0.1758
G01 X36.5895 Y-0.2674
G01 X36.6112 Y-0.3168
G01 X36.6289 Y-0.3626
G01 X36.6630 Y-0.4579
G01 X36.6798 Y-0.5092
G01 X36.6929 Y-0.5565
G01 X36.7175 Y-0.6548
G01 X36.7292 Y-0.7075
G01 X36.7376 Y-0.7558
G01 X36.7525 Y-0.8560
G01 X36.7585 Y-0.9047
G01 X36.7626 Y-0.9585
G01 X36.7676 Y-1.0597
G01 X36.7685 Y-1.0842
G01 X36.7688 Y-1.1112
G01 X36.7688 Y-4.0050
G00 X36.7688 Y-4.0050
G01 F60.00
G01 Z-1.6000
G01 F150.00
G01 X36.7688 Y-1.1112
G01 X36.7685 Y-1.0842
G01 X36.7676 Y-1.0597
G01 X36.7626 Y-0.9585
G01 X36.7585 Y-0.9047
G01 X36.7525 Y-0.8560
G01 X36.7376 Y-0.7558
G01 X36.7292 Y-0.7075
G01 X36.7175 Y-0.6548
G01 X36.6929 Y-0.5565
G01 X36.6798 Y-0.5092
G01 X36.6630 Y-0.4579
G01 X36.6289 Y-0.3626
G01 X36.6112 Y-0.3168
G01 X36.5895 Y-0.2674
G01 X36.5462 Y-0.1758
G01 X36.5241 Y-0.1320
G01 X36.4976 Y-0.0849
G01 X36.4455 Y0.0019
G01 X36.4193 Y0.0434
G01 X36.3883 Y0.0876
G01 X36.3280 Y0.1689
G01 X36.2978 Y0.2076
G01 X36.2626 Y0.2486
G01 X36.1946 Y0.3236
G01 X36.1607 Y0.3592
G01 X36.1217 Y0.3965
G01 X36.0467 Y0.4645
G01 X36.0057 Y0.4997
G01 X35.9670 Y0.5299
G01 X35.8857 Y0.5902
G01 X35.8456 Y0.6184
G01 X35.8000 Y0.6474
G01 X35.7132 Y0.6995
G01 X35.6704 Y0.7237
G01 X35.6223 Y0.7481
G01 X35.5307 Y0.7914
G01 X35.4859 Y0.8113
G01 X35.4355 Y0.8308
G01 X35.3402 Y0.8649
G01 X35.2936 Y0.8803
G01 X35.2416 Y0.8948
G01 X35.1433 Y0.9194
G01 X35.0955 Y0.9302
G01 X35.0423 Y0.9395
G01 X34.9421 Y0.9544
G01 X34.8929 Y0.9604
G01 X34.8385 Y0.9645
G01 X34.7374 Y0.9694
G01 X34.7109 Y0.9703
G01 X34.6869 Y0.9706
G01 X1.1113 Y0.9707
G01 X1.0843 Y0.9704
G01 X1.0598 Y0.9695
G01 X0.9586 Y0.9645
G01 X0.9097 Y0.9609
G01 X0.8561 Y0.9544
G01 X0.7559 Y0.9395
G01 X0.7027 Y0.9302
G01 X0.6549 Y0.9194
G01 X0.5566 Y0.8948
G01 X0.5093 Y0.8817
G01 X0.4580 Y0.8649
G01 X0.3627 Y0.8308
G01 X0.3169 Y0.8131
G01 X0.2675 Y0.7914
G01 X0.1759 Y0.7481
G01 X0.1278 Y0.7237
G01 X0.0850 Y0.6995
G01 X-0.0018 Y0.6474
G01 X-0.0433 Y0.6212
G01 X-0.0875 Y0.5902
G01 X-0.1688 Y0.5299
G01 X-0.2075 Y0.4997
G01 X-0.2485 Y0.4645
G01 X-0.3235 Y0.3965
G01 X-0.3625 Y0.3592
G01 X-0.3964 Y0.3236
G01 X-0.4644 Y0.2486
G01 X-0.4964 Y0.2114
G01 X-0.5298 Y0.1689
G01 X-0.5901 Y0.0876
G01 X-0.6183 Y0.0475
G01 X-0.6473 Y0.0019
G01 X-0.6994 Y-0.0849
G01 X-0.7259 Y-0.1320
G01 X-0.7480 Y-0.1758
G01 X-0.7913 Y-0.2674
G01 X-0.8112 Y-0.3122
G01 X-0.8307 Y-0.3626
G01 X-0.8648 Y-0.4579
G01 X-0.8802 Y-0.5045
G01 X-0.8947 Y-0.5565
G01 X-0.9193 Y-0.6548
G01 X-0.9301 Y-0.7026
G01 X-0.9394 Y-0.7558
G01 X-0.9543 Y-0.8560
G01 X-0.9603 Y-0.9047
G01 X-0.9644 Y-0.9585
G01 X-0.9694 Y-1.0597
G01 X-0.9703 Y-1.0867
G01 X-0.9706 Y-1.1112
G01 X-0.9706 Y-4.0050
G00 X-0.9706 Y-4.0050
G01 F60.00
G01 Z-1.7000
G01 F150.00
G01 X-0.9706 Y-1.1112
G01 X-0.9703 Y-1.0867
G01 X-0.9694 Y-1.0597
G01 X-0.9644 Y-0.9585
G01 X-0.9603 Y-0.9047
G01 X-0.9543 Y-0.8560
G01 X-0.9394 Y-0.7558
G01 X-0.9301 Y-0.7026
G01 X-0.9193 Y-0.6548
G01 X-0.8947 Y-0.5565
G01 X-0.8802 Y-0.5045
G01 X-0.8648 Y-0.4579
G01 X-0.8307 Y-0.3626
G01 X-0.8112 Y-0.3122
G01 X-0.7913 Y-0.2674
G01 X-0.7480 Y-0.1758
G01 X-0.7259 Y-0.1320
G01 X-0.6994 Y-0.0849
G01 X-0.6473 Y0.0019
G01 X-0.6183 Y0.0475
G01 X-0.5901 Y0.0876
G01 X-0.5298 Y0.1689
G01 X-0.4964 Y0.2114
G01 X-0.4644 Y0.2486
G01 X-0.3964 Y0.3236
G01 X-0.3625 Y0.3592
G01 X-0.3235 Y0.3965
G01 X-0.2485 Y0.4645
G01 X-0.2075 Y0.4997
G01 X-0.1688 Y0.5299
G01 X-0.0875 Y0.5902
G01 X-0.0433 Y0.6212
G01 X-0.0018 Y0.6474
G01 X0.0850 Y0.6995
G01 X0.1278 Y0.7237
G01 X0.1759 Y0.7481
G01 X0.2675 Y0.7914
G01 X0.3169 Y0.8131
G01 X0.3627 Y0.8308
G01 X0.4580 Y0.8649
G01 X0.5093 Y0.8817
G01 X0.5566 Y0.8948
G01 X0.6549 Y0.9194
G01 X0.7027 Y0.9302
G01 X0.7559 Y0.9395
G01 X0.8561 Y0.9544
G01 X0.9097 Y0.9609
G01 X0.9586 Y0.9645
G01 X1.0598 Y0.9695
G01 X1.0843 Y0.9704
G01 X1.1113 Y0.9707
G01 X34.6869 Y0.9706
G01 X34.7109 Y0.9703
G01 X34.7374 Y0.9694
G01 X34.8385 Y0.9645
G01 X34.8929 Y0.9604
G01 X34.9421 Y0.9544
G01 X35.0423 Y0.9395
G01 X35.0955 Y0.9302
G01 X35.1433 Y0.9194
G01 X35.2416 Y0.8948
G01 X35.2936 Y0.8803
G01 X35.3402 Y0.8649
G01 X35.4355 Y0.8308
G01 X35.4859 Y0.8113
G01 X35.5307 Y0.7914
G01 X35.6223 Y0.7481
G01 X35.6704 Y0.7237
G01 X35.7132 Y0.6995
G01 X35.8000 Y0.6474
G01 X35.8456 Y0.6184
G01 X35.8857 Y0.5902
G01 X35.9670 Y0.5299
G01 X36.0057 Y0.4997
G01 X36.0467 Y0.4645
G01 X36.1217 Y0.3965
G01 X36.1607 Y0.3592
G01 X36.1946 Y0.3236
G01 X36.2626 Y0.2486
G01 X36.2978 Y0.2076
G01 X36.3280 Y0.1689
G01 X36.3883 Y0.0876
G01 X36.4193 Y0.0434
G01 X36.4455 Y0.0019
G01 X36.4976 Y-0.0849
G01 X36.5241 Y-0.1320
G01 X36.5462 Y-0.1758
G01 X36.5895 Y-0.2674
G01 X36.6112 Y-0.3168
G01 X36.6289 Y-0.3626
G01 X36.6630 Y-0.4579
G01 X36.6798 Y-0.5092
G01 X36.6929 Y-0.5565
G01 X36.7175 Y-0.6548
G01 X36.7292 Y-0.7075
G01 X36.7376 Y-0.7558
G01 X36.7525 Y-0.8560
G01 X36.7585 Y-0.9047
G01 X36.7626 Y-0.9585
G01 X36.7676 Y-1.0597
G01 X36.7685 Y-1.0842
G01 X36.7688 Y-1.1112
G01 X36.7688 Y-4.0050
G00 X36.7688 Y-4.0050
G01 F60.00
G01 Z-1.8000
G01 F150.00
G01 X36.7688 Y-1.1112
G01 X36.7685 Y-1.0842
G01 X36.7676 Y-1.0597
G01 X36.7626 Y-0.9585
G01 X36.7585 Y-0.9047
G01 X36.7525 Y-0.8560
G01 X36.7376 Y-0.7558
G01 X36.7292 Y-0.7075
G01 X36.7175 Y-0.6548
G01 X36.6929 Y-0.5565
G01 X36.6798 Y-0.5092
G01 X36.6630 Y-0.4579
G01 X36.6289 Y-0.3626
G01 X36.6112 Y-0.3168
G01 X36.5895 Y-0.2674
G01 X36.5462 Y-0.1758
G01 X36.5241 Y-0.1320
G01 X36.4976 Y-0.0849
G01 X36.4455 Y0.0019
G01 X36.4193 Y0.0434
G01 X36.3883 Y0.0876
G01 X36.3280 Y0.1689
G01 X36.2978 Y0.2076
G01 X36.2626 Y0.2486
G01 X36.1946 Y0.3236
G01 X36.1607 Y0.3592
G01 X36.1217 Y0.3965
G01 X36.0467 Y0.4645
G01 X36.0057 Y0.4997
G01 X35.9670 Y0.5299
G01 X35.8857 Y0.5902
G01 X35.8456 Y0.6184
G01 X35.8000 Y0.6474
G01 X35.7132 Y0.6995
G01 X35.6704 Y0.7237
G01 X35.6223 Y0.7481
G01 X35.5307 Y0.7914
G01 X35.4859 Y0.8113
G01 X35.4355 Y0.8308
G01 X35.3402 Y0.8649
G01 X35.2936 Y0.8803
G01 X35.2416 Y0.8948
G01 X35.1433 Y0.9194
G01 X35.0955 Y0.9302
G01 X35.0423 Y0.9395
G01 X34.9421 Y0.9544
G01 X34.8929 Y0.9604
G01 X34.8385 Y0.9645
G01 X34.7374 Y0.9694
G01 X34.7109 Y0.9703
G01 X34.6869 Y0.9706
G01 X1.1113 Y0.9707
G01 X1.0843 Y0.9704
G01 X1.0598 Y0.9695
G01 X0.9586 Y0.9645
G01 X0.9097 Y0.9609
G01 X0.8561 Y0.9544
G01 X0.7559 Y0.9395
G01 X0.7027 Y0.9302
G01 X0.6549 Y0.9194
G01 X0.5566 Y0.8948
G01 X0.5093 Y0.8817
G01 X0.4580 Y0.8649
G01 X0.3627 Y0.8308
G01 X0.3169 Y0.8131
G01 X0.2675 Y0.7914
G01 X0.1759 Y0.7481
G01 X0.1278 Y0.7237
G01 X0.0850 Y0.6995
G01 X-0.0018 Y0.6474
G01 X-0.0433 Y0.6212
G01 X-0.0875 Y0.5902
G01 X-0.1688 Y0.5299
G01 X-0.2075 Y0.4997
G01 X-0.2485 Y0.4645
G01 X-0.3235 Y0.3965
G01 X-0.3625 Y0.3592
G01 X-0.3964 Y0.3236
G01 X-0.4644 Y0.2486
G01 X-0.4964 Y0.2114
G01 X-0.5298 Y0.1689
G01 X-0.5901 Y0.0876
G01 X-0.6183 Y0.0475
G01 X-0.6473 Y0.0019
G01 X-0.6994 Y-0.0849
G01 X-0.7259 Y-0.1320
G01 X-0.7480 Y-0.1758
G01 X-0.7913 Y-0.2674
G01 X-0.8112 Y-0.3122
G01 X-0.8307 Y-0.3626
G01 X-0.8648 Y-0.4579
G01 X-0.8802 Y-0.5045
G01 X-0.8947 Y-0.5565
G01 X-0.9193 Y-0.6548
G01 X-0.9301 Y-0.7026
G01 X-0.9394 Y-0.7558
G01 X-0.9543 Y-0.8560
G01 X-0.9603 Y-0.9047
G01 X-0.9644 Y-0.9585
G01 X-0.9694 Y-1.0597
G01 X-0.9703 Y-1.0867
G01 X-0.9706 Y-1.1112
G01 X-0.9706 Y-4.0050
G00 X-0.9706 Y-4.0050
G01 F60.00
G01 Z-1.9000
G01 F150.00
G01 X-0.9706 Y-1.1112
G01 X-0.9703 Y-1.0867
G01 X-0.9694 Y-1.0597
G01 X-0.9644 Y-0.9585
G01 X-0.9603 Y-0.9047
G01 X-0.9543 Y-0.8560
G01 X-0.9394 Y-0.7558
G01 X-0.9301 Y-0.7026
G01 X-0.9193 Y-0.6548
G01 X-0.8947 Y-0.5565
G01 X-0.8802 Y-0.5045
G01 X-0.8648 Y-0.4579
G01 X-0.8307 Y-0.3626
G01 X-0.8112 Y-0.3122
G01 X-0.7913 Y-0.2674
G01 X-0.7480 Y-0.1758
G01 X-0.7259 Y-0.1320
G01 X-0.6994 Y-0.0849
G01 X-0.6473 Y0.0019
G01 X-0.6183 Y0.0475
G01 X-0.5901 Y0.0876
G01 X-0.5298 Y0.1689
G01 X-0.4964 Y0.2114
G01 X-0.4644 Y0.2486
G01 X-0.3964 Y0.3236
G01 X-0.3625 Y0.3592
G01 X-0.3235 Y0.3965
G01 X-0.2485 Y0.4645
G01 X-0.2075 Y0.4997
G01 X-0.1688 Y0.5299
G01 X-0.0875 Y0.5902
G01 X-0.0433 Y0.6212
G01 X-0.0018 Y0.6474
G01 X0.0850 Y0.6995
G01 X0.1278 Y0.7237
G01 X0.1759 Y0.7481
G01 X0.2675 Y0.7914
G01 X0.3169 Y0.8131
G01 X0.3627 Y0.8308
G01 X0.4580 Y0.8649
G01 X0.5093 Y0.8817
G01 X0.5566 Y0.8948
G01 X0.6549 Y0.9194
G01 X0.7027 Y0.9302
G01 X0.7559 Y0.9395
G01 X0.8561 Y0.9544
G01 X0.9097 Y0.9609
G01 X0.9586 Y0.9645
G01 X1.0598 Y0.9695
G01 X1.0843 Y0.9704
G01 X1.1113 Y0.9707
G01 X34.6869 Y0.9706
G01 X34.7109 Y0.9703
G01 X34.7374 Y0.9694
G01 X34.8385 Y0.9645
G01 X34.8929 Y0.9604
G01 X34.9421 Y0.9544
G01 X35.0423 Y0.9395
G01 X35.0955 Y0.9302
G01 X35.1433 Y0.9194
G01 X35.2416 Y0.8948
G01 X35.2936 Y0.8803
G01 X35.3402 Y0.8649
G01 X35.4355 Y0.8308
G01 X35.4859 Y0.8113
G01 X35.5307 Y0.7914
G01 X35.6223 Y0.7481
G01 X35.6704 Y0.7237
G01 X35.7132 Y0.6995
G01 X35.8000 Y0.6474
G01 X35.8456 Y0.6184
G01 X35.8857 Y0.5902
G01 X35.9670 Y0.5299
G01 X36.0057 Y0.4997
G01 X36.0467 Y0.4645
G01 X36.1217 Y0.3965
G01 X36.1607 Y0.3592
G01 X36.1946 Y0.3236
G01 X36.2626 Y0.2486
G01 X36.2978 Y0.2076
G01 X36.3280 Y0.1689
G01 X36.3883 Y0.0876
G01 X36.4193 Y0.0434
G01 X36.4455 Y0.0019
G01 X36.4976 Y-0.0849
G01 X36.5241 Y-0.1320
G01 X36.5462 Y-0.1758
G01 X36.5895 Y-0.2674
G01 X36.6112 Y-0.3168
G01 X36.6289 Y-0.3626
G01 X36.6630 Y-0.4579
G01 X36.6798 Y-0.5092
G01 X36.6929 Y-0.5565
G01 X36.7175 Y-0.6548
G01 X36.7292 Y-0.7075
G01 X36.7376 Y-0.7558
G01 X36.7525 Y-0.8560
G01 X36.7585 Y-0.9047
G01 X36.7626 Y-0.9585
G01 X36.7676 Y-1.0597
G01 X36.7685 Y-1.0842
G01 X36.7688 Y-1.1112
G01 X36.7688 Y-4.0050
G00 X36.7688 Y-4.0050
G01 F60.00
G01 Z-2.0000
G01 F150.00
G01 X36.7688 Y-1.1112
G01 X36.7685 Y-1.0842
G01 X36.7676 Y-1.0597
G01 X36.7626 Y-0.9585
G01 X36.7585 Y-0.9047
G01 X36.7525 Y-0.8560
G01 X36.7376 Y-0.7558
G01 X36.7292 Y-0.7075
G01 X36.7175 Y-0.6548
G01 X36.6929 Y-0.5565
G01 X36.6798 Y-0.5092
G01 X36.6630 Y-0.4579
G01 X36.6289 Y-0.3626
G01 X36.6112 Y-0.3168
G01 X36.5895 Y-0.2674
G01 X36.5462 Y-0.1758
G01 X36.5241 Y-0.1320
G01 X36.4976 Y-0.0849
G01 X36.4455 Y0.0019
G01 X36.4193 Y0.0434
G01 X36.3883 Y0.0876
G01 X36.3280 Y0.1689
G01 X36.2978 Y0.2076
G01 X36.2626 Y0.2486
G01 X36.1946 Y0.3236
G01 X36.1607 Y0.3592
G01 X36.1217 Y0.3965
G01 X36.0467 Y0.4645
G01 X36.0057 Y0.4997
G01 X35.9670 Y0.5299
G01 X35.8857 Y0.5902
G01 X35.8456 Y0.6184
G01 X35.8000 Y0.6474
G01 X35.7132 Y0.6995
G01 X35.6704 Y0.7237
G01 X35.6223 Y0.7481
G01 X35.5307 Y0.7914
G01 X35.4859 Y0.8113
G01 X35.4355 Y0.8308
G01 X35.3402 Y0.8649
G01 X35.2936 Y0.8803
G01 X35.2416 Y0.8948
G01 X35.1433 Y0.9194
G01 X35.0955 Y0.9302
G01 X35.0423 Y0.9395
G01 X34.9421 Y0.9544
G01 X34.8929 Y0.9604
G01 X34.8385 Y0.9645
G01 X34.7374 Y0.9694
G01 X34.7109 Y0.9703
G01 X34.6869 Y0.9706
G01 X1.1113 Y0.9707
G01 X1.0843 Y0.9704
G01 X1.0598 Y0.9695
G01 X0.9586 Y0.9645
G01 X0.9097 Y0.9609
G01 X0.8561 Y0.9544
G01 X0.7559 Y0.9395
G01 X0.7027 Y0.9302
G01 X0.6549 Y0.9194
G01 X0.5566 Y0.8948
G01 X0.5093 Y0.8817
G01 X0.4580 Y0.8649
G01 X0.3627 Y0.8308
G01 X0.3169 Y0.8131
G01 X0.2675 Y0.7914
G01 X0.1759 Y0.7481
G01 X0.1278 Y0.7237
G01 X0.0850 Y0.6995
G01 X-0.0018 Y0.6474
G01 X-0.0433 Y0.6212
G01 X-0.0875 Y0.5902
G01 X-0.1688 Y0.5299
G01 X-0.2075 Y0.4997
G01 X-0.2485 Y0.4645
G01 X-0.3235 Y0.3965
G01 X-0.3625 Y0.3592
G01 X-0.3964 Y0.3236
G01 X-0.4644 Y0.2486
G01 X-0.4964 Y0.2114
G01 X-0.5298 Y0.1689
G01 X-0.5901 Y0.0876
G01 X-0.6183 Y0.0475
G01 X-0.6473 Y0.0019
G01 X-0.6994 Y-0.0849
G01 X-0.7259 Y-0.1320
G01 X-0.7480 Y-0.1758
G01 X-0.7913 Y-0.2674
G01 X-0.8112 Y-0.3122
G01 X-0.8307 Y-0.3626
G01 X-0.8648 Y-0.4579
G01 X-0.8802 Y-0.5045
G01 X-0.8947 Y-0.5565
G01 X-0.9193 Y-0.6548
G01 X-0.9301 Y-0.7026
G01 X-0.9394 Y-0.7558
G01 X-0.9543 Y-0.8560
G01 X-0.9603 Y-0.9047
G01 X-0.9644 Y-0.9585
G01 X-0.9694 Y-1.0597
G01 X-0.9703 Y-1.0867
G01 X-0.9706 Y-1.1112
G01 X-0.9706 Y-4.0050
G00 Z2.0000
G00 X36.7688 Y-6.1550
G01 F60.00
G01 Z-0.1000
G01 F150.00
G01 X36.7688 Y-9.0488
G01 X36.7684 Y-9.0763
G01 X36.7675 Y-9.1014
G01 X36.7624 Y-9.2025
G01 X36.7584 Y-9.2558
G01 X36.7524 Y-9.3040
G01 X36.7375 Y-9.4042
G01 X36.7282 Y-9.4573
G01 X36.7174 Y-9.5052
G01 X36.6928 Y-9.6035
G01 X36.6797 Y-9.6508
G01 X36.6629 Y-9.7021
G01 X36.6288 Y-9.7974
G01 X36.6093 Y-9.8477
G01 X36.5894 Y-9.8926
G01 X36.5461 Y-9.9841
G01 X36.5217 Y-10.0323
G01 X36.4975 Y-10.0750
G01 X36.4454 Y-10.1619
G01 X36.4165 Y-10.2074
G01 X36.3882 Y-10.2475
G01 X36.3279 Y-10.3289
G01 X36.2946 Y-10.3714
G01 X36.2625 Y-10.4085
G01 X36.1945 Y-10.4835
G01 X36.1572 Y-10.5226
G01 X36.1216 Y-10.5564
G01 X36.0466 Y-10.6244
G01 X36.0057 Y-10.6596
G01 X35.9670 Y-10.6898
G01 X35.8856 Y-10.7501
G01 X35.8414 Y-10.7811
G01 X35.8000 Y-10.8073
G01 X35.7131 Y-10.8594
G01 X35.6661 Y-10.8859
G01 X35.6222 Y-10.9080
G01 X35.5307 Y-10.9513
G01 X35.4858 Y-10.9712
G01 X35.4355 Y-10.9907
G01 X35.3402 Y-11.0248
G01 X35.2889 Y-11.0416
G01 X35.2416 Y-11.0547
G01 X35.1433 Y-11.0793
G01 X35.0906 Y-11.0910
G01 X35.0423 Y-11.0994
G01 X34.9421 Y-11.1143
G01 X34.8885 Y-11.1208
G01 X34.8396 Y-11.1244
G01 X34.7384 Y-11.1294
G01 X34.7139 Y-11.1303
G01 X34.6869 Y-11.1306
G01 X1.1112 Y-11.1306
G01 X1.0867 Y-11.1303
G01 X1.0597 Y-11.1294
G01 X0.9585 Y-11.1244
G01 X0.9047 Y-11.1203
G01 X0.8560 Y-11.1143
G01 X0.7558 Y-11.0994
G01 X0.7027 Y-11.0901
G01 X0.6548 Y-11.0793
G01 X0.5565 Y-11.0547
G01 X0.5092 Y-11.0416
G01 X0.4579 Y-11.0248
G01 X0.3626 Y-10.9907
G01 X0.3123 Y-10.9712
G01 X0.2674 Y-10.9513
G01 X0.1759 Y-10.9080
G01 X0.1277 Y-10.8836
G01 X0.0850 Y-10.8594
G01 X-0.0019 Y-10.8073
G01 X-0.0433 Y-10.7811
G01 X-0.0875 Y-10.7501
G01 X-0.1689 Y-10.6898
G01 X-0.2114 Y-10.6565
G01 X-0.2485 Y-10.6244
G01 X-0.3235 Y-10.5564
G01 X-0.3626 Y-10.5191
G01 X-0.3964 Y-10.4835
G01 X-0.4644 Y-10.4085
G01 X-0.4965 Y-10.3714
G01 X-0.5298 Y-10.3289
G01 X-0.5901 Y-10.2475
G01 X-0.6211 Y-10.2033
G01 X-0.6473 Y-10.1619
G01 X-0.6994 Y-10.0750
G01 X-0.7259 Y-10.0280
G01 X-0.7480 Y-9.9841
G01 X-0.7913 Y-9.8926
G01 X-0.8112 Y-9.8477
G01 X-0.8307 Y-9.7974
G01 X-0.8648 Y-9.7021
G01 X-0.8802 Y-9.6555
G01 X-0.8947 Y-9.6035
G01 X-0.9193 Y-9.5052
G01 X-0.9301 Y-9.4573
G01 X-0.9394 Y-9.4042
G01 X-0.9543 Y-9.3040
G01 X-0.9603 Y-9.2553
G01 X-0.9644 Y-9.2015
G01 X-0.9694 Y-9.1003
G01 X-0.9706 Y-9.0488
G01 X-0.9706 Y-6.1550
G00 X-0.9706 Y-6.1550
G01 F60.00
G01 Z-0.2000
G01 F150.00
G01 X-0.9706 Y-9.0488
G01 X-0.9694 Y-9.1003
G01 X-0.9644 Y-9.2015
G01 X-0.9603 Y-9.2553
G01 X-0.9543 Y-9.3040
G01 X-0.9394 Y-9.4042
G01 X-0.9301 Y-9.4573
G01 X-0.9193 Y-9.5052
G01 X-0.8947 Y-9.6035
G01 X-0.8802 Y-9.6555
G01 X-0.8648 Y-9.7021
G01 X-0.8307 Y-9.7974
G01 X-0.8112 Y-9.8477
G01 X-0.7913 Y-9.8926
G01 X-0.7480 Y-9.9841
G01 X-0.7259 Y-10.0280
G01 X-0.6994 Y-10.0750
G01 X-0.6473 Y-10.1619
G01 X-0.6211 Y-10.2033
G01 X-0.5901 Y-10.2475
G01 X-0.5298 Y-10.3289
G01 X-0.4965 Y-10.3714
G01 X-0.4644 Y-10.4085
G01 X-0.3964 Y-10.4835
G01 X-0.3626 Y-10.5191
G01 X-0.3235 Y-10.5564
G01 X-0.2485 Y-10.6244
G01 X-0.2114 Y-10.6565
G01 X-0.1689 Y-10.6898
G01 X-0.0875 Y-10.7501
G01 X-0.0433 Y-10.7811
G01 X-0.0019 Y-10.8073
G01 X0.0850 Y-10.8594
G01 X0.1277 Y-10.8836
G01 X0.1759 Y-10.9080
G01 X0.2674 Y-10.9513
G01 X0.3123 Y-10.9712
G01 X0.3626 Y-10.9907
G01 X0.4579 Y-11.0248
G01 X0.5092 Y-11.0416
G01 X0.5565 Y-11.0547
G01 X0.6548 Y-11.0793
G01 X0.7027 Y-11.0901
G01 X0.7558 Y-11.0994
G01 X0.8560 Y-11.1143
G01 X0.9047 Y-11.1203
G01 X0.9585 Y-11.1244
G01 X1.0597 Y-11.1294
G01 X1.0867 Y-11.1303
G01 X1.1112 Y-11.1306
G01 X34.6869 Y-11.1306
G01 X34.7139 Y-11.1303
G01 X34.7384 Y-11.1294
G01 X34.8396 Y-11.1244
G01 X34.8885 Y-11.1208
G01 X34.9421 Y-11.1143
G01 X35.0423 Y-11.0994
G01 X35.0906 Y-11.0910
G01 X35.1433 Y-11.0793
G01 X35.2416 Y-11.0547
G01 X35.2889 Y-11.0416
G01 X35.3402 Y-11.0248
G01 X35.4355 Y-10.9907
G01 X35.4858 Y-10.9712
G01 X35.5307 Y-10.9513
G01 X35.6222 Y-10.9080
G01 X35.6661 Y-10.8859
G01 X35.7131 Y-10.8594
G01 X35.8000 Y-10.8073
G01 X35.8414 Y-10.7811
G01 X35.8856 Y-10.7501
G01 X35.9670 Y-10.6898
G01 X36.0057 Y-10.6596
G01 X36.0466 Y-10.6244
G01 X36.1216 Y-10.5564
G01 X36.1572 Y-10.5226
G01 X36.1945 Y-10.4835
G01 X36.2625 Y-10.4085
G01 X36.2946 Y-10.3714
G01 X36.3279 Y-10.3289
G01 X36.3882 Y-10.2475
G01 X36.4165 Y-10.2074
G01 X36.4454 Y-10.1619
G01 X36.4975 Y-10.0750
G01 X36.5217 Y-10.0323
G01 X36.5461 Y-9.9841
G01 X36.5894 Y-9.8926
G01 X36.6093 Y-9.8477
G01 X36.6288 Y-9.7974
G01 X36.6629 Y-9.7021
G01 X36.6797 Y-9.6508
G01 X36.6928 Y-9.6035
G01 X36.7174 Y-9.5052
G01 X36.7282 Y-9.4573
G01 X36.7375 Y-9.4042
G01 X36.7524 Y-9.3040
G01 X36.7584 Y-9.2558
G01 X36.7624 Y-9.2025
G01 X36.7675 Y-9.1014
G01 X36.7684 Y-9.0763
G01 X36.7688 Y-9.0488
G01 X36.7688 Y-6.1550
G00 X36.7688 Y-6.1550
G01 F60.00
G01 Z-0.3000
G01 F150.00
G01 X36.7688 Y-9.0488
G01 X36.7684 Y-9.0763
G01 X36.7675 Y-9.1014
G01 X36.7624 Y-9.2025
G01 X36.7584 Y-9.2558
G01 X36.7524 Y-9.3040
G01 X36.7375 Y-9.4042
G01 X36.7282 Y-9.4573
G01 X36.7174 Y-9.5052
G01 X36.6928 Y-9.6035
G01 X36.6797 Y-9.6508
G01 X36.6629 Y-9.7021
G01 X36.6288 Y-9.7974
G01 X36.6093 Y-9.8477
G01 X36.5894 Y-9.8926
G01 X36.5461 Y-9.9841
G01 X36.5217 Y-10.0323
G01 X36.4975 Y-10.0750
G01 X36.4454 Y-10.1619
G01 X36.4165 Y-10.2074
G01 X36.3882 Y-10.2475
G01 X36.3279 Y-10.3289
G01 X36.2946 Y-10.3714
G01 X36.2625 Y-10.4085
G01 X36.1945 Y-10.4835
G01 X36.1572 Y-10.5226
G01 X36.1216 Y-10.5564
G01 X36.0466 Y-10.6244
G01 X36.0057 Y-10.6596
G01 X35.9670 Y-10.6898
G01 X35.8856 Y-10.7501
G01 X35.8414 Y-10.7811
G01 X35.8000 Y-10.8073
G01 X35.7131 Y-10.8594
G01 X35.6661 Y-10.8859
G01 X35.6222 Y-10.9080
G01 X35.5307 Y-10.9513
G01 X35.4858 Y-10.9712
G01 X35.4355 Y-10.9907
G01 X35.3402 Y-11.0248
G01 X35.2889 Y-11.0416
G01 X35.2416 Y-11.0547
G01 X35.1433 Y-11.0793
G01 X35.0906 Y-11.0910
G01 X35.0423 Y-11.0994
G01 X34.9421 Y-11.1143
G01 X34.8885 Y-11.1208
G01 X34.8396 Y-11.1244
G01 X34.7384 Y-11.1294
G01 X34.7139 Y-11.1303
G01 X34.6869 Y-11.1306
G01 X1.1112 Y-11.1306
G01 X1.0867 Y-11.1303
G01 X1.0597 Y-11.1294
G01 X0.9585 Y-11.1244
G01 X0.9047 Y-11.1203
G01 X0.8560 Y-11.1143
G01 X0.7558 Y-11.0994
G01 X0.7027 Y-11.0901
G01 X0.6548 Y-11.0793
G01 X0.5565 Y-11.0547
G01 X0.5092 Y-11.0416
G01 X0.4579 Y-11.0248
G01 X0.3626 Y-10.9907
G01 X0.3123 Y-10.9712
G01 X0.2674 Y-10.9513
G01 X0.1759 Y-10.9080
G01 X0.1277 Y-10.8836
G01 X0.0850 Y-10.8594
G01 X-0.0019 Y-10.8073
G01 X-0.0433 Y-10.7811
G01 X-0.0875 Y-10.7501
G01 X-0.1689 Y-10.6898
G01 X-0.2114 Y-10.6565
G01 X-0.2485 Y-10.6244
G01 X-0.3235 Y-10.5564
G01 X-0.3626 Y-10.5191
G01 X-0.3964 Y-10.4835
G01 X-0.4644 Y-10.4085
G01 X-0.4965 Y-10.3714
G01 X-0.5298 Y-10.3289
G01 X-0.5901 Y-10.2475
G01 X-0.6211 Y-10.2033
G01 X-0.6473 Y-10.1619
G01 X-0.6994 Y-10.0750
G01 X-0.7259 Y-10.0280
G01 X-0.7480 Y-9.9841
G01 X-0.7913 Y-9.8926
G01 X-0.8112 Y-9.8477
G01 X-0.8307 Y-9.7974
G01 X-0.8648 Y-9.7021
G01 X-0.8802 Y-9.6555
G01 X-0.8947 Y-9.6035
G01 X-0.9193 Y-9.5052
G01 X-0.9301 Y-9.4573
G01 X-0.9394 Y-9.4042
G01 X-0.9543 Y-9.3040
G01 X-0.9603 Y-9.2553
G01 X-0.9644 Y-9.2015
G01 X-0.9694 Y-9.1003
G01 X-0.9706 Y-9.0488
G01 X-0.9706 Y-6.1550
G00 X-0.9706 Y-6.1550
G01 F60.00
G01 Z-0.4000
G01 F150.00
G01 X-0.9706 Y-9.0488
G01 X-0.9694 Y-9.1003
G01 X-0.9644 Y-9.2015
G01 X-0.9603 Y-9.2553
G01 X-0.9543 Y-9.3040
G01 X-0.9394 Y-9.4042
G01 X-0.9301 Y-9.4573
G01 X-0.9193 Y-9.5052
G01 X-0.8947 Y-9.6035
G01 X-0.8802 Y-9.6555
G01 X-0.8648 Y-9.7021
G01 X-0.8307 Y-9.7974
G01 X-0.8112 Y-9.8477
G01 X-0.7913 Y-9.8926
G01 X-0.7480 Y-9.9841
G01 X-0.7259 Y-10.0280
G01 X-0.6994 Y-10.0750
G01 X-0.6473 Y-10.1619
G01 X-0.6211 Y-10.2033
G01 X-0.5901 Y-10.2475
G01 X-0.5298 Y-10.3289
G01 X-0.4965 Y-10.3714
G01 X-0.4644 Y-10.4085
G01 X-0.3964 Y-10.4835
G01 X-0.3626 Y-10.5191
G01 X-0.3235 Y-10.5564
G01 X-0.2485 Y-10.6244
G01 X-0.2114 Y-10.6565
G01 X-0.1689 Y-10.6898
G01 X-0.0875 Y-10.7501
G01 X-0.0433 Y-10.7811
G01 X-0.0019 Y-10.8073
G01 X0.0850 Y-10.8594
G01 X0.1277 Y-10.8836
G01 X0.1759 Y-10.9080
G01 X0.2674 Y-10.9513
G01 X0.3123 Y-10.9712
G01 X0.3626 Y-10.9907
G01 X0.4579 Y-11.0248
G01 X0.5092 Y-11.0416
G01 X0.5565 Y-11.0547
G01 X0.6548 Y-11.0793
G01 X0.7027 Y-11.0901
G01 X0.7558 Y-11.0994
G01 X0.8560 Y-11.1143
G01 X0.9047 Y-11.1203
G01 X0.9585 Y-11.1244
G01 X1.0597 Y-11.1294
G01 X1.0867 Y-11.1303
G01 X1.1112 Y-11.1306
G01 X34.6869 Y-11.1306
G01 X34.7139 Y-11.1303
G01 X34.7384 Y-11.1294
G01 X34.8396 Y-11.1244
G01 X34.8885 Y-11.1208
G01 X34.9421 Y-11.1143
G01 X35.0423 Y-11.0994
G01 X35.0906 Y-11.0910
G01 X35.1433 Y-11.0793
G01 X35.2416 Y-11.0547
G01 X35.2889 Y-11.0416
G01 X35.3402 Y-11.0248
G01 X35.4355 Y-10.9907
G01 X35.4858 Y-10.9712
G01 X35.5307 Y-10.9513
G01 X35.6222 Y-10.9080
G01 X35.6661 Y-10.8859
G01 X35.7131 Y-10.8594
G01 X35.8000 Y-10.8073
G01 X35.8414 Y-10.7811
G01 X35.8856 Y-10.7501
G01 X35.9670 Y-10.6898
G01 X36.0057 Y-10.6596
G01 X36.0466 Y-10.6244
G01 X36.1216 Y-10.5564
G01 X36.1572 Y-10.5226
G01 X36.1945 Y-10.4835
G01 X36.2625 Y-10.4085
G01 X36.2946 Y-10.3714
G01 X36.3279 Y-10.3289
G01 X36.3882 Y-10.2475
G01 X36.4165 Y-10.2074
G01 X36.4454 Y-10.1619
G01 X36.4975 Y-10.0750
G01 X36.5217 Y-10.0323
G01 X36.5461 Y-9.9841
G01 X36.5894 Y-9.8926
G01 X36.6093 Y-9.8477
G01 X36.6288 Y-9.7974
G01 X36.6629 Y-9.7021
G01 X36.6797 Y-9.6508
G01 X36.6928 Y-9.6035
G01 X36.7174 Y-9.5052
G01 X36.7282 Y-9.4573
G01 X36.7375 Y-9.4042
G01 X36.7524 Y-9.3040
G01 X36.7584 Y-9.2558
G01 X36.7624 Y-9.2025
G01 X36.7675 Y-9.1014
G01 X36.7684 Y-9.0763
G01 X36.7688 Y-9.0488
G01 X36.7688 Y-6.1550
G00 X36.7688 Y-6.1550
G01 F60.00
G01 Z-0.5000
G01 F150.00
G01 X36.7688 Y-9.0488
G01 X36.7684 Y-9.0763
G01 X36.7675 Y-9.1014
G01 X36.7624 Y-9.2025
G01 X36.7584 Y-9.2558
G01 X36.7524 Y-9.3040
G01 X36.7375 Y-9.4042
G01 X36.7282 Y-9.4573
G01 X36.7174 Y-9.5052
G01 X36.6928 Y-9.6035
G01 X36.6797 Y-9.6508
G01 X36.6629 Y-9.7021
G01 X36.6288 Y-9.7974
G01 X36.6093 Y-9.8477
G01 X36.5894 Y-9.8926
G01 X36.5461 Y-9.9841
G01 X36.5217 Y-10.0323
G01 X36.4975 Y-10.0750
G01 X36.4454 Y-10.1619
G01 X36.4165 Y-10.2074
G01 X36.3882 Y-10.2475
G01 X36.3279 Y-10.3289
G01 X36.2946 Y-10.3714
G01 X36.2625 Y-10.4085
G01 X36.1945 Y-10.4835
G01 X36.1572 Y-10.5226
G01 X36.1216 Y-10.5564
G01 X36.0466 Y-10.6244
G01 X36.0057 Y-10.6596
G01 X35.9670 Y-10.6898
G01 X35.8856 Y-10.7501
G01 X35.8414 Y-10.7811
G01 X35.8000 Y-10.8073
G01 X35.7131 Y-10.8594
G01 X35.6661 Y-10.8859
G01 X35.6222 Y-10.9080
G01 X35.5307 Y-10.9513
G01 X35.4858 Y-10.9712
G01 X35.4355 Y-10.9907
G01 X35.3402 Y-11.0248
G01 X35.2889 Y-11.0416
G01 X35.2416 Y-11.0547
G01 X35.1433 Y-11.0793
G01 X35.0906 Y-11.0910
G01 X35.0423 Y-11.0994
G01 X34.9421 Y-11.1143
G01 X34.8885 Y-11.1208
G01 X34.8396 Y-11.1244
G01 X34.7384 Y-11.1294
G01 X34.7139 Y-11.1303
G01 X34.6869 Y-11.1306
G01 X1.1112 Y-11.1306
G01 X1.0867 Y-11.1303
G01 X1.0597 Y-11.1294
G01 X0.9585 Y-11.1244
G01 X0.9047 Y-11.1203
G01 X0.8560 Y-11.1143
G01 X0.7558 Y-11.0994
G01 X0.7027 Y-11.0901
G01 X0.6548 Y-11.0793
G01 X0.5565 Y-11.0547
G01 X0.5092 Y-11.0416
G01 X0.4579 Y-11.0248
G01 X0.3626 Y-10.9907
G01 X0.3123 Y-10.9712
G01 X0.2674 Y-10.9513
G01 X0.1759 Y-10.9080
G01 X0.1277 Y-10.8836
G01 X0.0850 Y-10.8594
G01 X-0.0019 Y-10.8073
G01 X-0.0433 Y-10.7811
G01 X-0.0875 Y-10.7501
G01 X-0.1689 Y-10.6898
G01 X-0.2114 Y-10.6565
G01 X-0.2485 Y-10.6244
G01 X-0.3235 Y-10.5564
G01 X-0.3626 Y-10.5191
G01 X-0.3964 Y-10.4835
G01 X-0.4644 Y-10.4085
G01 X-0.4965 Y-10.3714
G01 X-0.5298 Y-10.3289
G01 X-0.5901 Y-10.2475
G01 X-0.6211 Y-10.2033
G01 X-0.6473 Y-10.1619
G01 X-0.6994 Y-10.0750
G01 X-0.7259 Y-10.0280
G01 X-0.7480 Y-9.9841
G01 X-0.7913 Y-9.8926
G01 X-0.8112 Y-9.8477
G01 X-0.8307 Y-9.7974
G01 X-0.8648 Y-9.7021
G01 X-0.8802 Y-9.6555
G01 X-0.8947 Y-9.6035
G01 X-0.9193 Y-9.5052
G01 X-0.9301 Y-9.4573
G01 X-0.9394 Y-9.4042
G01 X-0.9543 Y-9.3040
G01 X-0.9603 Y-9.2553
G01 X-0.9644 Y-9.2015
G01 X-0.9694 Y-9.1003
G01 X-0.9706 Y-9.0488
G01 X-0.9706 Y-6.1550
G00 X-0.9706 Y-6.1550
G01 F60.00
G01 Z-0.6000
G01 F150.00
G01 X-0.9706 Y-9.0488
G01 X-0.9694 Y-9.1003
G01 X-0.9644 Y-9.2015
G01 X-0.9603 Y-9.2553
G01 X-0.9543 Y-9.3040
G01 X-0.9394 Y-9.4042
G01 X-0.9301 Y-9.4573
G01 X-0.9193 Y-9.5052
G01 X-0.8947 Y-9.6035
G01 X-0.8802 Y-9.6555
G01 X-0.8648 Y-9.7021
G01 X-0.8307 Y-9.7974
G01 X-0.8112 Y-9.8477
G01 X-0.7913 Y-9.8926
G01 X-0.7480 Y-9.9841
G01 X-0.7259 Y-10.0280
G01 X-0.6994 Y-10.0750
G01 X-0.6473 Y-10.1619
G01 X-0.6211 Y-10.2033
G01 X-0.5901 Y-10.2475
G01 X-0.5298 Y-10.3289
G01 X-0.4965 Y-10.3714
G01 X-0.4644 Y-10.4085
G01 X-0.3964 Y-10.4835
G01 X-0.3626 Y-10.5191
G01 X-0.3235 Y-10.5564
G01 X-0.2485 Y-10.6244
G01 X-0.2114 Y-10.6565
G01 X-0.1689 Y-10.6898
G01 X-0.0875 Y-10.7501
G01 X-0.0433 Y-10.7811
G01 X-0.0019 Y-10.8073
G01 X0.0850 Y-10.8594
G01 X0.1277 Y-10.8836
G01 X0.1759 Y-10.9080
G01 X0.2674 Y-10.9513
G01 X0.3123 Y-10.9712
G01 X0.3626 Y-10.9907
G01 X0.4579 Y-11.0248
G01 X0.5092 Y-11.0416
G01 X0.5565 Y-11.0547
G01 X0.6548 Y-11.0793
G01 X0.7027 Y-11.0901
G01 X0.7558 Y-11.0994
G01 X0.8560 Y-11.1143
G01 X0.9047 Y-11.1203
G01 X0.9585 Y-11.1244
G01 X1.0597 Y-11.1294
G01 X1.0867 Y-11.1303
G01 X1.1112 Y-11.1306
G01 X34.6869 Y-11.1306
G01 X34.7139 Y-11.1303
G01 X34.7384 Y-11.1294
G01 X34.8396 Y-11.1244
G01 X34.8885 Y-11.1208
G01 X34.9421 Y-11.1143
G01 X35.0423 Y-11.0994
G01 X35.0906 Y-11.0910
G01 X35.1433 Y-11.0793
G01 X35.2416 Y-11.0547
G01 X35.2889 Y-11.0416
G01 X35.3402 Y-11.0248
G01 X35.4355 Y-10.9907
G01 X35.4858 Y-10.9712
G01 X35.5307 Y-10.9513
G01 X35.6222 Y-10.9080
G01 X35.6661 Y-10.8859
G01 X35.7131 Y-10.8594
G01 X35.8000 Y-10.8073
G01 X35.8414 Y-10.7811
G01 X35.8856 Y-10.7501
G01 X35.9670 Y-10.6898
G01 X36.0057 Y-10.6596
G01 X36.0466 Y-10.6244
G01 X36.1216 Y-10.5564
G01 X36.1572 Y-10.5226
G01 X36.1945 Y-10.4835
G01 X36.2625 Y-10.4085
G01 X36.2946 Y-10.3714
G01 X36.3279 Y-10.3289
G01 X36.3882 Y-10.2475
G01 X36.4165 Y-10.2074
G01 X36.4454 Y-10.1619
G01 X36.4975 Y-10.0750
G01 X36.5217 Y-10.0323
G01 X36.5461 Y-9.9841
G01 X36.5894 Y-9.8926
G01 X36.6093 Y-9.8477
G01 X36.6288 Y-9.7974
G01 X36.6629 Y-9.7021
G01 X36.6797 Y-9.6508
G01 X36.6928 Y-9.6035
G01 X36.7174 Y-9.5052
G01 X36.7282 Y-9.4573
G01 X36.7375 Y-9.4042
G01 X36.7524 Y-9.3040
G01 X36.7584 Y-9.2558
G01 X36.7624 Y-9.2025
G01 X36.7675 Y-9.1014
G01 X36.7684 Y-9.0763
G01 X36.7688 Y-9.0488
G01 X36.7688 Y-6.1550
G00 X36.7688 Y-6.1550
G01 F60.00
G01 Z-0.7000
G01 F150.00
G01 X36.7688 Y-9.0488
G01 X36.7684 Y-9.0763
G01 X36.7675 Y-9.1014
G01 X36.7624 Y-9.2025
G01 X36.7584 Y-9.2558
G01 X36.7524 Y-9.3040
G01 X36.7375 Y-9.4042
G01 X36.7282 Y-9.4573
G01 X36.7174 Y-9.5052
G01 X36.6928 Y-9.6035
G01 X36.6797 Y-9.6508
G01 X36.6629 Y-9.7021
G01 X36.6288 Y-9.7974
G01 X36.6093 Y-9.8477
G01 X36.5894 Y-9.8926
G01 X36.5461 Y-9.9841
G01 X36.5217 Y-10.0323
G01 X36.4975 Y-10.0750
G01 X36.4454 Y-10.1619
G01 X36.4165 Y-10.2074
G01 X36.3882 Y-10.2475
G01 X36.3279 Y-10.3289
G01 X36.2946 Y-10.3714
G01 X36.2625 Y-10.4085
G01 X36.1945 Y-10.4835
G01 X36.1572 Y-10.5226
G01 X36.1216 Y-10.5564
G01 X36.0466 Y-10.6244
G01 X36.0057 Y-10.6596
G01 X35.9670 Y-10.6898
G01 X35.8856 Y-10.7501
G01 X35.8414 Y-10.7811
G01 X35.8000 Y-10.8073
G01 X35.7131 Y-10.8594
G01 X35.6661 Y-10.8859
G01 X35.6222 Y-10.9080
G01 X35.5307 Y-10.9513
G01 X35.4858 Y-10.9712
G01 X35.4355 Y-10.9907
G01 X35.3402 Y-11.0248
G01 X35.2889 Y-11.0416
G01 X35.2416 Y-11.0547
G01 X35.1433 Y-11.0793
G01 X35.0906 Y-11.0910
G01 X35.0423 Y-11.0994
G01 X34.9421 Y-11.1143
G01 X34.8885 Y-11.1208
G01 X34.8396 Y-11.1244
G01 X34.7384 Y-11.1294
G01 X34.7139 Y-11.1303
G01 X34.6869 Y-11.1306
G01 X1.1112 Y-11.1306
G01 X1.0867 Y-11.1303
G01 X1.0597 Y-11.1294
G01 X0.9585 Y-11.1244
G01 X0.9047 Y-11.1203
G01 X0.8560 Y-11.1143
G01 X0.7558 Y-11.0994
G01 X0.7027 Y-11.0901
G01 X0.6548 Y-11.0793
G01 X0.5565 Y-11.0547
G01 X0.5092 Y-11.0416
G01 X0.4579 Y-11.0248
G01 X0.3626 Y-10.9907
G01 X0.3123 Y-10.9712
G01 X0.2674 Y-10.9513
G01 X0.1759 Y-10.9080
G01 X0.1277 Y-10.8836
G01 X0.0850 Y-10.8594
G01 X-0.0019 Y-10.8073
G01 X-0.0433 Y-10.7811
G01 X-0.0875 Y-10.7501
G01 X-0.1689 Y-10.6898
G01 X-0.2114 Y-10.6565
G01 X-0.2485 Y-10.6244
G01 X-0.3235 Y-10.5564
G01 X-0.3626 Y-10.5191
G01 X-0.3964 Y-10.4835
G01 X-0.4644 Y-10.4085
G01 X-0.4965 Y-10.3714
G01 X-0.5298 Y-10.3289
G01 X-0.5901 Y-10.2475
G01 X-0.6211 Y-10.2033
G01 X-0.6473 Y-10.1619
G01 X-0.6994 Y-10.0750
G01 X-0.7259 Y-10.0280
G01 X-0.7480 Y-9.9841
G01 X-0.7913 Y-9.8926
G01 X-0.8112 Y-9.8477
G01 X-0.8307 Y-9.7974
G01 X-0.8648 Y-9.7021
G01 X-0.8802 Y-9.6555
G01 X-0.8947 Y-9.6035
G01 X-0.9193 Y-9.5052
G01 X-0.9301 Y-9.4573
G01 X-0.9394 Y-9.4042
G01 X-0.9543 Y-9.3040
G01 X-0.9603 Y-9.2553
G01 X-0.9644 Y-9.2015
G01 X-0.9694 Y-9.1003
G01 X-0.9706 Y-9.0488
G01 X-0.9706 Y-6.1550
G00 X-0.9706 Y-6.1550
G01 F60.00
G01 Z-0.8000
G01 F150.00
G01 X-0.9706 Y-9.0488
G01 X-0.9694 Y-9.1003
G01 X-0.9644 Y-9.2015
G01 X-0.9603 Y-9.2553
G01 X-0.9543 Y-9.3040
G01 X-0.9394 Y-9.4042
G01 X-0.9301 Y-9.4573
G01 X-0.9193 Y-9.5052
G01 X-0.8947 Y-9.6035
G01 X-0.8802 Y-9.6555
G01 X-0.8648 Y-9.7021
G01 X-0.8307 Y-9.7974
G01 X-0.8112 Y-9.8477
G01 X-0.7913 Y-9.8926
G01 X-0.7480 Y-9.9841
G01 X-0.7259 Y-10.0280
G01 X-0.6994 Y-10.0750
G01 X-0.6473 Y-10.1619
G01 X-0.6211 Y-10.2033
G01 X-0.5901 Y-10.2475
G01 X-0.5298 Y-10.3289
G01 X-0.4965 Y-10.3714
G01 X-0.4644 Y-10.4085
G01 X-0.3964 Y-10.4835
G01 X-0.3626 Y-10.5191
G01 X-0.3235 Y-10.5564
G01 X-0.2485 Y-10.6244
G01 X-0.2114 Y-10.6565
G01 X-0.1689 Y-10.6898
G01 X-0.0875 Y-10.7501
G01 X-0.0433 Y-10.7811
G01 X-0.0019 Y-10.8073
G01 X0.0850 Y-10.8594
G01 X0.1277 Y-10.8836
G01 X0.1759 Y-10.9080
G01 X0.2674 Y-10.9513
G01 X0.3123 Y-10.9712
G01 X0.3626 Y-10.9907
G01 X0.4579 Y-11.0248
G01 X0.5092 Y-11.0416
G01 X0.5565 Y-11.0547
G01 X0.6548 Y-11.0793
G01 X0.7027 Y-11.0901
G01 X0.7558 Y-11.0994
G01 X0.8560 Y-11.1143
G01 X0.9047 Y-11.1203
G01 X0.9585 Y-11.1244
G01 X1.0597 Y-11.1294
G01 X1.0867 Y-11.1303
G01 X1.1112 Y-11.1306
G01 X34.6869 Y-11.1306
G01 X34.7139 Y-11.1303
G01 X34.7384 Y-11.1294
G01 X34.8396 Y-11.1244
G01 X34.8885 Y-11.1208
G01 X34.9421 Y-11.1143
G01 X35.0423 Y-11.0994
G01 X35.0906 Y-11.0910
G01 X35.1433 Y-11.0793
G01 X35.2416 Y-11.0547
G01 X35.2889 Y-11.0416
G01 X35.3402 Y-11.0248
G01 X35.4355 Y-10.9907
G01 X35.4858 Y-10.9712
G01 X35.5307 Y-10.9513
G01 X35.6222 Y-10.9080
G01 X35.6661 Y-10.8859
G01 X35.7131 Y-10.8594
G01 X35.8000 Y-10.8073
G01 X35.8414 Y-10.7811
G01 X35.8856 Y-10.7501
G01 X35.9670 Y-10.6898
G01 X36.0057 Y-10.6596
G01 X36.0466 Y-10.6244
G01 X36.1216 Y-10.5564
G01 X36.1572 Y-10.5226
G01 X36.1945 Y-10.4835
G01 X36.2625 Y-10.4085
G01 X36.2946 Y-10.3714
G01 X36.3279 Y-10.3289
G01 X36.3882 Y-10.2475
G01 X36.4165 Y-10.2074
G01 X36.4454 Y-10.1619
G01 X36.4975 Y-10.0750
G01 X36.5217 Y-10.0323
G01 X36.5461 Y-9.9841
G01 X36.5894 Y-9.8926
G01 X36.6093 Y-9.8477
G01 X36.6288 Y-9.7974
G01 X36.6629 Y-9.7021
G01 X36.6797 Y-9.6508
G01 X36.6928 Y-9.6035
G01 X36.7174 Y-9.5052
G01 X36.7282 Y-9.4573
G01 X36.7375 Y-9.4042
G01 X36.7524 Y-9.3040
G01 X36.7584 Y-9.2558
G01 X36.7624 Y-9.2025
G01 X36.7675 Y-9.1014
G01 X36.7684 Y-9.0763
G01 X36.7688 Y-9.0488
G01 X36.7688 Y-6.1550
G00 X36.7688 Y-6.1550
G01 F60.00
G01 Z-0.9000
G01 F150.00
G01 X36.7688 Y-9.0488
G01 X36.7684 Y-9.0763
G01 X36.7675 Y-9.1014
G01 X36.7624 Y-9.2025
G01 X36.7584 Y-9.2558
G01 X36.7524 Y-9.3040
G01 X36.7375 Y-9.4042
G01 X36.7282 Y-9.4573
G01 X36.7174 Y-9.5052
G01 X36.6928 Y-9.6035
G01 X36.6797 Y-9.6508
G01 X36.6629 Y-9.7021
G01 X36.6288 Y-9.7974
G01 X36.6093 Y-9.8477
G01 X36.5894 Y-9.8926
G01 X36.5461 Y-9.9841
G01 X36.5217 Y-10.0323
G01 X36.4975 Y-10.0750
G01 X36.4454 Y-10.1619
G01 X36.4165 Y-10.2074
G01 X36.3882 Y-10.2475
G01 X36.3279 Y-10.3289
G01 X36.2946 Y-10.3714
G01 X36.2625 Y-10.4085
G01 X36.1945 Y-10.4835
G01 X36.1572 Y-10.5226
G01 X36.1216 Y-10.5564
G01 X36.0466 Y-10.6244
G01 X36.0057 Y-10.6596
G01 X35.9670 Y-10.6898
G01 X35.8856 Y-10.7501
G01 X35.8414 Y-10.7811
G01 X35.8000 Y-10.8073
G01 X35.7131 Y-10.8594
G01 X35.6661 Y-10.8859
G01 X35.6222 Y-10.9080
G01 X35.5307 Y-10.9513
G01 X35.4858 Y-10.9712
G01 X35.4355 Y-10.9907
G01 X35.3402 Y-11.0248
G01 X35.2889 Y-11.0416
G01 X35.2416 Y-11.0547
G01 X35.1433 Y-11.0793
G01 X35.0906 Y-11.0910
G01 X35.0423 Y-11.0994
G01 X34.9421 Y-11.1143
G01 X34.8885 Y-11.1208
G01 X34.8396 Y-11.1244
G01 X34.7384 Y-11.1294
G01 X34.7139 Y-11.1303
G01 X34.6869 Y-11.1306
G01 X1.1112 Y-11.1306
G01 X1.0867 Y-11.1303
G01 X1.0597 Y-11.1294
G01 X0.9585 Y-11.1244
G01 X0.9047 Y-11.1203
G01 X0.8560 Y-11.1143
G01 X0.7558 Y-11.0994
G01 X0.7027 Y-11.0901
G01 X0.6548 Y-11.0793
G01 X0.5565 Y-11.0547
G01 X0.5092 Y-11.0416
G01 X0.4579 Y-11.0248
G01 X0.3626 Y-10.9907
G01 X0.3123 Y-10.9712
G01 X0.2674 Y-10.9513
G01 X0.1759 Y-10.9080
G01 X0.1277 Y-10.8836
G01 X0.0850 Y-10.8594
G01 X-0.0019 Y-10.8073
G01 X-0.0433 Y-10.7811
G01 X-0.0875 Y-10.7501
G01 X-0.1689 Y-10.6898
G01 X-0.2114 Y-10.6565
G01 X-0.2485 Y-10.6244
G01 X-0.3235 Y-10.5564
G01 X-0.3626 Y-10.5191
G01 X-0.3964 Y-10.4835
G01 X-0.4644 Y-10.4085
G01 X-0.4965 Y-10.3714
G01 X-0.5298 Y-10.3289
G01 X-0.5901 Y-10.2475
G01 X-0.6211 Y-10.2033
G01 X-0.6473 Y-10.1619
G01 X-0.6994 Y-10.0750
G01 X-0.7259 Y-10.0280
G01 X-0.7480 Y-9.9841
G01 X-0.7913 Y-9.8926
G01 X-0.8112 Y-9.8477
G01 X-0.8307 Y-9.7974
G01 X-0.8648 Y-9.7021
G01 X-0.8802 Y-9.6555
G01 X-0.8947 Y-9.6035
G01 X-0.9193 Y-9.5052
G01 X-0.9301 Y-9.4573
G01 X-0.9394 Y-9.4042
G01 X-0.9543 Y-9.3040
G01 X-0.9603 Y-9.2553
G01 X-0.9644 Y-9.2015
G01 X-0.9694 Y-9.1003
G01 X-0.9706 Y-9.0488
G01 X-0.9706 Y-6.1550
G00 X-0.9706 Y-6.1550
G01 F60.00
G01 Z-1.0000
G01 F150.00
G01 X-0.9706 Y-9.0488
G01 X-0.9694 Y-9.1003
G01 X-0.9644 Y-9.2015
G01 X-0.9603 Y-9.2553
G01 X-0.9543 Y-9.3040
G01 X-0.9394 Y-9.4042
G01 X-0.9301 Y-9.4573
G01 X-0.9193 Y-9.5052
G01 X-0.8947 Y-9.6035
G01 X-0.8802 Y-9.6555
G01 X-0.8648 Y-9.7021
G01 X-0.8307 Y-9.7974
G01 X-0.8112 Y-9.8477
G01 X-0.7913 Y-9.8926
G01 X-0.7480 Y-9.9841
G01 X-0.7259 Y-10.0280
G01 X-0.6994 Y-10.0750
G01 X-0.6473 Y-10.1619
G01 X-0.6211 Y-10.2033
G01 X-0.5901 Y-10.2475
G01 X-0.5298 Y-10.3289
G01 X-0.4965 Y-10.3714
G01 X-0.4644 Y-10.4085
G01 X-0.3964 Y-10.4835
G01 X-0.3626 Y-10.5191
G01 X-0.3235 Y-10.5564
G01 X-0.2485 Y-10.6244
G01 X-0.2114 Y-10.6565
G01 X-0.1689 Y-10.6898
G01 X-0.0875 Y-10.7501
G01 X-0.0433 Y-10.7811
G01 X-0.0019 Y-10.8073
G01 X0.0850 Y-10.8594
G01 X0.1277 Y-10.8836
G01 X0.1759 Y-10.9080
G01 X0.2674 Y-10.9513
G01 X0.3123 Y-10.9712
G01 X0.3626 Y-10.9907
G01 X0.4579 Y-11.0248
G01 X0.5092 Y-11.0416
G01 X0.5565 Y-11.0547
G01 X0.6548 Y-11.0793
G01 X0.7027 Y-11.0901
G01 X0.7558 Y-11.0994
G01 X0.8560 Y-11.1143
G01 X0.9047 Y-11.1203
G01 X0.9585 Y-11.1244
G01 X1.0597 Y-11.1294
G01 X1.0867 Y-11.1303
G01 X1.1112 Y-11.1306
G01 X34.6869 Y-11.1306
G01 X34.7139 Y-11.1303
G01 X34.7384 Y-11.1294
G01 X34.8396 Y-11.1244
G01 X34.8885 Y-11.1208
G01 X34.9421 Y-11.1143
G01 X35.0423 Y-11.0994
G01 X35.0906 Y-11.0910
G01 X35.1433 Y-11.0793
G01 X35.2416 Y-11.0547
G01 X35.2889 Y-11.0416
G01 X35.3402 Y-11.0248
G01 X35.4355 Y-10.9907
G01 X35.4858 Y-10.9712
G01 X35.5307 Y-10.9513
G01 X35.6222 Y-10.9080
G01 X35.6661 Y-10.8859
G01 X35.7131 Y-10.8594
G01 X35.8000 Y-10.8073
G01 X35.8414 Y-10.7811
G01 X35.8856 Y-10.7501
G01 X35.9670 Y-10.6898
G01 X36.0057 Y-10.6596
G01 X36.0466 Y-10.6244
G01 X36.1216 Y-10.5564
G01 X36.1572 Y-10.5226
G01 X36.1945 Y-10.4835
G01 X36.2625 Y-10.4085
G01 X36.2946 Y-10.3714
G01 X36.3279 Y-10.3289
G01 X36.3882 Y-10.2475
G01 X36.4165 Y-10.2074
G01 X36.4454 Y-10.1619
G01 X36.4975 Y-10.0750
G01 X36.5217 Y-10.0323
G01 X36.5461 Y-9.9841
G01 X36.5894 Y-9.8926
G01 X36.6093 Y-9.8477
G01 X36.6288 Y-9.7974
G01 X36.6629 Y-9.7021
G01 X36.6797 Y-9.6508
G01 X36.6928 Y-9.6035
G01 X36.7174 Y-9.5052
G01 X36.7282 Y-9.4573
G01 X36.7375 Y-9.4042
G01 X36.7524 Y-9.3040
G01 X36.7584 Y-9.2558
G01 X36.7624 Y-9.2025
G01 X36.7675 Y-9.1014
G01 X36.7684 Y-9.0763
G01 X36.7688 Y-9.0488
G01 X36.7688 Y-6.1550
G00 X36.7688 Y-6.1550
G01 F60.00
G01 Z-1.1000
G01 F150.00
G01 X36.7688 Y-9.0488
G01 X36.7684 Y-9.0763
G01 X36.7675 Y-9.1014
G01 X36.7624 Y-9.2025
G01 X36.7584 Y-9.2558
G01 X36.7524 Y-9.3040
G01 X36.7375 Y-9.4042
G01 X36.7282 Y-9.4573
G01 X36.7174 Y-9.5052
G01 X36.6928 Y-9.6035
G01 X36.6797 Y-9.6508
G01 X36.6629 Y-9.7021
G01 X36.6288 Y-9.7974
G01 X36.6093 Y-9.8477
G01 X36.5894 Y-9.8926
G01 X36.5461 Y-9.9841
G01 X36.5217 Y-10.0323
G01 X36.4975 Y-10.0750
G01 X36.4454 Y-10.1619
G01 X36.4165 Y-10.2074
G01 X36.3882 Y-10.2475
G01 X36.3279 Y-10.3289
G01 X36.2946 Y-10.3714
G01 X36.2625 Y-10.4085
G01 X36.1945 Y-10.4835
G01 X36.1572 Y-10.5226
G01 X36.1216 Y-10.5564
G01 X36.0466 Y-10.6244
G01 X36.0057 Y-10.6596
G01 X35.9670 Y-10.6898
G01 X35.8856 Y-10.7501
G01 X35.8414 Y-10.7811
G01 X35.8000 Y-10.8073
G01 X35.7131 Y-10.8594
G01 X35.6661 Y-10.8859
G01 X35.6222 Y-10.9080
G01 X35.5307 Y-10.9513
G01 X35.4858 Y-10.9712
G01 X35.4355 Y-10.9907
G01 X35.3402 Y-11.0248
G01 X35.2889 Y-11.0416
G01 X35.2416 Y-11.0547
G01 X35.1433 Y-11.0793
G01 X35.0906 Y-11.0910
G01 X35.0423 Y-11.0994
G01 X34.9421 Y-11.1143
G01 X34.8885 Y-11.1208
G01 X34.8396 Y-11.1244
G01 X34.7384 Y-11.1294
G01 X34.7139 Y-11.1303
G01 X34.6869 Y-11.1306
G01 X1.1112 Y-11.1306
G01 X1.0867 Y-11.1303
G01 X1.0597 Y-11.1294
G01 X0.9585 Y-11.1244
G01 X0.9047 Y-11.1203
G01 X0.8560 Y-11.1143
G01 X0.7558 Y-11.0994
G01 X0.7027 Y-11.0901
G01 X0.6548 Y-11.0793
G01 X0.5565 Y-11.0547
G01 X0.5092 Y-11.0416
G01 X0.4579 Y-11.0248
G01 X0.3626 Y-10.9907
G01 X0.3123 Y-10.9712
G01 X0.2674 Y-10.9513
G01 X0.1759 Y-10.9080
G01 X0.1277 Y-10.8836
G01 X0.0850 Y-10.8594
G01 X-0.0019 Y-10.8073
G01 X-0.0433 Y-10.7811
G01 X-0.0875 Y-10.7501
G01 X-0.1689 Y-10.6898
G01 X-0.2114 Y-10.6565
G01 X-0.2485 Y-10.6244
G01 X-0.3235 Y-10.5564
G01 X-0.3626 Y-10.5191
G01 X-0.3964 Y-10.4835
G01 X-0.4644 Y-10.4085
G01 X-0.4965 Y-10.3714
G01 X-0.5298 Y-10.3289
G01 X-0.5901 Y-10.2475
G01 X-0.6211 Y-10.2033
G01 X-0.6473 Y-10.1619
G01 X-0.6994 Y-10.0750
G01 X-0.7259 Y-10.0280
G01 X-0.7480 Y-9.9841
G01 X-0.7913 Y-9.8926
G01 X-0.8112 Y-9.8477
G01 X-0.8307 Y-9.7974
G01 X-0.8648 Y-9.7021
G01 X-0.8802 Y-9.6555
G01 X-0.8947 Y-9.6035
G01 X-0.9193 Y-9.5052
G01 X-0.9301 Y-9.4573
G01 X-0.9394 Y-9.4042
G01 X-0.9543 Y-9.3040
G01 X-0.9603 Y-9.2553
G01 X-0.9644 Y-9.2015
G01 X-0.9694 Y-9.1003
G01 X-0.9706 Y-9.0488
G01 X-0.9706 Y-6.1550
G00 X-0.9706 Y-6.1550
G01 F60.00
G01 Z-1.2000
G01 F150.00
G01 X-0.9706 Y-9.0488
G01 X-0.9694 Y-9.1003
G01 X-0.9644 Y-9.2015
G01 X-0.9603 Y-9.2553
G01 X-0.9543 Y-9.3040
G01 X-0.9394 Y-9.4042
G01 X-0.9301 Y-9.4573
G01 X-0.9193 Y-9.5052
G01 X-0.8947 Y-9.6035
G01 X-0.8802 Y-9.6555
G01 X-0.8648 Y-9.7021
G01 X-0.8307 Y-9.7974
G01 X-0.8112 Y-9.8477
G01 X-0.7913 Y-9.8926
G01 X-0.7480 Y-9.9841
G01 X-0.7259 Y-10.0280
G01 X-0.6994 Y-10.0750
G01 X-0.6473 Y-10.1619
G01 X-0.6211 Y-10.2033
G01 X-0.5901 Y-10.2475
G01 X-0.5298 Y-10.3289
G01 X-0.4965 Y-10.3714
G01 X-0.4644 Y-10.4085
G01 X-0.3964 Y-10.4835
G01 X-0.3626 Y-10.5191
G01 X-0.3235 Y-10.5564
G01 X-0.2485 Y-10.6244
G01 X-0.2114 Y-10.6565
G01 X-0.1689 Y-10.6898
G01 X-0.0875 Y-10.7501
G01 X-0.0433 Y-10.7811
G01 X-0.0019 Y-10.8073
G01 X0.0850 Y-10.8594
G01 X0.1277 Y-10.8836
G01 X0.1759 Y-10.9080
G01 X0.2674 Y-10.9513
G01 X0.3123 Y-10.9712
G01 X0.3626 Y-10.9907
G01 X0.4579 Y-11.0248
G01 X0.5092 Y-11.0416
G01 X0.5565 Y-11.0547
G01 X0.6548 Y-11.0793
G01 X0.7027 Y-11.0901
G01 X0.7558 Y-11.0994
G01 X0.8560 Y-11.1143
G01 X0.9047 Y-11.1203
G01 X0.9585 Y-11.1244
G01 X1.0597 Y-11.1294
G01 X1.0867 Y-11.1303
G01 X1.1112 Y-11.1306
G01 X34.6869 Y-11.1306
G01 X34.7139 Y-11.1303
G01 X34.7384 Y-11.1294
G01 X34.8396 Y-11.1244
G01 X34.8885 Y-11.1208
G01 X34.9421 Y-11.1143
G01 X35.0423 Y-11.0994
G01 X35.0906 Y-11.0910
G01 X35.1433 Y-11.0793
G01 X35.2416 Y-11.0547
G01 X35.2889 Y-11.0416
G01 X35.3402 Y-11.0248
G01 X35.4355 Y-10.9907
G01 X35.4858 Y-10.9712
G01 X35.5307 Y-10.9513
G01 X35.6222 Y-10.9080
G01 X35.6661 Y-10.8859
G01 X35.7131 Y-10.8594
G01 X35.8000 Y-10.8073
G01 X35.8414 Y-10.7811
G01 X35.8856 Y-10.7501
G01 X35.9670 Y-10.6898
G01 X36.0057 Y-10.6596
G01 X36.0466 Y-10.6244
G01 X36.1216 Y-10.5564
G01 X36.1572 Y-10.5226
G01 X36.1945 Y-10.4835
G01 X36.2625 Y-10.4085
G01 X36.2946 Y-10.3714
G01 X36.3279 Y-10.3289
G01 X36.3882 Y-10.2475
G01 X36.4165 Y-10.2074
G01 X36.4454 Y-10.1619
G01 X36.4975 Y-10.0750
G01 X36.5217 Y-10.0323
G01 X36.5461 Y-9.9841
G01 X36.5894 Y-9.8926
G01 X36.6093 Y-9.8477
G01 X36.6288 Y-9.7974
G01 X36.6629 Y-9.7021
G01 X36.6797 Y-9.6508
G01 X36.6928 Y-9.6035
G01 X36.7174 Y-9.5052
G01 X36.7282 Y-9.4573
G01 X36.7375 Y-9.4042
G01 X36.7524 Y-9.3040
G01 X36.7584 Y-9.2558
G01 X36.7624 Y-9.2025
G01 X36.7675 Y-9.1014
G01 X36.7684 Y-9.0763
G01 X36.7688 Y-9.0488
G01 X36.7688 Y-6.1550
G00 X36.7688 Y-6.1550
G01 F60.00
G01 Z-1.3000
G01 F150.00
G01 X36.7688 Y-9.0488
G01 X36.7684 Y-9.0763
G01 X36.7675 Y-9.1014
G01 X36.7624 Y-9.2025
G01 X36.7584 Y-9.2558
G01 X36.7524 Y-9.3040
G01 X36.7375 Y-9.4042
G01 X36.7282 Y-9.4573
G01 X36.7174 Y-9.5052
G01 X36.6928 Y-9.6035
G01 X36.6797 Y-9.6508
G01 X36.6629 Y-9.7021
G01 X36.6288 Y-9.7974
G01 X36.6093 Y-9.8477
G01 X36.5894 Y-9.8926
G01 X36.5461 Y-9.9841
G01 X36.5217 Y-10.0323
G01 X36.4975 Y-10.0750
G01 X36.4454 Y-10.1619
G01 X36.4165 Y-10.2074
G01 X36.3882 Y-10.2475
G01 X36.3279 Y-10.3289
G01 X36.2946 Y-10.3714
G01 X36.2625 Y-10.4085
G01 X36.1945 Y-10.4835
G01 X36.1572 Y-10.5226
G01 X36.1216 Y-10.5564
G01 X36.0466 Y-10.6244
G01 X36.0057 Y-10.6596
G01 X35.9670 Y-10.6898
G01 X35.8856 Y-10.7501
G01 X35.8414 Y-10.7811
G01 X35.8000 Y-10.8073
G01 X35.7131 Y-10.8594
G01 X35.6661 Y-10.8859
G01 X35.6222 Y-10.9080
G01 X35.5307 Y-10.9513
G01 X35.4858 Y-10.9712
G01 X35.4355 Y-10.9907
G01 X35.3402 Y-11.0248
G01 X35.2889 Y-11.0416
G01 X35.2416 Y-11.0547
G01 X35.1433 Y-11.0793
G01 X35.0906 Y-11.0910
G01 X35.0423 Y-11.0994
G01 X34.9421 Y-11.1143
G01 X34.8885 Y-11.1208
G01 X34.8396 Y-11.1244
G01 X34.7384 Y-11.1294
G01 X34.7139 Y-11.1303
G01 X34.6869 Y-11.1306
G01 X1.1112 Y-11.1306
G01 X1.0867 Y-11.1303
G01 X1.0597 Y-11.1294
G01 X0.9585 Y-11.1244
G01 X0.9047 Y-11.1203
G01 X0.8560 Y-11.1143
G01 X0.7558 Y-11.0994
G01 X0.7027 Y-11.0901
G01 X0.6548 Y-11.0793
G01 X0.5565 Y-11.0547
G01 X0.5092 Y-11.0416
G01 X0.4579 Y-11.0248
G01 X0.3626 Y-10.9907
G01 X0.3123 Y-10.9712
G01 X0.2674 Y-10.9513
G01 X0.1759 Y-10.9080
G01 X0.1277 Y-10.8836
G01 X0.0850 Y-10.8594
G01 X-0.0019 Y-10.8073
G01 X-0.0433 Y-10.7811
G01 X-0.0875 Y-10.7501
G01 X-0.1689 Y-10.6898
G01 X-0.2114 Y-10.6565
G01 X-0.2485 Y-10.6244
G01 X-0.3235 Y-10.5564
G01 X-0.3626 Y-10.5191
G01 X-0.3964 Y-10.4835
G01 X-0.4644 Y-10.4085
G01 X-0.4965 Y-10.3714
G01 X-0.5298 Y-10.3289
G01 X-0.5901 Y-10.2475
G01 X-0.6211 Y-10.2033
G01 X-0.6473 Y-10.1619
G01 X-0.6994 Y-10.0750
G01 X-0.7259 Y-10.0280
G01 X-0.7480 Y-9.9841
G01 X-0.7913 Y-9.8926
G01 X-0.8112 Y-9.8477
G01 X-0.8307 Y-9.7974
G01 X-0.8648 Y-9.7021
G01 X-0.8802 Y-9.6555
G01 X-0.8947 Y-9.6035
G01 X-0.9193 Y-9.5052
G01 X-0.9301 Y-9.4573
G01 X-0.9394 Y-9.4042
G01 X-0.9543 Y-9.3040
G01 X-0.9603 Y-9.2553
G01 X-0.9644 Y-9.2015
G01 X-0.9694 Y-9.1003
G01 X-0.9706 Y-9.0488
G01 X-0.9706 Y-6.1550
G00 X-0.9706 Y-6.1550
G01 F60.00
G01 Z-1.4000
G01 F150.00
G01 X-0.9706 Y-9.0488
G01 X-0.9694 Y-9.1003
G01 X-0.9644 Y-9.2015
G01 X-0.9603 Y-9.2553
G01 X-0.9543 Y-9.3040
G01 X-0.9394 Y-9.4042
G01 X-0.9301 Y-9.4573
G01 X-0.9193 Y-9.5052
G01 X-0.8947 Y-9.6035
G01 X-0.8802 Y-9.6555
G01 X-0.8648 Y-9.7021
G01 X-0.8307 Y-9.7974
G01 X-0.8112 Y-9.8477
G01 X-0.7913 Y-9.8926
G01 X-0.7480 Y-9.9841
G01 X-0.7259 Y-10.0280
G01 X-0.6994 Y-10.0750
G01 X-0.6473 Y-10.1619
G01 X-0.6211 Y-10.2033
G01 X-0.5901 Y-10.2475
G01 X-0.5298 Y-10.3289
G01 X-0.4965 Y-10.3714
G01 X-0.4644 Y-10.4085
G01 X-0.3964 Y-10.4835
G01 X-0.3626 Y-10.5191
G01 X-0.3235 Y-10.5564
G01 X-0.2485 Y-10.6244
G01 X-0.2114 Y-10.6565
G01 X-0.1689 Y-10.6898
G01 X-0.0875 Y-10.7501
G01 X-0.0433 Y-10.7811
G01 X-0.0019 Y-10.8073
G01 X0.0850 Y-10.8594
G01 X0.1277 Y-10.8836
G01 X0.1759 Y-10.9080
G01 X0.2674 Y-10.9513
G01 X0.3123 Y-10.9712
G01 X0.3626 Y-10.9907
G01 X0.4579 Y-11.0248
G01 X0.5092 Y-11.0416
G01 X0.5565 Y-11.0547
G01 X0.6548 Y-11.0793
G01 X0.7027 Y-11.0901
G01 X0.7558 Y-11.0994
G01 X0.8560 Y-11.1143
G01 X0.9047 Y-11.1203
G01 X0.9585 Y-11.1244
G01 X1.0597 Y-11.1294
G01 X1.0867 Y-11.1303
G01 X1.1112 Y-11.1306
G01 X34.6869 Y-11.1306
G01 X34.7139 Y-11.1303
G01 X34.7384 Y-11.1294
G01 X34.8396 Y-11.1244
G01 X34.8885 Y-11.1208
G01 X34.9421 Y-11.1143
G01 X35.0423 Y-11.0994
G01 X35.0906 Y-11.0910
G01 X35.1433 Y-11.0793
G01 X35.2416 Y-11.0547
G01 X35.2889 Y-11.0416
G01 X35.3402 Y-11.0248
G01 X35.4355 Y-10.9907
G01 X35.4858 Y-10.9712
G01 X35.5307 Y-10.9513
G01 X35.6222 Y-10.9080
G01 X35.6661 Y-10.8859
G01 X35.7131 Y-10.8594
G01 X35.8000 Y-10.8073
G01 X35.8414 Y-10.7811
G01 X35.8856 Y-10.7501
G01 X35.9670 Y-10.6898
G01 X36.0057 Y-10.6596
G01 X36.0466 Y-10.6244
G01 X36.1216 Y-10.5564
G01 X36.1572 Y-10.5226
G01 X36.1945 Y-10.4835
G01 X36.2625 Y-10.4085
G01 X36.2946 Y-10.3714
G01 X36.3279 Y-10.3289
G01 X36.3882 Y-10.2475
G01 X36.4165 Y-10.2074
G01 X36.4454 Y-10.1619
G01 X36.4975 Y-10.0750
G01 X36.5217 Y-10.0323
G01 X36.5461 Y-9.9841
G01 X36.5894 Y-9.8926
G01 X36.6093 Y-9.8477
G01 X36.6288 Y-9.7974
G01 X36.6629 Y-9.7021
G01 X36.6797 Y-9.6508
G01 X36.6928 Y-9.6035
G01 X36.7174 Y-9.5052
G01 X36.7282 Y-9.4573
G01 X36.7375 Y-9.4042
G01 X36.7524 Y-9.3040
G01 X36.7584 Y-9.2558
G01 X36.7624 Y-9.2025
G01 X36.7675 Y-9.1014
G01 X36.7684 Y-9.0763
G01 X36.7688 Y-9.0488
G01 X36.7688 Y-6.1550
G00 X36.7688 Y-6.1550
G01 F60.00
G01 Z-1.5000
G01 F150.00
G01 X36.7688 Y-9.0488
G01 X36.7684 Y-9.0763
G01 X36.7675 Y-9.1014
G01 X36.7624 Y-9.2025
G01 X36.7584 Y-9.2558
G01 X36.7524 Y-9.3040
G01 X36.7375 Y-9.4042
G01 X36.7282 Y-9.4573
G01 X36.7174 Y-9.5052
G01 X36.6928 Y-9.6035
G01 X36.6797 Y-9.6508
G01 X36.6629 Y-9.7021
G01 X36.6288 Y-9.7974
G01 X36.6093 Y-9.8477
G01 X36.5894 Y-9.8926
G01 X36.5461 Y-9.9841
G01 X36.5217 Y-10.0323
G01 X36.4975 Y-10.0750
G01 X36.4454 Y-10.1619
G01 X36.4165 Y-10.2074
G01 X36.3882 Y-10.2475
G01 X36.3279 Y-10.3289
G01 X36.2946 Y-10.3714
G01 X36.2625 Y-10.4085
G01 X36.1945 Y-10.4835
G01 X36.1572 Y-10.5226
G01 X36.1216 Y-10.5564
G01 X36.0466 Y-10.6244
G01 X36.0057 Y-10.6596
G01 X35.9670 Y-10.6898
G01 X35.8856 Y-10.7501
G01 X35.8414 Y-10.7811
G01 X35.8000 Y-10.8073
G01 X35.7131 Y-10.8594
G01 X35.6661 Y-10.8859
G01 X35.6222 Y-10.9080
G01 X35.5307 Y-10.9513
G01 X35.4858 Y-10.9712
G01 X35.4355 Y-10.9907
G01 X35.3402 Y-11.0248
G01 X35.2889 Y-11.0416
G01 X35.2416 Y-11.0547
G01 X35.1433 Y-11.0793
G01 X35.0906 Y-11.0910
G01 X35.0423 Y-11.0994
G01 X34.9421 Y-11.1143
G01 X34.8885 Y-11.1208
G01 X34.8396 Y-11.1244
G01 X34.7384 Y-11.1294
G01 X34.7139 Y-11.1303
G01 X34.6869 Y-11.1306
G01 X1.1112 Y-11.1306
G01 X1.0867 Y-11.1303
G01 X1.0597 Y-11.1294
G01 X0.9585 Y-11.1244
G01 X0.9047 Y-11.1203
G01 X0.8560 Y-11.1143
G01 X0.7558 Y-11.0994
G01 X0.7027 Y-11.0901
G01 X0.6548 Y-11.0793
G01 X0.5565 Y-11.0547
G01 X0.5092 Y-11.0416
G01 X0.4579 Y-11.0248
G01 X0.3626 Y-10.9907
G01 X0.3123 Y-10.9712
G01 X0.2674 Y-10.9513
G01 X0.1759 Y-10.9080
G01 X0.1277 Y-10.8836
G01 X0.0850 Y-10.8594
G01 X-0.0019 Y-10.8073
G01 X-0.0433 Y-10.7811
G01 X-0.0875 Y-10.7501
G01 X-0.1689 Y-10.6898
G01 X-0.2114 Y-10.6565
G01 X-0.2485 Y-10.6244
G01 X-0.3235 Y-10.5564
G01 X-0.3626 Y-10.5191
G01 X-0.3964 Y-10.4835
G01 X-0.4644 Y-10.4085
G01 X-0.4965 Y-10.3714
G01 X-0.5298 Y-10.3289
G01 X-0.5901 Y-10.2475
G01 X-0.6211 Y-10.2033
G01 X-0.6473 Y-10.1619
G01 X-0.6994 Y-10.0750
G01 X-0.7259 Y-10.0280
G01 X-0.7480 Y-9.9841
G01 X-0.7913 Y-9.8926
G01 X-0.8112 Y-9.8477
G01 X-0.8307 Y-9.7974
G01 X-0.8648 Y-9.7021
G01 X-0.8802 Y-9.6555
G01 X-0.8947 Y-9.6035
G01 X-0.9193 Y-9.5052
G01 X-0.9301 Y-9.4573
G01 X-0.9394 Y-9.4042
G01 X-0.9543 Y-9.3040
G01 X-0.9603 Y-9.2553
G01 X-0.9644 Y-9.2015
G01 X-0.9694 Y-9.1003
G01 X-0.9706 Y-9.0488
G01 X-0.9706 Y-6.1550
G00 X-0.9706 Y-6.1550
G01 F60.00
G01 Z-1.6000
G01 F150.00
G01 X-0.9706 Y-9.0488
G01 X-0.9694 Y-9.1003
G01 X-0.9644 Y-9.2015
G01 X-0.9603 Y-9.2553
G01 X-0.9543 Y-9.3040
G01 X-0.9394 Y-9.4042
G01 X-0.9301 Y-9.4573
G01 X-0.9193 Y-9.5052
G01 X-0.8947 Y-9.6035
G01 X-0.8802 Y-9.6555
G01 X-0.8648 Y-9.7021
G01 X-0.8307 Y-9.7974
G01 X-0.8112 Y-9.8477
G01 X-0.7913 Y-9.8926
G01 X-0.7480 Y-9.9841
G01 X-0.7259 Y-10.0280
G01 X-0.6994 Y-10.0750
G01 X-0.6473 Y-10.1619
G01 X-0.6211 Y-10.2033
G01 X-0.5901 Y-10.2475
G01 X-0.5298 Y-10.3289
G01 X-0.4965 Y-10.3714
G01 X-0.4644 Y-10.4085
G01 X-0.3964 Y-10.4835
G01 X-0.3626 Y-10.5191
G01 X-0.3235 Y-10.5564
G01 X-0.2485 Y-10.6244
G01 X-0.2114 Y-10.6565
G01 X-0.1689 Y-10.6898
G01 X-0.0875 Y-10.7501
G01 X-0.0433 Y-10.7811
G01 X-0.0019 Y-10.8073
G01 X0.0850 Y-10.8594
G01 X0.1277 Y-10.8836
G01 X0.1759 Y-10.9080
G01 X0.2674 Y-10.9513
G01 X0.3123 Y-10.9712
G01 X0.3626 Y-10.9907
G01 X0.4579 Y-11.0248
G01 X0.5092 Y-11.0416
G01 X0.5565 Y-11.0547
G01 X0.6548 Y-11.0793
G01 X0.7027 Y-11.0901
G01 X0.7558 Y-11.0994
G01 X0.8560 Y-11.1143
G01 X0.9047 Y-11.1203
G01 X0.9585 Y-11.1244
G01 X1.0597 Y-11.1294
G01 X1.0867 Y-11.1303
G01 X1.1112 Y-11.1306
G01 X34.6869 Y-11.1306
G01 X34.7139 Y-11.1303
G01 X34.7384 Y-11.1294
G01 X34.8396 Y-11.1244
G01 X34.8885 Y-11.1208
G01 X34.9421 Y-11.1143
G01 X35.0423 Y-11.0994
G01 X35.0906 Y-11.0910
G01 X35.1433 Y-11.0793
G01 X35.2416 Y-11.0547
G01 X35.2889 Y-11.0416
G01 X35.3402 Y-11.0248
G01 X35.4355 Y-10.9907
G01 X35.4858 Y-10.9712
G01 X35.5307 Y-10.9513
G01 X35.6222 Y-10.9080
G01 X35.6661 Y-10.8859
G01 X35.7131 Y-10.8594
G01 X35.8000 Y-10.8073
G01 X35.8414 Y-10.7811
G01 X35.8856 Y-10.7501
G01 X35.9670 Y-10.6898
G01 X36.0057 Y-10.6596
G01 X36.0466 Y-10.6244
G01 X36.1216 Y-10.5564
G01 X36.1572 Y-10.5226
G01 X36.1945 Y-10.4835
G01 X36.2625 Y-10.4085
G01 X36.2946 Y-10.3714
G01 X36.3279 Y-10.3289
G01 X36.3882 Y-10.2475
G01 X36.4165 Y-10.2074
G01 X36.4454 Y-10.1619
G01 X36.4975 Y-10.0750
G01 X36.5217 Y-10.0323
G01 X36.5461 Y-9.9841
G01 X36.5894 Y-9.8926
G01 X36.6093 Y-9.8477
G01 X36.6288 Y-9.7974
G01 X36.6629 Y-9.7021
G01 X36.6797 Y-9.6508
G01 X36.6928 Y-9.6035
G01 X36.7174 Y-9.5052
G01 X36.7282 Y-9.4573
G01 X36.7375 Y-9.4042
G01 X36.7524 Y-9.3040
G01 X36.7584 Y-9.2558
G01 X36.7624 Y-9.2025
G01 X36.7675 Y-9.1014
G01 X36.7684 Y-9.0763
G01 X36.7688 Y-9.0488
G01 X36.7688 Y-6.1550
G00 X36.7688 Y-6.1550
G01 F60.00
G01 Z-1.7000
G01 F150.00
G01 X36.7688 Y-9.0488
G01 X36.7684 Y-9.0763
G01 X36.7675 Y-9.1014
G01 X36.7624 Y-9.2025
G01 X36.7584 Y-9.2558
G01 X36.7524 Y-9.3040
G01 X36.7375 Y-9.4042
G01 X36.7282 Y-9.4573
G01 X36.7174 Y-9.5052
G01 X36.6928 Y-9.6035
G01 X36.6797 Y-9.6508
G01 X36.6629 Y-9.7021
G01 X36.6288 Y-9.7974
G01 X36.6093 Y-9.8477
G01 X36.5894 Y-9.8926
G01 X36.5461 Y-9.9841
G01 X36.5217 Y-10.0323
G01 X36.4975 Y-10.0750
G01 X36.4454 Y-10.1619
G01 X36.4165 Y-10.2074
G01 X36.3882 Y-10.2475
G01 X36.3279 Y-10.3289
G01 X36.2946 Y-10.3714
G01 X36.2625 Y-10.4085
G01 X36.1945 Y-10.4835
G01 X36.1572 Y-10.5226
G01 X36.1216 Y-10.5564
G01 X36.0466 Y-10.6244
G01 X36.0057 Y-10.6596
G01 X35.9670 Y-10.6898
G01 X35.8856 Y-10.7501
G01 X35.8414 Y-10.7811
G01 X35.8000 Y-10.8073
G01 X35.7131 Y-10.8594
G01 X35.6661 Y-10.8859
G01 X35.6222 Y-10.9080
G01 X35.5307 Y-10.9513
G01 X35.4858 Y-10.9712
G01 X35.4355 Y-10.9907
G01 X35.3402 Y-11.0248
G01 X35.2889 Y-11.0416
G01 X35.2416 Y-11.0547
G01 X35.1433 Y-11.0793
G01 X35.0906 Y-11.0910
G01 X35.0423 Y-11.0994
G01 X34.9421 Y-11.1143
G01 X34.8885 Y-11.1208
G01 X34.8396 Y-11.1244
G01 X34.7384 Y-11.1294
G01 X34.7139 Y-11.1303
G01 X34.6869 Y-11.1306
G01 X1.1112 Y-11.1306
G01 X1.0867 Y-11.1303
G01 X1.0597 Y-11.1294
G01 X0.9585 Y-11.1244
G01 X0.9047 Y-11.1203
G01 X0.8560 Y-11.1143
G01 X0.7558 Y-11.0994
G01 X0.7027 Y-11.0901
G01 X0.6548 Y-11.0793
G01 X0.5565 Y-11.0547
G01 X0.5092 Y-11.0416
G01 X0.4579 Y-11.0248
G01 X0.3626 Y-10.9907
G01 X0.3123 Y-10.9712
G01 X0.2674 Y-10.9513
G01 X0.1759 Y-10.9080
G01 X0.1277 Y-10.8836
G01 X0.0850 Y-10.8594
G01 X-0.0019 Y-10.8073
G01 X-0.0433 Y-10.7811
G01 X-0.0875 Y-10.7501
G01 X-0.1689 Y-10.6898
G01 X-0.2114 Y-10.6565
G01 X-0.2485 Y-10.6244
G01 X-0.3235 Y-10.5564
G01 X-0.3626 Y-10.5191
G01 X-0.3964 Y-10.4835
G01 X-0.4644 Y-10.4085
G01 X-0.4965 Y-10.3714
G01 X-0.5298 Y-10.3289
G01 X-0.5901 Y-10.2475
G01 X-0.6211 Y-10.2033
G01 X-0.6473 Y-10.1619
G01 X-0.6994 Y-10.0750
G01 X-0.7259 Y-10.0280
G01 X-0.7480 Y-9.9841
G01 X-0.7913 Y-9.8926
G01 X-0.8112 Y-9.8477
G01 X-0.8307 Y-9.7974
G01 X-0.8648 Y-9.7021
G01 X-0.8802 Y-9.6555
G01 X-0.8947 Y-9.6035
G01 X-0.9193 Y-9.5052
G01 X-0.9301 Y-9.4573
G01 X-0.9394 Y-9.4042
G01 X-0.9543 Y-9.3040
G01 X-0.9603 Y-9.2553
G01 X-0.9644 Y-9.2015
G01 X-0.9694 Y-9.1003
G01 X-0.9706 Y-9.0488
G01 X-0.9706 Y-6.1550
G00 X-0.9706 Y-6.1550
G01 F60.00
G01 Z-1.8000
G01 F150.00
G01 X-0.9706 Y-9.0488
G01 X-0.9694 Y-9.1003
G01 X-0.9644 Y-9.2015
G01 X-0.9603 Y-9.2553
G01 X-0.9543 Y-9.3040
G01 X-0.9394 Y-9.4042
G01 X-0.9301 Y-9.4573
G01 X-0.9193 Y-9.5052
G01 X-0.8947 Y-9.6035
G01 X-0.8802 Y-9.6555
G01 X-0.8648 Y-9.7021
G01 X-0.8307 Y-9.7974
G01 X-0.8112 Y-9.8477
G01 X-0.7913 Y-9.8926
G01 X-0.7480 Y-9.9841
G01 X-0.7259 Y-10.0280
G01 X-0.6994 Y-10.0750
G01 X-0.6473 Y-10.1619
G01 X-0.6211 Y-10.2033
G01 X-0.5901 Y-10.2475
G01 X-0.5298 Y-10.3289
G01 X-0.4965 Y-10.3714
G01 X-0.4644 Y-10.4085
G01 X-0.3964 Y-10.4835
G01 X-0.3626 Y-10.5191
G01 X-0.3235 Y-10.5564
G01 X-0.2485 Y-10.6244
G01 X-0.2114 Y-10.6565
G01 X-0.1689 Y-10.6898
G01 X-0.0875 Y-10.7501
G01 X-0.0433 Y-10.7811
G01 X-0.0019 Y-10.8073
G01 X0.0850 Y-10.8594
G01 X0.1277 Y-10.8836
G01 X0.1759 Y-10.9080
G01 X0.2674 Y-10.9513
G01 X0.3123 Y-10.9712
G01 X0.3626 Y-10.9907
G01 X0.4579 Y-11.0248
G01 X0.5092 Y-11.0416
G01 X0.5565 Y-11.0547
G01 X0.6548 Y-11.0793
G01 X0.7027 Y-11.0901
G01 X0.7558 Y-11.0994
G01 X0.8560 Y-11.1143
G01 X0.9047 Y-11.1203
G01 X0.9585 Y-11.1244
G01 X1.0597 Y-11.1294
G01 X1.0867 Y-11.1303
G01 X1.1112 Y-11.1306
G01 X34.6869 Y-11.1306
G01 X34.7139 Y-11.1303
G01 X34.7384 Y-11.1294
G01 X34.8396 Y-11.1244
G01 X34.8885 Y-11.1208
G01 X34.9421 Y-11.1143
G01 X35.0423 Y-11.0994
G01 X35.0906 Y-11.0910
G01 X35.1433 Y-11.0793
G01 X35.2416 Y-11.0547
G01 X35.2889 Y-11.0416
G01 X35.3402 Y-11.0248
G01 X35.4355 Y-10.9907
G01 X35.4858 Y-10.9712
G01 X35.5307 Y-10.9513
G01 X35.6222 Y-10.9080
G01 X35.6661 Y-10.8859
G01 X35.7131 Y-10.8594
G01 X35.8000 Y-10.8073
G01 X35.8414 Y-10.7811
G01 X35.8856 Y-10.7501
G01 X35.9670 Y-10.6898
G01 X36.0057 Y-10.6596
G01 X36.0466 Y-10.6244
G01 X36.1216 Y-10.5564
G01 X36.1572 Y-10.5226
G01 X36.1945 Y-10.4835
G01 X36.2625 Y-10.4085
G01 X36.2946 Y-10.3714
G01 X36.3279 Y-10.3289
G01 X36.3882 Y-10.2475
G01 X36.4165 Y-10.2074
G01 X36.4454 Y-10.1619
G01 X36.4975 Y-10.0750
G01 X36.5217 Y-10.0323
G01 X36.5461 Y-9.9841
G01 X36.5894 Y-9.8926
G01 X36.6093 Y-9.8477
G01 X36.6288 Y-9.7974
G01 X36.6629 Y-9.7021
G01 X36.6797 Y-9.6508
G01 X36.6928 Y-9.6035
G01 X36.7174 Y-9.5052
G01 X36.7282 Y-9.4573
G01 X36.7375 Y-9.4042
G01 X36.7524 Y-9.3040
G01 X36.7584 Y-9.2558
G01 X36.7624 Y-9.2025
G01 X36.7675 Y-9.1014
G01 X36.7684 Y-9.0763
G01 X36.7688 Y-9.0488
G01 X36.7688 Y-6.1550
G00 X36.7688 Y-6.1550
G01 F60.00
G01 Z-1.9000
G01 F150.00
G01 X36.7688 Y-9.0488
G01 X36.7684 Y-9.0763
G01 X36.7675 Y-9.1014
G01 X36.7624 Y-9.2025
G01 X36.7584 Y-9.2558
G01 X36.7524 Y-9.3040
G01 X36.7375 Y-9.4042
G01 X36.7282 Y-9.4573
G01 X36.7174 Y-9.5052
G01 X36.6928 Y-9.6035
G01 X36.6797 Y-9.6508
G01 X36.6629 Y-9.7021
G01 X36.6288 Y-9.7974
G01 X36.6093 Y-9.8477
G01 X36.5894 Y-9.8926
G01 X36.5461 Y-9.9841
G01 X36.5217 Y-10.0323
G01 X36.4975 Y-10.0750
G01 X36.4454 Y-10.1619
G01 X36.4165 Y-10.2074
G01 X36.3882 Y-10.2475
G01 X36.3279 Y-10.3289
G01 X36.2946 Y-10.3714
G01 X36.2625 Y-10.4085
G01 X36.1945 Y-10.4835
G01 X36.1572 Y-10.5226
G01 X36.1216 Y-10.5564
G01 X36.0466 Y-10.6244
G01 X36.0057 Y-10.6596
G01 X35.9670 Y-10.6898
G01 X35.8856 Y-10.7501
G01 X35.8414 Y-10.7811
G01 X35.8000 Y-10.8073
G01 X35.7131 Y-10.8594
G01 X35.6661 Y-10.8859
G01 X35.6222 Y-10.9080
G01 X35.5307 Y-10.9513
G01 X35.4858 Y-10.9712
G01 X35.4355 Y-10.9907
G01 X35.3402 Y-11.0248
G01 X35.2889 Y-11.0416
G01 X35.2416 Y-11.0547
G01 X35.1433 Y-11.0793
G01 X35.0906 Y-11.0910
G01 X35.0423 Y-11.0994
G01 X34.9421 Y-11.1143
G01 X34.8885 Y-11.1208
G01 X34.8396 Y-11.1244
G01 X34.7384 Y-11.1294
G01 X34.7139 Y-11.1303
G01 X34.6869 Y-11.1306
G01 X1.1112 Y-11.1306
G01 X1.0867 Y-11.1303
G01 X1.0597 Y-11.1294
G01 X0.9585 Y-11.1244
G01 X0.9047 Y-11.1203
G01 X0.8560 Y-11.1143
G01 X0.7558 Y-11.0994
G01 X0.7027 Y-11.0901
G01 X0.6548 Y-11.0793
G01 X0.5565 Y-11.0547
G01 X0.5092 Y-11.0416
G01 X0.4579 Y-11.0248
G01 X0.3626 Y-10.9907
G01 X0.3123 Y-10.9712
G01 X0.2674 Y-10.9513
G01 X0.1759 Y-10.9080
G01 X0.1277 Y-10.8836
G01 X0.0850 Y-10.8594
G01 X-0.0019 Y-10.8073
G01 X-0.0433 Y-10.7811
G01 X-0.0875 Y-10.7501
G01 X-0.1689 Y-10.6898
G01 X-0.2114 Y-10.6565
G01 X-0.2485 Y-10.6244
G01 X-0.3235 Y-10.5564
G01 X-0.3626 Y-10.5191
G01 X-0.3964 Y-10.4835
G01 X-0.4644 Y-10.4085
G01 X-0.4965 Y-10.3714
G01 X-0.5298 Y-10.3289
G01 X-0.5901 Y-10.2475
G01 X-0.6211 Y-10.2033
G01 X-0.6473 Y-10.1619
G01 X-0.6994 Y-10.0750
G01 X-0.7259 Y-10.0280
G01 X-0.7480 Y-9.9841
G01 X-0.7913 Y-9.8926
G01 X-0.8112 Y-9.8477
G01 X-0.8307 Y-9.7974
G01 X-0.8648 Y-9.7021
G01 X-0.8802 Y-9.6555
G01 X-0.8947 Y-9.6035
G01 X-0.9193 Y-9.5052
G01 X-0.9301 Y-9.4573
G01 X-0.9394 Y-9.4042
G01 X-0.9543 Y-9.3040
G01 X-0.9603 Y-9.2553
G01 X-0.9644 Y-9.2015
G01 X-0.9694 Y-9.1003
G01 X-0.9706 Y-9.0488
G01 X-0.9706 Y-6.1550
G00 X-0.9706 Y-6.1550
G01 F60.00
G01 Z-2.0000
G01 F150.00
G01 X-0.9706 Y-9.0488
G01 X-0.9694 Y-9.1003
G01 X-0.9644 Y-9.2015
G01 X-0.9603 Y-9.2553
G01 X-0.9543 Y-9.3040
G01 X-0.9394 Y-9.4042
G01 X-0.9301 Y-9.4573
G01 X-0.9193 Y-9.5052
G01 X-0.8947 Y-9.6035
G01 X-0.8802 Y-9.6555
G01 X-0.8648 Y-9.7021
G01 X-0.8307 Y-9.7974
G01 X-0.8112 Y-9.8477
G01 X-0.7913 Y-9.8926
G01 X-0.7480 Y-9.9841
G01 X-0.7259 Y-10.0280
G01 X-0.6994 Y-10.0750
G01 X-0.6473 Y-10.1619
G01 X-0.6211 Y-10.2033
G01 X-0.5901 Y-10.2475
G01 X-0.5298 Y-10.3289
G01 X-0.4965 Y-10.3714
G01 X-0.4644 Y-10.4085
G01 X-0.3964 Y-10.4835
G01 X-0.3626 Y-10.5191
G01 X-0.3235 Y-10.5564
G01 X-0.2485 Y-10.6244
G01 X-0.2114 Y-10.6565
G01 X-0.1689 Y-10.6898
G01 X-0.0875 Y-10.7501
G01 X-0.0433 Y-10.7811
G01 X-0.0019 Y-10.8073
G01 X0.0850 Y-10.8594
G01 X0.1277 Y-10.8836
G01 X0.1759 Y-10.9080
G01 X0.2674 Y-10.9513
G01 X0.3123 Y-10.9712
G01 X0.3626 Y-10.9907
G01 X0.4579 Y-11.0248
G01 X0.5092 Y-11.0416
G01 X0.5565 Y-11.0547
G01 X0.6548 Y-11.0793
G01 X0.7027 Y-11.0901
G01 X0.7558 Y-11.0994
G01 X0.8560 Y-11.1143
G01 X0.9047 Y-11.1203
G01 X0.9585 Y-11.1244
G01 X1.0597 Y-11.1294
G01 X1.0867 Y-11.1303
G01 X1.1112 Y-11.1306
G01 X34.6869 Y-11.1306
G01 X34.7139 Y-11.1303
G01 X34.7384 Y-11.1294
G01 X34.8396 Y-11.1244
G01 X34.8885 Y-11.1208
G01 X34.9421 Y-11.1143
G01 X35.0423 Y-11.0994
G01 X35.0906 Y-11.0910
G01 X35.1433 Y-11.0793
G01 X35.2416 Y-11.0547
G01 X35.2889 Y-11.0416
G01 X35.3402 Y-11.0248
G01 X35.4355 Y-10.9907
G01 X35.4858 Y-10.9712
G01 X35.5307 Y-10.9513
G01 X35.6222 Y-10.9080
G01 X35.6661 Y-10.8859
G01 X35.7131 Y-10.8594
G01 X35.8000 Y-10.8073
G01 X35.8414 Y-10.7811
G01 X35.8856 Y-10.7501
G01 X35.9670 Y-10.6898
G01 X36.0057 Y-10.6596
G01 X36.0466 Y-10.6244
G01 X36.1216 Y-10.5564
G01 X36.1572 Y-10.5226
G01 X36.1945 Y-10.4835
G01 X36.2625 Y-10.4085
G01 X36.2946 Y-10.3714
G01 X36.3279 Y-10.3289
G01 X36.3882 Y-10.2475
G01 X36.4165 Y-10.2074
G01 X36.4454 Y-10.1619
G01 X36.4975 Y-10.0750
G01 X36.5217 Y-10.0323
G01 X36.5461 Y-9.9841
G01 X36.5894 Y-9.8926
G01 X36.6093 Y-9.8477
G01 X36.6288 Y-9.7974
G01 X36.6629 Y-9.7021
G01 X36.6797 Y-9.6508
G01 X36.6928 Y-9.6035
G01 X36.7174 Y-9.5052
G01 X36.7282 Y-9.4573
G01 X36.7375 Y-9.4042
G01 X36.7524 Y-9.3040
G01 X36.7584 Y-9.2558
G01 X36.7624 Y-9.2025
G01 X36.7675 Y-9.1014
G01 X36.7684 Y-9.0763
G01 X36.7688 Y-9.0488
G01 X36.7688 Y-6.1550
G00 Z2.0000
M05
G00 Z2.0000
G00 Z30.00


