(G-CODE GENERATED BY FLATCAM v8.994 - www.flatcam.org - Version Date: 2020/11/7)

(Name: display_window_new_Ф2_низ.gbr_cutout_cnc)
(Type: G-code from Geometry)
(Units: MM)

(Created on Sunday, 05 June 2022 at 22:54)

(This preprocessor is the default preprocessor used by FlatCAM.)
(It is made to work with MACH3 compatible motion controllers.)

(TOOL DIAMETER: 2.0 mm)
(Feedrate_XY: 120.0 mm/min)
(Feedrate_Z: 60.0 mm/min)
(Feedrate rapids 1500.0 mm/min)

(Z_Cut: -2.0 mm)
(DepthPerCut: 0.1 mm <=>20 passes)
(Z_Move: 2.0 mm)
(Z Start: None mm)
(Z End: 30.0 mm)
(X,Y End: None mm)
(Steps per circle: 64)
(Preprocessor Geometry: default)

(X range:   -0.9706 ...   37.4038  mm)
(Y range:  -11.4482 ...    0.9707  mm)

(Spindle Speed: 10000.0 RPM)
G21
G90
G94

G01 F120.00

M5
G00 Z15.0000
G00 X0.0000 Y0.0000
T1
M6    
(MSG, Change to Tool Dia = 2.0000)
M0
G00 Z15.0000

M03 S10000.0
G01 F120.00
G00 X-0.9706 Y-4.1688
G01 F60.00
G01 Z-0.1000
G01 F120.00
G01 X-0.9706 Y-1.1112
G01 X-0.9703 Y-1.0867
G01 X-0.9694 Y-1.0597
G01 X-0.9644 Y-0.9585
G01 X-0.9603 Y-0.9047
G01 X-0.9543 Y-0.8560
G01 X-0.9394 Y-0.7558
G01 X-0.9301 Y-0.7026
G01 X-0.9193 Y-0.6548
G01 X-0.8947 Y-0.5565
G01 X-0.8802 Y-0.5045
G01 X-0.8648 Y-0.4579
G01 X-0.8307 Y-0.3626
G01 X-0.8130 Y-0.3168
G01 X-0.7913 Y-0.2674
G01 X-0.7480 Y-0.1758
G01 X-0.7236 Y-0.1277
G01 X-0.6994 Y-0.0849
G01 X-0.6473 Y0.0019
G01 X-0.6183 Y0.0475
G01 X-0.5901 Y0.0876
G01 X-0.5298 Y0.1689
G01 X-0.4996 Y0.2076
G01 X-0.4644 Y0.2486
G01 X-0.3964 Y0.3236
G01 X-0.3591 Y0.3626
G01 X-0.3235 Y0.3965
G01 X-0.2485 Y0.4645
G01 X-0.2075 Y0.4997
G01 X-0.1688 Y0.5299
G01 X-0.0875 Y0.5902
G01 X-0.0474 Y0.6184
G01 X-0.0018 Y0.6474
G01 X0.0850 Y0.6995
G01 X0.1321 Y0.7260
G01 X0.1759 Y0.7481
G01 X0.2675 Y0.7914
G01 X0.3169 Y0.8131
G01 X0.3627 Y0.8308
G01 X0.4580 Y0.8649
G01 X0.5046 Y0.8803
G01 X0.5566 Y0.8948
G01 X0.6549 Y0.9194
G01 X0.7076 Y0.9311
G01 X0.7559 Y0.9395
G01 X0.8561 Y0.9544
G01 X0.9097 Y0.9609
G01 X0.9586 Y0.9645
G01 X1.0598 Y0.9695
G01 X1.0843 Y0.9704
G01 X1.1113 Y0.9707
G01 X35.3219 Y0.9706
G01 X35.3459 Y0.9703
G01 X35.3724 Y0.9694
G01 X35.4735 Y0.9645
G01 X35.5279 Y0.9604
G01 X35.5771 Y0.9544
G01 X35.6773 Y0.9395
G01 X35.7305 Y0.9302
G01 X35.7783 Y0.9194
G01 X35.8766 Y0.8948
G01 X35.9286 Y0.8803
G01 X35.9752 Y0.8649
G01 X36.0705 Y0.8308
G01 X36.1209 Y0.8113
G01 X36.1657 Y0.7914
G01 X36.2573 Y0.7481
G01 X36.3011 Y0.7260
G01 X36.3482 Y0.6995
G01 X36.4350 Y0.6474
G01 X36.4806 Y0.6184
G01 X36.5207 Y0.5902
G01 X36.6020 Y0.5299
G01 X36.6445 Y0.4965
G01 X36.6817 Y0.4645
G01 X36.7567 Y0.3965
G01 X36.7957 Y0.3592
G01 X36.8296 Y0.3236
G01 X36.8976 Y0.2486
G01 X36.9328 Y0.2076
G01 X36.9630 Y0.1689
G01 X37.0233 Y0.0876
G01 X37.0515 Y0.0475
G01 X37.0805 Y0.0019
G01 X37.1326 Y-0.0849
G01 X37.1591 Y-0.1320
G01 X37.1812 Y-0.1758
G01 X37.2245 Y-0.2674
G01 X37.2462 Y-0.3168
G01 X37.2639 Y-0.3626
G01 X37.2980 Y-0.4579
G01 X37.3148 Y-0.5092
G01 X37.3279 Y-0.5565
G01 X37.3525 Y-0.6548
G01 X37.3633 Y-0.7026
G01 X37.3726 Y-0.7558
G01 X37.3875 Y-0.8560
G01 X37.3940 Y-0.9096
G01 X37.3976 Y-0.9585
G01 X37.4035 Y-1.0842
G01 X37.4038 Y-1.1112
G01 X37.4038 Y-4.1688
G00 X37.4038 Y-4.1688
G01 F60.00
G01 Z-0.2000
G01 F120.00
G01 X37.4038 Y-1.1112
G01 X37.4035 Y-1.0842
G01 X37.3976 Y-0.9585
G01 X37.3940 Y-0.9096
G01 X37.3875 Y-0.8560
G01 X37.3726 Y-0.7558
G01 X37.3633 Y-0.7026
G01 X37.3525 Y-0.6548
G01 X37.3279 Y-0.5565
G01 X37.3148 Y-0.5092
G01 X37.2980 Y-0.4579
G01 X37.2639 Y-0.3626
G01 X37.2462 Y-0.3168
G01 X37.2245 Y-0.2674
G01 X37.1812 Y-0.1758
G01 X37.1591 Y-0.1320
G01 X37.1326 Y-0.0849
G01 X37.0805 Y0.0019
G01 X37.0515 Y0.0475
G01 X37.0233 Y0.0876
G01 X36.9630 Y0.1689
G01 X36.9328 Y0.2076
G01 X36.8976 Y0.2486
G01 X36.8296 Y0.3236
G01 X36.7957 Y0.3592
G01 X36.7567 Y0.3965
G01 X36.6817 Y0.4645
G01 X36.6445 Y0.4965
G01 X36.6020 Y0.5299
G01 X36.5207 Y0.5902
G01 X36.4806 Y0.6184
G01 X36.4350 Y0.6474
G01 X36.3482 Y0.6995
G01 X36.3011 Y0.7260
G01 X36.2573 Y0.7481
G01 X36.1657 Y0.7914
G01 X36.1209 Y0.8113
G01 X36.0705 Y0.8308
G01 X35.9752 Y0.8649
G01 X35.9286 Y0.8803
G01 X35.8766 Y0.8948
G01 X35.7783 Y0.9194
G01 X35.7305 Y0.9302
G01 X35.6773 Y0.9395
G01 X35.5771 Y0.9544
G01 X35.5279 Y0.9604
G01 X35.4735 Y0.9645
G01 X35.3724 Y0.9694
G01 X35.3459 Y0.9703
G01 X35.3219 Y0.9706
G01 X1.1113 Y0.9707
G01 X1.0843 Y0.9704
G01 X1.0598 Y0.9695
G01 X0.9586 Y0.9645
G01 X0.9097 Y0.9609
G01 X0.8561 Y0.9544
G01 X0.7559 Y0.9395
G01 X0.7076 Y0.9311
G01 X0.6549 Y0.9194
G01 X0.5566 Y0.8948
G01 X0.5046 Y0.8803
G01 X0.4580 Y0.8649
G01 X0.3627 Y0.8308
G01 X0.3169 Y0.8131
G01 X0.2675 Y0.7914
G01 X0.1759 Y0.7481
G01 X0.1321 Y0.7260
G01 X0.0850 Y0.6995
G01 X-0.0018 Y0.6474
G01 X-0.0474 Y0.6184
G01 X-0.0875 Y0.5902
G01 X-0.1688 Y0.5299
G01 X-0.2075 Y0.4997
G01 X-0.2485 Y0.4645
G01 X-0.3235 Y0.3965
G01 X-0.3591 Y0.3626
G01 X-0.3964 Y0.3236
G01 X-0.4644 Y0.2486
G01 X-0.4996 Y0.2076
G01 X-0.5298 Y0.1689
G01 X-0.5901 Y0.0876
G01 X-0.6183 Y0.0475
G01 X-0.6473 Y0.0019
G01 X-0.6994 Y-0.0849
G01 X-0.7236 Y-0.1277
G01 X-0.7480 Y-0.1758
G01 X-0.7913 Y-0.2674
G01 X-0.8130 Y-0.3168
G01 X-0.8307 Y-0.3626
G01 X-0.8648 Y-0.4579
G01 X-0.8802 Y-0.5045
G01 X-0.8947 Y-0.5565
G01 X-0.9193 Y-0.6548
G01 X-0.9301 Y-0.7026
G01 X-0.9394 Y-0.7558
G01 X-0.9543 Y-0.8560
G01 X-0.9603 Y-0.9047
G01 X-0.9644 Y-0.9585
G01 X-0.9694 Y-1.0597
G01 X-0.9703 Y-1.0867
G01 X-0.9706 Y-1.1112
G01 X-0.9706 Y-4.1688
G00 X-0.9706 Y-4.1688
G01 F60.00
G01 Z-0.3000
G01 F120.00
G01 X-0.9706 Y-1.1112
G01 X-0.9703 Y-1.0867
G01 X-0.9694 Y-1.0597
G01 X-0.9644 Y-0.9585
G01 X-0.9603 Y-0.9047
G01 X-0.9543 Y-0.8560
G01 X-0.9394 Y-0.7558
G01 X-0.9301 Y-0.7026
G01 X-0.9193 Y-0.6548
G01 X-0.8947 Y-0.5565
G01 X-0.8802 Y-0.5045
G01 X-0.8648 Y-0.4579
G01 X-0.8307 Y-0.3626
G01 X-0.8130 Y-0.3168
G01 X-0.7913 Y-0.2674
G01 X-0.7480 Y-0.1758
G01 X-0.7236 Y-0.1277
G01 X-0.6994 Y-0.0849
G01 X-0.6473 Y0.0019
G01 X-0.6183 Y0.0475
G01 X-0.5901 Y0.0876
G01 X-0.5298 Y0.1689
G01 X-0.4996 Y0.2076
G01 X-0.4644 Y0.2486
G01 X-0.3964 Y0.3236
G01 X-0.3591 Y0.3626
G01 X-0.3235 Y0.3965
G01 X-0.2485 Y0.4645
G01 X-0.2075 Y0.4997
G01 X-0.1688 Y0.5299
G01 X-0.0875 Y0.5902
G01 X-0.0474 Y0.6184
G01 X-0.0018 Y0.6474
G01 X0.0850 Y0.6995
G01 X0.1321 Y0.7260
G01 X0.1759 Y0.7481
G01 X0.2675 Y0.7914
G01 X0.3169 Y0.8131
G01 X0.3627 Y0.8308
G01 X0.4580 Y0.8649
G01 X0.5046 Y0.8803
G01 X0.5566 Y0.8948
G01 X0.6549 Y0.9194
G01 X0.7076 Y0.9311
G01 X0.7559 Y0.9395
G01 X0.8561 Y0.9544
G01 X0.9097 Y0.9609
G01 X0.9586 Y0.9645
G01 X1.0598 Y0.9695
G01 X1.0843 Y0.9704
G01 X1.1113 Y0.9707
G01 X35.3219 Y0.9706
G01 X35.3459 Y0.9703
G01 X35.3724 Y0.9694
G01 X35.4735 Y0.9645
G01 X35.5279 Y0.9604
G01 X35.5771 Y0.9544
G01 X35.6773 Y0.9395
G01 X35.7305 Y0.9302
G01 X35.7783 Y0.9194
G01 X35.8766 Y0.8948
G01 X35.9286 Y0.8803
G01 X35.9752 Y0.8649
G01 X36.0705 Y0.8308
G01 X36.1209 Y0.8113
G01 X36.1657 Y0.7914
G01 X36.2573 Y0.7481
G01 X36.3011 Y0.7260
G01 X36.3482 Y0.6995
G01 X36.4350 Y0.6474
G01 X36.4806 Y0.6184
G01 X36.5207 Y0.5902
G01 X36.6020 Y0.5299
G01 X36.6445 Y0.4965
G01 X36.6817 Y0.4645
G01 X36.7567 Y0.3965
G01 X36.7957 Y0.3592
G01 X36.8296 Y0.3236
G01 X36.8976 Y0.2486
G01 X36.9328 Y0.2076
G01 X36.9630 Y0.1689
G01 X37.0233 Y0.0876
G01 X37.0515 Y0.0475
G01 X37.0805 Y0.0019
G01 X37.1326 Y-0.0849
G01 X37.1591 Y-0.1320
G01 X37.1812 Y-0.1758
G01 X37.2245 Y-0.2674
G01 X37.2462 Y-0.3168
G01 X37.2639 Y-0.3626
G01 X37.2980 Y-0.4579
G01 X37.3148 Y-0.5092
G01 X37.3279 Y-0.5565
G01 X37.3525 Y-0.6548
G01 X37.3633 Y-0.7026
G01 X37.3726 Y-0.7558
G01 X37.3875 Y-0.8560
G01 X37.3940 Y-0.9096
G01 X37.3976 Y-0.9585
G01 X37.4035 Y-1.0842
G01 X37.4038 Y-1.1112
G01 X37.4038 Y-4.1688
G00 X37.4038 Y-4.1688
G01 F60.00
G01 Z-0.4000
G01 F120.00
G01 X37.4038 Y-1.1112
G01 X37.4035 Y-1.0842
G01 X37.3976 Y-0.9585
G01 X37.3940 Y-0.9096
G01 X37.3875 Y-0.8560
G01 X37.3726 Y-0.7558
G01 X37.3633 Y-0.7026
G01 X37.3525 Y-0.6548
G01 X37.3279 Y-0.5565
G01 X37.3148 Y-0.5092
G01 X37.2980 Y-0.4579
G01 X37.2639 Y-0.3626
G01 X37.2462 Y-0.3168
G01 X37.2245 Y-0.2674
G01 X37.1812 Y-0.1758
G01 X37.1591 Y-0.1320
G01 X37.1326 Y-0.0849
G01 X37.0805 Y0.0019
G01 X37.0515 Y0.0475
G01 X37.0233 Y0.0876
G01 X36.9630 Y0.1689
G01 X36.9328 Y0.2076
G01 X36.8976 Y0.2486
G01 X36.8296 Y0.3236
G01 X36.7957 Y0.3592
G01 X36.7567 Y0.3965
G01 X36.6817 Y0.4645
G01 X36.6445 Y0.4965
G01 X36.6020 Y0.5299
G01 X36.5207 Y0.5902
G01 X36.4806 Y0.6184
G01 X36.4350 Y0.6474
G01 X36.3482 Y0.6995
G01 X36.3011 Y0.7260
G01 X36.2573 Y0.7481
G01 X36.1657 Y0.7914
G01 X36.1209 Y0.8113
G01 X36.0705 Y0.8308
G01 X35.9752 Y0.8649
G01 X35.9286 Y0.8803
G01 X35.8766 Y0.8948
G01 X35.7783 Y0.9194
G01 X35.7305 Y0.9302
G01 X35.6773 Y0.9395
G01 X35.5771 Y0.9544
G01 X35.5279 Y0.9604
G01 X35.4735 Y0.9645
G01 X35.3724 Y0.9694
G01 X35.3459 Y0.9703
G01 X35.3219 Y0.9706
G01 X1.1113 Y0.9707
G01 X1.0843 Y0.9704
G01 X1.0598 Y0.9695
G01 X0.9586 Y0.9645
G01 X0.9097 Y0.9609
G01 X0.8561 Y0.9544
G01 X0.7559 Y0.9395
G01 X0.7076 Y0.9311
G01 X0.6549 Y0.9194
G01 X0.5566 Y0.8948
G01 X0.5046 Y0.8803
G01 X0.4580 Y0.8649
G01 X0.3627 Y0.8308
G01 X0.3169 Y0.8131
G01 X0.2675 Y0.7914
G01 X0.1759 Y0.7481
G01 X0.1321 Y0.7260
G01 X0.0850 Y0.6995
G01 X-0.0018 Y0.6474
G01 X-0.0474 Y0.6184
G01 X-0.0875 Y0.5902
G01 X-0.1688 Y0.5299
G01 X-0.2075 Y0.4997
G01 X-0.2485 Y0.4645
G01 X-0.3235 Y0.3965
G01 X-0.3591 Y0.3626
G01 X-0.3964 Y0.3236
G01 X-0.4644 Y0.2486
G01 X-0.4996 Y0.2076
G01 X-0.5298 Y0.1689
G01 X-0.5901 Y0.0876
G01 X-0.6183 Y0.0475
G01 X-0.6473 Y0.0019
G01 X-0.6994 Y-0.0849
G01 X-0.7236 Y-0.1277
G01 X-0.7480 Y-0.1758
G01 X-0.7913 Y-0.2674
G01 X-0.8130 Y-0.3168
G01 X-0.8307 Y-0.3626
G01 X-0.8648 Y-0.4579
G01 X-0.8802 Y-0.5045
G01 X-0.8947 Y-0.5565
G01 X-0.9193 Y-0.6548
G01 X-0.9301 Y-0.7026
G01 X-0.9394 Y-0.7558
G01 X-0.9543 Y-0.8560
G01 X-0.9603 Y-0.9047
G01 X-0.9644 Y-0.9585
G01 X-0.9694 Y-1.0597
G01 X-0.9703 Y-1.0867
G01 X-0.9706 Y-1.1112
G01 X-0.9706 Y-4.1688
G00 X-0.9706 Y-4.1688
G01 F60.00
G01 Z-0.5000
G01 F120.00
G01 X-0.9706 Y-1.1112
G01 X-0.9703 Y-1.0867
G01 X-0.9694 Y-1.0597
G01 X-0.9644 Y-0.9585
G01 X-0.9603 Y-0.9047
G01 X-0.9543 Y-0.8560
G01 X-0.9394 Y-0.7558
G01 X-0.9301 Y-0.7026
G01 X-0.9193 Y-0.6548
G01 X-0.8947 Y-0.5565
G01 X-0.8802 Y-0.5045
G01 X-0.8648 Y-0.4579
G01 X-0.8307 Y-0.3626
G01 X-0.8130 Y-0.3168
G01 X-0.7913 Y-0.2674
G01 X-0.7480 Y-0.1758
G01 X-0.7236 Y-0.1277
G01 X-0.6994 Y-0.0849
G01 X-0.6473 Y0.0019
G01 X-0.6183 Y0.0475
G01 X-0.5901 Y0.0876
G01 X-0.5298 Y0.1689
G01 X-0.4996 Y0.2076
G01 X-0.4644 Y0.2486
G01 X-0.3964 Y0.3236
G01 X-0.3591 Y0.3626
G01 X-0.3235 Y0.3965
G01 X-0.2485 Y0.4645
G01 X-0.2075 Y0.4997
G01 X-0.1688 Y0.5299
G01 X-0.0875 Y0.5902
G01 X-0.0474 Y0.6184
G01 X-0.0018 Y0.6474
G01 X0.0850 Y0.6995
G01 X0.1321 Y0.7260
G01 X0.1759 Y0.7481
G01 X0.2675 Y0.7914
G01 X0.3169 Y0.8131
G01 X0.3627 Y0.8308
G01 X0.4580 Y0.8649
G01 X0.5046 Y0.8803
G01 X0.5566 Y0.8948
G01 X0.6549 Y0.9194
G01 X0.7076 Y0.9311
G01 X0.7559 Y0.9395
G01 X0.8561 Y0.9544
G01 X0.9097 Y0.9609
G01 X0.9586 Y0.9645
G01 X1.0598 Y0.9695
G01 X1.0843 Y0.9704
G01 X1.1113 Y0.9707
G01 X35.3219 Y0.9706
G01 X35.3459 Y0.9703
G01 X35.3724 Y0.9694
G01 X35.4735 Y0.9645
G01 X35.5279 Y0.9604
G01 X35.5771 Y0.9544
G01 X35.6773 Y0.9395
G01 X35.7305 Y0.9302
G01 X35.7783 Y0.9194
G01 X35.8766 Y0.8948
G01 X35.9286 Y0.8803
G01 X35.9752 Y0.8649
G01 X36.0705 Y0.8308
G01 X36.1209 Y0.8113
G01 X36.1657 Y0.7914
G01 X36.2573 Y0.7481
G01 X36.3011 Y0.7260
G01 X36.3482 Y0.6995
G01 X36.4350 Y0.6474
G01 X36.4806 Y0.6184
G01 X36.5207 Y0.5902
G01 X36.6020 Y0.5299
G01 X36.6445 Y0.4965
G01 X36.6817 Y0.4645
G01 X36.7567 Y0.3965
G01 X36.7957 Y0.3592
G01 X36.8296 Y0.3236
G01 X36.8976 Y0.2486
G01 X36.9328 Y0.2076
G01 X36.9630 Y0.1689
G01 X37.0233 Y0.0876
G01 X37.0515 Y0.0475
G01 X37.0805 Y0.0019
G01 X37.1326 Y-0.0849
G01 X37.1591 Y-0.1320
G01 X37.1812 Y-0.1758
G01 X37.2245 Y-0.2674
G01 X37.2462 Y-0.3168
G01 X37.2639 Y-0.3626
G01 X37.2980 Y-0.4579
G01 X37.3148 Y-0.5092
G01 X37.3279 Y-0.5565
G01 X37.3525 Y-0.6548
G01 X37.3633 Y-0.7026
G01 X37.3726 Y-0.7558
G01 X37.3875 Y-0.8560
G01 X37.3940 Y-0.9096
G01 X37.3976 Y-0.9585
G01 X37.4035 Y-1.0842
G01 X37.4038 Y-1.1112
G01 X37.4038 Y-4.1688
G00 X37.4038 Y-4.1688
G01 F60.00
G01 Z-0.6000
G01 F120.00
G01 X37.4038 Y-1.1112
G01 X37.4035 Y-1.0842
G01 X37.3976 Y-0.9585
G01 X37.3940 Y-0.9096
G01 X37.3875 Y-0.8560
G01 X37.3726 Y-0.7558
G01 X37.3633 Y-0.7026
G01 X37.3525 Y-0.6548
G01 X37.3279 Y-0.5565
G01 X37.3148 Y-0.5092
G01 X37.2980 Y-0.4579
G01 X37.2639 Y-0.3626
G01 X37.2462 Y-0.3168
G01 X37.2245 Y-0.2674
G01 X37.1812 Y-0.1758
G01 X37.1591 Y-0.1320
G01 X37.1326 Y-0.0849
G01 X37.0805 Y0.0019
G01 X37.0515 Y0.0475
G01 X37.0233 Y0.0876
G01 X36.9630 Y0.1689
G01 X36.9328 Y0.2076
G01 X36.8976 Y0.2486
G01 X36.8296 Y0.3236
G01 X36.7957 Y0.3592
G01 X36.7567 Y0.3965
G01 X36.6817 Y0.4645
G01 X36.6445 Y0.4965
G01 X36.6020 Y0.5299
G01 X36.5207 Y0.5902
G01 X36.4806 Y0.6184
G01 X36.4350 Y0.6474
G01 X36.3482 Y0.6995
G01 X36.3011 Y0.7260
G01 X36.2573 Y0.7481
G01 X36.1657 Y0.7914
G01 X36.1209 Y0.8113
G01 X36.0705 Y0.8308
G01 X35.9752 Y0.8649
G01 X35.9286 Y0.8803
G01 X35.8766 Y0.8948
G01 X35.7783 Y0.9194
G01 X35.7305 Y0.9302
G01 X35.6773 Y0.9395
G01 X35.5771 Y0.9544
G01 X35.5279 Y0.9604
G01 X35.4735 Y0.9645
G01 X35.3724 Y0.9694
G01 X35.3459 Y0.9703
G01 X35.3219 Y0.9706
G01 X1.1113 Y0.9707
G01 X1.0843 Y0.9704
G01 X1.0598 Y0.9695
G01 X0.9586 Y0.9645
G01 X0.9097 Y0.9609
G01 X0.8561 Y0.9544
G01 X0.7559 Y0.9395
G01 X0.7076 Y0.9311
G01 X0.6549 Y0.9194
G01 X0.5566 Y0.8948
G01 X0.5046 Y0.8803
G01 X0.4580 Y0.8649
G01 X0.3627 Y0.8308
G01 X0.3169 Y0.8131
G01 X0.2675 Y0.7914
G01 X0.1759 Y0.7481
G01 X0.1321 Y0.7260
G01 X0.0850 Y0.6995
G01 X-0.0018 Y0.6474
G01 X-0.0474 Y0.6184
G01 X-0.0875 Y0.5902
G01 X-0.1688 Y0.5299
G01 X-0.2075 Y0.4997
G01 X-0.2485 Y0.4645
G01 X-0.3235 Y0.3965
G01 X-0.3591 Y0.3626
G01 X-0.3964 Y0.3236
G01 X-0.4644 Y0.2486
G01 X-0.4996 Y0.2076
G01 X-0.5298 Y0.1689
G01 X-0.5901 Y0.0876
G01 X-0.6183 Y0.0475
G01 X-0.6473 Y0.0019
G01 X-0.6994 Y-0.0849
G01 X-0.7236 Y-0.1277
G01 X-0.7480 Y-0.1758
G01 X-0.7913 Y-0.2674
G01 X-0.8130 Y-0.3168
G01 X-0.8307 Y-0.3626
G01 X-0.8648 Y-0.4579
G01 X-0.8802 Y-0.5045
G01 X-0.8947 Y-0.5565
G01 X-0.9193 Y-0.6548
G01 X-0.9301 Y-0.7026
G01 X-0.9394 Y-0.7558
G01 X-0.9543 Y-0.8560
G01 X-0.9603 Y-0.9047
G01 X-0.9644 Y-0.9585
G01 X-0.9694 Y-1.0597
G01 X-0.9703 Y-1.0867
G01 X-0.9706 Y-1.1112
G01 X-0.9706 Y-4.1688
G00 X-0.9706 Y-4.1688
G01 F60.00
G01 Z-0.7000
G01 F120.00
G01 X-0.9706 Y-1.1112
G01 X-0.9703 Y-1.0867
G01 X-0.9694 Y-1.0597
G01 X-0.9644 Y-0.9585
G01 X-0.9603 Y-0.9047
G01 X-0.9543 Y-0.8560
G01 X-0.9394 Y-0.7558
G01 X-0.9301 Y-0.7026
G01 X-0.9193 Y-0.6548
G01 X-0.8947 Y-0.5565
G01 X-0.8802 Y-0.5045
G01 X-0.8648 Y-0.4579
G01 X-0.8307 Y-0.3626
G01 X-0.8130 Y-0.3168
G01 X-0.7913 Y-0.2674
G01 X-0.7480 Y-0.1758
G01 X-0.7236 Y-0.1277
G01 X-0.6994 Y-0.0849
G01 X-0.6473 Y0.0019
G01 X-0.6183 Y0.0475
G01 X-0.5901 Y0.0876
G01 X-0.5298 Y0.1689
G01 X-0.4996 Y0.2076
G01 X-0.4644 Y0.2486
G01 X-0.3964 Y0.3236
G01 X-0.3591 Y0.3626
G01 X-0.3235 Y0.3965
G01 X-0.2485 Y0.4645
G01 X-0.2075 Y0.4997
G01 X-0.1688 Y0.5299
G01 X-0.0875 Y0.5902
G01 X-0.0474 Y0.6184
G01 X-0.0018 Y0.6474
G01 X0.0850 Y0.6995
G01 X0.1321 Y0.7260
G01 X0.1759 Y0.7481
G01 X0.2675 Y0.7914
G01 X0.3169 Y0.8131
G01 X0.3627 Y0.8308
G01 X0.4580 Y0.8649
G01 X0.5046 Y0.8803
G01 X0.5566 Y0.8948
G01 X0.6549 Y0.9194
G01 X0.7076 Y0.9311
G01 X0.7559 Y0.9395
G01 X0.8561 Y0.9544
G01 X0.9097 Y0.9609
G01 X0.9586 Y0.9645
G01 X1.0598 Y0.9695
G01 X1.0843 Y0.9704
G01 X1.1113 Y0.9707
G01 X35.3219 Y0.9706
G01 X35.3459 Y0.9703
G01 X35.3724 Y0.9694
G01 X35.4735 Y0.9645
G01 X35.5279 Y0.9604
G01 X35.5771 Y0.9544
G01 X35.6773 Y0.9395
G01 X35.7305 Y0.9302
G01 X35.7783 Y0.9194
G01 X35.8766 Y0.8948
G01 X35.9286 Y0.8803
G01 X35.9752 Y0.8649
G01 X36.0705 Y0.8308
G01 X36.1209 Y0.8113
G01 X36.1657 Y0.7914
G01 X36.2573 Y0.7481
G01 X36.3011 Y0.7260
G01 X36.3482 Y0.6995
G01 X36.4350 Y0.6474
G01 X36.4806 Y0.6184
G01 X36.5207 Y0.5902
G01 X36.6020 Y0.5299
G01 X36.6445 Y0.4965
G01 X36.6817 Y0.4645
G01 X36.7567 Y0.3965
G01 X36.7957 Y0.3592
G01 X36.8296 Y0.3236
G01 X36.8976 Y0.2486
G01 X36.9328 Y0.2076
G01 X36.9630 Y0.1689
G01 X37.0233 Y0.0876
G01 X37.0515 Y0.0475
G01 X37.0805 Y0.0019
G01 X37.1326 Y-0.0849
G01 X37.1591 Y-0.1320
G01 X37.1812 Y-0.1758
G01 X37.2245 Y-0.2674
G01 X37.2462 Y-0.3168
G01 X37.2639 Y-0.3626
G01 X37.2980 Y-0.4579
G01 X37.3148 Y-0.5092
G01 X37.3279 Y-0.5565
G01 X37.3525 Y-0.6548
G01 X37.3633 Y-0.7026
G01 X37.3726 Y-0.7558
G01 X37.3875 Y-0.8560
G01 X37.3940 Y-0.9096
G01 X37.3976 Y-0.9585
G01 X37.4035 Y-1.0842
G01 X37.4038 Y-1.1112
G01 X37.4038 Y-4.1688
G00 X37.4038 Y-4.1688
G01 F60.00
G01 Z-0.8000
G01 F120.00
G01 X37.4038 Y-1.1112
G01 X37.4035 Y-1.0842
G01 X37.3976 Y-0.9585
G01 X37.3940 Y-0.9096
G01 X37.3875 Y-0.8560
G01 X37.3726 Y-0.7558
G01 X37.3633 Y-0.7026
G01 X37.3525 Y-0.6548
G01 X37.3279 Y-0.5565
G01 X37.3148 Y-0.5092
G01 X37.2980 Y-0.4579
G01 X37.2639 Y-0.3626
G01 X37.2462 Y-0.3168
G01 X37.2245 Y-0.2674
G01 X37.1812 Y-0.1758
G01 X37.1591 Y-0.1320
G01 X37.1326 Y-0.0849
G01 X37.0805 Y0.0019
G01 X37.0515 Y0.0475
G01 X37.0233 Y0.0876
G01 X36.9630 Y0.1689
G01 X36.9328 Y0.2076
G01 X36.8976 Y0.2486
G01 X36.8296 Y0.3236
G01 X36.7957 Y0.3592
G01 X36.7567 Y0.3965
G01 X36.6817 Y0.4645
G01 X36.6445 Y0.4965
G01 X36.6020 Y0.5299
G01 X36.5207 Y0.5902
G01 X36.4806 Y0.6184
G01 X36.4350 Y0.6474
G01 X36.3482 Y0.6995
G01 X36.3011 Y0.7260
G01 X36.2573 Y0.7481
G01 X36.1657 Y0.7914
G01 X36.1209 Y0.8113
G01 X36.0705 Y0.8308
G01 X35.9752 Y0.8649
G01 X35.9286 Y0.8803
G01 X35.8766 Y0.8948
G01 X35.7783 Y0.9194
G01 X35.7305 Y0.9302
G01 X35.6773 Y0.9395
G01 X35.5771 Y0.9544
G01 X35.5279 Y0.9604
G01 X35.4735 Y0.9645
G01 X35.3724 Y0.9694
G01 X35.3459 Y0.9703
G01 X35.3219 Y0.9706
G01 X1.1113 Y0.9707
G01 X1.0843 Y0.9704
G01 X1.0598 Y0.9695
G01 X0.9586 Y0.9645
G01 X0.9097 Y0.9609
G01 X0.8561 Y0.9544
G01 X0.7559 Y0.9395
G01 X0.7076 Y0.9311
G01 X0.6549 Y0.9194
G01 X0.5566 Y0.8948
G01 X0.5046 Y0.8803
G01 X0.4580 Y0.8649
G01 X0.3627 Y0.8308
G01 X0.3169 Y0.8131
G01 X0.2675 Y0.7914
G01 X0.1759 Y0.7481
G01 X0.1321 Y0.7260
G01 X0.0850 Y0.6995
G01 X-0.0018 Y0.6474
G01 X-0.0474 Y0.6184
G01 X-0.0875 Y0.5902
G01 X-0.1688 Y0.5299
G01 X-0.2075 Y0.4997
G01 X-0.2485 Y0.4645
G01 X-0.3235 Y0.3965
G01 X-0.3591 Y0.3626
G01 X-0.3964 Y0.3236
G01 X-0.4644 Y0.2486
G01 X-0.4996 Y0.2076
G01 X-0.5298 Y0.1689
G01 X-0.5901 Y0.0876
G01 X-0.6183 Y0.0475
G01 X-0.6473 Y0.0019
G01 X-0.6994 Y-0.0849
G01 X-0.7236 Y-0.1277
G01 X-0.7480 Y-0.1758
G01 X-0.7913 Y-0.2674
G01 X-0.8130 Y-0.3168
G01 X-0.8307 Y-0.3626
G01 X-0.8648 Y-0.4579
G01 X-0.8802 Y-0.5045
G01 X-0.8947 Y-0.5565
G01 X-0.9193 Y-0.6548
G01 X-0.9301 Y-0.7026
G01 X-0.9394 Y-0.7558
G01 X-0.9543 Y-0.8560
G01 X-0.9603 Y-0.9047
G01 X-0.9644 Y-0.9585
G01 X-0.9694 Y-1.0597
G01 X-0.9703 Y-1.0867
G01 X-0.9706 Y-1.1112
G01 X-0.9706 Y-4.1688
G00 X-0.9706 Y-4.1688
G01 F60.00
G01 Z-0.9000
G01 F120.00
G01 X-0.9706 Y-1.1112
G01 X-0.9703 Y-1.0867
G01 X-0.9694 Y-1.0597
G01 X-0.9644 Y-0.9585
G01 X-0.9603 Y-0.9047
G01 X-0.9543 Y-0.8560
G01 X-0.9394 Y-0.7558
G01 X-0.9301 Y-0.7026
G01 X-0.9193 Y-0.6548
G01 X-0.8947 Y-0.5565
G01 X-0.8802 Y-0.5045
G01 X-0.8648 Y-0.4579
G01 X-0.8307 Y-0.3626
G01 X-0.8130 Y-0.3168
G01 X-0.7913 Y-0.2674
G01 X-0.7480 Y-0.1758
G01 X-0.7236 Y-0.1277
G01 X-0.6994 Y-0.0849
G01 X-0.6473 Y0.0019
G01 X-0.6183 Y0.0475
G01 X-0.5901 Y0.0876
G01 X-0.5298 Y0.1689
G01 X-0.4996 Y0.2076
G01 X-0.4644 Y0.2486
G01 X-0.3964 Y0.3236
G01 X-0.3591 Y0.3626
G01 X-0.3235 Y0.3965
G01 X-0.2485 Y0.4645
G01 X-0.2075 Y0.4997
G01 X-0.1688 Y0.5299
G01 X-0.0875 Y0.5902
G01 X-0.0474 Y0.6184
G01 X-0.0018 Y0.6474
G01 X0.0850 Y0.6995
G01 X0.1321 Y0.7260
G01 X0.1759 Y0.7481
G01 X0.2675 Y0.7914
G01 X0.3169 Y0.8131
G01 X0.3627 Y0.8308
G01 X0.4580 Y0.8649
G01 X0.5046 Y0.8803
G01 X0.5566 Y0.8948
G01 X0.6549 Y0.9194
G01 X0.7076 Y0.9311
G01 X0.7559 Y0.9395
G01 X0.8561 Y0.9544
G01 X0.9097 Y0.9609
G01 X0.9586 Y0.9645
G01 X1.0598 Y0.9695
G01 X1.0843 Y0.9704
G01 X1.1113 Y0.9707
G01 X35.3219 Y0.9706
G01 X35.3459 Y0.9703
G01 X35.3724 Y0.9694
G01 X35.4735 Y0.9645
G01 X35.5279 Y0.9604
G01 X35.5771 Y0.9544
G01 X35.6773 Y0.9395
G01 X35.7305 Y0.9302
G01 X35.7783 Y0.9194
G01 X35.8766 Y0.8948
G01 X35.9286 Y0.8803
G01 X35.9752 Y0.8649
G01 X36.0705 Y0.8308
G01 X36.1209 Y0.8113
G01 X36.1657 Y0.7914
G01 X36.2573 Y0.7481
G01 X36.3011 Y0.7260
G01 X36.3482 Y0.6995
G01 X36.4350 Y0.6474
G01 X36.4806 Y0.6184
G01 X36.5207 Y0.5902
G01 X36.6020 Y0.5299
G01 X36.6445 Y0.4965
G01 X36.6817 Y0.4645
G01 X36.7567 Y0.3965
G01 X36.7957 Y0.3592
G01 X36.8296 Y0.3236
G01 X36.8976 Y0.2486
G01 X36.9328 Y0.2076
G01 X36.9630 Y0.1689
G01 X37.0233 Y0.0876
G01 X37.0515 Y0.0475
G01 X37.0805 Y0.0019
G01 X37.1326 Y-0.0849
G01 X37.1591 Y-0.1320
G01 X37.1812 Y-0.1758
G01 X37.2245 Y-0.2674
G01 X37.2462 Y-0.3168
G01 X37.2639 Y-0.3626
G01 X37.2980 Y-0.4579
G01 X37.3148 Y-0.5092
G01 X37.3279 Y-0.5565
G01 X37.3525 Y-0.6548
G01 X37.3633 Y-0.7026
G01 X37.3726 Y-0.7558
G01 X37.3875 Y-0.8560
G01 X37.3940 Y-0.9096
G01 X37.3976 Y-0.9585
G01 X37.4035 Y-1.0842
G01 X37.4038 Y-1.1112
G01 X37.4038 Y-4.1688
G00 X37.4038 Y-4.1688
G01 F60.00
G01 Z-1.0000
G01 F120.00
G01 X37.4038 Y-1.1112
G01 X37.4035 Y-1.0842
G01 X37.3976 Y-0.9585
G01 X37.3940 Y-0.9096
G01 X37.3875 Y-0.8560
G01 X37.3726 Y-0.7558
G01 X37.3633 Y-0.7026
G01 X37.3525 Y-0.6548
G01 X37.3279 Y-0.5565
G01 X37.3148 Y-0.5092
G01 X37.2980 Y-0.4579
G01 X37.2639 Y-0.3626
G01 X37.2462 Y-0.3168
G01 X37.2245 Y-0.2674
G01 X37.1812 Y-0.1758
G01 X37.1591 Y-0.1320
G01 X37.1326 Y-0.0849
G01 X37.0805 Y0.0019
G01 X37.0515 Y0.0475
G01 X37.0233 Y0.0876
G01 X36.9630 Y0.1689
G01 X36.9328 Y0.2076
G01 X36.8976 Y0.2486
G01 X36.8296 Y0.3236
G01 X36.7957 Y0.3592
G01 X36.7567 Y0.3965
G01 X36.6817 Y0.4645
G01 X36.6445 Y0.4965
G01 X36.6020 Y0.5299
G01 X36.5207 Y0.5902
G01 X36.4806 Y0.6184
G01 X36.4350 Y0.6474
G01 X36.3482 Y0.6995
G01 X36.3011 Y0.7260
G01 X36.2573 Y0.7481
G01 X36.1657 Y0.7914
G01 X36.1209 Y0.8113
G01 X36.0705 Y0.8308
G01 X35.9752 Y0.8649
G01 X35.9286 Y0.8803
G01 X35.8766 Y0.8948
G01 X35.7783 Y0.9194
G01 X35.7305 Y0.9302
G01 X35.6773 Y0.9395
G01 X35.5771 Y0.9544
G01 X35.5279 Y0.9604
G01 X35.4735 Y0.9645
G01 X35.3724 Y0.9694
G01 X35.3459 Y0.9703
G01 X35.3219 Y0.9706
G01 X1.1113 Y0.9707
G01 X1.0843 Y0.9704
G01 X1.0598 Y0.9695
G01 X0.9586 Y0.9645
G01 X0.9097 Y0.9609
G01 X0.8561 Y0.9544
G01 X0.7559 Y0.9395
G01 X0.7076 Y0.9311
G01 X0.6549 Y0.9194
G01 X0.5566 Y0.8948
G01 X0.5046 Y0.8803
G01 X0.4580 Y0.8649
G01 X0.3627 Y0.8308
G01 X0.3169 Y0.8131
G01 X0.2675 Y0.7914
G01 X0.1759 Y0.7481
G01 X0.1321 Y0.7260
G01 X0.0850 Y0.6995
G01 X-0.0018 Y0.6474
G01 X-0.0474 Y0.6184
G01 X-0.0875 Y0.5902
G01 X-0.1688 Y0.5299
G01 X-0.2075 Y0.4997
G01 X-0.2485 Y0.4645
G01 X-0.3235 Y0.3965
G01 X-0.3591 Y0.3626
G01 X-0.3964 Y0.3236
G01 X-0.4644 Y0.2486
G01 X-0.4996 Y0.2076
G01 X-0.5298 Y0.1689
G01 X-0.5901 Y0.0876
G01 X-0.6183 Y0.0475
G01 X-0.6473 Y0.0019
G01 X-0.6994 Y-0.0849
G01 X-0.7236 Y-0.1277
G01 X-0.7480 Y-0.1758
G01 X-0.7913 Y-0.2674
G01 X-0.8130 Y-0.3168
G01 X-0.8307 Y-0.3626
G01 X-0.8648 Y-0.4579
G01 X-0.8802 Y-0.5045
G01 X-0.8947 Y-0.5565
G01 X-0.9193 Y-0.6548
G01 X-0.9301 Y-0.7026
G01 X-0.9394 Y-0.7558
G01 X-0.9543 Y-0.8560
G01 X-0.9603 Y-0.9047
G01 X-0.9644 Y-0.9585
G01 X-0.9694 Y-1.0597
G01 X-0.9703 Y-1.0867
G01 X-0.9706 Y-1.1112
G01 X-0.9706 Y-4.1688
G00 X-0.9706 Y-4.1688
G01 F60.00
G01 Z-1.1000
G01 F120.00
G01 X-0.9706 Y-1.1112
G01 X-0.9703 Y-1.0867
G01 X-0.9694 Y-1.0597
G01 X-0.9644 Y-0.9585
G01 X-0.9603 Y-0.9047
G01 X-0.9543 Y-0.8560
G01 X-0.9394 Y-0.7558
G01 X-0.9301 Y-0.7026
G01 X-0.9193 Y-0.6548
G01 X-0.8947 Y-0.5565
G01 X-0.8802 Y-0.5045
G01 X-0.8648 Y-0.4579
G01 X-0.8307 Y-0.3626
G01 X-0.8130 Y-0.3168
G01 X-0.7913 Y-0.2674
G01 X-0.7480 Y-0.1758
G01 X-0.7236 Y-0.1277
G01 X-0.6994 Y-0.0849
G01 X-0.6473 Y0.0019
G01 X-0.6183 Y0.0475
G01 X-0.5901 Y0.0876
G01 X-0.5298 Y0.1689
G01 X-0.4996 Y0.2076
G01 X-0.4644 Y0.2486
G01 X-0.3964 Y0.3236
G01 X-0.3591 Y0.3626
G01 X-0.3235 Y0.3965
G01 X-0.2485 Y0.4645
G01 X-0.2075 Y0.4997
G01 X-0.1688 Y0.5299
G01 X-0.0875 Y0.5902
G01 X-0.0474 Y0.6184
G01 X-0.0018 Y0.6474
G01 X0.0850 Y0.6995
G01 X0.1321 Y0.7260
G01 X0.1759 Y0.7481
G01 X0.2675 Y0.7914
G01 X0.3169 Y0.8131
G01 X0.3627 Y0.8308
G01 X0.4580 Y0.8649
G01 X0.5046 Y0.8803
G01 X0.5566 Y0.8948
G01 X0.6549 Y0.9194
G01 X0.7076 Y0.9311
G01 X0.7559 Y0.9395
G01 X0.8561 Y0.9544
G01 X0.9097 Y0.9609
G01 X0.9586 Y0.9645
G01 X1.0598 Y0.9695
G01 X1.0843 Y0.9704
G01 X1.1113 Y0.9707
G01 X35.3219 Y0.9706
G01 X35.3459 Y0.9703
G01 X35.3724 Y0.9694
G01 X35.4735 Y0.9645
G01 X35.5279 Y0.9604
G01 X35.5771 Y0.9544
G01 X35.6773 Y0.9395
G01 X35.7305 Y0.9302
G01 X35.7783 Y0.9194
G01 X35.8766 Y0.8948
G01 X35.9286 Y0.8803
G01 X35.9752 Y0.8649
G01 X36.0705 Y0.8308
G01 X36.1209 Y0.8113
G01 X36.1657 Y0.7914
G01 X36.2573 Y0.7481
G01 X36.3011 Y0.7260
G01 X36.3482 Y0.6995
G01 X36.4350 Y0.6474
G01 X36.4806 Y0.6184
G01 X36.5207 Y0.5902
G01 X36.6020 Y0.5299
G01 X36.6445 Y0.4965
G01 X36.6817 Y0.4645
G01 X36.7567 Y0.3965
G01 X36.7957 Y0.3592
G01 X36.8296 Y0.3236
G01 X36.8976 Y0.2486
G01 X36.9328 Y0.2076
G01 X36.9630 Y0.1689
G01 X37.0233 Y0.0876
G01 X37.0515 Y0.0475
G01 X37.0805 Y0.0019
G01 X37.1326 Y-0.0849
G01 X37.1591 Y-0.1320
G01 X37.1812 Y-0.1758
G01 X37.2245 Y-0.2674
G01 X37.2462 Y-0.3168
G01 X37.2639 Y-0.3626
G01 X37.2980 Y-0.4579
G01 X37.3148 Y-0.5092
G01 X37.3279 Y-0.5565
G01 X37.3525 Y-0.6548
G01 X37.3633 Y-0.7026
G01 X37.3726 Y-0.7558
G01 X37.3875 Y-0.8560
G01 X37.3940 Y-0.9096
G01 X37.3976 Y-0.9585
G01 X37.4035 Y-1.0842
G01 X37.4038 Y-1.1112
G01 X37.4038 Y-4.1688
G00 X37.4038 Y-4.1688
G01 F60.00
G01 Z-1.2000
G01 F120.00
G01 X37.4038 Y-1.1112
G01 X37.4035 Y-1.0842
G01 X37.3976 Y-0.9585
G01 X37.3940 Y-0.9096
G01 X37.3875 Y-0.8560
G01 X37.3726 Y-0.7558
G01 X37.3633 Y-0.7026
G01 X37.3525 Y-0.6548
G01 X37.3279 Y-0.5565
G01 X37.3148 Y-0.5092
G01 X37.2980 Y-0.4579
G01 X37.2639 Y-0.3626
G01 X37.2462 Y-0.3168
G01 X37.2245 Y-0.2674
G01 X37.1812 Y-0.1758
G01 X37.1591 Y-0.1320
G01 X37.1326 Y-0.0849
G01 X37.0805 Y0.0019
G01 X37.0515 Y0.0475
G01 X37.0233 Y0.0876
G01 X36.9630 Y0.1689
G01 X36.9328 Y0.2076
G01 X36.8976 Y0.2486
G01 X36.8296 Y0.3236
G01 X36.7957 Y0.3592
G01 X36.7567 Y0.3965
G01 X36.6817 Y0.4645
G01 X36.6445 Y0.4965
G01 X36.6020 Y0.5299
G01 X36.5207 Y0.5902
G01 X36.4806 Y0.6184
G01 X36.4350 Y0.6474
G01 X36.3482 Y0.6995
G01 X36.3011 Y0.7260
G01 X36.2573 Y0.7481
G01 X36.1657 Y0.7914
G01 X36.1209 Y0.8113
G01 X36.0705 Y0.8308
G01 X35.9752 Y0.8649
G01 X35.9286 Y0.8803
G01 X35.8766 Y0.8948
G01 X35.7783 Y0.9194
G01 X35.7305 Y0.9302
G01 X35.6773 Y0.9395
G01 X35.5771 Y0.9544
G01 X35.5279 Y0.9604
G01 X35.4735 Y0.9645
G01 X35.3724 Y0.9694
G01 X35.3459 Y0.9703
G01 X35.3219 Y0.9706
G01 X1.1113 Y0.9707
G01 X1.0843 Y0.9704
G01 X1.0598 Y0.9695
G01 X0.9586 Y0.9645
G01 X0.9097 Y0.9609
G01 X0.8561 Y0.9544
G01 X0.7559 Y0.9395
G01 X0.7076 Y0.9311
G01 X0.6549 Y0.9194
G01 X0.5566 Y0.8948
G01 X0.5046 Y0.8803
G01 X0.4580 Y0.8649
G01 X0.3627 Y0.8308
G01 X0.3169 Y0.8131
G01 X0.2675 Y0.7914
G01 X0.1759 Y0.7481
G01 X0.1321 Y0.7260
G01 X0.0850 Y0.6995
G01 X-0.0018 Y0.6474
G01 X-0.0474 Y0.6184
G01 X-0.0875 Y0.5902
G01 X-0.1688 Y0.5299
G01 X-0.2075 Y0.4997
G01 X-0.2485 Y0.4645
G01 X-0.3235 Y0.3965
G01 X-0.3591 Y0.3626
G01 X-0.3964 Y0.3236
G01 X-0.4644 Y0.2486
G01 X-0.4996 Y0.2076
G01 X-0.5298 Y0.1689
G01 X-0.5901 Y0.0876
G01 X-0.6183 Y0.0475
G01 X-0.6473 Y0.0019
G01 X-0.6994 Y-0.0849
G01 X-0.7236 Y-0.1277
G01 X-0.7480 Y-0.1758
G01 X-0.7913 Y-0.2674
G01 X-0.8130 Y-0.3168
G01 X-0.8307 Y-0.3626
G01 X-0.8648 Y-0.4579
G01 X-0.8802 Y-0.5045
G01 X-0.8947 Y-0.5565
G01 X-0.9193 Y-0.6548
G01 X-0.9301 Y-0.7026
G01 X-0.9394 Y-0.7558
G01 X-0.9543 Y-0.8560
G01 X-0.9603 Y-0.9047
G01 X-0.9644 Y-0.9585
G01 X-0.9694 Y-1.0597
G01 X-0.9703 Y-1.0867
G01 X-0.9706 Y-1.1112
G01 X-0.9706 Y-4.1688
G00 X-0.9706 Y-4.1688
G01 F60.00
G01 Z-1.3000
G01 F120.00
G01 X-0.9706 Y-1.1112
G01 X-0.9703 Y-1.0867
G01 X-0.9694 Y-1.0597
G01 X-0.9644 Y-0.9585
G01 X-0.9603 Y-0.9047
G01 X-0.9543 Y-0.8560
G01 X-0.9394 Y-0.7558
G01 X-0.9301 Y-0.7026
G01 X-0.9193 Y-0.6548
G01 X-0.8947 Y-0.5565
G01 X-0.8802 Y-0.5045
G01 X-0.8648 Y-0.4579
G01 X-0.8307 Y-0.3626
G01 X-0.8130 Y-0.3168
G01 X-0.7913 Y-0.2674
G01 X-0.7480 Y-0.1758
G01 X-0.7236 Y-0.1277
G01 X-0.6994 Y-0.0849
G01 X-0.6473 Y0.0019
G01 X-0.6183 Y0.0475
G01 X-0.5901 Y0.0876
G01 X-0.5298 Y0.1689
G01 X-0.4996 Y0.2076
G01 X-0.4644 Y0.2486
G01 X-0.3964 Y0.3236
G01 X-0.3591 Y0.3626
G01 X-0.3235 Y0.3965
G01 X-0.2485 Y0.4645
G01 X-0.2075 Y0.4997
G01 X-0.1688 Y0.5299
G01 X-0.0875 Y0.5902
G01 X-0.0474 Y0.6184
G01 X-0.0018 Y0.6474
G01 X0.0850 Y0.6995
G01 X0.1321 Y0.7260
G01 X0.1759 Y0.7481
G01 X0.2675 Y0.7914
G01 X0.3169 Y0.8131
G01 X0.3627 Y0.8308
G01 X0.4580 Y0.8649
G01 X0.5046 Y0.8803
G01 X0.5566 Y0.8948
G01 X0.6549 Y0.9194
G01 X0.7076 Y0.9311
G01 X0.7559 Y0.9395
G01 X0.8561 Y0.9544
G01 X0.9097 Y0.9609
G01 X0.9586 Y0.9645
G01 X1.0598 Y0.9695
G01 X1.0843 Y0.9704
G01 X1.1113 Y0.9707
G01 X35.3219 Y0.9706
G01 X35.3459 Y0.9703
G01 X35.3724 Y0.9694
G01 X35.4735 Y0.9645
G01 X35.5279 Y0.9604
G01 X35.5771 Y0.9544
G01 X35.6773 Y0.9395
G01 X35.7305 Y0.9302
G01 X35.7783 Y0.9194
G01 X35.8766 Y0.8948
G01 X35.9286 Y0.8803
G01 X35.9752 Y0.8649
G01 X36.0705 Y0.8308
G01 X36.1209 Y0.8113
G01 X36.1657 Y0.7914
G01 X36.2573 Y0.7481
G01 X36.3011 Y0.7260
G01 X36.3482 Y0.6995
G01 X36.4350 Y0.6474
G01 X36.4806 Y0.6184
G01 X36.5207 Y0.5902
G01 X36.6020 Y0.5299
G01 X36.6445 Y0.4965
G01 X36.6817 Y0.4645
G01 X36.7567 Y0.3965
G01 X36.7957 Y0.3592
G01 X36.8296 Y0.3236
G01 X36.8976 Y0.2486
G01 X36.9328 Y0.2076
G01 X36.9630 Y0.1689
G01 X37.0233 Y0.0876
G01 X37.0515 Y0.0475
G01 X37.0805 Y0.0019
G01 X37.1326 Y-0.0849
G01 X37.1591 Y-0.1320
G01 X37.1812 Y-0.1758
G01 X37.2245 Y-0.2674
G01 X37.2462 Y-0.3168
G01 X37.2639 Y-0.3626
G01 X37.2980 Y-0.4579
G01 X37.3148 Y-0.5092
G01 X37.3279 Y-0.5565
G01 X37.3525 Y-0.6548
G01 X37.3633 Y-0.7026
G01 X37.3726 Y-0.7558
G01 X37.3875 Y-0.8560
G01 X37.3940 Y-0.9096
G01 X37.3976 Y-0.9585
G01 X37.4035 Y-1.0842
G01 X37.4038 Y-1.1112
G01 X37.4038 Y-4.1688
G00 X37.4038 Y-4.1688
G01 F60.00
G01 Z-1.4000
G01 F120.00
G01 X37.4038 Y-1.1112
G01 X37.4035 Y-1.0842
G01 X37.3976 Y-0.9585
G01 X37.3940 Y-0.9096
G01 X37.3875 Y-0.8560
G01 X37.3726 Y-0.7558
G01 X37.3633 Y-0.7026
G01 X37.3525 Y-0.6548
G01 X37.3279 Y-0.5565
G01 X37.3148 Y-0.5092
G01 X37.2980 Y-0.4579
G01 X37.2639 Y-0.3626
G01 X37.2462 Y-0.3168
G01 X37.2245 Y-0.2674
G01 X37.1812 Y-0.1758
G01 X37.1591 Y-0.1320
G01 X37.1326 Y-0.0849
G01 X37.0805 Y0.0019
G01 X37.0515 Y0.0475
G01 X37.0233 Y0.0876
G01 X36.9630 Y0.1689
G01 X36.9328 Y0.2076
G01 X36.8976 Y0.2486
G01 X36.8296 Y0.3236
G01 X36.7957 Y0.3592
G01 X36.7567 Y0.3965
G01 X36.6817 Y0.4645
G01 X36.6445 Y0.4965
G01 X36.6020 Y0.5299
G01 X36.5207 Y0.5902
G01 X36.4806 Y0.6184
G01 X36.4350 Y0.6474
G01 X36.3482 Y0.6995
G01 X36.3011 Y0.7260
G01 X36.2573 Y0.7481
G01 X36.1657 Y0.7914
G01 X36.1209 Y0.8113
G01 X36.0705 Y0.8308
G01 X35.9752 Y0.8649
G01 X35.9286 Y0.8803
G01 X35.8766 Y0.8948
G01 X35.7783 Y0.9194
G01 X35.7305 Y0.9302
G01 X35.6773 Y0.9395
G01 X35.5771 Y0.9544
G01 X35.5279 Y0.9604
G01 X35.4735 Y0.9645
G01 X35.3724 Y0.9694
G01 X35.3459 Y0.9703
G01 X35.3219 Y0.9706
G01 X1.1113 Y0.9707
G01 X1.0843 Y0.9704
G01 X1.0598 Y0.9695
G01 X0.9586 Y0.9645
G01 X0.9097 Y0.9609
G01 X0.8561 Y0.9544
G01 X0.7559 Y0.9395
G01 X0.7076 Y0.9311
G01 X0.6549 Y0.9194
G01 X0.5566 Y0.8948
G01 X0.5046 Y0.8803
G01 X0.4580 Y0.8649
G01 X0.3627 Y0.8308
G01 X0.3169 Y0.8131
G01 X0.2675 Y0.7914
G01 X0.1759 Y0.7481
G01 X0.1321 Y0.7260
G01 X0.0850 Y0.6995
G01 X-0.0018 Y0.6474
G01 X-0.0474 Y0.6184
G01 X-0.0875 Y0.5902
G01 X-0.1688 Y0.5299
G01 X-0.2075 Y0.4997
G01 X-0.2485 Y0.4645
G01 X-0.3235 Y0.3965
G01 X-0.3591 Y0.3626
G01 X-0.3964 Y0.3236
G01 X-0.4644 Y0.2486
G01 X-0.4996 Y0.2076
G01 X-0.5298 Y0.1689
G01 X-0.5901 Y0.0876
G01 X-0.6183 Y0.0475
G01 X-0.6473 Y0.0019
G01 X-0.6994 Y-0.0849
G01 X-0.7236 Y-0.1277
G01 X-0.7480 Y-0.1758
G01 X-0.7913 Y-0.2674
G01 X-0.8130 Y-0.3168
G01 X-0.8307 Y-0.3626
G01 X-0.8648 Y-0.4579
G01 X-0.8802 Y-0.5045
G01 X-0.8947 Y-0.5565
G01 X-0.9193 Y-0.6548
G01 X-0.9301 Y-0.7026
G01 X-0.9394 Y-0.7558
G01 X-0.9543 Y-0.8560
G01 X-0.9603 Y-0.9047
G01 X-0.9644 Y-0.9585
G01 X-0.9694 Y-1.0597
G01 X-0.9703 Y-1.0867
G01 X-0.9706 Y-1.1112
G01 X-0.9706 Y-4.1688
G00 X-0.9706 Y-4.1688
G01 F60.00
G01 Z-1.5000
G01 F120.00
G01 X-0.9706 Y-1.1112
G01 X-0.9703 Y-1.0867
G01 X-0.9694 Y-1.0597
G01 X-0.9644 Y-0.9585
G01 X-0.9603 Y-0.9047
G01 X-0.9543 Y-0.8560
G01 X-0.9394 Y-0.7558
G01 X-0.9301 Y-0.7026
G01 X-0.9193 Y-0.6548
G01 X-0.8947 Y-0.5565
G01 X-0.8802 Y-0.5045
G01 X-0.8648 Y-0.4579
G01 X-0.8307 Y-0.3626
G01 X-0.8130 Y-0.3168
G01 X-0.7913 Y-0.2674
G01 X-0.7480 Y-0.1758
G01 X-0.7236 Y-0.1277
G01 X-0.6994 Y-0.0849
G01 X-0.6473 Y0.0019
G01 X-0.6183 Y0.0475
G01 X-0.5901 Y0.0876
G01 X-0.5298 Y0.1689
G01 X-0.4996 Y0.2076
G01 X-0.4644 Y0.2486
G01 X-0.3964 Y0.3236
G01 X-0.3591 Y0.3626
G01 X-0.3235 Y0.3965
G01 X-0.2485 Y0.4645
G01 X-0.2075 Y0.4997
G01 X-0.1688 Y0.5299
G01 X-0.0875 Y0.5902
G01 X-0.0474 Y0.6184
G01 X-0.0018 Y0.6474
G01 X0.0850 Y0.6995
G01 X0.1321 Y0.7260
G01 X0.1759 Y0.7481
G01 X0.2675 Y0.7914
G01 X0.3169 Y0.8131
G01 X0.3627 Y0.8308
G01 X0.4580 Y0.8649
G01 X0.5046 Y0.8803
G01 X0.5566 Y0.8948
G01 X0.6549 Y0.9194
G01 X0.7076 Y0.9311
G01 X0.7559 Y0.9395
G01 X0.8561 Y0.9544
G01 X0.9097 Y0.9609
G01 X0.9586 Y0.9645
G01 X1.0598 Y0.9695
G01 X1.0843 Y0.9704
G01 X1.1113 Y0.9707
G01 X35.3219 Y0.9706
G01 X35.3459 Y0.9703
G01 X35.3724 Y0.9694
G01 X35.4735 Y0.9645
G01 X35.5279 Y0.9604
G01 X35.5771 Y0.9544
G01 X35.6773 Y0.9395
G01 X35.7305 Y0.9302
G01 X35.7783 Y0.9194
G01 X35.8766 Y0.8948
G01 X35.9286 Y0.8803
G01 X35.9752 Y0.8649
G01 X36.0705 Y0.8308
G01 X36.1209 Y0.8113
G01 X36.1657 Y0.7914
G01 X36.2573 Y0.7481
G01 X36.3011 Y0.7260
G01 X36.3482 Y0.6995
G01 X36.4350 Y0.6474
G01 X36.4806 Y0.6184
G01 X36.5207 Y0.5902
G01 X36.6020 Y0.5299
G01 X36.6445 Y0.4965
G01 X36.6817 Y0.4645
G01 X36.7567 Y0.3965
G01 X36.7957 Y0.3592
G01 X36.8296 Y0.3236
G01 X36.8976 Y0.2486
G01 X36.9328 Y0.2076
G01 X36.9630 Y0.1689
G01 X37.0233 Y0.0876
G01 X37.0515 Y0.0475
G01 X37.0805 Y0.0019
G01 X37.1326 Y-0.0849
G01 X37.1591 Y-0.1320
G01 X37.1812 Y-0.1758
G01 X37.2245 Y-0.2674
G01 X37.2462 Y-0.3168
G01 X37.2639 Y-0.3626
G01 X37.2980 Y-0.4579
G01 X37.3148 Y-0.5092
G01 X37.3279 Y-0.5565
G01 X37.3525 Y-0.6548
G01 X37.3633 Y-0.7026
G01 X37.3726 Y-0.7558
G01 X37.3875 Y-0.8560
G01 X37.3940 Y-0.9096
G01 X37.3976 Y-0.9585
G01 X37.4035 Y-1.0842
G01 X37.4038 Y-1.1112
G01 X37.4038 Y-4.1688
G00 X37.4038 Y-4.1688
G01 F60.00
G01 Z-1.6000
G01 F120.00
G01 X37.4038 Y-1.1112
G01 X37.4035 Y-1.0842
G01 X37.3976 Y-0.9585
G01 X37.3940 Y-0.9096
G01 X37.3875 Y-0.8560
G01 X37.3726 Y-0.7558
G01 X37.3633 Y-0.7026
G01 X37.3525 Y-0.6548
G01 X37.3279 Y-0.5565
G01 X37.3148 Y-0.5092
G01 X37.2980 Y-0.4579
G01 X37.2639 Y-0.3626
G01 X37.2462 Y-0.3168
G01 X37.2245 Y-0.2674
G01 X37.1812 Y-0.1758
G01 X37.1591 Y-0.1320
G01 X37.1326 Y-0.0849
G01 X37.0805 Y0.0019
G01 X37.0515 Y0.0475
G01 X37.0233 Y0.0876
G01 X36.9630 Y0.1689
G01 X36.9328 Y0.2076
G01 X36.8976 Y0.2486
G01 X36.8296 Y0.3236
G01 X36.7957 Y0.3592
G01 X36.7567 Y0.3965
G01 X36.6817 Y0.4645
G01 X36.6445 Y0.4965
G01 X36.6020 Y0.5299
G01 X36.5207 Y0.5902
G01 X36.4806 Y0.6184
G01 X36.4350 Y0.6474
G01 X36.3482 Y0.6995
G01 X36.3011 Y0.7260
G01 X36.2573 Y0.7481
G01 X36.1657 Y0.7914
G01 X36.1209 Y0.8113
G01 X36.0705 Y0.8308
G01 X35.9752 Y0.8649
G01 X35.9286 Y0.8803
G01 X35.8766 Y0.8948
G01 X35.7783 Y0.9194
G01 X35.7305 Y0.9302
G01 X35.6773 Y0.9395
G01 X35.5771 Y0.9544
G01 X35.5279 Y0.9604
G01 X35.4735 Y0.9645
G01 X35.3724 Y0.9694
G01 X35.3459 Y0.9703
G01 X35.3219 Y0.9706
G01 X1.1113 Y0.9707
G01 X1.0843 Y0.9704
G01 X1.0598 Y0.9695
G01 X0.9586 Y0.9645
G01 X0.9097 Y0.9609
G01 X0.8561 Y0.9544
G01 X0.7559 Y0.9395
G01 X0.7076 Y0.9311
G01 X0.6549 Y0.9194
G01 X0.5566 Y0.8948
G01 X0.5046 Y0.8803
G01 X0.4580 Y0.8649
G01 X0.3627 Y0.8308
G01 X0.3169 Y0.8131
G01 X0.2675 Y0.7914
G01 X0.1759 Y0.7481
G01 X0.1321 Y0.7260
G01 X0.0850 Y0.6995
G01 X-0.0018 Y0.6474
G01 X-0.0474 Y0.6184
G01 X-0.0875 Y0.5902
G01 X-0.1688 Y0.5299
G01 X-0.2075 Y0.4997
G01 X-0.2485 Y0.4645
G01 X-0.3235 Y0.3965
G01 X-0.3591 Y0.3626
G01 X-0.3964 Y0.3236
G01 X-0.4644 Y0.2486
G01 X-0.4996 Y0.2076
G01 X-0.5298 Y0.1689
G01 X-0.5901 Y0.0876
G01 X-0.6183 Y0.0475
G01 X-0.6473 Y0.0019
G01 X-0.6994 Y-0.0849
G01 X-0.7236 Y-0.1277
G01 X-0.7480 Y-0.1758
G01 X-0.7913 Y-0.2674
G01 X-0.8130 Y-0.3168
G01 X-0.8307 Y-0.3626
G01 X-0.8648 Y-0.4579
G01 X-0.8802 Y-0.5045
G01 X-0.8947 Y-0.5565
G01 X-0.9193 Y-0.6548
G01 X-0.9301 Y-0.7026
G01 X-0.9394 Y-0.7558
G01 X-0.9543 Y-0.8560
G01 X-0.9603 Y-0.9047
G01 X-0.9644 Y-0.9585
G01 X-0.9694 Y-1.0597
G01 X-0.9703 Y-1.0867
G01 X-0.9706 Y-1.1112
G01 X-0.9706 Y-4.1688
G00 X-0.9706 Y-4.1688
G01 F60.00
G01 Z-1.7000
G01 F120.00
G01 X-0.9706 Y-1.1112
G01 X-0.9703 Y-1.0867
G01 X-0.9694 Y-1.0597
G01 X-0.9644 Y-0.9585
G01 X-0.9603 Y-0.9047
G01 X-0.9543 Y-0.8560
G01 X-0.9394 Y-0.7558
G01 X-0.9301 Y-0.7026
G01 X-0.9193 Y-0.6548
G01 X-0.8947 Y-0.5565
G01 X-0.8802 Y-0.5045
G01 X-0.8648 Y-0.4579
G01 X-0.8307 Y-0.3626
G01 X-0.8130 Y-0.3168
G01 X-0.7913 Y-0.2674
G01 X-0.7480 Y-0.1758
G01 X-0.7236 Y-0.1277
G01 X-0.6994 Y-0.0849
G01 X-0.6473 Y0.0019
G01 X-0.6183 Y0.0475
G01 X-0.5901 Y0.0876
G01 X-0.5298 Y0.1689
G01 X-0.4996 Y0.2076
G01 X-0.4644 Y0.2486
G01 X-0.3964 Y0.3236
G01 X-0.3591 Y0.3626
G01 X-0.3235 Y0.3965
G01 X-0.2485 Y0.4645
G01 X-0.2075 Y0.4997
G01 X-0.1688 Y0.5299
G01 X-0.0875 Y0.5902
G01 X-0.0474 Y0.6184
G01 X-0.0018 Y0.6474
G01 X0.0850 Y0.6995
G01 X0.1321 Y0.7260
G01 X0.1759 Y0.7481
G01 X0.2675 Y0.7914
G01 X0.3169 Y0.8131
G01 X0.3627 Y0.8308
G01 X0.4580 Y0.8649
G01 X0.5046 Y0.8803
G01 X0.5566 Y0.8948
G01 X0.6549 Y0.9194
G01 X0.7076 Y0.9311
G01 X0.7559 Y0.9395
G01 X0.8561 Y0.9544
G01 X0.9097 Y0.9609
G01 X0.9586 Y0.9645
G01 X1.0598 Y0.9695
G01 X1.0843 Y0.9704
G01 X1.1113 Y0.9707
G01 X35.3219 Y0.9706
G01 X35.3459 Y0.9703
G01 X35.3724 Y0.9694
G01 X35.4735 Y0.9645
G01 X35.5279 Y0.9604
G01 X35.5771 Y0.9544
G01 X35.6773 Y0.9395
G01 X35.7305 Y0.9302
G01 X35.7783 Y0.9194
G01 X35.8766 Y0.8948
G01 X35.9286 Y0.8803
G01 X35.9752 Y0.8649
G01 X36.0705 Y0.8308
G01 X36.1209 Y0.8113
G01 X36.1657 Y0.7914
G01 X36.2573 Y0.7481
G01 X36.3011 Y0.7260
G01 X36.3482 Y0.6995
G01 X36.4350 Y0.6474
G01 X36.4806 Y0.6184
G01 X36.5207 Y0.5902
G01 X36.6020 Y0.5299
G01 X36.6445 Y0.4965
G01 X36.6817 Y0.4645
G01 X36.7567 Y0.3965
G01 X36.7957 Y0.3592
G01 X36.8296 Y0.3236
G01 X36.8976 Y0.2486
G01 X36.9328 Y0.2076
G01 X36.9630 Y0.1689
G01 X37.0233 Y0.0876
G01 X37.0515 Y0.0475
G01 X37.0805 Y0.0019
G01 X37.1326 Y-0.0849
G01 X37.1591 Y-0.1320
G01 X37.1812 Y-0.1758
G01 X37.2245 Y-0.2674
G01 X37.2462 Y-0.3168
G01 X37.2639 Y-0.3626
G01 X37.2980 Y-0.4579
G01 X37.3148 Y-0.5092
G01 X37.3279 Y-0.5565
G01 X37.3525 Y-0.6548
G01 X37.3633 Y-0.7026
G01 X37.3726 Y-0.7558
G01 X37.3875 Y-0.8560
G01 X37.3940 Y-0.9096
G01 X37.3976 Y-0.9585
G01 X37.4035 Y-1.0842
G01 X37.4038 Y-1.1112
G01 X37.4038 Y-4.1688
G00 X37.4038 Y-4.1688
G01 F60.00
G01 Z-1.8000
G01 F120.00
G01 X37.4038 Y-1.1112
G01 X37.4035 Y-1.0842
G01 X37.3976 Y-0.9585
G01 X37.3940 Y-0.9096
G01 X37.3875 Y-0.8560
G01 X37.3726 Y-0.7558
G01 X37.3633 Y-0.7026
G01 X37.3525 Y-0.6548
G01 X37.3279 Y-0.5565
G01 X37.3148 Y-0.5092
G01 X37.2980 Y-0.4579
G01 X37.2639 Y-0.3626
G01 X37.2462 Y-0.3168
G01 X37.2245 Y-0.2674
G01 X37.1812 Y-0.1758
G01 X37.1591 Y-0.1320
G01 X37.1326 Y-0.0849
G01 X37.0805 Y0.0019
G01 X37.0515 Y0.0475
G01 X37.0233 Y0.0876
G01 X36.9630 Y0.1689
G01 X36.9328 Y0.2076
G01 X36.8976 Y0.2486
G01 X36.8296 Y0.3236
G01 X36.7957 Y0.3592
G01 X36.7567 Y0.3965
G01 X36.6817 Y0.4645
G01 X36.6445 Y0.4965
G01 X36.6020 Y0.5299
G01 X36.5207 Y0.5902
G01 X36.4806 Y0.6184
G01 X36.4350 Y0.6474
G01 X36.3482 Y0.6995
G01 X36.3011 Y0.7260
G01 X36.2573 Y0.7481
G01 X36.1657 Y0.7914
G01 X36.1209 Y0.8113
G01 X36.0705 Y0.8308
G01 X35.9752 Y0.8649
G01 X35.9286 Y0.8803
G01 X35.8766 Y0.8948
G01 X35.7783 Y0.9194
G01 X35.7305 Y0.9302
G01 X35.6773 Y0.9395
G01 X35.5771 Y0.9544
G01 X35.5279 Y0.9604
G01 X35.4735 Y0.9645
G01 X35.3724 Y0.9694
G01 X35.3459 Y0.9703
G01 X35.3219 Y0.9706
G01 X1.1113 Y0.9707
G01 X1.0843 Y0.9704
G01 X1.0598 Y0.9695
G01 X0.9586 Y0.9645
G01 X0.9097 Y0.9609
G01 X0.8561 Y0.9544
G01 X0.7559 Y0.9395
G01 X0.7076 Y0.9311
G01 X0.6549 Y0.9194
G01 X0.5566 Y0.8948
G01 X0.5046 Y0.8803
G01 X0.4580 Y0.8649
G01 X0.3627 Y0.8308
G01 X0.3169 Y0.8131
G01 X0.2675 Y0.7914
G01 X0.1759 Y0.7481
G01 X0.1321 Y0.7260
G01 X0.0850 Y0.6995
G01 X-0.0018 Y0.6474
G01 X-0.0474 Y0.6184
G01 X-0.0875 Y0.5902
G01 X-0.1688 Y0.5299
G01 X-0.2075 Y0.4997
G01 X-0.2485 Y0.4645
G01 X-0.3235 Y0.3965
G01 X-0.3591 Y0.3626
G01 X-0.3964 Y0.3236
G01 X-0.4644 Y0.2486
G01 X-0.4996 Y0.2076
G01 X-0.5298 Y0.1689
G01 X-0.5901 Y0.0876
G01 X-0.6183 Y0.0475
G01 X-0.6473 Y0.0019
G01 X-0.6994 Y-0.0849
G01 X-0.7236 Y-0.1277
G01 X-0.7480 Y-0.1758
G01 X-0.7913 Y-0.2674
G01 X-0.8130 Y-0.3168
G01 X-0.8307 Y-0.3626
G01 X-0.8648 Y-0.4579
G01 X-0.8802 Y-0.5045
G01 X-0.8947 Y-0.5565
G01 X-0.9193 Y-0.6548
G01 X-0.9301 Y-0.7026
G01 X-0.9394 Y-0.7558
G01 X-0.9543 Y-0.8560
G01 X-0.9603 Y-0.9047
G01 X-0.9644 Y-0.9585
G01 X-0.9694 Y-1.0597
G01 X-0.9703 Y-1.0867
G01 X-0.9706 Y-1.1112
G01 X-0.9706 Y-4.1688
G00 X-0.9706 Y-4.1688
G01 F60.00
G01 Z-1.9000
G01 F120.00
G01 X-0.9706 Y-1.1112
G01 X-0.9703 Y-1.0867
G01 X-0.9694 Y-1.0597
G01 X-0.9644 Y-0.9585
G01 X-0.9603 Y-0.9047
G01 X-0.9543 Y-0.8560
G01 X-0.9394 Y-0.7558
G01 X-0.9301 Y-0.7026
G01 X-0.9193 Y-0.6548
G01 X-0.8947 Y-0.5565
G01 X-0.8802 Y-0.5045
G01 X-0.8648 Y-0.4579
G01 X-0.8307 Y-0.3626
G01 X-0.8130 Y-0.3168
G01 X-0.7913 Y-0.2674
G01 X-0.7480 Y-0.1758
G01 X-0.7236 Y-0.1277
G01 X-0.6994 Y-0.0849
G01 X-0.6473 Y0.0019
G01 X-0.6183 Y0.0475
G01 X-0.5901 Y0.0876
G01 X-0.5298 Y0.1689
G01 X-0.4996 Y0.2076
G01 X-0.4644 Y0.2486
G01 X-0.3964 Y0.3236
G01 X-0.3591 Y0.3626
G01 X-0.3235 Y0.3965
G01 X-0.2485 Y0.4645
G01 X-0.2075 Y0.4997
G01 X-0.1688 Y0.5299
G01 X-0.0875 Y0.5902
G01 X-0.0474 Y0.6184
G01 X-0.0018 Y0.6474
G01 X0.0850 Y0.6995
G01 X0.1321 Y0.7260
G01 X0.1759 Y0.7481
G01 X0.2675 Y0.7914
G01 X0.3169 Y0.8131
G01 X0.3627 Y0.8308
G01 X0.4580 Y0.8649
G01 X0.5046 Y0.8803
G01 X0.5566 Y0.8948
G01 X0.6549 Y0.9194
G01 X0.7076 Y0.9311
G01 X0.7559 Y0.9395
G01 X0.8561 Y0.9544
G01 X0.9097 Y0.9609
G01 X0.9586 Y0.9645
G01 X1.0598 Y0.9695
G01 X1.0843 Y0.9704
G01 X1.1113 Y0.9707
G01 X35.3219 Y0.9706
G01 X35.3459 Y0.9703
G01 X35.3724 Y0.9694
G01 X35.4735 Y0.9645
G01 X35.5279 Y0.9604
G01 X35.5771 Y0.9544
G01 X35.6773 Y0.9395
G01 X35.7305 Y0.9302
G01 X35.7783 Y0.9194
G01 X35.8766 Y0.8948
G01 X35.9286 Y0.8803
G01 X35.9752 Y0.8649
G01 X36.0705 Y0.8308
G01 X36.1209 Y0.8113
G01 X36.1657 Y0.7914
G01 X36.2573 Y0.7481
G01 X36.3011 Y0.7260
G01 X36.3482 Y0.6995
G01 X36.4350 Y0.6474
G01 X36.4806 Y0.6184
G01 X36.5207 Y0.5902
G01 X36.6020 Y0.5299
G01 X36.6445 Y0.4965
G01 X36.6817 Y0.4645
G01 X36.7567 Y0.3965
G01 X36.7957 Y0.3592
G01 X36.8296 Y0.3236
G01 X36.8976 Y0.2486
G01 X36.9328 Y0.2076
G01 X36.9630 Y0.1689
G01 X37.0233 Y0.0876
G01 X37.0515 Y0.0475
G01 X37.0805 Y0.0019
G01 X37.1326 Y-0.0849
G01 X37.1591 Y-0.1320
G01 X37.1812 Y-0.1758
G01 X37.2245 Y-0.2674
G01 X37.2462 Y-0.3168
G01 X37.2639 Y-0.3626
G01 X37.2980 Y-0.4579
G01 X37.3148 Y-0.5092
G01 X37.3279 Y-0.5565
G01 X37.3525 Y-0.6548
G01 X37.3633 Y-0.7026
G01 X37.3726 Y-0.7558
G01 X37.3875 Y-0.8560
G01 X37.3940 Y-0.9096
G01 X37.3976 Y-0.9585
G01 X37.4035 Y-1.0842
G01 X37.4038 Y-1.1112
G01 X37.4038 Y-4.1688
G00 X37.4038 Y-4.1688
G01 F60.00
G01 Z-2.0000
G01 F120.00
G01 X37.4038 Y-1.1112
G01 X37.4035 Y-1.0842
G01 X37.3976 Y-0.9585
G01 X37.3940 Y-0.9096
G01 X37.3875 Y-0.8560
G01 X37.3726 Y-0.7558
G01 X37.3633 Y-0.7026
G01 X37.3525 Y-0.6548
G01 X37.3279 Y-0.5565
G01 X37.3148 Y-0.5092
G01 X37.2980 Y-0.4579
G01 X37.2639 Y-0.3626
G01 X37.2462 Y-0.3168
G01 X37.2245 Y-0.2674
G01 X37.1812 Y-0.1758
G01 X37.1591 Y-0.1320
G01 X37.1326 Y-0.0849
G01 X37.0805 Y0.0019
G01 X37.0515 Y0.0475
G01 X37.0233 Y0.0876
G01 X36.9630 Y0.1689
G01 X36.9328 Y0.2076
G01 X36.8976 Y0.2486
G01 X36.8296 Y0.3236
G01 X36.7957 Y0.3592
G01 X36.7567 Y0.3965
G01 X36.6817 Y0.4645
G01 X36.6445 Y0.4965
G01 X36.6020 Y0.5299
G01 X36.5207 Y0.5902
G01 X36.4806 Y0.6184
G01 X36.4350 Y0.6474
G01 X36.3482 Y0.6995
G01 X36.3011 Y0.7260
G01 X36.2573 Y0.7481
G01 X36.1657 Y0.7914
G01 X36.1209 Y0.8113
G01 X36.0705 Y0.8308
G01 X35.9752 Y0.8649
G01 X35.9286 Y0.8803
G01 X35.8766 Y0.8948
G01 X35.7783 Y0.9194
G01 X35.7305 Y0.9302
G01 X35.6773 Y0.9395
G01 X35.5771 Y0.9544
G01 X35.5279 Y0.9604
G01 X35.4735 Y0.9645
G01 X35.3724 Y0.9694
G01 X35.3459 Y0.9703
G01 X35.3219 Y0.9706
G01 X1.1113 Y0.9707
G01 X1.0843 Y0.9704
G01 X1.0598 Y0.9695
G01 X0.9586 Y0.9645
G01 X0.9097 Y0.9609
G01 X0.8561 Y0.9544
G01 X0.7559 Y0.9395
G01 X0.7076 Y0.9311
G01 X0.6549 Y0.9194
G01 X0.5566 Y0.8948
G01 X0.5046 Y0.8803
G01 X0.4580 Y0.8649
G01 X0.3627 Y0.8308
G01 X0.3169 Y0.8131
G01 X0.2675 Y0.7914
G01 X0.1759 Y0.7481
G01 X0.1321 Y0.7260
G01 X0.0850 Y0.6995
G01 X-0.0018 Y0.6474
G01 X-0.0474 Y0.6184
G01 X-0.0875 Y0.5902
G01 X-0.1688 Y0.5299
G01 X-0.2075 Y0.4997
G01 X-0.2485 Y0.4645
G01 X-0.3235 Y0.3965
G01 X-0.3591 Y0.3626
G01 X-0.3964 Y0.3236
G01 X-0.4644 Y0.2486
G01 X-0.4996 Y0.2076
G01 X-0.5298 Y0.1689
G01 X-0.5901 Y0.0876
G01 X-0.6183 Y0.0475
G01 X-0.6473 Y0.0019
G01 X-0.6994 Y-0.0849
G01 X-0.7236 Y-0.1277
G01 X-0.7480 Y-0.1758
G01 X-0.7913 Y-0.2674
G01 X-0.8130 Y-0.3168
G01 X-0.8307 Y-0.3626
G01 X-0.8648 Y-0.4579
G01 X-0.8802 Y-0.5045
G01 X-0.8947 Y-0.5565
G01 X-0.9193 Y-0.6548
G01 X-0.9301 Y-0.7026
G01 X-0.9394 Y-0.7558
G01 X-0.9543 Y-0.8560
G01 X-0.9603 Y-0.9047
G01 X-0.9644 Y-0.9585
G01 X-0.9694 Y-1.0597
G01 X-0.9703 Y-1.0867
G01 X-0.9706 Y-1.1112
G01 X-0.9706 Y-4.1688
G00 Z2.0000
G00 X37.4038 Y-6.3088
G01 F60.00
G01 Z-0.1000
G01 F120.00
G01 X37.4038 Y-9.3662
G01 X37.4035 Y-9.3927
G01 X37.3977 Y-9.5178
G01 X37.3941 Y-9.5673
G01 X37.3876 Y-9.6214
G01 X37.3727 Y-9.7216
G01 X37.3634 Y-9.7748
G01 X37.3526 Y-9.8227
G01 X37.3280 Y-9.9209
G01 X37.3149 Y-9.9682
G01 X37.2981 Y-10.0195
G01 X37.2640 Y-10.1149
G01 X37.2444 Y-10.1652
G01 X37.2246 Y-10.2101
G01 X37.1813 Y-10.3016
G01 X37.1569 Y-10.3498
G01 X37.1327 Y-10.3925
G01 X37.0806 Y-10.4794
G01 X37.0516 Y-10.5249
G01 X37.0234 Y-10.5650
G01 X36.9630 Y-10.6464
G01 X36.9328 Y-10.6851
G01 X36.8977 Y-10.7260
G01 X36.8297 Y-10.8011
G01 X36.7923 Y-10.8401
G01 X36.7568 Y-10.8740
G01 X36.6817 Y-10.9420
G01 X36.6408 Y-10.9771
G01 X36.6021 Y-11.0073
G01 X36.5207 Y-11.0677
G01 X36.4765 Y-11.0987
G01 X36.4351 Y-11.1249
G01 X36.3482 Y-11.1770
G01 X36.3012 Y-11.2035
G01 X36.2573 Y-11.2256
G01 X36.1658 Y-11.2689
G01 X36.1209 Y-11.2887
G01 X36.0706 Y-11.3083
G01 X35.9752 Y-11.3424
G01 X35.9239 Y-11.3592
G01 X35.8766 Y-11.3723
G01 X35.7784 Y-11.3969
G01 X35.7257 Y-11.4086
G01 X35.6773 Y-11.4170
G01 X35.5771 Y-11.4319
G01 X35.5235 Y-11.4384
G01 X35.4746 Y-11.4420
G01 X35.3734 Y-11.4470
G01 X35.3489 Y-11.4479
G01 X35.3219 Y-11.4482
G01 X1.1112 Y-11.4482
G01 X1.0831 Y-11.4478
G01 X1.0576 Y-11.4469
G01 X0.9565 Y-11.4417
G01 X0.9085 Y-11.4381
G01 X0.8560 Y-11.4317
G01 X0.7558 Y-11.4168
G01 X0.7027 Y-11.4075
G01 X0.6548 Y-11.3967
G01 X0.5565 Y-11.3721
G01 X0.5045 Y-11.3576
G01 X0.4579 Y-11.3422
G01 X0.3626 Y-11.3081
G01 X0.3168 Y-11.2904
G01 X0.2674 Y-11.2687
G01 X0.1759 Y-11.2254
G01 X0.1277 Y-11.2010
G01 X0.0850 Y-11.1768
G01 X-0.0019 Y-11.1247
G01 X-0.0474 Y-11.0958
G01 X-0.0875 Y-11.0675
G01 X-0.1689 Y-11.0072
G01 X-0.2076 Y-10.9770
G01 X-0.2485 Y-10.9418
G01 X-0.3235 Y-10.8738
G01 X-0.3626 Y-10.8365
G01 X-0.3964 Y-10.8009
G01 X-0.4644 Y-10.7259
G01 X-0.4996 Y-10.6850
G01 X-0.5298 Y-10.6463
G01 X-0.5901 Y-10.5649
G01 X-0.6184 Y-10.5248
G01 X-0.6473 Y-10.4793
G01 X-0.6994 Y-10.3924
G01 X-0.7259 Y-10.3454
G01 X-0.7480 Y-10.3015
G01 X-0.7913 Y-10.2100
G01 X-0.8130 Y-10.1606
G01 X-0.8307 Y-10.1148
G01 X-0.8648 Y-10.0195
G01 X-0.8816 Y-9.9682
G01 X-0.8947 Y-9.9209
G01 X-0.9193 Y-9.8226
G01 X-0.9301 Y-9.7747
G01 X-0.9394 Y-9.7216
G01 X-0.9543 Y-9.6214
G01 X-0.9603 Y-9.5727
G01 X-0.9644 Y-9.5189
G01 X-0.9694 Y-9.4177
G01 X-0.9706 Y-9.3662
G01 X-0.9706 Y-6.3088
G00 X-0.9706 Y-6.3088
G01 F60.00
G01 Z-0.2000
G01 F120.00
G01 X-0.9706 Y-9.3662
G01 X-0.9694 Y-9.4177
G01 X-0.9644 Y-9.5189
G01 X-0.9603 Y-9.5727
G01 X-0.9543 Y-9.6214
G01 X-0.9394 Y-9.7216
G01 X-0.9301 Y-9.7747
G01 X-0.9193 Y-9.8226
G01 X-0.8947 Y-9.9209
G01 X-0.8816 Y-9.9682
G01 X-0.8648 Y-10.0195
G01 X-0.8307 Y-10.1148
G01 X-0.8130 Y-10.1606
G01 X-0.7913 Y-10.2100
G01 X-0.7480 Y-10.3015
G01 X-0.7259 Y-10.3454
G01 X-0.6994 Y-10.3924
G01 X-0.6473 Y-10.4793
G01 X-0.6184 Y-10.5248
G01 X-0.5901 Y-10.5649
G01 X-0.5298 Y-10.6463
G01 X-0.4996 Y-10.6850
G01 X-0.4644 Y-10.7259
G01 X-0.3964 Y-10.8009
G01 X-0.3626 Y-10.8365
G01 X-0.3235 Y-10.8738
G01 X-0.2485 Y-10.9418
G01 X-0.2076 Y-10.9770
G01 X-0.1689 Y-11.0072
G01 X-0.0875 Y-11.0675
G01 X-0.0474 Y-11.0958
G01 X-0.0019 Y-11.1247
G01 X0.0850 Y-11.1768
G01 X0.1277 Y-11.2010
G01 X0.1759 Y-11.2254
G01 X0.2674 Y-11.2687
G01 X0.3168 Y-11.2904
G01 X0.3626 Y-11.3081
G01 X0.4579 Y-11.3422
G01 X0.5045 Y-11.3576
G01 X0.5565 Y-11.3721
G01 X0.6548 Y-11.3967
G01 X0.7027 Y-11.4075
G01 X0.7558 Y-11.4168
G01 X0.8560 Y-11.4317
G01 X0.9085 Y-11.4381
G01 X0.9565 Y-11.4417
G01 X1.0576 Y-11.4469
G01 X1.0831 Y-11.4478
G01 X1.1112 Y-11.4482
G01 X35.3219 Y-11.4482
G01 X35.3489 Y-11.4479
G01 X35.3734 Y-11.4470
G01 X35.4746 Y-11.4420
G01 X35.5235 Y-11.4384
G01 X35.5771 Y-11.4319
G01 X35.6773 Y-11.4170
G01 X35.7257 Y-11.4086
G01 X35.7784 Y-11.3969
G01 X35.8766 Y-11.3723
G01 X35.9239 Y-11.3592
G01 X35.9752 Y-11.3424
G01 X36.0706 Y-11.3083
G01 X36.1209 Y-11.2887
G01 X36.1658 Y-11.2689
G01 X36.2573 Y-11.2256
G01 X36.3012 Y-11.2035
G01 X36.3482 Y-11.1770
G01 X36.4351 Y-11.1249
G01 X36.4765 Y-11.0987
G01 X36.5207 Y-11.0677
G01 X36.6021 Y-11.0073
G01 X36.6408 Y-10.9771
G01 X36.6817 Y-10.9420
G01 X36.7568 Y-10.8740
G01 X36.7923 Y-10.8401
G01 X36.8297 Y-10.8011
G01 X36.8977 Y-10.7260
G01 X36.9328 Y-10.6851
G01 X36.9630 Y-10.6464
G01 X37.0234 Y-10.5650
G01 X37.0516 Y-10.5249
G01 X37.0806 Y-10.4794
G01 X37.1327 Y-10.3925
G01 X37.1569 Y-10.3498
G01 X37.1813 Y-10.3016
G01 X37.2246 Y-10.2101
G01 X37.2444 Y-10.1652
G01 X37.2640 Y-10.1149
G01 X37.2981 Y-10.0195
G01 X37.3149 Y-9.9682
G01 X37.3280 Y-9.9209
G01 X37.3526 Y-9.8227
G01 X37.3634 Y-9.7748
G01 X37.3727 Y-9.7216
G01 X37.3876 Y-9.6214
G01 X37.3941 Y-9.5673
G01 X37.3977 Y-9.5178
G01 X37.4035 Y-9.3927
G01 X37.4038 Y-9.3662
G01 X37.4038 Y-6.3088
G00 X37.4038 Y-6.3088
G01 F60.00
G01 Z-0.3000
G01 F120.00
G01 X37.4038 Y-9.3662
G01 X37.4035 Y-9.3927
G01 X37.3977 Y-9.5178
G01 X37.3941 Y-9.5673
G01 X37.3876 Y-9.6214
G01 X37.3727 Y-9.7216
G01 X37.3634 Y-9.7748
G01 X37.3526 Y-9.8227
G01 X37.3280 Y-9.9209
G01 X37.3149 Y-9.9682
G01 X37.2981 Y-10.0195
G01 X37.2640 Y-10.1149
G01 X37.2444 Y-10.1652
G01 X37.2246 Y-10.2101
G01 X37.1813 Y-10.3016
G01 X37.1569 Y-10.3498
G01 X37.1327 Y-10.3925
G01 X37.0806 Y-10.4794
G01 X37.0516 Y-10.5249
G01 X37.0234 Y-10.5650
G01 X36.9630 Y-10.6464
G01 X36.9328 Y-10.6851
G01 X36.8977 Y-10.7260
G01 X36.8297 Y-10.8011
G01 X36.7923 Y-10.8401
G01 X36.7568 Y-10.8740
G01 X36.6817 Y-10.9420
G01 X36.6408 Y-10.9771
G01 X36.6021 Y-11.0073
G01 X36.5207 Y-11.0677
G01 X36.4765 Y-11.0987
G01 X36.4351 Y-11.1249
G01 X36.3482 Y-11.1770
G01 X36.3012 Y-11.2035
G01 X36.2573 Y-11.2256
G01 X36.1658 Y-11.2689
G01 X36.1209 Y-11.2887
G01 X36.0706 Y-11.3083
G01 X35.9752 Y-11.3424
G01 X35.9239 Y-11.3592
G01 X35.8766 Y-11.3723
G01 X35.7784 Y-11.3969
G01 X35.7257 Y-11.4086
G01 X35.6773 Y-11.4170
G01 X35.5771 Y-11.4319
G01 X35.5235 Y-11.4384
G01 X35.4746 Y-11.4420
G01 X35.3734 Y-11.4470
G01 X35.3489 Y-11.4479
G01 X35.3219 Y-11.4482
G01 X1.1112 Y-11.4482
G01 X1.0831 Y-11.4478
G01 X1.0576 Y-11.4469
G01 X0.9565 Y-11.4417
G01 X0.9085 Y-11.4381
G01 X0.8560 Y-11.4317
G01 X0.7558 Y-11.4168
G01 X0.7027 Y-11.4075
G01 X0.6548 Y-11.3967
G01 X0.5565 Y-11.3721
G01 X0.5045 Y-11.3576
G01 X0.4579 Y-11.3422
G01 X0.3626 Y-11.3081
G01 X0.3168 Y-11.2904
G01 X0.2674 Y-11.2687
G01 X0.1759 Y-11.2254
G01 X0.1277 Y-11.2010
G01 X0.0850 Y-11.1768
G01 X-0.0019 Y-11.1247
G01 X-0.0474 Y-11.0958
G01 X-0.0875 Y-11.0675
G01 X-0.1689 Y-11.0072
G01 X-0.2076 Y-10.9770
G01 X-0.2485 Y-10.9418
G01 X-0.3235 Y-10.8738
G01 X-0.3626 Y-10.8365
G01 X-0.3964 Y-10.8009
G01 X-0.4644 Y-10.7259
G01 X-0.4996 Y-10.6850
G01 X-0.5298 Y-10.6463
G01 X-0.5901 Y-10.5649
G01 X-0.6184 Y-10.5248
G01 X-0.6473 Y-10.4793
G01 X-0.6994 Y-10.3924
G01 X-0.7259 Y-10.3454
G01 X-0.7480 Y-10.3015
G01 X-0.7913 Y-10.2100
G01 X-0.8130 Y-10.1606
G01 X-0.8307 Y-10.1148
G01 X-0.8648 Y-10.0195
G01 X-0.8816 Y-9.9682
G01 X-0.8947 Y-9.9209
G01 X-0.9193 Y-9.8226
G01 X-0.9301 Y-9.7747
G01 X-0.9394 Y-9.7216
G01 X-0.9543 Y-9.6214
G01 X-0.9603 Y-9.5727
G01 X-0.9644 Y-9.5189
G01 X-0.9694 Y-9.4177
G01 X-0.9706 Y-9.3662
G01 X-0.9706 Y-6.3088
G00 X-0.9706 Y-6.3088
G01 F60.00
G01 Z-0.4000
G01 F120.00
G01 X-0.9706 Y-9.3662
G01 X-0.9694 Y-9.4177
G01 X-0.9644 Y-9.5189
G01 X-0.9603 Y-9.5727
G01 X-0.9543 Y-9.6214
G01 X-0.9394 Y-9.7216
G01 X-0.9301 Y-9.7747
G01 X-0.9193 Y-9.8226
G01 X-0.8947 Y-9.9209
G01 X-0.8816 Y-9.9682
G01 X-0.8648 Y-10.0195
G01 X-0.8307 Y-10.1148
G01 X-0.8130 Y-10.1606
G01 X-0.7913 Y-10.2100
G01 X-0.7480 Y-10.3015
G01 X-0.7259 Y-10.3454
G01 X-0.6994 Y-10.3924
G01 X-0.6473 Y-10.4793
G01 X-0.6184 Y-10.5248
G01 X-0.5901 Y-10.5649
G01 X-0.5298 Y-10.6463
G01 X-0.4996 Y-10.6850
G01 X-0.4644 Y-10.7259
G01 X-0.3964 Y-10.8009
G01 X-0.3626 Y-10.8365
G01 X-0.3235 Y-10.8738
G01 X-0.2485 Y-10.9418
G01 X-0.2076 Y-10.9770
G01 X-0.1689 Y-11.0072
G01 X-0.0875 Y-11.0675
G01 X-0.0474 Y-11.0958
G01 X-0.0019 Y-11.1247
G01 X0.0850 Y-11.1768
G01 X0.1277 Y-11.2010
G01 X0.1759 Y-11.2254
G01 X0.2674 Y-11.2687
G01 X0.3168 Y-11.2904
G01 X0.3626 Y-11.3081
G01 X0.4579 Y-11.3422
G01 X0.5045 Y-11.3576
G01 X0.5565 Y-11.3721
G01 X0.6548 Y-11.3967
G01 X0.7027 Y-11.4075
G01 X0.7558 Y-11.4168
G01 X0.8560 Y-11.4317
G01 X0.9085 Y-11.4381
G01 X0.9565 Y-11.4417
G01 X1.0576 Y-11.4469
G01 X1.0831 Y-11.4478
G01 X1.1112 Y-11.4482
G01 X35.3219 Y-11.4482
G01 X35.3489 Y-11.4479
G01 X35.3734 Y-11.4470
G01 X35.4746 Y-11.4420
G01 X35.5235 Y-11.4384
G01 X35.5771 Y-11.4319
G01 X35.6773 Y-11.4170
G01 X35.7257 Y-11.4086
G01 X35.7784 Y-11.3969
G01 X35.8766 Y-11.3723
G01 X35.9239 Y-11.3592
G01 X35.9752 Y-11.3424
G01 X36.0706 Y-11.3083
G01 X36.1209 Y-11.2887
G01 X36.1658 Y-11.2689
G01 X36.2573 Y-11.2256
G01 X36.3012 Y-11.2035
G01 X36.3482 Y-11.1770
G01 X36.4351 Y-11.1249
G01 X36.4765 Y-11.0987
G01 X36.5207 Y-11.0677
G01 X36.6021 Y-11.0073
G01 X36.6408 Y-10.9771
G01 X36.6817 Y-10.9420
G01 X36.7568 Y-10.8740
G01 X36.7923 Y-10.8401
G01 X36.8297 Y-10.8011
G01 X36.8977 Y-10.7260
G01 X36.9328 Y-10.6851
G01 X36.9630 Y-10.6464
G01 X37.0234 Y-10.5650
G01 X37.0516 Y-10.5249
G01 X37.0806 Y-10.4794
G01 X37.1327 Y-10.3925
G01 X37.1569 Y-10.3498
G01 X37.1813 Y-10.3016
G01 X37.2246 Y-10.2101
G01 X37.2444 Y-10.1652
G01 X37.2640 Y-10.1149
G01 X37.2981 Y-10.0195
G01 X37.3149 Y-9.9682
G01 X37.3280 Y-9.9209
G01 X37.3526 Y-9.8227
G01 X37.3634 Y-9.7748
G01 X37.3727 Y-9.7216
G01 X37.3876 Y-9.6214
G01 X37.3941 Y-9.5673
G01 X37.3977 Y-9.5178
G01 X37.4035 Y-9.3927
G01 X37.4038 Y-9.3662
G01 X37.4038 Y-6.3088
G00 X37.4038 Y-6.3088
G01 F60.00
G01 Z-0.5000
G01 F120.00
G01 X37.4038 Y-9.3662
G01 X37.4035 Y-9.3927
G01 X37.3977 Y-9.5178
G01 X37.3941 Y-9.5673
G01 X37.3876 Y-9.6214
G01 X37.3727 Y-9.7216
G01 X37.3634 Y-9.7748
G01 X37.3526 Y-9.8227
G01 X37.3280 Y-9.9209
G01 X37.3149 Y-9.9682
G01 X37.2981 Y-10.0195
G01 X37.2640 Y-10.1149
G01 X37.2444 Y-10.1652
G01 X37.2246 Y-10.2101
G01 X37.1813 Y-10.3016
G01 X37.1569 Y-10.3498
G01 X37.1327 Y-10.3925
G01 X37.0806 Y-10.4794
G01 X37.0516 Y-10.5249
G01 X37.0234 Y-10.5650
G01 X36.9630 Y-10.6464
G01 X36.9328 Y-10.6851
G01 X36.8977 Y-10.7260
G01 X36.8297 Y-10.8011
G01 X36.7923 Y-10.8401
G01 X36.7568 Y-10.8740
G01 X36.6817 Y-10.9420
G01 X36.6408 Y-10.9771
G01 X36.6021 Y-11.0073
G01 X36.5207 Y-11.0677
G01 X36.4765 Y-11.0987
G01 X36.4351 Y-11.1249
G01 X36.3482 Y-11.1770
G01 X36.3012 Y-11.2035
G01 X36.2573 Y-11.2256
G01 X36.1658 Y-11.2689
G01 X36.1209 Y-11.2887
G01 X36.0706 Y-11.3083
G01 X35.9752 Y-11.3424
G01 X35.9239 Y-11.3592
G01 X35.8766 Y-11.3723
G01 X35.7784 Y-11.3969
G01 X35.7257 Y-11.4086
G01 X35.6773 Y-11.4170
G01 X35.5771 Y-11.4319
G01 X35.5235 Y-11.4384
G01 X35.4746 Y-11.4420
G01 X35.3734 Y-11.4470
G01 X35.3489 Y-11.4479
G01 X35.3219 Y-11.4482
G01 X1.1112 Y-11.4482
G01 X1.0831 Y-11.4478
G01 X1.0576 Y-11.4469
G01 X0.9565 Y-11.4417
G01 X0.9085 Y-11.4381
G01 X0.8560 Y-11.4317
G01 X0.7558 Y-11.4168
G01 X0.7027 Y-11.4075
G01 X0.6548 Y-11.3967
G01 X0.5565 Y-11.3721
G01 X0.5045 Y-11.3576
G01 X0.4579 Y-11.3422
G01 X0.3626 Y-11.3081
G01 X0.3168 Y-11.2904
G01 X0.2674 Y-11.2687
G01 X0.1759 Y-11.2254
G01 X0.1277 Y-11.2010
G01 X0.0850 Y-11.1768
G01 X-0.0019 Y-11.1247
G01 X-0.0474 Y-11.0958
G01 X-0.0875 Y-11.0675
G01 X-0.1689 Y-11.0072
G01 X-0.2076 Y-10.9770
G01 X-0.2485 Y-10.9418
G01 X-0.3235 Y-10.8738
G01 X-0.3626 Y-10.8365
G01 X-0.3964 Y-10.8009
G01 X-0.4644 Y-10.7259
G01 X-0.4996 Y-10.6850
G01 X-0.5298 Y-10.6463
G01 X-0.5901 Y-10.5649
G01 X-0.6184 Y-10.5248
G01 X-0.6473 Y-10.4793
G01 X-0.6994 Y-10.3924
G01 X-0.7259 Y-10.3454
G01 X-0.7480 Y-10.3015
G01 X-0.7913 Y-10.2100
G01 X-0.8130 Y-10.1606
G01 X-0.8307 Y-10.1148
G01 X-0.8648 Y-10.0195
G01 X-0.8816 Y-9.9682
G01 X-0.8947 Y-9.9209
G01 X-0.9193 Y-9.8226
G01 X-0.9301 Y-9.7747
G01 X-0.9394 Y-9.7216
G01 X-0.9543 Y-9.6214
G01 X-0.9603 Y-9.5727
G01 X-0.9644 Y-9.5189
G01 X-0.9694 Y-9.4177
G01 X-0.9706 Y-9.3662
G01 X-0.9706 Y-6.3088
G00 X-0.9706 Y-6.3088
G01 F60.00
G01 Z-0.6000
G01 F120.00
G01 X-0.9706 Y-9.3662
G01 X-0.9694 Y-9.4177
G01 X-0.9644 Y-9.5189
G01 X-0.9603 Y-9.5727
G01 X-0.9543 Y-9.6214
G01 X-0.9394 Y-9.7216
G01 X-0.9301 Y-9.7747
G01 X-0.9193 Y-9.8226
G01 X-0.8947 Y-9.9209
G01 X-0.8816 Y-9.9682
G01 X-0.8648 Y-10.0195
G01 X-0.8307 Y-10.1148
G01 X-0.8130 Y-10.1606
G01 X-0.7913 Y-10.2100
G01 X-0.7480 Y-10.3015
G01 X-0.7259 Y-10.3454
G01 X-0.6994 Y-10.3924
G01 X-0.6473 Y-10.4793
G01 X-0.6184 Y-10.5248
G01 X-0.5901 Y-10.5649
G01 X-0.5298 Y-10.6463
G01 X-0.4996 Y-10.6850
G01 X-0.4644 Y-10.7259
G01 X-0.3964 Y-10.8009
G01 X-0.3626 Y-10.8365
G01 X-0.3235 Y-10.8738
G01 X-0.2485 Y-10.9418
G01 X-0.2076 Y-10.9770
G01 X-0.1689 Y-11.0072
G01 X-0.0875 Y-11.0675
G01 X-0.0474 Y-11.0958
G01 X-0.0019 Y-11.1247
G01 X0.0850 Y-11.1768
G01 X0.1277 Y-11.2010
G01 X0.1759 Y-11.2254
G01 X0.2674 Y-11.2687
G01 X0.3168 Y-11.2904
G01 X0.3626 Y-11.3081
G01 X0.4579 Y-11.3422
G01 X0.5045 Y-11.3576
G01 X0.5565 Y-11.3721
G01 X0.6548 Y-11.3967
G01 X0.7027 Y-11.4075
G01 X0.7558 Y-11.4168
G01 X0.8560 Y-11.4317
G01 X0.9085 Y-11.4381
G01 X0.9565 Y-11.4417
G01 X1.0576 Y-11.4469
G01 X1.0831 Y-11.4478
G01 X1.1112 Y-11.4482
G01 X35.3219 Y-11.4482
G01 X35.3489 Y-11.4479
G01 X35.3734 Y-11.4470
G01 X35.4746 Y-11.4420
G01 X35.5235 Y-11.4384
G01 X35.5771 Y-11.4319
G01 X35.6773 Y-11.4170
G01 X35.7257 Y-11.4086
G01 X35.7784 Y-11.3969
G01 X35.8766 Y-11.3723
G01 X35.9239 Y-11.3592
G01 X35.9752 Y-11.3424
G01 X36.0706 Y-11.3083
G01 X36.1209 Y-11.2887
G01 X36.1658 Y-11.2689
G01 X36.2573 Y-11.2256
G01 X36.3012 Y-11.2035
G01 X36.3482 Y-11.1770
G01 X36.4351 Y-11.1249
G01 X36.4765 Y-11.0987
G01 X36.5207 Y-11.0677
G01 X36.6021 Y-11.0073
G01 X36.6408 Y-10.9771
G01 X36.6817 Y-10.9420
G01 X36.7568 Y-10.8740
G01 X36.7923 Y-10.8401
G01 X36.8297 Y-10.8011
G01 X36.8977 Y-10.7260
G01 X36.9328 Y-10.6851
G01 X36.9630 Y-10.6464
G01 X37.0234 Y-10.5650
G01 X37.0516 Y-10.5249
G01 X37.0806 Y-10.4794
G01 X37.1327 Y-10.3925
G01 X37.1569 Y-10.3498
G01 X37.1813 Y-10.3016
G01 X37.2246 Y-10.2101
G01 X37.2444 Y-10.1652
G01 X37.2640 Y-10.1149
G01 X37.2981 Y-10.0195
G01 X37.3149 Y-9.9682
G01 X37.3280 Y-9.9209
G01 X37.3526 Y-9.8227
G01 X37.3634 Y-9.7748
G01 X37.3727 Y-9.7216
G01 X37.3876 Y-9.6214
G01 X37.3941 Y-9.5673
G01 X37.3977 Y-9.5178
G01 X37.4035 Y-9.3927
G01 X37.4038 Y-9.3662
G01 X37.4038 Y-6.3088
G00 X37.4038 Y-6.3088
G01 F60.00
G01 Z-0.7000
G01 F120.00
G01 X37.4038 Y-9.3662
G01 X37.4035 Y-9.3927
G01 X37.3977 Y-9.5178
G01 X37.3941 Y-9.5673
G01 X37.3876 Y-9.6214
G01 X37.3727 Y-9.7216
G01 X37.3634 Y-9.7748
G01 X37.3526 Y-9.8227
G01 X37.3280 Y-9.9209
G01 X37.3149 Y-9.9682
G01 X37.2981 Y-10.0195
G01 X37.2640 Y-10.1149
G01 X37.2444 Y-10.1652
G01 X37.2246 Y-10.2101
G01 X37.1813 Y-10.3016
G01 X37.1569 Y-10.3498
G01 X37.1327 Y-10.3925
G01 X37.0806 Y-10.4794
G01 X37.0516 Y-10.5249
G01 X37.0234 Y-10.5650
G01 X36.9630 Y-10.6464
G01 X36.9328 Y-10.6851
G01 X36.8977 Y-10.7260
G01 X36.8297 Y-10.8011
G01 X36.7923 Y-10.8401
G01 X36.7568 Y-10.8740
G01 X36.6817 Y-10.9420
G01 X36.6408 Y-10.9771
G01 X36.6021 Y-11.0073
G01 X36.5207 Y-11.0677
G01 X36.4765 Y-11.0987
G01 X36.4351 Y-11.1249
G01 X36.3482 Y-11.1770
G01 X36.3012 Y-11.2035
G01 X36.2573 Y-11.2256
G01 X36.1658 Y-11.2689
G01 X36.1209 Y-11.2887
G01 X36.0706 Y-11.3083
G01 X35.9752 Y-11.3424
G01 X35.9239 Y-11.3592
G01 X35.8766 Y-11.3723
G01 X35.7784 Y-11.3969
G01 X35.7257 Y-11.4086
G01 X35.6773 Y-11.4170
G01 X35.5771 Y-11.4319
G01 X35.5235 Y-11.4384
G01 X35.4746 Y-11.4420
G01 X35.3734 Y-11.4470
G01 X35.3489 Y-11.4479
G01 X35.3219 Y-11.4482
G01 X1.1112 Y-11.4482
G01 X1.0831 Y-11.4478
G01 X1.0576 Y-11.4469
G01 X0.9565 Y-11.4417
G01 X0.9085 Y-11.4381
G01 X0.8560 Y-11.4317
G01 X0.7558 Y-11.4168
G01 X0.7027 Y-11.4075
G01 X0.6548 Y-11.3967
G01 X0.5565 Y-11.3721
G01 X0.5045 Y-11.3576
G01 X0.4579 Y-11.3422
G01 X0.3626 Y-11.3081
G01 X0.3168 Y-11.2904
G01 X0.2674 Y-11.2687
G01 X0.1759 Y-11.2254
G01 X0.1277 Y-11.2010
G01 X0.0850 Y-11.1768
G01 X-0.0019 Y-11.1247
G01 X-0.0474 Y-11.0958
G01 X-0.0875 Y-11.0675
G01 X-0.1689 Y-11.0072
G01 X-0.2076 Y-10.9770
G01 X-0.2485 Y-10.9418
G01 X-0.3235 Y-10.8738
G01 X-0.3626 Y-10.8365
G01 X-0.3964 Y-10.8009
G01 X-0.4644 Y-10.7259
G01 X-0.4996 Y-10.6850
G01 X-0.5298 Y-10.6463
G01 X-0.5901 Y-10.5649
G01 X-0.6184 Y-10.5248
G01 X-0.6473 Y-10.4793
G01 X-0.6994 Y-10.3924
G01 X-0.7259 Y-10.3454
G01 X-0.7480 Y-10.3015
G01 X-0.7913 Y-10.2100
G01 X-0.8130 Y-10.1606
G01 X-0.8307 Y-10.1148
G01 X-0.8648 Y-10.0195
G01 X-0.8816 Y-9.9682
G01 X-0.8947 Y-9.9209
G01 X-0.9193 Y-9.8226
G01 X-0.9301 Y-9.7747
G01 X-0.9394 Y-9.7216
G01 X-0.9543 Y-9.6214
G01 X-0.9603 Y-9.5727
G01 X-0.9644 Y-9.5189
G01 X-0.9694 Y-9.4177
G01 X-0.9706 Y-9.3662
G01 X-0.9706 Y-6.3088
G00 X-0.9706 Y-6.3088
G01 F60.00
G01 Z-0.8000
G01 F120.00
G01 X-0.9706 Y-9.3662
G01 X-0.9694 Y-9.4177
G01 X-0.9644 Y-9.5189
G01 X-0.9603 Y-9.5727
G01 X-0.9543 Y-9.6214
G01 X-0.9394 Y-9.7216
G01 X-0.9301 Y-9.7747
G01 X-0.9193 Y-9.8226
G01 X-0.8947 Y-9.9209
G01 X-0.8816 Y-9.9682
G01 X-0.8648 Y-10.0195
G01 X-0.8307 Y-10.1148
G01 X-0.8130 Y-10.1606
G01 X-0.7913 Y-10.2100
G01 X-0.7480 Y-10.3015
G01 X-0.7259 Y-10.3454
G01 X-0.6994 Y-10.3924
G01 X-0.6473 Y-10.4793
G01 X-0.6184 Y-10.5248
G01 X-0.5901 Y-10.5649
G01 X-0.5298 Y-10.6463
G01 X-0.4996 Y-10.6850
G01 X-0.4644 Y-10.7259
G01 X-0.3964 Y-10.8009
G01 X-0.3626 Y-10.8365
G01 X-0.3235 Y-10.8738
G01 X-0.2485 Y-10.9418
G01 X-0.2076 Y-10.9770
G01 X-0.1689 Y-11.0072
G01 X-0.0875 Y-11.0675
G01 X-0.0474 Y-11.0958
G01 X-0.0019 Y-11.1247
G01 X0.0850 Y-11.1768
G01 X0.1277 Y-11.2010
G01 X0.1759 Y-11.2254
G01 X0.2674 Y-11.2687
G01 X0.3168 Y-11.2904
G01 X0.3626 Y-11.3081
G01 X0.4579 Y-11.3422
G01 X0.5045 Y-11.3576
G01 X0.5565 Y-11.3721
G01 X0.6548 Y-11.3967
G01 X0.7027 Y-11.4075
G01 X0.7558 Y-11.4168
G01 X0.8560 Y-11.4317
G01 X0.9085 Y-11.4381
G01 X0.9565 Y-11.4417
G01 X1.0576 Y-11.4469
G01 X1.0831 Y-11.4478
G01 X1.1112 Y-11.4482
G01 X35.3219 Y-11.4482
G01 X35.3489 Y-11.4479
G01 X35.3734 Y-11.4470
G01 X35.4746 Y-11.4420
G01 X35.5235 Y-11.4384
G01 X35.5771 Y-11.4319
G01 X35.6773 Y-11.4170
G01 X35.7257 Y-11.4086
G01 X35.7784 Y-11.3969
G01 X35.8766 Y-11.3723
G01 X35.9239 Y-11.3592
G01 X35.9752 Y-11.3424
G01 X36.0706 Y-11.3083
G01 X36.1209 Y-11.2887
G01 X36.1658 Y-11.2689
G01 X36.2573 Y-11.2256
G01 X36.3012 Y-11.2035
G01 X36.3482 Y-11.1770
G01 X36.4351 Y-11.1249
G01 X36.4765 Y-11.0987
G01 X36.5207 Y-11.0677
G01 X36.6021 Y-11.0073
G01 X36.6408 Y-10.9771
G01 X36.6817 Y-10.9420
G01 X36.7568 Y-10.8740
G01 X36.7923 Y-10.8401
G01 X36.8297 Y-10.8011
G01 X36.8977 Y-10.7260
G01 X36.9328 Y-10.6851
G01 X36.9630 Y-10.6464
G01 X37.0234 Y-10.5650
G01 X37.0516 Y-10.5249
G01 X37.0806 Y-10.4794
G01 X37.1327 Y-10.3925
G01 X37.1569 Y-10.3498
G01 X37.1813 Y-10.3016
G01 X37.2246 Y-10.2101
G01 X37.2444 Y-10.1652
G01 X37.2640 Y-10.1149
G01 X37.2981 Y-10.0195
G01 X37.3149 Y-9.9682
G01 X37.3280 Y-9.9209
G01 X37.3526 Y-9.8227
G01 X37.3634 Y-9.7748
G01 X37.3727 Y-9.7216
G01 X37.3876 Y-9.6214
G01 X37.3941 Y-9.5673
G01 X37.3977 Y-9.5178
G01 X37.4035 Y-9.3927
G01 X37.4038 Y-9.3662
G01 X37.4038 Y-6.3088
G00 X37.4038 Y-6.3088
G01 F60.00
G01 Z-0.9000
G01 F120.00
G01 X37.4038 Y-9.3662
G01 X37.4035 Y-9.3927
G01 X37.3977 Y-9.5178
G01 X37.3941 Y-9.5673
G01 X37.3876 Y-9.6214
G01 X37.3727 Y-9.7216
G01 X37.3634 Y-9.7748
G01 X37.3526 Y-9.8227
G01 X37.3280 Y-9.9209
G01 X37.3149 Y-9.9682
G01 X37.2981 Y-10.0195
G01 X37.2640 Y-10.1149
G01 X37.2444 Y-10.1652
G01 X37.2246 Y-10.2101
G01 X37.1813 Y-10.3016
G01 X37.1569 Y-10.3498
G01 X37.1327 Y-10.3925
G01 X37.0806 Y-10.4794
G01 X37.0516 Y-10.5249
G01 X37.0234 Y-10.5650
G01 X36.9630 Y-10.6464
G01 X36.9328 Y-10.6851
G01 X36.8977 Y-10.7260
G01 X36.8297 Y-10.8011
G01 X36.7923 Y-10.8401
G01 X36.7568 Y-10.8740
G01 X36.6817 Y-10.9420
G01 X36.6408 Y-10.9771
G01 X36.6021 Y-11.0073
G01 X36.5207 Y-11.0677
G01 X36.4765 Y-11.0987
G01 X36.4351 Y-11.1249
G01 X36.3482 Y-11.1770
G01 X36.3012 Y-11.2035
G01 X36.2573 Y-11.2256
G01 X36.1658 Y-11.2689
G01 X36.1209 Y-11.2887
G01 X36.0706 Y-11.3083
G01 X35.9752 Y-11.3424
G01 X35.9239 Y-11.3592
G01 X35.8766 Y-11.3723
G01 X35.7784 Y-11.3969
G01 X35.7257 Y-11.4086
G01 X35.6773 Y-11.4170
G01 X35.5771 Y-11.4319
G01 X35.5235 Y-11.4384
G01 X35.4746 Y-11.4420
G01 X35.3734 Y-11.4470
G01 X35.3489 Y-11.4479
G01 X35.3219 Y-11.4482
G01 X1.1112 Y-11.4482
G01 X1.0831 Y-11.4478
G01 X1.0576 Y-11.4469
G01 X0.9565 Y-11.4417
G01 X0.9085 Y-11.4381
G01 X0.8560 Y-11.4317
G01 X0.7558 Y-11.4168
G01 X0.7027 Y-11.4075
G01 X0.6548 Y-11.3967
G01 X0.5565 Y-11.3721
G01 X0.5045 Y-11.3576
G01 X0.4579 Y-11.3422
G01 X0.3626 Y-11.3081
G01 X0.3168 Y-11.2904
G01 X0.2674 Y-11.2687
G01 X0.1759 Y-11.2254
G01 X0.1277 Y-11.2010
G01 X0.0850 Y-11.1768
G01 X-0.0019 Y-11.1247
G01 X-0.0474 Y-11.0958
G01 X-0.0875 Y-11.0675
G01 X-0.1689 Y-11.0072
G01 X-0.2076 Y-10.9770
G01 X-0.2485 Y-10.9418
G01 X-0.3235 Y-10.8738
G01 X-0.3626 Y-10.8365
G01 X-0.3964 Y-10.8009
G01 X-0.4644 Y-10.7259
G01 X-0.4996 Y-10.6850
G01 X-0.5298 Y-10.6463
G01 X-0.5901 Y-10.5649
G01 X-0.6184 Y-10.5248
G01 X-0.6473 Y-10.4793
G01 X-0.6994 Y-10.3924
G01 X-0.7259 Y-10.3454
G01 X-0.7480 Y-10.3015
G01 X-0.7913 Y-10.2100
G01 X-0.8130 Y-10.1606
G01 X-0.8307 Y-10.1148
G01 X-0.8648 Y-10.0195
G01 X-0.8816 Y-9.9682
G01 X-0.8947 Y-9.9209
G01 X-0.9193 Y-9.8226
G01 X-0.9301 Y-9.7747
G01 X-0.9394 Y-9.7216
G01 X-0.9543 Y-9.6214
G01 X-0.9603 Y-9.5727
G01 X-0.9644 Y-9.5189
G01 X-0.9694 Y-9.4177
G01 X-0.9706 Y-9.3662
G01 X-0.9706 Y-6.3088
G00 X-0.9706 Y-6.3088
G01 F60.00
G01 Z-1.0000
G01 F120.00
G01 X-0.9706 Y-9.3662
G01 X-0.9694 Y-9.4177
G01 X-0.9644 Y-9.5189
G01 X-0.9603 Y-9.5727
G01 X-0.9543 Y-9.6214
G01 X-0.9394 Y-9.7216
G01 X-0.9301 Y-9.7747
G01 X-0.9193 Y-9.8226
G01 X-0.8947 Y-9.9209
G01 X-0.8816 Y-9.9682
G01 X-0.8648 Y-10.0195
G01 X-0.8307 Y-10.1148
G01 X-0.8130 Y-10.1606
G01 X-0.7913 Y-10.2100
G01 X-0.7480 Y-10.3015
G01 X-0.7259 Y-10.3454
G01 X-0.6994 Y-10.3924
G01 X-0.6473 Y-10.4793
G01 X-0.6184 Y-10.5248
G01 X-0.5901 Y-10.5649
G01 X-0.5298 Y-10.6463
G01 X-0.4996 Y-10.6850
G01 X-0.4644 Y-10.7259
G01 X-0.3964 Y-10.8009
G01 X-0.3626 Y-10.8365
G01 X-0.3235 Y-10.8738
G01 X-0.2485 Y-10.9418
G01 X-0.2076 Y-10.9770
G01 X-0.1689 Y-11.0072
G01 X-0.0875 Y-11.0675
G01 X-0.0474 Y-11.0958
G01 X-0.0019 Y-11.1247
G01 X0.0850 Y-11.1768
G01 X0.1277 Y-11.2010
G01 X0.1759 Y-11.2254
G01 X0.2674 Y-11.2687
G01 X0.3168 Y-11.2904
G01 X0.3626 Y-11.3081
G01 X0.4579 Y-11.3422
G01 X0.5045 Y-11.3576
G01 X0.5565 Y-11.3721
G01 X0.6548 Y-11.3967
G01 X0.7027 Y-11.4075
G01 X0.7558 Y-11.4168
G01 X0.8560 Y-11.4317
G01 X0.9085 Y-11.4381
G01 X0.9565 Y-11.4417
G01 X1.0576 Y-11.4469
G01 X1.0831 Y-11.4478
G01 X1.1112 Y-11.4482
G01 X35.3219 Y-11.4482
G01 X35.3489 Y-11.4479
G01 X35.3734 Y-11.4470
G01 X35.4746 Y-11.4420
G01 X35.5235 Y-11.4384
G01 X35.5771 Y-11.4319
G01 X35.6773 Y-11.4170
G01 X35.7257 Y-11.4086
G01 X35.7784 Y-11.3969
G01 X35.8766 Y-11.3723
G01 X35.9239 Y-11.3592
G01 X35.9752 Y-11.3424
G01 X36.0706 Y-11.3083
G01 X36.1209 Y-11.2887
G01 X36.1658 Y-11.2689
G01 X36.2573 Y-11.2256
G01 X36.3012 Y-11.2035
G01 X36.3482 Y-11.1770
G01 X36.4351 Y-11.1249
G01 X36.4765 Y-11.0987
G01 X36.5207 Y-11.0677
G01 X36.6021 Y-11.0073
G01 X36.6408 Y-10.9771
G01 X36.6817 Y-10.9420
G01 X36.7568 Y-10.8740
G01 X36.7923 Y-10.8401
G01 X36.8297 Y-10.8011
G01 X36.8977 Y-10.7260
G01 X36.9328 Y-10.6851
G01 X36.9630 Y-10.6464
G01 X37.0234 Y-10.5650
G01 X37.0516 Y-10.5249
G01 X37.0806 Y-10.4794
G01 X37.1327 Y-10.3925
G01 X37.1569 Y-10.3498
G01 X37.1813 Y-10.3016
G01 X37.2246 Y-10.2101
G01 X37.2444 Y-10.1652
G01 X37.2640 Y-10.1149
G01 X37.2981 Y-10.0195
G01 X37.3149 Y-9.9682
G01 X37.3280 Y-9.9209
G01 X37.3526 Y-9.8227
G01 X37.3634 Y-9.7748
G01 X37.3727 Y-9.7216
G01 X37.3876 Y-9.6214
G01 X37.3941 Y-9.5673
G01 X37.3977 Y-9.5178
G01 X37.4035 Y-9.3927
G01 X37.4038 Y-9.3662
G01 X37.4038 Y-6.3088
G00 X37.4038 Y-6.3088
G01 F60.00
G01 Z-1.1000
G01 F120.00
G01 X37.4038 Y-9.3662
G01 X37.4035 Y-9.3927
G01 X37.3977 Y-9.5178
G01 X37.3941 Y-9.5673
G01 X37.3876 Y-9.6214
G01 X37.3727 Y-9.7216
G01 X37.3634 Y-9.7748
G01 X37.3526 Y-9.8227
G01 X37.3280 Y-9.9209
G01 X37.3149 Y-9.9682
G01 X37.2981 Y-10.0195
G01 X37.2640 Y-10.1149
G01 X37.2444 Y-10.1652
G01 X37.2246 Y-10.2101
G01 X37.1813 Y-10.3016
G01 X37.1569 Y-10.3498
G01 X37.1327 Y-10.3925
G01 X37.0806 Y-10.4794
G01 X37.0516 Y-10.5249
G01 X37.0234 Y-10.5650
G01 X36.9630 Y-10.6464
G01 X36.9328 Y-10.6851
G01 X36.8977 Y-10.7260
G01 X36.8297 Y-10.8011
G01 X36.7923 Y-10.8401
G01 X36.7568 Y-10.8740
G01 X36.6817 Y-10.9420
G01 X36.6408 Y-10.9771
G01 X36.6021 Y-11.0073
G01 X36.5207 Y-11.0677
G01 X36.4765 Y-11.0987
G01 X36.4351 Y-11.1249
G01 X36.3482 Y-11.1770
G01 X36.3012 Y-11.2035
G01 X36.2573 Y-11.2256
G01 X36.1658 Y-11.2689
G01 X36.1209 Y-11.2887
G01 X36.0706 Y-11.3083
G01 X35.9752 Y-11.3424
G01 X35.9239 Y-11.3592
G01 X35.8766 Y-11.3723
G01 X35.7784 Y-11.3969
G01 X35.7257 Y-11.4086
G01 X35.6773 Y-11.4170
G01 X35.5771 Y-11.4319
G01 X35.5235 Y-11.4384
G01 X35.4746 Y-11.4420
G01 X35.3734 Y-11.4470
G01 X35.3489 Y-11.4479
G01 X35.3219 Y-11.4482
G01 X1.1112 Y-11.4482
G01 X1.0831 Y-11.4478
G01 X1.0576 Y-11.4469
G01 X0.9565 Y-11.4417
G01 X0.9085 Y-11.4381
G01 X0.8560 Y-11.4317
G01 X0.7558 Y-11.4168
G01 X0.7027 Y-11.4075
G01 X0.6548 Y-11.3967
G01 X0.5565 Y-11.3721
G01 X0.5045 Y-11.3576
G01 X0.4579 Y-11.3422
G01 X0.3626 Y-11.3081
G01 X0.3168 Y-11.2904
G01 X0.2674 Y-11.2687
G01 X0.1759 Y-11.2254
G01 X0.1277 Y-11.2010
G01 X0.0850 Y-11.1768
G01 X-0.0019 Y-11.1247
G01 X-0.0474 Y-11.0958
G01 X-0.0875 Y-11.0675
G01 X-0.1689 Y-11.0072
G01 X-0.2076 Y-10.9770
G01 X-0.2485 Y-10.9418
G01 X-0.3235 Y-10.8738
G01 X-0.3626 Y-10.8365
G01 X-0.3964 Y-10.8009
G01 X-0.4644 Y-10.7259
G01 X-0.4996 Y-10.6850
G01 X-0.5298 Y-10.6463
G01 X-0.5901 Y-10.5649
G01 X-0.6184 Y-10.5248
G01 X-0.6473 Y-10.4793
G01 X-0.6994 Y-10.3924
G01 X-0.7259 Y-10.3454
G01 X-0.7480 Y-10.3015
G01 X-0.7913 Y-10.2100
G01 X-0.8130 Y-10.1606
G01 X-0.8307 Y-10.1148
G01 X-0.8648 Y-10.0195
G01 X-0.8816 Y-9.9682
G01 X-0.8947 Y-9.9209
G01 X-0.9193 Y-9.8226
G01 X-0.9301 Y-9.7747
G01 X-0.9394 Y-9.7216
G01 X-0.9543 Y-9.6214
G01 X-0.9603 Y-9.5727
G01 X-0.9644 Y-9.5189
G01 X-0.9694 Y-9.4177
G01 X-0.9706 Y-9.3662
G01 X-0.9706 Y-6.3088
G00 X-0.9706 Y-6.3088
G01 F60.00
G01 Z-1.2000
G01 F120.00
G01 X-0.9706 Y-9.3662
G01 X-0.9694 Y-9.4177
G01 X-0.9644 Y-9.5189
G01 X-0.9603 Y-9.5727
G01 X-0.9543 Y-9.6214
G01 X-0.9394 Y-9.7216
G01 X-0.9301 Y-9.7747
G01 X-0.9193 Y-9.8226
G01 X-0.8947 Y-9.9209
G01 X-0.8816 Y-9.9682
G01 X-0.8648 Y-10.0195
G01 X-0.8307 Y-10.1148
G01 X-0.8130 Y-10.1606
G01 X-0.7913 Y-10.2100
G01 X-0.7480 Y-10.3015
G01 X-0.7259 Y-10.3454
G01 X-0.6994 Y-10.3924
G01 X-0.6473 Y-10.4793
G01 X-0.6184 Y-10.5248
G01 X-0.5901 Y-10.5649
G01 X-0.5298 Y-10.6463
G01 X-0.4996 Y-10.6850
G01 X-0.4644 Y-10.7259
G01 X-0.3964 Y-10.8009
G01 X-0.3626 Y-10.8365
G01 X-0.3235 Y-10.8738
G01 X-0.2485 Y-10.9418
G01 X-0.2076 Y-10.9770
G01 X-0.1689 Y-11.0072
G01 X-0.0875 Y-11.0675
G01 X-0.0474 Y-11.0958
G01 X-0.0019 Y-11.1247
G01 X0.0850 Y-11.1768
G01 X0.1277 Y-11.2010
G01 X0.1759 Y-11.2254
G01 X0.2674 Y-11.2687
G01 X0.3168 Y-11.2904
G01 X0.3626 Y-11.3081
G01 X0.4579 Y-11.3422
G01 X0.5045 Y-11.3576
G01 X0.5565 Y-11.3721
G01 X0.6548 Y-11.3967
G01 X0.7027 Y-11.4075
G01 X0.7558 Y-11.4168
G01 X0.8560 Y-11.4317
G01 X0.9085 Y-11.4381
G01 X0.9565 Y-11.4417
G01 X1.0576 Y-11.4469
G01 X1.0831 Y-11.4478
G01 X1.1112 Y-11.4482
G01 X35.3219 Y-11.4482
G01 X35.3489 Y-11.4479
G01 X35.3734 Y-11.4470
G01 X35.4746 Y-11.4420
G01 X35.5235 Y-11.4384
G01 X35.5771 Y-11.4319
G01 X35.6773 Y-11.4170
G01 X35.7257 Y-11.4086
G01 X35.7784 Y-11.3969
G01 X35.8766 Y-11.3723
G01 X35.9239 Y-11.3592
G01 X35.9752 Y-11.3424
G01 X36.0706 Y-11.3083
G01 X36.1209 Y-11.2887
G01 X36.1658 Y-11.2689
G01 X36.2573 Y-11.2256
G01 X36.3012 Y-11.2035
G01 X36.3482 Y-11.1770
G01 X36.4351 Y-11.1249
G01 X36.4765 Y-11.0987
G01 X36.5207 Y-11.0677
G01 X36.6021 Y-11.0073
G01 X36.6408 Y-10.9771
G01 X36.6817 Y-10.9420
G01 X36.7568 Y-10.8740
G01 X36.7923 Y-10.8401
G01 X36.8297 Y-10.8011
G01 X36.8977 Y-10.7260
G01 X36.9328 Y-10.6851
G01 X36.9630 Y-10.6464
G01 X37.0234 Y-10.5650
G01 X37.0516 Y-10.5249
G01 X37.0806 Y-10.4794
G01 X37.1327 Y-10.3925
G01 X37.1569 Y-10.3498
G01 X37.1813 Y-10.3016
G01 X37.2246 Y-10.2101
G01 X37.2444 Y-10.1652
G01 X37.2640 Y-10.1149
G01 X37.2981 Y-10.0195
G01 X37.3149 Y-9.9682
G01 X37.3280 Y-9.9209
G01 X37.3526 Y-9.8227
G01 X37.3634 Y-9.7748
G01 X37.3727 Y-9.7216
G01 X37.3876 Y-9.6214
G01 X37.3941 Y-9.5673
G01 X37.3977 Y-9.5178
G01 X37.4035 Y-9.3927
G01 X37.4038 Y-9.3662
G01 X37.4038 Y-6.3088
G00 X37.4038 Y-6.3088
G01 F60.00
G01 Z-1.3000
G01 F120.00
G01 X37.4038 Y-9.3662
G01 X37.4035 Y-9.3927
G01 X37.3977 Y-9.5178
G01 X37.3941 Y-9.5673
G01 X37.3876 Y-9.6214
G01 X37.3727 Y-9.7216
G01 X37.3634 Y-9.7748
G01 X37.3526 Y-9.8227
G01 X37.3280 Y-9.9209
G01 X37.3149 Y-9.9682
G01 X37.2981 Y-10.0195
G01 X37.2640 Y-10.1149
G01 X37.2444 Y-10.1652
G01 X37.2246 Y-10.2101
G01 X37.1813 Y-10.3016
G01 X37.1569 Y-10.3498
G01 X37.1327 Y-10.3925
G01 X37.0806 Y-10.4794
G01 X37.0516 Y-10.5249
G01 X37.0234 Y-10.5650
G01 X36.9630 Y-10.6464
G01 X36.9328 Y-10.6851
G01 X36.8977 Y-10.7260
G01 X36.8297 Y-10.8011
G01 X36.7923 Y-10.8401
G01 X36.7568 Y-10.8740
G01 X36.6817 Y-10.9420
G01 X36.6408 Y-10.9771
G01 X36.6021 Y-11.0073
G01 X36.5207 Y-11.0677
G01 X36.4765 Y-11.0987
G01 X36.4351 Y-11.1249
G01 X36.3482 Y-11.1770
G01 X36.3012 Y-11.2035
G01 X36.2573 Y-11.2256
G01 X36.1658 Y-11.2689
G01 X36.1209 Y-11.2887
G01 X36.0706 Y-11.3083
G01 X35.9752 Y-11.3424
G01 X35.9239 Y-11.3592
G01 X35.8766 Y-11.3723
G01 X35.7784 Y-11.3969
G01 X35.7257 Y-11.4086
G01 X35.6773 Y-11.4170
G01 X35.5771 Y-11.4319
G01 X35.5235 Y-11.4384
G01 X35.4746 Y-11.4420
G01 X35.3734 Y-11.4470
G01 X35.3489 Y-11.4479
G01 X35.3219 Y-11.4482
G01 X1.1112 Y-11.4482
G01 X1.0831 Y-11.4478
G01 X1.0576 Y-11.4469
G01 X0.9565 Y-11.4417
G01 X0.9085 Y-11.4381
G01 X0.8560 Y-11.4317
G01 X0.7558 Y-11.4168
G01 X0.7027 Y-11.4075
G01 X0.6548 Y-11.3967
G01 X0.5565 Y-11.3721
G01 X0.5045 Y-11.3576
G01 X0.4579 Y-11.3422
G01 X0.3626 Y-11.3081
G01 X0.3168 Y-11.2904
G01 X0.2674 Y-11.2687
G01 X0.1759 Y-11.2254
G01 X0.1277 Y-11.2010
G01 X0.0850 Y-11.1768
G01 X-0.0019 Y-11.1247
G01 X-0.0474 Y-11.0958
G01 X-0.0875 Y-11.0675
G01 X-0.1689 Y-11.0072
G01 X-0.2076 Y-10.9770
G01 X-0.2485 Y-10.9418
G01 X-0.3235 Y-10.8738
G01 X-0.3626 Y-10.8365
G01 X-0.3964 Y-10.8009
G01 X-0.4644 Y-10.7259
G01 X-0.4996 Y-10.6850
G01 X-0.5298 Y-10.6463
G01 X-0.5901 Y-10.5649
G01 X-0.6184 Y-10.5248
G01 X-0.6473 Y-10.4793
G01 X-0.6994 Y-10.3924
G01 X-0.7259 Y-10.3454
G01 X-0.7480 Y-10.3015
G01 X-0.7913 Y-10.2100
G01 X-0.8130 Y-10.1606
G01 X-0.8307 Y-10.1148
G01 X-0.8648 Y-10.0195
G01 X-0.8816 Y-9.9682
G01 X-0.8947 Y-9.9209
G01 X-0.9193 Y-9.8226
G01 X-0.9301 Y-9.7747
G01 X-0.9394 Y-9.7216
G01 X-0.9543 Y-9.6214
G01 X-0.9603 Y-9.5727
G01 X-0.9644 Y-9.5189
G01 X-0.9694 Y-9.4177
G01 X-0.9706 Y-9.3662
G01 X-0.9706 Y-6.3088
G00 X-0.9706 Y-6.3088
G01 F60.00
G01 Z-1.4000
G01 F120.00
G01 X-0.9706 Y-9.3662
G01 X-0.9694 Y-9.4177
G01 X-0.9644 Y-9.5189
G01 X-0.9603 Y-9.5727
G01 X-0.9543 Y-9.6214
G01 X-0.9394 Y-9.7216
G01 X-0.9301 Y-9.7747
G01 X-0.9193 Y-9.8226
G01 X-0.8947 Y-9.9209
G01 X-0.8816 Y-9.9682
G01 X-0.8648 Y-10.0195
G01 X-0.8307 Y-10.1148
G01 X-0.8130 Y-10.1606
G01 X-0.7913 Y-10.2100
G01 X-0.7480 Y-10.3015
G01 X-0.7259 Y-10.3454
G01 X-0.6994 Y-10.3924
G01 X-0.6473 Y-10.4793
G01 X-0.6184 Y-10.5248
G01 X-0.5901 Y-10.5649
G01 X-0.5298 Y-10.6463
G01 X-0.4996 Y-10.6850
G01 X-0.4644 Y-10.7259
G01 X-0.3964 Y-10.8009
G01 X-0.3626 Y-10.8365
G01 X-0.3235 Y-10.8738
G01 X-0.2485 Y-10.9418
G01 X-0.2076 Y-10.9770
G01 X-0.1689 Y-11.0072
G01 X-0.0875 Y-11.0675
G01 X-0.0474 Y-11.0958
G01 X-0.0019 Y-11.1247
G01 X0.0850 Y-11.1768
G01 X0.1277 Y-11.2010
G01 X0.1759 Y-11.2254
G01 X0.2674 Y-11.2687
G01 X0.3168 Y-11.2904
G01 X0.3626 Y-11.3081
G01 X0.4579 Y-11.3422
G01 X0.5045 Y-11.3576
G01 X0.5565 Y-11.3721
G01 X0.6548 Y-11.3967
G01 X0.7027 Y-11.4075
G01 X0.7558 Y-11.4168
G01 X0.8560 Y-11.4317
G01 X0.9085 Y-11.4381
G01 X0.9565 Y-11.4417
G01 X1.0576 Y-11.4469
G01 X1.0831 Y-11.4478
G01 X1.1112 Y-11.4482
G01 X35.3219 Y-11.4482
G01 X35.3489 Y-11.4479
G01 X35.3734 Y-11.4470
G01 X35.4746 Y-11.4420
G01 X35.5235 Y-11.4384
G01 X35.5771 Y-11.4319
G01 X35.6773 Y-11.4170
G01 X35.7257 Y-11.4086
G01 X35.7784 Y-11.3969
G01 X35.8766 Y-11.3723
G01 X35.9239 Y-11.3592
G01 X35.9752 Y-11.3424
G01 X36.0706 Y-11.3083
G01 X36.1209 Y-11.2887
G01 X36.1658 Y-11.2689
G01 X36.2573 Y-11.2256
G01 X36.3012 Y-11.2035
G01 X36.3482 Y-11.1770
G01 X36.4351 Y-11.1249
G01 X36.4765 Y-11.0987
G01 X36.5207 Y-11.0677
G01 X36.6021 Y-11.0073
G01 X36.6408 Y-10.9771
G01 X36.6817 Y-10.9420
G01 X36.7568 Y-10.8740
G01 X36.7923 Y-10.8401
G01 X36.8297 Y-10.8011
G01 X36.8977 Y-10.7260
G01 X36.9328 Y-10.6851
G01 X36.9630 Y-10.6464
G01 X37.0234 Y-10.5650
G01 X37.0516 Y-10.5249
G01 X37.0806 Y-10.4794
G01 X37.1327 Y-10.3925
G01 X37.1569 Y-10.3498
G01 X37.1813 Y-10.3016
G01 X37.2246 Y-10.2101
G01 X37.2444 Y-10.1652
G01 X37.2640 Y-10.1149
G01 X37.2981 Y-10.0195
G01 X37.3149 Y-9.9682
G01 X37.3280 Y-9.9209
G01 X37.3526 Y-9.8227
G01 X37.3634 Y-9.7748
G01 X37.3727 Y-9.7216
G01 X37.3876 Y-9.6214
G01 X37.3941 Y-9.5673
G01 X37.3977 Y-9.5178
G01 X37.4035 Y-9.3927
G01 X37.4038 Y-9.3662
G01 X37.4038 Y-6.3088
G00 X37.4038 Y-6.3088
G01 F60.00
G01 Z-1.5000
G01 F120.00
G01 X37.4038 Y-9.3662
G01 X37.4035 Y-9.3927
G01 X37.3977 Y-9.5178
G01 X37.3941 Y-9.5673
G01 X37.3876 Y-9.6214
G01 X37.3727 Y-9.7216
G01 X37.3634 Y-9.7748
G01 X37.3526 Y-9.8227
G01 X37.3280 Y-9.9209
G01 X37.3149 Y-9.9682
G01 X37.2981 Y-10.0195
G01 X37.2640 Y-10.1149
G01 X37.2444 Y-10.1652
G01 X37.2246 Y-10.2101
G01 X37.1813 Y-10.3016
G01 X37.1569 Y-10.3498
G01 X37.1327 Y-10.3925
G01 X37.0806 Y-10.4794
G01 X37.0516 Y-10.5249
G01 X37.0234 Y-10.5650
G01 X36.9630 Y-10.6464
G01 X36.9328 Y-10.6851
G01 X36.8977 Y-10.7260
G01 X36.8297 Y-10.8011
G01 X36.7923 Y-10.8401
G01 X36.7568 Y-10.8740
G01 X36.6817 Y-10.9420
G01 X36.6408 Y-10.9771
G01 X36.6021 Y-11.0073
G01 X36.5207 Y-11.0677
G01 X36.4765 Y-11.0987
G01 X36.4351 Y-11.1249
G01 X36.3482 Y-11.1770
G01 X36.3012 Y-11.2035
G01 X36.2573 Y-11.2256
G01 X36.1658 Y-11.2689
G01 X36.1209 Y-11.2887
G01 X36.0706 Y-11.3083
G01 X35.9752 Y-11.3424
G01 X35.9239 Y-11.3592
G01 X35.8766 Y-11.3723
G01 X35.7784 Y-11.3969
G01 X35.7257 Y-11.4086
G01 X35.6773 Y-11.4170
G01 X35.5771 Y-11.4319
G01 X35.5235 Y-11.4384
G01 X35.4746 Y-11.4420
G01 X35.3734 Y-11.4470
G01 X35.3489 Y-11.4479
G01 X35.3219 Y-11.4482
G01 X1.1112 Y-11.4482
G01 X1.0831 Y-11.4478
G01 X1.0576 Y-11.4469
G01 X0.9565 Y-11.4417
G01 X0.9085 Y-11.4381
G01 X0.8560 Y-11.4317
G01 X0.7558 Y-11.4168
G01 X0.7027 Y-11.4075
G01 X0.6548 Y-11.3967
G01 X0.5565 Y-11.3721
G01 X0.5045 Y-11.3576
G01 X0.4579 Y-11.3422
G01 X0.3626 Y-11.3081
G01 X0.3168 Y-11.2904
G01 X0.2674 Y-11.2687
G01 X0.1759 Y-11.2254
G01 X0.1277 Y-11.2010
G01 X0.0850 Y-11.1768
G01 X-0.0019 Y-11.1247
G01 X-0.0474 Y-11.0958
G01 X-0.0875 Y-11.0675
G01 X-0.1689 Y-11.0072
G01 X-0.2076 Y-10.9770
G01 X-0.2485 Y-10.9418
G01 X-0.3235 Y-10.8738
G01 X-0.3626 Y-10.8365
G01 X-0.3964 Y-10.8009
G01 X-0.4644 Y-10.7259
G01 X-0.4996 Y-10.6850
G01 X-0.5298 Y-10.6463
G01 X-0.5901 Y-10.5649
G01 X-0.6184 Y-10.5248
G01 X-0.6473 Y-10.4793
G01 X-0.6994 Y-10.3924
G01 X-0.7259 Y-10.3454
G01 X-0.7480 Y-10.3015
G01 X-0.7913 Y-10.2100
G01 X-0.8130 Y-10.1606
G01 X-0.8307 Y-10.1148
G01 X-0.8648 Y-10.0195
G01 X-0.8816 Y-9.9682
G01 X-0.8947 Y-9.9209
G01 X-0.9193 Y-9.8226
G01 X-0.9301 Y-9.7747
G01 X-0.9394 Y-9.7216
G01 X-0.9543 Y-9.6214
G01 X-0.9603 Y-9.5727
G01 X-0.9644 Y-9.5189
G01 X-0.9694 Y-9.4177
G01 X-0.9706 Y-9.3662
G01 X-0.9706 Y-6.3088
G00 X-0.9706 Y-6.3088
G01 F60.00
G01 Z-1.6000
G01 F120.00
G01 X-0.9706 Y-9.3662
G01 X-0.9694 Y-9.4177
G01 X-0.9644 Y-9.5189
G01 X-0.9603 Y-9.5727
G01 X-0.9543 Y-9.6214
G01 X-0.9394 Y-9.7216
G01 X-0.9301 Y-9.7747
G01 X-0.9193 Y-9.8226
G01 X-0.8947 Y-9.9209
G01 X-0.8816 Y-9.9682
G01 X-0.8648 Y-10.0195
G01 X-0.8307 Y-10.1148
G01 X-0.8130 Y-10.1606
G01 X-0.7913 Y-10.2100
G01 X-0.7480 Y-10.3015
G01 X-0.7259 Y-10.3454
G01 X-0.6994 Y-10.3924
G01 X-0.6473 Y-10.4793
G01 X-0.6184 Y-10.5248
G01 X-0.5901 Y-10.5649
G01 X-0.5298 Y-10.6463
G01 X-0.4996 Y-10.6850
G01 X-0.4644 Y-10.7259
G01 X-0.3964 Y-10.8009
G01 X-0.3626 Y-10.8365
G01 X-0.3235 Y-10.8738
G01 X-0.2485 Y-10.9418
G01 X-0.2076 Y-10.9770
G01 X-0.1689 Y-11.0072
G01 X-0.0875 Y-11.0675
G01 X-0.0474 Y-11.0958
G01 X-0.0019 Y-11.1247
G01 X0.0850 Y-11.1768
G01 X0.1277 Y-11.2010
G01 X0.1759 Y-11.2254
G01 X0.2674 Y-11.2687
G01 X0.3168 Y-11.2904
G01 X0.3626 Y-11.3081
G01 X0.4579 Y-11.3422
G01 X0.5045 Y-11.3576
G01 X0.5565 Y-11.3721
G01 X0.6548 Y-11.3967
G01 X0.7027 Y-11.4075
G01 X0.7558 Y-11.4168
G01 X0.8560 Y-11.4317
G01 X0.9085 Y-11.4381
G01 X0.9565 Y-11.4417
G01 X1.0576 Y-11.4469
G01 X1.0831 Y-11.4478
G01 X1.1112 Y-11.4482
G01 X35.3219 Y-11.4482
G01 X35.3489 Y-11.4479
G01 X35.3734 Y-11.4470
G01 X35.4746 Y-11.4420
G01 X35.5235 Y-11.4384
G01 X35.5771 Y-11.4319
G01 X35.6773 Y-11.4170
G01 X35.7257 Y-11.4086
G01 X35.7784 Y-11.3969
G01 X35.8766 Y-11.3723
G01 X35.9239 Y-11.3592
G01 X35.9752 Y-11.3424
G01 X36.0706 Y-11.3083
G01 X36.1209 Y-11.2887
G01 X36.1658 Y-11.2689
G01 X36.2573 Y-11.2256
G01 X36.3012 Y-11.2035
G01 X36.3482 Y-11.1770
G01 X36.4351 Y-11.1249
G01 X36.4765 Y-11.0987
G01 X36.5207 Y-11.0677
G01 X36.6021 Y-11.0073
G01 X36.6408 Y-10.9771
G01 X36.6817 Y-10.9420
G01 X36.7568 Y-10.8740
G01 X36.7923 Y-10.8401
G01 X36.8297 Y-10.8011
G01 X36.8977 Y-10.7260
G01 X36.9328 Y-10.6851
G01 X36.9630 Y-10.6464
G01 X37.0234 Y-10.5650
G01 X37.0516 Y-10.5249
G01 X37.0806 Y-10.4794
G01 X37.1327 Y-10.3925
G01 X37.1569 Y-10.3498
G01 X37.1813 Y-10.3016
G01 X37.2246 Y-10.2101
G01 X37.2444 Y-10.1652
G01 X37.2640 Y-10.1149
G01 X37.2981 Y-10.0195
G01 X37.3149 Y-9.9682
G01 X37.3280 Y-9.9209
G01 X37.3526 Y-9.8227
G01 X37.3634 Y-9.7748
G01 X37.3727 Y-9.7216
G01 X37.3876 Y-9.6214
G01 X37.3941 Y-9.5673
G01 X37.3977 Y-9.5178
G01 X37.4035 Y-9.3927
G01 X37.4038 Y-9.3662
G01 X37.4038 Y-6.3088
G00 X37.4038 Y-6.3088
G01 F60.00
G01 Z-1.7000
G01 F120.00
G01 X37.4038 Y-9.3662
G01 X37.4035 Y-9.3927
G01 X37.3977 Y-9.5178
G01 X37.3941 Y-9.5673
G01 X37.3876 Y-9.6214
G01 X37.3727 Y-9.7216
G01 X37.3634 Y-9.7748
G01 X37.3526 Y-9.8227
G01 X37.3280 Y-9.9209
G01 X37.3149 Y-9.9682
G01 X37.2981 Y-10.0195
G01 X37.2640 Y-10.1149
G01 X37.2444 Y-10.1652
G01 X37.2246 Y-10.2101
G01 X37.1813 Y-10.3016
G01 X37.1569 Y-10.3498
G01 X37.1327 Y-10.3925
G01 X37.0806 Y-10.4794
G01 X37.0516 Y-10.5249
G01 X37.0234 Y-10.5650
G01 X36.9630 Y-10.6464
G01 X36.9328 Y-10.6851
G01 X36.8977 Y-10.7260
G01 X36.8297 Y-10.8011
G01 X36.7923 Y-10.8401
G01 X36.7568 Y-10.8740
G01 X36.6817 Y-10.9420
G01 X36.6408 Y-10.9771
G01 X36.6021 Y-11.0073
G01 X36.5207 Y-11.0677
G01 X36.4765 Y-11.0987
G01 X36.4351 Y-11.1249
G01 X36.3482 Y-11.1770
G01 X36.3012 Y-11.2035
G01 X36.2573 Y-11.2256
G01 X36.1658 Y-11.2689
G01 X36.1209 Y-11.2887
G01 X36.0706 Y-11.3083
G01 X35.9752 Y-11.3424
G01 X35.9239 Y-11.3592
G01 X35.8766 Y-11.3723
G01 X35.7784 Y-11.3969
G01 X35.7257 Y-11.4086
G01 X35.6773 Y-11.4170
G01 X35.5771 Y-11.4319
G01 X35.5235 Y-11.4384
G01 X35.4746 Y-11.4420
G01 X35.3734 Y-11.4470
G01 X35.3489 Y-11.4479
G01 X35.3219 Y-11.4482
G01 X1.1112 Y-11.4482
G01 X1.0831 Y-11.4478
G01 X1.0576 Y-11.4469
G01 X0.9565 Y-11.4417
G01 X0.9085 Y-11.4381
G01 X0.8560 Y-11.4317
G01 X0.7558 Y-11.4168
G01 X0.7027 Y-11.4075
G01 X0.6548 Y-11.3967
G01 X0.5565 Y-11.3721
G01 X0.5045 Y-11.3576
G01 X0.4579 Y-11.3422
G01 X0.3626 Y-11.3081
G01 X0.3168 Y-11.2904
G01 X0.2674 Y-11.2687
G01 X0.1759 Y-11.2254
G01 X0.1277 Y-11.2010
G01 X0.0850 Y-11.1768
G01 X-0.0019 Y-11.1247
G01 X-0.0474 Y-11.0958
G01 X-0.0875 Y-11.0675
G01 X-0.1689 Y-11.0072
G01 X-0.2076 Y-10.9770
G01 X-0.2485 Y-10.9418
G01 X-0.3235 Y-10.8738
G01 X-0.3626 Y-10.8365
G01 X-0.3964 Y-10.8009
G01 X-0.4644 Y-10.7259
G01 X-0.4996 Y-10.6850
G01 X-0.5298 Y-10.6463
G01 X-0.5901 Y-10.5649
G01 X-0.6184 Y-10.5248
G01 X-0.6473 Y-10.4793
G01 X-0.6994 Y-10.3924
G01 X-0.7259 Y-10.3454
G01 X-0.7480 Y-10.3015
G01 X-0.7913 Y-10.2100
G01 X-0.8130 Y-10.1606
G01 X-0.8307 Y-10.1148
G01 X-0.8648 Y-10.0195
G01 X-0.8816 Y-9.9682
G01 X-0.8947 Y-9.9209
G01 X-0.9193 Y-9.8226
G01 X-0.9301 Y-9.7747
G01 X-0.9394 Y-9.7216
G01 X-0.9543 Y-9.6214
G01 X-0.9603 Y-9.5727
G01 X-0.9644 Y-9.5189
G01 X-0.9694 Y-9.4177
G01 X-0.9706 Y-9.3662
G01 X-0.9706 Y-6.3088
G00 X-0.9706 Y-6.3088
G01 F60.00
G01 Z-1.8000
G01 F120.00
G01 X-0.9706 Y-9.3662
G01 X-0.9694 Y-9.4177
G01 X-0.9644 Y-9.5189
G01 X-0.9603 Y-9.5727
G01 X-0.9543 Y-9.6214
G01 X-0.9394 Y-9.7216
G01 X-0.9301 Y-9.7747
G01 X-0.9193 Y-9.8226
G01 X-0.8947 Y-9.9209
G01 X-0.8816 Y-9.9682
G01 X-0.8648 Y-10.0195
G01 X-0.8307 Y-10.1148
G01 X-0.8130 Y-10.1606
G01 X-0.7913 Y-10.2100
G01 X-0.7480 Y-10.3015
G01 X-0.7259 Y-10.3454
G01 X-0.6994 Y-10.3924
G01 X-0.6473 Y-10.4793
G01 X-0.6184 Y-10.5248
G01 X-0.5901 Y-10.5649
G01 X-0.5298 Y-10.6463
G01 X-0.4996 Y-10.6850
G01 X-0.4644 Y-10.7259
G01 X-0.3964 Y-10.8009
G01 X-0.3626 Y-10.8365
G01 X-0.3235 Y-10.8738
G01 X-0.2485 Y-10.9418
G01 X-0.2076 Y-10.9770
G01 X-0.1689 Y-11.0072
G01 X-0.0875 Y-11.0675
G01 X-0.0474 Y-11.0958
G01 X-0.0019 Y-11.1247
G01 X0.0850 Y-11.1768
G01 X0.1277 Y-11.2010
G01 X0.1759 Y-11.2254
G01 X0.2674 Y-11.2687
G01 X0.3168 Y-11.2904
G01 X0.3626 Y-11.3081
G01 X0.4579 Y-11.3422
G01 X0.5045 Y-11.3576
G01 X0.5565 Y-11.3721
G01 X0.6548 Y-11.3967
G01 X0.7027 Y-11.4075
G01 X0.7558 Y-11.4168
G01 X0.8560 Y-11.4317
G01 X0.9085 Y-11.4381
G01 X0.9565 Y-11.4417
G01 X1.0576 Y-11.4469
G01 X1.0831 Y-11.4478
G01 X1.1112 Y-11.4482
G01 X35.3219 Y-11.4482
G01 X35.3489 Y-11.4479
G01 X35.3734 Y-11.4470
G01 X35.4746 Y-11.4420
G01 X35.5235 Y-11.4384
G01 X35.5771 Y-11.4319
G01 X35.6773 Y-11.4170
G01 X35.7257 Y-11.4086
G01 X35.7784 Y-11.3969
G01 X35.8766 Y-11.3723
G01 X35.9239 Y-11.3592
G01 X35.9752 Y-11.3424
G01 X36.0706 Y-11.3083
G01 X36.1209 Y-11.2887
G01 X36.1658 Y-11.2689
G01 X36.2573 Y-11.2256
G01 X36.3012 Y-11.2035
G01 X36.3482 Y-11.1770
G01 X36.4351 Y-11.1249
G01 X36.4765 Y-11.0987
G01 X36.5207 Y-11.0677
G01 X36.6021 Y-11.0073
G01 X36.6408 Y-10.9771
G01 X36.6817 Y-10.9420
G01 X36.7568 Y-10.8740
G01 X36.7923 Y-10.8401
G01 X36.8297 Y-10.8011
G01 X36.8977 Y-10.7260
G01 X36.9328 Y-10.6851
G01 X36.9630 Y-10.6464
G01 X37.0234 Y-10.5650
G01 X37.0516 Y-10.5249
G01 X37.0806 Y-10.4794
G01 X37.1327 Y-10.3925
G01 X37.1569 Y-10.3498
G01 X37.1813 Y-10.3016
G01 X37.2246 Y-10.2101
G01 X37.2444 Y-10.1652
G01 X37.2640 Y-10.1149
G01 X37.2981 Y-10.0195
G01 X37.3149 Y-9.9682
G01 X37.3280 Y-9.9209
G01 X37.3526 Y-9.8227
G01 X37.3634 Y-9.7748
G01 X37.3727 Y-9.7216
G01 X37.3876 Y-9.6214
G01 X37.3941 Y-9.5673
G01 X37.3977 Y-9.5178
G01 X37.4035 Y-9.3927
G01 X37.4038 Y-9.3662
G01 X37.4038 Y-6.3088
G00 X37.4038 Y-6.3088
G01 F60.00
G01 Z-1.9000
G01 F120.00
G01 X37.4038 Y-9.3662
G01 X37.4035 Y-9.3927
G01 X37.3977 Y-9.5178
G01 X37.3941 Y-9.5673
G01 X37.3876 Y-9.6214
G01 X37.3727 Y-9.7216
G01 X37.3634 Y-9.7748
G01 X37.3526 Y-9.8227
G01 X37.3280 Y-9.9209
G01 X37.3149 Y-9.9682
G01 X37.2981 Y-10.0195
G01 X37.2640 Y-10.1149
G01 X37.2444 Y-10.1652
G01 X37.2246 Y-10.2101
G01 X37.1813 Y-10.3016
G01 X37.1569 Y-10.3498
G01 X37.1327 Y-10.3925
G01 X37.0806 Y-10.4794
G01 X37.0516 Y-10.5249
G01 X37.0234 Y-10.5650
G01 X36.9630 Y-10.6464
G01 X36.9328 Y-10.6851
G01 X36.8977 Y-10.7260
G01 X36.8297 Y-10.8011
G01 X36.7923 Y-10.8401
G01 X36.7568 Y-10.8740
G01 X36.6817 Y-10.9420
G01 X36.6408 Y-10.9771
G01 X36.6021 Y-11.0073
G01 X36.5207 Y-11.0677
G01 X36.4765 Y-11.0987
G01 X36.4351 Y-11.1249
G01 X36.3482 Y-11.1770
G01 X36.3012 Y-11.2035
G01 X36.2573 Y-11.2256
G01 X36.1658 Y-11.2689
G01 X36.1209 Y-11.2887
G01 X36.0706 Y-11.3083
G01 X35.9752 Y-11.3424
G01 X35.9239 Y-11.3592
G01 X35.8766 Y-11.3723
G01 X35.7784 Y-11.3969
G01 X35.7257 Y-11.4086
G01 X35.6773 Y-11.4170
G01 X35.5771 Y-11.4319
G01 X35.5235 Y-11.4384
G01 X35.4746 Y-11.4420
G01 X35.3734 Y-11.4470
G01 X35.3489 Y-11.4479
G01 X35.3219 Y-11.4482
G01 X1.1112 Y-11.4482
G01 X1.0831 Y-11.4478
G01 X1.0576 Y-11.4469
G01 X0.9565 Y-11.4417
G01 X0.9085 Y-11.4381
G01 X0.8560 Y-11.4317
G01 X0.7558 Y-11.4168
G01 X0.7027 Y-11.4075
G01 X0.6548 Y-11.3967
G01 X0.5565 Y-11.3721
G01 X0.5045 Y-11.3576
G01 X0.4579 Y-11.3422
G01 X0.3626 Y-11.3081
G01 X0.3168 Y-11.2904
G01 X0.2674 Y-11.2687
G01 X0.1759 Y-11.2254
G01 X0.1277 Y-11.2010
G01 X0.0850 Y-11.1768
G01 X-0.0019 Y-11.1247
G01 X-0.0474 Y-11.0958
G01 X-0.0875 Y-11.0675
G01 X-0.1689 Y-11.0072
G01 X-0.2076 Y-10.9770
G01 X-0.2485 Y-10.9418
G01 X-0.3235 Y-10.8738
G01 X-0.3626 Y-10.8365
G01 X-0.3964 Y-10.8009
G01 X-0.4644 Y-10.7259
G01 X-0.4996 Y-10.6850
G01 X-0.5298 Y-10.6463
G01 X-0.5901 Y-10.5649
G01 X-0.6184 Y-10.5248
G01 X-0.6473 Y-10.4793
G01 X-0.6994 Y-10.3924
G01 X-0.7259 Y-10.3454
G01 X-0.7480 Y-10.3015
G01 X-0.7913 Y-10.2100
G01 X-0.8130 Y-10.1606
G01 X-0.8307 Y-10.1148
G01 X-0.8648 Y-10.0195
G01 X-0.8816 Y-9.9682
G01 X-0.8947 Y-9.9209
G01 X-0.9193 Y-9.8226
G01 X-0.9301 Y-9.7747
G01 X-0.9394 Y-9.7216
G01 X-0.9543 Y-9.6214
G01 X-0.9603 Y-9.5727
G01 X-0.9644 Y-9.5189
G01 X-0.9694 Y-9.4177
G01 X-0.9706 Y-9.3662
G01 X-0.9706 Y-6.3088
G00 X-0.9706 Y-6.3088
G01 F60.00
G01 Z-2.0000
G01 F120.00
G01 X-0.9706 Y-9.3662
G01 X-0.9694 Y-9.4177
G01 X-0.9644 Y-9.5189
G01 X-0.9603 Y-9.5727
G01 X-0.9543 Y-9.6214
G01 X-0.9394 Y-9.7216
G01 X-0.9301 Y-9.7747
G01 X-0.9193 Y-9.8226
G01 X-0.8947 Y-9.9209
G01 X-0.8816 Y-9.9682
G01 X-0.8648 Y-10.0195
G01 X-0.8307 Y-10.1148
G01 X-0.8130 Y-10.1606
G01 X-0.7913 Y-10.2100
G01 X-0.7480 Y-10.3015
G01 X-0.7259 Y-10.3454
G01 X-0.6994 Y-10.3924
G01 X-0.6473 Y-10.4793
G01 X-0.6184 Y-10.5248
G01 X-0.5901 Y-10.5649
G01 X-0.5298 Y-10.6463
G01 X-0.4996 Y-10.6850
G01 X-0.4644 Y-10.7259
G01 X-0.3964 Y-10.8009
G01 X-0.3626 Y-10.8365
G01 X-0.3235 Y-10.8738
G01 X-0.2485 Y-10.9418
G01 X-0.2076 Y-10.9770
G01 X-0.1689 Y-11.0072
G01 X-0.0875 Y-11.0675
G01 X-0.0474 Y-11.0958
G01 X-0.0019 Y-11.1247
G01 X0.0850 Y-11.1768
G01 X0.1277 Y-11.2010
G01 X0.1759 Y-11.2254
G01 X0.2674 Y-11.2687
G01 X0.3168 Y-11.2904
G01 X0.3626 Y-11.3081
G01 X0.4579 Y-11.3422
G01 X0.5045 Y-11.3576
G01 X0.5565 Y-11.3721
G01 X0.6548 Y-11.3967
G01 X0.7027 Y-11.4075
G01 X0.7558 Y-11.4168
G01 X0.8560 Y-11.4317
G01 X0.9085 Y-11.4381
G01 X0.9565 Y-11.4417
G01 X1.0576 Y-11.4469
G01 X1.0831 Y-11.4478
G01 X1.1112 Y-11.4482
G01 X35.3219 Y-11.4482
G01 X35.3489 Y-11.4479
G01 X35.3734 Y-11.4470
G01 X35.4746 Y-11.4420
G01 X35.5235 Y-11.4384
G01 X35.5771 Y-11.4319
G01 X35.6773 Y-11.4170
G01 X35.7257 Y-11.4086
G01 X35.7784 Y-11.3969
G01 X35.8766 Y-11.3723
G01 X35.9239 Y-11.3592
G01 X35.9752 Y-11.3424
G01 X36.0706 Y-11.3083
G01 X36.1209 Y-11.2887
G01 X36.1658 Y-11.2689
G01 X36.2573 Y-11.2256
G01 X36.3012 Y-11.2035
G01 X36.3482 Y-11.1770
G01 X36.4351 Y-11.1249
G01 X36.4765 Y-11.0987
G01 X36.5207 Y-11.0677
G01 X36.6021 Y-11.0073
G01 X36.6408 Y-10.9771
G01 X36.6817 Y-10.9420
G01 X36.7568 Y-10.8740
G01 X36.7923 Y-10.8401
G01 X36.8297 Y-10.8011
G01 X36.8977 Y-10.7260
G01 X36.9328 Y-10.6851
G01 X36.9630 Y-10.6464
G01 X37.0234 Y-10.5650
G01 X37.0516 Y-10.5249
G01 X37.0806 Y-10.4794
G01 X37.1327 Y-10.3925
G01 X37.1569 Y-10.3498
G01 X37.1813 Y-10.3016
G01 X37.2246 Y-10.2101
G01 X37.2444 Y-10.1652
G01 X37.2640 Y-10.1149
G01 X37.2981 Y-10.0195
G01 X37.3149 Y-9.9682
G01 X37.3280 Y-9.9209
G01 X37.3526 Y-9.8227
G01 X37.3634 Y-9.7748
G01 X37.3727 Y-9.7216
G01 X37.3876 Y-9.6214
G01 X37.3941 Y-9.5673
G01 X37.3977 Y-9.5178
G01 X37.4035 Y-9.3927
G01 X37.4038 Y-9.3662
G01 X37.4038 Y-6.3088
G00 Z2.0000
M05
G00 Z2.0000
G00 Z30.00


