(G-CODE GENERATED BY FLATCAM v8.994 - www.flatcam.org - Version Date: 2020/11/7)

(Name: display_window_Ф2_низ.gbr_cutout_cnc)
(Type: G-code from Geometry)
(Units: MM)

(Created on Sunday, 05 June 2022 at 21:35)

(This preprocessor is the default preprocessor used by FlatCAM.)
(It is made to work with MACH3 compatible motion controllers.)

(TOOL DIAMETER: 2.0 mm)
(Feedrate_XY: 120.0 mm/min)
(Feedrate_Z: 60.0 mm/min)
(Feedrate rapids 1500.0 mm/min)

(Z_Cut: -2.0 mm)
(DepthPerCut: 0.1 mm <=>20 passes)
(Z_Move: 2.0 mm)
(Z Start: None mm)
(Z End: 30.0 mm)
(X,Y End: None mm)
(Steps per circle: 64)
(Preprocessor Geometry: default)

(X range:   -0.9706 ...   37.5625  mm)
(Y range:  -11.6069 ...    0.9707  mm)

(Spindle Speed: 10000.0 RPM)
G21
G90
G94

G01 F120.00

M5
G00 Z15.0000
G00 X0.0000 Y0.0000
T1
M6    
(MSG, Change to Tool Dia = 2.0000)
M0
G00 Z15.0000

M03 S10000.0
G01 F120.00
G00 X-0.9706 Y-4.2431
G01 F60.00
G01 Z-0.1000
G01 F120.00
G01 X-0.9706 Y-1.1112
G01 X-0.9703 Y-1.0867
G01 X-0.9694 Y-1.0597
G01 X-0.9644 Y-0.9585
G01 X-0.9603 Y-0.9047
G01 X-0.9543 Y-0.8560
G01 X-0.9394 Y-0.7558
G01 X-0.9301 Y-0.7026
G01 X-0.9193 Y-0.6548
G01 X-0.8947 Y-0.5565
G01 X-0.8802 Y-0.5045
G01 X-0.8648 Y-0.4579
G01 X-0.8307 Y-0.3626
G01 X-0.8130 Y-0.3168
G01 X-0.7913 Y-0.2674
G01 X-0.7480 Y-0.1758
G01 X-0.7236 Y-0.1277
G01 X-0.6994 Y-0.0849
G01 X-0.6473 Y0.0019
G01 X-0.6183 Y0.0475
G01 X-0.5901 Y0.0876
G01 X-0.5298 Y0.1689
G01 X-0.4996 Y0.2076
G01 X-0.4644 Y0.2486
G01 X-0.3964 Y0.3236
G01 X-0.3591 Y0.3626
G01 X-0.3235 Y0.3965
G01 X-0.2485 Y0.4645
G01 X-0.2075 Y0.4997
G01 X-0.1688 Y0.5299
G01 X-0.0875 Y0.5902
G01 X-0.0474 Y0.6184
G01 X-0.0018 Y0.6474
G01 X0.0850 Y0.6995
G01 X0.1321 Y0.7260
G01 X0.1759 Y0.7481
G01 X0.2675 Y0.7914
G01 X0.3169 Y0.8131
G01 X0.3627 Y0.8308
G01 X0.4580 Y0.8649
G01 X0.5046 Y0.8803
G01 X0.5566 Y0.8948
G01 X0.6549 Y0.9194
G01 X0.7076 Y0.9311
G01 X0.7559 Y0.9395
G01 X0.8561 Y0.9544
G01 X0.9097 Y0.9609
G01 X0.9586 Y0.9645
G01 X1.0598 Y0.9695
G01 X1.0843 Y0.9704
G01 X1.1113 Y0.9707
G01 X35.4806 Y0.9706
G01 X35.5046 Y0.9703
G01 X35.5311 Y0.9694
G01 X35.6322 Y0.9645
G01 X35.6866 Y0.9604
G01 X35.7358 Y0.9544
G01 X35.8360 Y0.9395
G01 X35.8892 Y0.9302
G01 X35.9370 Y0.9194
G01 X36.0353 Y0.8948
G01 X36.0873 Y0.8803
G01 X36.1339 Y0.8649
G01 X36.2292 Y0.8308
G01 X36.2796 Y0.8113
G01 X36.3244 Y0.7914
G01 X36.4160 Y0.7481
G01 X36.4598 Y0.7260
G01 X36.5069 Y0.6995
G01 X36.5937 Y0.6474
G01 X36.6393 Y0.6184
G01 X36.6794 Y0.5902
G01 X36.7607 Y0.5299
G01 X36.8032 Y0.4965
G01 X36.8404 Y0.4645
G01 X36.9154 Y0.3965
G01 X36.9544 Y0.3592
G01 X36.9883 Y0.3236
G01 X37.0563 Y0.2486
G01 X37.0915 Y0.2076
G01 X37.1217 Y0.1689
G01 X37.1820 Y0.0876
G01 X37.2102 Y0.0475
G01 X37.2392 Y0.0019
G01 X37.2913 Y-0.0849
G01 X37.3178 Y-0.1320
G01 X37.3399 Y-0.1758
G01 X37.3832 Y-0.2674
G01 X37.4049 Y-0.3168
G01 X37.4226 Y-0.3626
G01 X37.4567 Y-0.4579
G01 X37.4735 Y-0.5092
G01 X37.4866 Y-0.5565
G01 X37.5112 Y-0.6548
G01 X37.5220 Y-0.7026
G01 X37.5313 Y-0.7558
G01 X37.5462 Y-0.8560
G01 X37.5527 Y-0.9096
G01 X37.5563 Y-0.9585
G01 X37.5622 Y-1.0842
G01 X37.5625 Y-1.1112
G01 X37.5625 Y-4.2431
G00 X37.5625 Y-4.2431
G01 F60.00
G01 Z-0.2000
G01 F120.00
G01 X37.5625 Y-1.1112
G01 X37.5622 Y-1.0842
G01 X37.5563 Y-0.9585
G01 X37.5527 Y-0.9096
G01 X37.5462 Y-0.8560
G01 X37.5313 Y-0.7558
G01 X37.5220 Y-0.7026
G01 X37.5112 Y-0.6548
G01 X37.4866 Y-0.5565
G01 X37.4735 Y-0.5092
G01 X37.4567 Y-0.4579
G01 X37.4226 Y-0.3626
G01 X37.4049 Y-0.3168
G01 X37.3832 Y-0.2674
G01 X37.3399 Y-0.1758
G01 X37.3178 Y-0.1320
G01 X37.2913 Y-0.0849
G01 X37.2392 Y0.0019
G01 X37.2102 Y0.0475
G01 X37.1820 Y0.0876
G01 X37.1217 Y0.1689
G01 X37.0915 Y0.2076
G01 X37.0563 Y0.2486
G01 X36.9883 Y0.3236
G01 X36.9544 Y0.3592
G01 X36.9154 Y0.3965
G01 X36.8404 Y0.4645
G01 X36.8032 Y0.4965
G01 X36.7607 Y0.5299
G01 X36.6794 Y0.5902
G01 X36.6393 Y0.6184
G01 X36.5937 Y0.6474
G01 X36.5069 Y0.6995
G01 X36.4598 Y0.7260
G01 X36.4160 Y0.7481
G01 X36.3244 Y0.7914
G01 X36.2796 Y0.8113
G01 X36.2292 Y0.8308
G01 X36.1339 Y0.8649
G01 X36.0873 Y0.8803
G01 X36.0353 Y0.8948
G01 X35.9370 Y0.9194
G01 X35.8892 Y0.9302
G01 X35.8360 Y0.9395
G01 X35.7358 Y0.9544
G01 X35.6866 Y0.9604
G01 X35.6322 Y0.9645
G01 X35.5311 Y0.9694
G01 X35.5046 Y0.9703
G01 X35.4806 Y0.9706
G01 X1.1113 Y0.9707
G01 X1.0843 Y0.9704
G01 X1.0598 Y0.9695
G01 X0.9586 Y0.9645
G01 X0.9097 Y0.9609
G01 X0.8561 Y0.9544
G01 X0.7559 Y0.9395
G01 X0.7076 Y0.9311
G01 X0.6549 Y0.9194
G01 X0.5566 Y0.8948
G01 X0.5046 Y0.8803
G01 X0.4580 Y0.8649
G01 X0.3627 Y0.8308
G01 X0.3169 Y0.8131
G01 X0.2675 Y0.7914
G01 X0.1759 Y0.7481
G01 X0.1321 Y0.7260
G01 X0.0850 Y0.6995
G01 X-0.0018 Y0.6474
G01 X-0.0474 Y0.6184
G01 X-0.0875 Y0.5902
G01 X-0.1688 Y0.5299
G01 X-0.2075 Y0.4997
G01 X-0.2485 Y0.4645
G01 X-0.3235 Y0.3965
G01 X-0.3591 Y0.3626
G01 X-0.3964 Y0.3236
G01 X-0.4644 Y0.2486
G01 X-0.4996 Y0.2076
G01 X-0.5298 Y0.1689
G01 X-0.5901 Y0.0876
G01 X-0.6183 Y0.0475
G01 X-0.6473 Y0.0019
G01 X-0.6994 Y-0.0849
G01 X-0.7236 Y-0.1277
G01 X-0.7480 Y-0.1758
G01 X-0.7913 Y-0.2674
G01 X-0.8130 Y-0.3168
G01 X-0.8307 Y-0.3626
G01 X-0.8648 Y-0.4579
G01 X-0.8802 Y-0.5045
G01 X-0.8947 Y-0.5565
G01 X-0.9193 Y-0.6548
G01 X-0.9301 Y-0.7026
G01 X-0.9394 Y-0.7558
G01 X-0.9543 Y-0.8560
G01 X-0.9603 Y-0.9047
G01 X-0.9644 Y-0.9585
G01 X-0.9694 Y-1.0597
G01 X-0.9703 Y-1.0867
G01 X-0.9706 Y-1.1112
G01 X-0.9706 Y-4.2431
G00 X-0.9706 Y-4.2431
G01 F60.00
G01 Z-0.3000
G01 F120.00
G01 X-0.9706 Y-1.1112
G01 X-0.9703 Y-1.0867
G01 X-0.9694 Y-1.0597
G01 X-0.9644 Y-0.9585
G01 X-0.9603 Y-0.9047
G01 X-0.9543 Y-0.8560
G01 X-0.9394 Y-0.7558
G01 X-0.9301 Y-0.7026
G01 X-0.9193 Y-0.6548
G01 X-0.8947 Y-0.5565
G01 X-0.8802 Y-0.5045
G01 X-0.8648 Y-0.4579
G01 X-0.8307 Y-0.3626
G01 X-0.8130 Y-0.3168
G01 X-0.7913 Y-0.2674
G01 X-0.7480 Y-0.1758
G01 X-0.7236 Y-0.1277
G01 X-0.6994 Y-0.0849
G01 X-0.6473 Y0.0019
G01 X-0.6183 Y0.0475
G01 X-0.5901 Y0.0876
G01 X-0.5298 Y0.1689
G01 X-0.4996 Y0.2076
G01 X-0.4644 Y0.2486
G01 X-0.3964 Y0.3236
G01 X-0.3591 Y0.3626
G01 X-0.3235 Y0.3965
G01 X-0.2485 Y0.4645
G01 X-0.2075 Y0.4997
G01 X-0.1688 Y0.5299
G01 X-0.0875 Y0.5902
G01 X-0.0474 Y0.6184
G01 X-0.0018 Y0.6474
G01 X0.0850 Y0.6995
G01 X0.1321 Y0.7260
G01 X0.1759 Y0.7481
G01 X0.2675 Y0.7914
G01 X0.3169 Y0.8131
G01 X0.3627 Y0.8308
G01 X0.4580 Y0.8649
G01 X0.5046 Y0.8803
G01 X0.5566 Y0.8948
G01 X0.6549 Y0.9194
G01 X0.7076 Y0.9311
G01 X0.7559 Y0.9395
G01 X0.8561 Y0.9544
G01 X0.9097 Y0.9609
G01 X0.9586 Y0.9645
G01 X1.0598 Y0.9695
G01 X1.0843 Y0.9704
G01 X1.1113 Y0.9707
G01 X35.4806 Y0.9706
G01 X35.5046 Y0.9703
G01 X35.5311 Y0.9694
G01 X35.6322 Y0.9645
G01 X35.6866 Y0.9604
G01 X35.7358 Y0.9544
G01 X35.8360 Y0.9395
G01 X35.8892 Y0.9302
G01 X35.9370 Y0.9194
G01 X36.0353 Y0.8948
G01 X36.0873 Y0.8803
G01 X36.1339 Y0.8649
G01 X36.2292 Y0.8308
G01 X36.2796 Y0.8113
G01 X36.3244 Y0.7914
G01 X36.4160 Y0.7481
G01 X36.4598 Y0.7260
G01 X36.5069 Y0.6995
G01 X36.5937 Y0.6474
G01 X36.6393 Y0.6184
G01 X36.6794 Y0.5902
G01 X36.7607 Y0.5299
G01 X36.8032 Y0.4965
G01 X36.8404 Y0.4645
G01 X36.9154 Y0.3965
G01 X36.9544 Y0.3592
G01 X36.9883 Y0.3236
G01 X37.0563 Y0.2486
G01 X37.0915 Y0.2076
G01 X37.1217 Y0.1689
G01 X37.1820 Y0.0876
G01 X37.2102 Y0.0475
G01 X37.2392 Y0.0019
G01 X37.2913 Y-0.0849
G01 X37.3178 Y-0.1320
G01 X37.3399 Y-0.1758
G01 X37.3832 Y-0.2674
G01 X37.4049 Y-0.3168
G01 X37.4226 Y-0.3626
G01 X37.4567 Y-0.4579
G01 X37.4735 Y-0.5092
G01 X37.4866 Y-0.5565
G01 X37.5112 Y-0.6548
G01 X37.5220 Y-0.7026
G01 X37.5313 Y-0.7558
G01 X37.5462 Y-0.8560
G01 X37.5527 Y-0.9096
G01 X37.5563 Y-0.9585
G01 X37.5622 Y-1.0842
G01 X37.5625 Y-1.1112
G01 X37.5625 Y-4.2431
G00 X37.5625 Y-4.2431
G01 F60.00
G01 Z-0.4000
G01 F120.00
G01 X37.5625 Y-1.1112
G01 X37.5622 Y-1.0842
G01 X37.5563 Y-0.9585
G01 X37.5527 Y-0.9096
G01 X37.5462 Y-0.8560
G01 X37.5313 Y-0.7558
G01 X37.5220 Y-0.7026
G01 X37.5112 Y-0.6548
G01 X37.4866 Y-0.5565
G01 X37.4735 Y-0.5092
G01 X37.4567 Y-0.4579
G01 X37.4226 Y-0.3626
G01 X37.4049 Y-0.3168
G01 X37.3832 Y-0.2674
G01 X37.3399 Y-0.1758
G01 X37.3178 Y-0.1320
G01 X37.2913 Y-0.0849
G01 X37.2392 Y0.0019
G01 X37.2102 Y0.0475
G01 X37.1820 Y0.0876
G01 X37.1217 Y0.1689
G01 X37.0915 Y0.2076
G01 X37.0563 Y0.2486
G01 X36.9883 Y0.3236
G01 X36.9544 Y0.3592
G01 X36.9154 Y0.3965
G01 X36.8404 Y0.4645
G01 X36.8032 Y0.4965
G01 X36.7607 Y0.5299
G01 X36.6794 Y0.5902
G01 X36.6393 Y0.6184
G01 X36.5937 Y0.6474
G01 X36.5069 Y0.6995
G01 X36.4598 Y0.7260
G01 X36.4160 Y0.7481
G01 X36.3244 Y0.7914
G01 X36.2796 Y0.8113
G01 X36.2292 Y0.8308
G01 X36.1339 Y0.8649
G01 X36.0873 Y0.8803
G01 X36.0353 Y0.8948
G01 X35.9370 Y0.9194
G01 X35.8892 Y0.9302
G01 X35.8360 Y0.9395
G01 X35.7358 Y0.9544
G01 X35.6866 Y0.9604
G01 X35.6322 Y0.9645
G01 X35.5311 Y0.9694
G01 X35.5046 Y0.9703
G01 X35.4806 Y0.9706
G01 X1.1113 Y0.9707
G01 X1.0843 Y0.9704
G01 X1.0598 Y0.9695
G01 X0.9586 Y0.9645
G01 X0.9097 Y0.9609
G01 X0.8561 Y0.9544
G01 X0.7559 Y0.9395
G01 X0.7076 Y0.9311
G01 X0.6549 Y0.9194
G01 X0.5566 Y0.8948
G01 X0.5046 Y0.8803
G01 X0.4580 Y0.8649
G01 X0.3627 Y0.8308
G01 X0.3169 Y0.8131
G01 X0.2675 Y0.7914
G01 X0.1759 Y0.7481
G01 X0.1321 Y0.7260
G01 X0.0850 Y0.6995
G01 X-0.0018 Y0.6474
G01 X-0.0474 Y0.6184
G01 X-0.0875 Y0.5902
G01 X-0.1688 Y0.5299
G01 X-0.2075 Y0.4997
G01 X-0.2485 Y0.4645
G01 X-0.3235 Y0.3965
G01 X-0.3591 Y0.3626
G01 X-0.3964 Y0.3236
G01 X-0.4644 Y0.2486
G01 X-0.4996 Y0.2076
G01 X-0.5298 Y0.1689
G01 X-0.5901 Y0.0876
G01 X-0.6183 Y0.0475
G01 X-0.6473 Y0.0019
G01 X-0.6994 Y-0.0849
G01 X-0.7236 Y-0.1277
G01 X-0.7480 Y-0.1758
G01 X-0.7913 Y-0.2674
G01 X-0.8130 Y-0.3168
G01 X-0.8307 Y-0.3626
G01 X-0.8648 Y-0.4579
G01 X-0.8802 Y-0.5045
G01 X-0.8947 Y-0.5565
G01 X-0.9193 Y-0.6548
G01 X-0.9301 Y-0.7026
G01 X-0.9394 Y-0.7558
G01 X-0.9543 Y-0.8560
G01 X-0.9603 Y-0.9047
G01 X-0.9644 Y-0.9585
G01 X-0.9694 Y-1.0597
G01 X-0.9703 Y-1.0867
G01 X-0.9706 Y-1.1112
G01 X-0.9706 Y-4.2431
G00 X-0.9706 Y-4.2431
G01 F60.00
G01 Z-0.5000
G01 F120.00
G01 X-0.9706 Y-1.1112
G01 X-0.9703 Y-1.0867
G01 X-0.9694 Y-1.0597
G01 X-0.9644 Y-0.9585
G01 X-0.9603 Y-0.9047
G01 X-0.9543 Y-0.8560
G01 X-0.9394 Y-0.7558
G01 X-0.9301 Y-0.7026
G01 X-0.9193 Y-0.6548
G01 X-0.8947 Y-0.5565
G01 X-0.8802 Y-0.5045
G01 X-0.8648 Y-0.4579
G01 X-0.8307 Y-0.3626
G01 X-0.8130 Y-0.3168
G01 X-0.7913 Y-0.2674
G01 X-0.7480 Y-0.1758
G01 X-0.7236 Y-0.1277
G01 X-0.6994 Y-0.0849
G01 X-0.6473 Y0.0019
G01 X-0.6183 Y0.0475
G01 X-0.5901 Y0.0876
G01 X-0.5298 Y0.1689
G01 X-0.4996 Y0.2076
G01 X-0.4644 Y0.2486
G01 X-0.3964 Y0.3236
G01 X-0.3591 Y0.3626
G01 X-0.3235 Y0.3965
G01 X-0.2485 Y0.4645
G01 X-0.2075 Y0.4997
G01 X-0.1688 Y0.5299
G01 X-0.0875 Y0.5902
G01 X-0.0474 Y0.6184
G01 X-0.0018 Y0.6474
G01 X0.0850 Y0.6995
G01 X0.1321 Y0.7260
G01 X0.1759 Y0.7481
G01 X0.2675 Y0.7914
G01 X0.3169 Y0.8131
G01 X0.3627 Y0.8308
G01 X0.4580 Y0.8649
G01 X0.5046 Y0.8803
G01 X0.5566 Y0.8948
G01 X0.6549 Y0.9194
G01 X0.7076 Y0.9311
G01 X0.7559 Y0.9395
G01 X0.8561 Y0.9544
G01 X0.9097 Y0.9609
G01 X0.9586 Y0.9645
G01 X1.0598 Y0.9695
G01 X1.0843 Y0.9704
G01 X1.1113 Y0.9707
G01 X35.4806 Y0.9706
G01 X35.5046 Y0.9703
G01 X35.5311 Y0.9694
G01 X35.6322 Y0.9645
G01 X35.6866 Y0.9604
G01 X35.7358 Y0.9544
G01 X35.8360 Y0.9395
G01 X35.8892 Y0.9302
G01 X35.9370 Y0.9194
G01 X36.0353 Y0.8948
G01 X36.0873 Y0.8803
G01 X36.1339 Y0.8649
G01 X36.2292 Y0.8308
G01 X36.2796 Y0.8113
G01 X36.3244 Y0.7914
G01 X36.4160 Y0.7481
G01 X36.4598 Y0.7260
G01 X36.5069 Y0.6995
G01 X36.5937 Y0.6474
G01 X36.6393 Y0.6184
G01 X36.6794 Y0.5902
G01 X36.7607 Y0.5299
G01 X36.8032 Y0.4965
G01 X36.8404 Y0.4645
G01 X36.9154 Y0.3965
G01 X36.9544 Y0.3592
G01 X36.9883 Y0.3236
G01 X37.0563 Y0.2486
G01 X37.0915 Y0.2076
G01 X37.1217 Y0.1689
G01 X37.1820 Y0.0876
G01 X37.2102 Y0.0475
G01 X37.2392 Y0.0019
G01 X37.2913 Y-0.0849
G01 X37.3178 Y-0.1320
G01 X37.3399 Y-0.1758
G01 X37.3832 Y-0.2674
G01 X37.4049 Y-0.3168
G01 X37.4226 Y-0.3626
G01 X37.4567 Y-0.4579
G01 X37.4735 Y-0.5092
G01 X37.4866 Y-0.5565
G01 X37.5112 Y-0.6548
G01 X37.5220 Y-0.7026
G01 X37.5313 Y-0.7558
G01 X37.5462 Y-0.8560
G01 X37.5527 Y-0.9096
G01 X37.5563 Y-0.9585
G01 X37.5622 Y-1.0842
G01 X37.5625 Y-1.1112
G01 X37.5625 Y-4.2431
G00 X37.5625 Y-4.2431
G01 F60.00
G01 Z-0.6000
G01 F120.00
G01 X37.5625 Y-1.1112
G01 X37.5622 Y-1.0842
G01 X37.5563 Y-0.9585
G01 X37.5527 Y-0.9096
G01 X37.5462 Y-0.8560
G01 X37.5313 Y-0.7558
G01 X37.5220 Y-0.7026
G01 X37.5112 Y-0.6548
G01 X37.4866 Y-0.5565
G01 X37.4735 Y-0.5092
G01 X37.4567 Y-0.4579
G01 X37.4226 Y-0.3626
G01 X37.4049 Y-0.3168
G01 X37.3832 Y-0.2674
G01 X37.3399 Y-0.1758
G01 X37.3178 Y-0.1320
G01 X37.2913 Y-0.0849
G01 X37.2392 Y0.0019
G01 X37.2102 Y0.0475
G01 X37.1820 Y0.0876
G01 X37.1217 Y0.1689
G01 X37.0915 Y0.2076
G01 X37.0563 Y0.2486
G01 X36.9883 Y0.3236
G01 X36.9544 Y0.3592
G01 X36.9154 Y0.3965
G01 X36.8404 Y0.4645
G01 X36.8032 Y0.4965
G01 X36.7607 Y0.5299
G01 X36.6794 Y0.5902
G01 X36.6393 Y0.6184
G01 X36.5937 Y0.6474
G01 X36.5069 Y0.6995
G01 X36.4598 Y0.7260
G01 X36.4160 Y0.7481
G01 X36.3244 Y0.7914
G01 X36.2796 Y0.8113
G01 X36.2292 Y0.8308
G01 X36.1339 Y0.8649
G01 X36.0873 Y0.8803
G01 X36.0353 Y0.8948
G01 X35.9370 Y0.9194
G01 X35.8892 Y0.9302
G01 X35.8360 Y0.9395
G01 X35.7358 Y0.9544
G01 X35.6866 Y0.9604
G01 X35.6322 Y0.9645
G01 X35.5311 Y0.9694
G01 X35.5046 Y0.9703
G01 X35.4806 Y0.9706
G01 X1.1113 Y0.9707
G01 X1.0843 Y0.9704
G01 X1.0598 Y0.9695
G01 X0.9586 Y0.9645
G01 X0.9097 Y0.9609
G01 X0.8561 Y0.9544
G01 X0.7559 Y0.9395
G01 X0.7076 Y0.9311
G01 X0.6549 Y0.9194
G01 X0.5566 Y0.8948
G01 X0.5046 Y0.8803
G01 X0.4580 Y0.8649
G01 X0.3627 Y0.8308
G01 X0.3169 Y0.8131
G01 X0.2675 Y0.7914
G01 X0.1759 Y0.7481
G01 X0.1321 Y0.7260
G01 X0.0850 Y0.6995
G01 X-0.0018 Y0.6474
G01 X-0.0474 Y0.6184
G01 X-0.0875 Y0.5902
G01 X-0.1688 Y0.5299
G01 X-0.2075 Y0.4997
G01 X-0.2485 Y0.4645
G01 X-0.3235 Y0.3965
G01 X-0.3591 Y0.3626
G01 X-0.3964 Y0.3236
G01 X-0.4644 Y0.2486
G01 X-0.4996 Y0.2076
G01 X-0.5298 Y0.1689
G01 X-0.5901 Y0.0876
G01 X-0.6183 Y0.0475
G01 X-0.6473 Y0.0019
G01 X-0.6994 Y-0.0849
G01 X-0.7236 Y-0.1277
G01 X-0.7480 Y-0.1758
G01 X-0.7913 Y-0.2674
G01 X-0.8130 Y-0.3168
G01 X-0.8307 Y-0.3626
G01 X-0.8648 Y-0.4579
G01 X-0.8802 Y-0.5045
G01 X-0.8947 Y-0.5565
G01 X-0.9193 Y-0.6548
G01 X-0.9301 Y-0.7026
G01 X-0.9394 Y-0.7558
G01 X-0.9543 Y-0.8560
G01 X-0.9603 Y-0.9047
G01 X-0.9644 Y-0.9585
G01 X-0.9694 Y-1.0597
G01 X-0.9703 Y-1.0867
G01 X-0.9706 Y-1.1112
G01 X-0.9706 Y-4.2431
G00 X-0.9706 Y-4.2431
G01 F60.00
G01 Z-0.7000
G01 F120.00
G01 X-0.9706 Y-1.1112
G01 X-0.9703 Y-1.0867
G01 X-0.9694 Y-1.0597
G01 X-0.9644 Y-0.9585
G01 X-0.9603 Y-0.9047
G01 X-0.9543 Y-0.8560
G01 X-0.9394 Y-0.7558
G01 X-0.9301 Y-0.7026
G01 X-0.9193 Y-0.6548
G01 X-0.8947 Y-0.5565
G01 X-0.8802 Y-0.5045
G01 X-0.8648 Y-0.4579
G01 X-0.8307 Y-0.3626
G01 X-0.8130 Y-0.3168
G01 X-0.7913 Y-0.2674
G01 X-0.7480 Y-0.1758
G01 X-0.7236 Y-0.1277
G01 X-0.6994 Y-0.0849
G01 X-0.6473 Y0.0019
G01 X-0.6183 Y0.0475
G01 X-0.5901 Y0.0876
G01 X-0.5298 Y0.1689
G01 X-0.4996 Y0.2076
G01 X-0.4644 Y0.2486
G01 X-0.3964 Y0.3236
G01 X-0.3591 Y0.3626
G01 X-0.3235 Y0.3965
G01 X-0.2485 Y0.4645
G01 X-0.2075 Y0.4997
G01 X-0.1688 Y0.5299
G01 X-0.0875 Y0.5902
G01 X-0.0474 Y0.6184
G01 X-0.0018 Y0.6474
G01 X0.0850 Y0.6995
G01 X0.1321 Y0.7260
G01 X0.1759 Y0.7481
G01 X0.2675 Y0.7914
G01 X0.3169 Y0.8131
G01 X0.3627 Y0.8308
G01 X0.4580 Y0.8649
G01 X0.5046 Y0.8803
G01 X0.5566 Y0.8948
G01 X0.6549 Y0.9194
G01 X0.7076 Y0.9311
G01 X0.7559 Y0.9395
G01 X0.8561 Y0.9544
G01 X0.9097 Y0.9609
G01 X0.9586 Y0.9645
G01 X1.0598 Y0.9695
G01 X1.0843 Y0.9704
G01 X1.1113 Y0.9707
G01 X35.4806 Y0.9706
G01 X35.5046 Y0.9703
G01 X35.5311 Y0.9694
G01 X35.6322 Y0.9645
G01 X35.6866 Y0.9604
G01 X35.7358 Y0.9544
G01 X35.8360 Y0.9395
G01 X35.8892 Y0.9302
G01 X35.9370 Y0.9194
G01 X36.0353 Y0.8948
G01 X36.0873 Y0.8803
G01 X36.1339 Y0.8649
G01 X36.2292 Y0.8308
G01 X36.2796 Y0.8113
G01 X36.3244 Y0.7914
G01 X36.4160 Y0.7481
G01 X36.4598 Y0.7260
G01 X36.5069 Y0.6995
G01 X36.5937 Y0.6474
G01 X36.6393 Y0.6184
G01 X36.6794 Y0.5902
G01 X36.7607 Y0.5299
G01 X36.8032 Y0.4965
G01 X36.8404 Y0.4645
G01 X36.9154 Y0.3965
G01 X36.9544 Y0.3592
G01 X36.9883 Y0.3236
G01 X37.0563 Y0.2486
G01 X37.0915 Y0.2076
G01 X37.1217 Y0.1689
G01 X37.1820 Y0.0876
G01 X37.2102 Y0.0475
G01 X37.2392 Y0.0019
G01 X37.2913 Y-0.0849
G01 X37.3178 Y-0.1320
G01 X37.3399 Y-0.1758
G01 X37.3832 Y-0.2674
G01 X37.4049 Y-0.3168
G01 X37.4226 Y-0.3626
G01 X37.4567 Y-0.4579
G01 X37.4735 Y-0.5092
G01 X37.4866 Y-0.5565
G01 X37.5112 Y-0.6548
G01 X37.5220 Y-0.7026
G01 X37.5313 Y-0.7558
G01 X37.5462 Y-0.8560
G01 X37.5527 Y-0.9096
G01 X37.5563 Y-0.9585
G01 X37.5622 Y-1.0842
G01 X37.5625 Y-1.1112
G01 X37.5625 Y-4.2431
G00 X37.5625 Y-4.2431
G01 F60.00
G01 Z-0.8000
G01 F120.00
G01 X37.5625 Y-1.1112
G01 X37.5622 Y-1.0842
G01 X37.5563 Y-0.9585
G01 X37.5527 Y-0.9096
G01 X37.5462 Y-0.8560
G01 X37.5313 Y-0.7558
G01 X37.5220 Y-0.7026
G01 X37.5112 Y-0.6548
G01 X37.4866 Y-0.5565
G01 X37.4735 Y-0.5092
G01 X37.4567 Y-0.4579
G01 X37.4226 Y-0.3626
G01 X37.4049 Y-0.3168
G01 X37.3832 Y-0.2674
G01 X37.3399 Y-0.1758
G01 X37.3178 Y-0.1320
G01 X37.2913 Y-0.0849
G01 X37.2392 Y0.0019
G01 X37.2102 Y0.0475
G01 X37.1820 Y0.0876
G01 X37.1217 Y0.1689
G01 X37.0915 Y0.2076
G01 X37.0563 Y0.2486
G01 X36.9883 Y0.3236
G01 X36.9544 Y0.3592
G01 X36.9154 Y0.3965
G01 X36.8404 Y0.4645
G01 X36.8032 Y0.4965
G01 X36.7607 Y0.5299
G01 X36.6794 Y0.5902
G01 X36.6393 Y0.6184
G01 X36.5937 Y0.6474
G01 X36.5069 Y0.6995
G01 X36.4598 Y0.7260
G01 X36.4160 Y0.7481
G01 X36.3244 Y0.7914
G01 X36.2796 Y0.8113
G01 X36.2292 Y0.8308
G01 X36.1339 Y0.8649
G01 X36.0873 Y0.8803
G01 X36.0353 Y0.8948
G01 X35.9370 Y0.9194
G01 X35.8892 Y0.9302
G01 X35.8360 Y0.9395
G01 X35.7358 Y0.9544
G01 X35.6866 Y0.9604
G01 X35.6322 Y0.9645
G01 X35.5311 Y0.9694
G01 X35.5046 Y0.9703
G01 X35.4806 Y0.9706
G01 X1.1113 Y0.9707
G01 X1.0843 Y0.9704
G01 X1.0598 Y0.9695
G01 X0.9586 Y0.9645
G01 X0.9097 Y0.9609
G01 X0.8561 Y0.9544
G01 X0.7559 Y0.9395
G01 X0.7076 Y0.9311
G01 X0.6549 Y0.9194
G01 X0.5566 Y0.8948
G01 X0.5046 Y0.8803
G01 X0.4580 Y0.8649
G01 X0.3627 Y0.8308
G01 X0.3169 Y0.8131
G01 X0.2675 Y0.7914
G01 X0.1759 Y0.7481
G01 X0.1321 Y0.7260
G01 X0.0850 Y0.6995
G01 X-0.0018 Y0.6474
G01 X-0.0474 Y0.6184
G01 X-0.0875 Y0.5902
G01 X-0.1688 Y0.5299
G01 X-0.2075 Y0.4997
G01 X-0.2485 Y0.4645
G01 X-0.3235 Y0.3965
G01 X-0.3591 Y0.3626
G01 X-0.3964 Y0.3236
G01 X-0.4644 Y0.2486
G01 X-0.4996 Y0.2076
G01 X-0.5298 Y0.1689
G01 X-0.5901 Y0.0876
G01 X-0.6183 Y0.0475
G01 X-0.6473 Y0.0019
G01 X-0.6994 Y-0.0849
G01 X-0.7236 Y-0.1277
G01 X-0.7480 Y-0.1758
G01 X-0.7913 Y-0.2674
G01 X-0.8130 Y-0.3168
G01 X-0.8307 Y-0.3626
G01 X-0.8648 Y-0.4579
G01 X-0.8802 Y-0.5045
G01 X-0.8947 Y-0.5565
G01 X-0.9193 Y-0.6548
G01 X-0.9301 Y-0.7026
G01 X-0.9394 Y-0.7558
G01 X-0.9543 Y-0.8560
G01 X-0.9603 Y-0.9047
G01 X-0.9644 Y-0.9585
G01 X-0.9694 Y-1.0597
G01 X-0.9703 Y-1.0867
G01 X-0.9706 Y-1.1112
G01 X-0.9706 Y-4.2431
G00 X-0.9706 Y-4.2431
G01 F60.00
G01 Z-0.9000
G01 F120.00
G01 X-0.9706 Y-1.1112
G01 X-0.9703 Y-1.0867
G01 X-0.9694 Y-1.0597
G01 X-0.9644 Y-0.9585
G01 X-0.9603 Y-0.9047
G01 X-0.9543 Y-0.8560
G01 X-0.9394 Y-0.7558
G01 X-0.9301 Y-0.7026
G01 X-0.9193 Y-0.6548
G01 X-0.8947 Y-0.5565
G01 X-0.8802 Y-0.5045
G01 X-0.8648 Y-0.4579
G01 X-0.8307 Y-0.3626
G01 X-0.8130 Y-0.3168
G01 X-0.7913 Y-0.2674
G01 X-0.7480 Y-0.1758
G01 X-0.7236 Y-0.1277
G01 X-0.6994 Y-0.0849
G01 X-0.6473 Y0.0019
G01 X-0.6183 Y0.0475
G01 X-0.5901 Y0.0876
G01 X-0.5298 Y0.1689
G01 X-0.4996 Y0.2076
G01 X-0.4644 Y0.2486
G01 X-0.3964 Y0.3236
G01 X-0.3591 Y0.3626
G01 X-0.3235 Y0.3965
G01 X-0.2485 Y0.4645
G01 X-0.2075 Y0.4997
G01 X-0.1688 Y0.5299
G01 X-0.0875 Y0.5902
G01 X-0.0474 Y0.6184
G01 X-0.0018 Y0.6474
G01 X0.0850 Y0.6995
G01 X0.1321 Y0.7260
G01 X0.1759 Y0.7481
G01 X0.2675 Y0.7914
G01 X0.3169 Y0.8131
G01 X0.3627 Y0.8308
G01 X0.4580 Y0.8649
G01 X0.5046 Y0.8803
G01 X0.5566 Y0.8948
G01 X0.6549 Y0.9194
G01 X0.7076 Y0.9311
G01 X0.7559 Y0.9395
G01 X0.8561 Y0.9544
G01 X0.9097 Y0.9609
G01 X0.9586 Y0.9645
G01 X1.0598 Y0.9695
G01 X1.0843 Y0.9704
G01 X1.1113 Y0.9707
G01 X35.4806 Y0.9706
G01 X35.5046 Y0.9703
G01 X35.5311 Y0.9694
G01 X35.6322 Y0.9645
G01 X35.6866 Y0.9604
G01 X35.7358 Y0.9544
G01 X35.8360 Y0.9395
G01 X35.8892 Y0.9302
G01 X35.9370 Y0.9194
G01 X36.0353 Y0.8948
G01 X36.0873 Y0.8803
G01 X36.1339 Y0.8649
G01 X36.2292 Y0.8308
G01 X36.2796 Y0.8113
G01 X36.3244 Y0.7914
G01 X36.4160 Y0.7481
G01 X36.4598 Y0.7260
G01 X36.5069 Y0.6995
G01 X36.5937 Y0.6474
G01 X36.6393 Y0.6184
G01 X36.6794 Y0.5902
G01 X36.7607 Y0.5299
G01 X36.8032 Y0.4965
G01 X36.8404 Y0.4645
G01 X36.9154 Y0.3965
G01 X36.9544 Y0.3592
G01 X36.9883 Y0.3236
G01 X37.0563 Y0.2486
G01 X37.0915 Y0.2076
G01 X37.1217 Y0.1689
G01 X37.1820 Y0.0876
G01 X37.2102 Y0.0475
G01 X37.2392 Y0.0019
G01 X37.2913 Y-0.0849
G01 X37.3178 Y-0.1320
G01 X37.3399 Y-0.1758
G01 X37.3832 Y-0.2674
G01 X37.4049 Y-0.3168
G01 X37.4226 Y-0.3626
G01 X37.4567 Y-0.4579
G01 X37.4735 Y-0.5092
G01 X37.4866 Y-0.5565
G01 X37.5112 Y-0.6548
G01 X37.5220 Y-0.7026
G01 X37.5313 Y-0.7558
G01 X37.5462 Y-0.8560
G01 X37.5527 Y-0.9096
G01 X37.5563 Y-0.9585
G01 X37.5622 Y-1.0842
G01 X37.5625 Y-1.1112
G01 X37.5625 Y-4.2431
G00 X37.5625 Y-4.2431
G01 F60.00
G01 Z-1.0000
G01 F120.00
G01 X37.5625 Y-1.1112
G01 X37.5622 Y-1.0842
G01 X37.5563 Y-0.9585
G01 X37.5527 Y-0.9096
G01 X37.5462 Y-0.8560
G01 X37.5313 Y-0.7558
G01 X37.5220 Y-0.7026
G01 X37.5112 Y-0.6548
G01 X37.4866 Y-0.5565
G01 X37.4735 Y-0.5092
G01 X37.4567 Y-0.4579
G01 X37.4226 Y-0.3626
G01 X37.4049 Y-0.3168
G01 X37.3832 Y-0.2674
G01 X37.3399 Y-0.1758
G01 X37.3178 Y-0.1320
G01 X37.2913 Y-0.0849
G01 X37.2392 Y0.0019
G01 X37.2102 Y0.0475
G01 X37.1820 Y0.0876
G01 X37.1217 Y0.1689
G01 X37.0915 Y0.2076
G01 X37.0563 Y0.2486
G01 X36.9883 Y0.3236
G01 X36.9544 Y0.3592
G01 X36.9154 Y0.3965
G01 X36.8404 Y0.4645
G01 X36.8032 Y0.4965
G01 X36.7607 Y0.5299
G01 X36.6794 Y0.5902
G01 X36.6393 Y0.6184
G01 X36.5937 Y0.6474
G01 X36.5069 Y0.6995
G01 X36.4598 Y0.7260
G01 X36.4160 Y0.7481
G01 X36.3244 Y0.7914
G01 X36.2796 Y0.8113
G01 X36.2292 Y0.8308
G01 X36.1339 Y0.8649
G01 X36.0873 Y0.8803
G01 X36.0353 Y0.8948
G01 X35.9370 Y0.9194
G01 X35.8892 Y0.9302
G01 X35.8360 Y0.9395
G01 X35.7358 Y0.9544
G01 X35.6866 Y0.9604
G01 X35.6322 Y0.9645
G01 X35.5311 Y0.9694
G01 X35.5046 Y0.9703
G01 X35.4806 Y0.9706
G01 X1.1113 Y0.9707
G01 X1.0843 Y0.9704
G01 X1.0598 Y0.9695
G01 X0.9586 Y0.9645
G01 X0.9097 Y0.9609
G01 X0.8561 Y0.9544
G01 X0.7559 Y0.9395
G01 X0.7076 Y0.9311
G01 X0.6549 Y0.9194
G01 X0.5566 Y0.8948
G01 X0.5046 Y0.8803
G01 X0.4580 Y0.8649
G01 X0.3627 Y0.8308
G01 X0.3169 Y0.8131
G01 X0.2675 Y0.7914
G01 X0.1759 Y0.7481
G01 X0.1321 Y0.7260
G01 X0.0850 Y0.6995
G01 X-0.0018 Y0.6474
G01 X-0.0474 Y0.6184
G01 X-0.0875 Y0.5902
G01 X-0.1688 Y0.5299
G01 X-0.2075 Y0.4997
G01 X-0.2485 Y0.4645
G01 X-0.3235 Y0.3965
G01 X-0.3591 Y0.3626
G01 X-0.3964 Y0.3236
G01 X-0.4644 Y0.2486
G01 X-0.4996 Y0.2076
G01 X-0.5298 Y0.1689
G01 X-0.5901 Y0.0876
G01 X-0.6183 Y0.0475
G01 X-0.6473 Y0.0019
G01 X-0.6994 Y-0.0849
G01 X-0.7236 Y-0.1277
G01 X-0.7480 Y-0.1758
G01 X-0.7913 Y-0.2674
G01 X-0.8130 Y-0.3168
G01 X-0.8307 Y-0.3626
G01 X-0.8648 Y-0.4579
G01 X-0.8802 Y-0.5045
G01 X-0.8947 Y-0.5565
G01 X-0.9193 Y-0.6548
G01 X-0.9301 Y-0.7026
G01 X-0.9394 Y-0.7558
G01 X-0.9543 Y-0.8560
G01 X-0.9603 Y-0.9047
G01 X-0.9644 Y-0.9585
G01 X-0.9694 Y-1.0597
G01 X-0.9703 Y-1.0867
G01 X-0.9706 Y-1.1112
G01 X-0.9706 Y-4.2431
G00 X-0.9706 Y-4.2431
G01 F60.00
G01 Z-1.1000
G01 F120.00
G01 X-0.9706 Y-1.1112
G01 X-0.9703 Y-1.0867
G01 X-0.9694 Y-1.0597
G01 X-0.9644 Y-0.9585
G01 X-0.9603 Y-0.9047
G01 X-0.9543 Y-0.8560
G01 X-0.9394 Y-0.7558
G01 X-0.9301 Y-0.7026
G01 X-0.9193 Y-0.6548
G01 X-0.8947 Y-0.5565
G01 X-0.8802 Y-0.5045
G01 X-0.8648 Y-0.4579
G01 X-0.8307 Y-0.3626
G01 X-0.8130 Y-0.3168
G01 X-0.7913 Y-0.2674
G01 X-0.7480 Y-0.1758
G01 X-0.7236 Y-0.1277
G01 X-0.6994 Y-0.0849
G01 X-0.6473 Y0.0019
G01 X-0.6183 Y0.0475
G01 X-0.5901 Y0.0876
G01 X-0.5298 Y0.1689
G01 X-0.4996 Y0.2076
G01 X-0.4644 Y0.2486
G01 X-0.3964 Y0.3236
G01 X-0.3591 Y0.3626
G01 X-0.3235 Y0.3965
G01 X-0.2485 Y0.4645
G01 X-0.2075 Y0.4997
G01 X-0.1688 Y0.5299
G01 X-0.0875 Y0.5902
G01 X-0.0474 Y0.6184
G01 X-0.0018 Y0.6474
G01 X0.0850 Y0.6995
G01 X0.1321 Y0.7260
G01 X0.1759 Y0.7481
G01 X0.2675 Y0.7914
G01 X0.3169 Y0.8131
G01 X0.3627 Y0.8308
G01 X0.4580 Y0.8649
G01 X0.5046 Y0.8803
G01 X0.5566 Y0.8948
G01 X0.6549 Y0.9194
G01 X0.7076 Y0.9311
G01 X0.7559 Y0.9395
G01 X0.8561 Y0.9544
G01 X0.9097 Y0.9609
G01 X0.9586 Y0.9645
G01 X1.0598 Y0.9695
G01 X1.0843 Y0.9704
G01 X1.1113 Y0.9707
G01 X35.4806 Y0.9706
G01 X35.5046 Y0.9703
G01 X35.5311 Y0.9694
G01 X35.6322 Y0.9645
G01 X35.6866 Y0.9604
G01 X35.7358 Y0.9544
G01 X35.8360 Y0.9395
G01 X35.8892 Y0.9302
G01 X35.9370 Y0.9194
G01 X36.0353 Y0.8948
G01 X36.0873 Y0.8803
G01 X36.1339 Y0.8649
G01 X36.2292 Y0.8308
G01 X36.2796 Y0.8113
G01 X36.3244 Y0.7914
G01 X36.4160 Y0.7481
G01 X36.4598 Y0.7260
G01 X36.5069 Y0.6995
G01 X36.5937 Y0.6474
G01 X36.6393 Y0.6184
G01 X36.6794 Y0.5902
G01 X36.7607 Y0.5299
G01 X36.8032 Y0.4965
G01 X36.8404 Y0.4645
G01 X36.9154 Y0.3965
G01 X36.9544 Y0.3592
G01 X36.9883 Y0.3236
G01 X37.0563 Y0.2486
G01 X37.0915 Y0.2076
G01 X37.1217 Y0.1689
G01 X37.1820 Y0.0876
G01 X37.2102 Y0.0475
G01 X37.2392 Y0.0019
G01 X37.2913 Y-0.0849
G01 X37.3178 Y-0.1320
G01 X37.3399 Y-0.1758
G01 X37.3832 Y-0.2674
G01 X37.4049 Y-0.3168
G01 X37.4226 Y-0.3626
G01 X37.4567 Y-0.4579
G01 X37.4735 Y-0.5092
G01 X37.4866 Y-0.5565
G01 X37.5112 Y-0.6548
G01 X37.5220 Y-0.7026
G01 X37.5313 Y-0.7558
G01 X37.5462 Y-0.8560
G01 X37.5527 Y-0.9096
G01 X37.5563 Y-0.9585
G01 X37.5622 Y-1.0842
G01 X37.5625 Y-1.1112
G01 X37.5625 Y-4.2431
G00 X37.5625 Y-4.2431
G01 F60.00
G01 Z-1.2000
G01 F120.00
G01 X37.5625 Y-1.1112
G01 X37.5622 Y-1.0842
G01 X37.5563 Y-0.9585
G01 X37.5527 Y-0.9096
G01 X37.5462 Y-0.8560
G01 X37.5313 Y-0.7558
G01 X37.5220 Y-0.7026
G01 X37.5112 Y-0.6548
G01 X37.4866 Y-0.5565
G01 X37.4735 Y-0.5092
G01 X37.4567 Y-0.4579
G01 X37.4226 Y-0.3626
G01 X37.4049 Y-0.3168
G01 X37.3832 Y-0.2674
G01 X37.3399 Y-0.1758
G01 X37.3178 Y-0.1320
G01 X37.2913 Y-0.0849
G01 X37.2392 Y0.0019
G01 X37.2102 Y0.0475
G01 X37.1820 Y0.0876
G01 X37.1217 Y0.1689
G01 X37.0915 Y0.2076
G01 X37.0563 Y0.2486
G01 X36.9883 Y0.3236
G01 X36.9544 Y0.3592
G01 X36.9154 Y0.3965
G01 X36.8404 Y0.4645
G01 X36.8032 Y0.4965
G01 X36.7607 Y0.5299
G01 X36.6794 Y0.5902
G01 X36.6393 Y0.6184
G01 X36.5937 Y0.6474
G01 X36.5069 Y0.6995
G01 X36.4598 Y0.7260
G01 X36.4160 Y0.7481
G01 X36.3244 Y0.7914
G01 X36.2796 Y0.8113
G01 X36.2292 Y0.8308
G01 X36.1339 Y0.8649
G01 X36.0873 Y0.8803
G01 X36.0353 Y0.8948
G01 X35.9370 Y0.9194
G01 X35.8892 Y0.9302
G01 X35.8360 Y0.9395
G01 X35.7358 Y0.9544
G01 X35.6866 Y0.9604
G01 X35.6322 Y0.9645
G01 X35.5311 Y0.9694
G01 X35.5046 Y0.9703
G01 X35.4806 Y0.9706
G01 X1.1113 Y0.9707
G01 X1.0843 Y0.9704
G01 X1.0598 Y0.9695
G01 X0.9586 Y0.9645
G01 X0.9097 Y0.9609
G01 X0.8561 Y0.9544
G01 X0.7559 Y0.9395
G01 X0.7076 Y0.9311
G01 X0.6549 Y0.9194
G01 X0.5566 Y0.8948
G01 X0.5046 Y0.8803
G01 X0.4580 Y0.8649
G01 X0.3627 Y0.8308
G01 X0.3169 Y0.8131
G01 X0.2675 Y0.7914
G01 X0.1759 Y0.7481
G01 X0.1321 Y0.7260
G01 X0.0850 Y0.6995
G01 X-0.0018 Y0.6474
G01 X-0.0474 Y0.6184
G01 X-0.0875 Y0.5902
G01 X-0.1688 Y0.5299
G01 X-0.2075 Y0.4997
G01 X-0.2485 Y0.4645
G01 X-0.3235 Y0.3965
G01 X-0.3591 Y0.3626
G01 X-0.3964 Y0.3236
G01 X-0.4644 Y0.2486
G01 X-0.4996 Y0.2076
G01 X-0.5298 Y0.1689
G01 X-0.5901 Y0.0876
G01 X-0.6183 Y0.0475
G01 X-0.6473 Y0.0019
G01 X-0.6994 Y-0.0849
G01 X-0.7236 Y-0.1277
G01 X-0.7480 Y-0.1758
G01 X-0.7913 Y-0.2674
G01 X-0.8130 Y-0.3168
G01 X-0.8307 Y-0.3626
G01 X-0.8648 Y-0.4579
G01 X-0.8802 Y-0.5045
G01 X-0.8947 Y-0.5565
G01 X-0.9193 Y-0.6548
G01 X-0.9301 Y-0.7026
G01 X-0.9394 Y-0.7558
G01 X-0.9543 Y-0.8560
G01 X-0.9603 Y-0.9047
G01 X-0.9644 Y-0.9585
G01 X-0.9694 Y-1.0597
G01 X-0.9703 Y-1.0867
G01 X-0.9706 Y-1.1112
G01 X-0.9706 Y-4.2431
G00 X-0.9706 Y-4.2431
G01 F60.00
G01 Z-1.3000
G01 F120.00
G01 X-0.9706 Y-1.1112
G01 X-0.9703 Y-1.0867
G01 X-0.9694 Y-1.0597
G01 X-0.9644 Y-0.9585
G01 X-0.9603 Y-0.9047
G01 X-0.9543 Y-0.8560
G01 X-0.9394 Y-0.7558
G01 X-0.9301 Y-0.7026
G01 X-0.9193 Y-0.6548
G01 X-0.8947 Y-0.5565
G01 X-0.8802 Y-0.5045
G01 X-0.8648 Y-0.4579
G01 X-0.8307 Y-0.3626
G01 X-0.8130 Y-0.3168
G01 X-0.7913 Y-0.2674
G01 X-0.7480 Y-0.1758
G01 X-0.7236 Y-0.1277
G01 X-0.6994 Y-0.0849
G01 X-0.6473 Y0.0019
G01 X-0.6183 Y0.0475
G01 X-0.5901 Y0.0876
G01 X-0.5298 Y0.1689
G01 X-0.4996 Y0.2076
G01 X-0.4644 Y0.2486
G01 X-0.3964 Y0.3236
G01 X-0.3591 Y0.3626
G01 X-0.3235 Y0.3965
G01 X-0.2485 Y0.4645
G01 X-0.2075 Y0.4997
G01 X-0.1688 Y0.5299
G01 X-0.0875 Y0.5902
G01 X-0.0474 Y0.6184
G01 X-0.0018 Y0.6474
G01 X0.0850 Y0.6995
G01 X0.1321 Y0.7260
G01 X0.1759 Y0.7481
G01 X0.2675 Y0.7914
G01 X0.3169 Y0.8131
G01 X0.3627 Y0.8308
G01 X0.4580 Y0.8649
G01 X0.5046 Y0.8803
G01 X0.5566 Y0.8948
G01 X0.6549 Y0.9194
G01 X0.7076 Y0.9311
G01 X0.7559 Y0.9395
G01 X0.8561 Y0.9544
G01 X0.9097 Y0.9609
G01 X0.9586 Y0.9645
G01 X1.0598 Y0.9695
G01 X1.0843 Y0.9704
G01 X1.1113 Y0.9707
G01 X35.4806 Y0.9706
G01 X35.5046 Y0.9703
G01 X35.5311 Y0.9694
G01 X35.6322 Y0.9645
G01 X35.6866 Y0.9604
G01 X35.7358 Y0.9544
G01 X35.8360 Y0.9395
G01 X35.8892 Y0.9302
G01 X35.9370 Y0.9194
G01 X36.0353 Y0.8948
G01 X36.0873 Y0.8803
G01 X36.1339 Y0.8649
G01 X36.2292 Y0.8308
G01 X36.2796 Y0.8113
G01 X36.3244 Y0.7914
G01 X36.4160 Y0.7481
G01 X36.4598 Y0.7260
G01 X36.5069 Y0.6995
G01 X36.5937 Y0.6474
G01 X36.6393 Y0.6184
G01 X36.6794 Y0.5902
G01 X36.7607 Y0.5299
G01 X36.8032 Y0.4965
G01 X36.8404 Y0.4645
G01 X36.9154 Y0.3965
G01 X36.9544 Y0.3592
G01 X36.9883 Y0.3236
G01 X37.0563 Y0.2486
G01 X37.0915 Y0.2076
G01 X37.1217 Y0.1689
G01 X37.1820 Y0.0876
G01 X37.2102 Y0.0475
G01 X37.2392 Y0.0019
G01 X37.2913 Y-0.0849
G01 X37.3178 Y-0.1320
G01 X37.3399 Y-0.1758
G01 X37.3832 Y-0.2674
G01 X37.4049 Y-0.3168
G01 X37.4226 Y-0.3626
G01 X37.4567 Y-0.4579
G01 X37.4735 Y-0.5092
G01 X37.4866 Y-0.5565
G01 X37.5112 Y-0.6548
G01 X37.5220 Y-0.7026
G01 X37.5313 Y-0.7558
G01 X37.5462 Y-0.8560
G01 X37.5527 Y-0.9096
G01 X37.5563 Y-0.9585
G01 X37.5622 Y-1.0842
G01 X37.5625 Y-1.1112
G01 X37.5625 Y-4.2431
G00 X37.5625 Y-4.2431
G01 F60.00
G01 Z-1.4000
G01 F120.00
G01 X37.5625 Y-1.1112
G01 X37.5622 Y-1.0842
G01 X37.5563 Y-0.9585
G01 X37.5527 Y-0.9096
G01 X37.5462 Y-0.8560
G01 X37.5313 Y-0.7558
G01 X37.5220 Y-0.7026
G01 X37.5112 Y-0.6548
G01 X37.4866 Y-0.5565
G01 X37.4735 Y-0.5092
G01 X37.4567 Y-0.4579
G01 X37.4226 Y-0.3626
G01 X37.4049 Y-0.3168
G01 X37.3832 Y-0.2674
G01 X37.3399 Y-0.1758
G01 X37.3178 Y-0.1320
G01 X37.2913 Y-0.0849
G01 X37.2392 Y0.0019
G01 X37.2102 Y0.0475
G01 X37.1820 Y0.0876
G01 X37.1217 Y0.1689
G01 X37.0915 Y0.2076
G01 X37.0563 Y0.2486
G01 X36.9883 Y0.3236
G01 X36.9544 Y0.3592
G01 X36.9154 Y0.3965
G01 X36.8404 Y0.4645
G01 X36.8032 Y0.4965
G01 X36.7607 Y0.5299
G01 X36.6794 Y0.5902
G01 X36.6393 Y0.6184
G01 X36.5937 Y0.6474
G01 X36.5069 Y0.6995
G01 X36.4598 Y0.7260
G01 X36.4160 Y0.7481
G01 X36.3244 Y0.7914
G01 X36.2796 Y0.8113
G01 X36.2292 Y0.8308
G01 X36.1339 Y0.8649
G01 X36.0873 Y0.8803
G01 X36.0353 Y0.8948
G01 X35.9370 Y0.9194
G01 X35.8892 Y0.9302
G01 X35.8360 Y0.9395
G01 X35.7358 Y0.9544
G01 X35.6866 Y0.9604
G01 X35.6322 Y0.9645
G01 X35.5311 Y0.9694
G01 X35.5046 Y0.9703
G01 X35.4806 Y0.9706
G01 X1.1113 Y0.9707
G01 X1.0843 Y0.9704
G01 X1.0598 Y0.9695
G01 X0.9586 Y0.9645
G01 X0.9097 Y0.9609
G01 X0.8561 Y0.9544
G01 X0.7559 Y0.9395
G01 X0.7076 Y0.9311
G01 X0.6549 Y0.9194
G01 X0.5566 Y0.8948
G01 X0.5046 Y0.8803
G01 X0.4580 Y0.8649
G01 X0.3627 Y0.8308
G01 X0.3169 Y0.8131
G01 X0.2675 Y0.7914
G01 X0.1759 Y0.7481
G01 X0.1321 Y0.7260
G01 X0.0850 Y0.6995
G01 X-0.0018 Y0.6474
G01 X-0.0474 Y0.6184
G01 X-0.0875 Y0.5902
G01 X-0.1688 Y0.5299
G01 X-0.2075 Y0.4997
G01 X-0.2485 Y0.4645
G01 X-0.3235 Y0.3965
G01 X-0.3591 Y0.3626
G01 X-0.3964 Y0.3236
G01 X-0.4644 Y0.2486
G01 X-0.4996 Y0.2076
G01 X-0.5298 Y0.1689
G01 X-0.5901 Y0.0876
G01 X-0.6183 Y0.0475
G01 X-0.6473 Y0.0019
G01 X-0.6994 Y-0.0849
G01 X-0.7236 Y-0.1277
G01 X-0.7480 Y-0.1758
G01 X-0.7913 Y-0.2674
G01 X-0.8130 Y-0.3168
G01 X-0.8307 Y-0.3626
G01 X-0.8648 Y-0.4579
G01 X-0.8802 Y-0.5045
G01 X-0.8947 Y-0.5565
G01 X-0.9193 Y-0.6548
G01 X-0.9301 Y-0.7026
G01 X-0.9394 Y-0.7558
G01 X-0.9543 Y-0.8560
G01 X-0.9603 Y-0.9047
G01 X-0.9644 Y-0.9585
G01 X-0.9694 Y-1.0597
G01 X-0.9703 Y-1.0867
G01 X-0.9706 Y-1.1112
G01 X-0.9706 Y-4.2431
G00 X-0.9706 Y-4.2431
G01 F60.00
G01 Z-1.5000
G01 F120.00
G01 X-0.9706 Y-1.1112
G01 X-0.9703 Y-1.0867
G01 X-0.9694 Y-1.0597
G01 X-0.9644 Y-0.9585
G01 X-0.9603 Y-0.9047
G01 X-0.9543 Y-0.8560
G01 X-0.9394 Y-0.7558
G01 X-0.9301 Y-0.7026
G01 X-0.9193 Y-0.6548
G01 X-0.8947 Y-0.5565
G01 X-0.8802 Y-0.5045
G01 X-0.8648 Y-0.4579
G01 X-0.8307 Y-0.3626
G01 X-0.8130 Y-0.3168
G01 X-0.7913 Y-0.2674
G01 X-0.7480 Y-0.1758
G01 X-0.7236 Y-0.1277
G01 X-0.6994 Y-0.0849
G01 X-0.6473 Y0.0019
G01 X-0.6183 Y0.0475
G01 X-0.5901 Y0.0876
G01 X-0.5298 Y0.1689
G01 X-0.4996 Y0.2076
G01 X-0.4644 Y0.2486
G01 X-0.3964 Y0.3236
G01 X-0.3591 Y0.3626
G01 X-0.3235 Y0.3965
G01 X-0.2485 Y0.4645
G01 X-0.2075 Y0.4997
G01 X-0.1688 Y0.5299
G01 X-0.0875 Y0.5902
G01 X-0.0474 Y0.6184
G01 X-0.0018 Y0.6474
G01 X0.0850 Y0.6995
G01 X0.1321 Y0.7260
G01 X0.1759 Y0.7481
G01 X0.2675 Y0.7914
G01 X0.3169 Y0.8131
G01 X0.3627 Y0.8308
G01 X0.4580 Y0.8649
G01 X0.5046 Y0.8803
G01 X0.5566 Y0.8948
G01 X0.6549 Y0.9194
G01 X0.7076 Y0.9311
G01 X0.7559 Y0.9395
G01 X0.8561 Y0.9544
G01 X0.9097 Y0.9609
G01 X0.9586 Y0.9645
G01 X1.0598 Y0.9695
G01 X1.0843 Y0.9704
G01 X1.1113 Y0.9707
G01 X35.4806 Y0.9706
G01 X35.5046 Y0.9703
G01 X35.5311 Y0.9694
G01 X35.6322 Y0.9645
G01 X35.6866 Y0.9604
G01 X35.7358 Y0.9544
G01 X35.8360 Y0.9395
G01 X35.8892 Y0.9302
G01 X35.9370 Y0.9194
G01 X36.0353 Y0.8948
G01 X36.0873 Y0.8803
G01 X36.1339 Y0.8649
G01 X36.2292 Y0.8308
G01 X36.2796 Y0.8113
G01 X36.3244 Y0.7914
G01 X36.4160 Y0.7481
G01 X36.4598 Y0.7260
G01 X36.5069 Y0.6995
G01 X36.5937 Y0.6474
G01 X36.6393 Y0.6184
G01 X36.6794 Y0.5902
G01 X36.7607 Y0.5299
G01 X36.8032 Y0.4965
G01 X36.8404 Y0.4645
G01 X36.9154 Y0.3965
G01 X36.9544 Y0.3592
G01 X36.9883 Y0.3236
G01 X37.0563 Y0.2486
G01 X37.0915 Y0.2076
G01 X37.1217 Y0.1689
G01 X37.1820 Y0.0876
G01 X37.2102 Y0.0475
G01 X37.2392 Y0.0019
G01 X37.2913 Y-0.0849
G01 X37.3178 Y-0.1320
G01 X37.3399 Y-0.1758
G01 X37.3832 Y-0.2674
G01 X37.4049 Y-0.3168
G01 X37.4226 Y-0.3626
G01 X37.4567 Y-0.4579
G01 X37.4735 Y-0.5092
G01 X37.4866 Y-0.5565
G01 X37.5112 Y-0.6548
G01 X37.5220 Y-0.7026
G01 X37.5313 Y-0.7558
G01 X37.5462 Y-0.8560
G01 X37.5527 Y-0.9096
G01 X37.5563 Y-0.9585
G01 X37.5622 Y-1.0842
G01 X37.5625 Y-1.1112
G01 X37.5625 Y-4.2431
G00 X37.5625 Y-4.2431
G01 F60.00
G01 Z-1.6000
G01 F120.00
G01 X37.5625 Y-1.1112
G01 X37.5622 Y-1.0842
G01 X37.5563 Y-0.9585
G01 X37.5527 Y-0.9096
G01 X37.5462 Y-0.8560
G01 X37.5313 Y-0.7558
G01 X37.5220 Y-0.7026
G01 X37.5112 Y-0.6548
G01 X37.4866 Y-0.5565
G01 X37.4735 Y-0.5092
G01 X37.4567 Y-0.4579
G01 X37.4226 Y-0.3626
G01 X37.4049 Y-0.3168
G01 X37.3832 Y-0.2674
G01 X37.3399 Y-0.1758
G01 X37.3178 Y-0.1320
G01 X37.2913 Y-0.0849
G01 X37.2392 Y0.0019
G01 X37.2102 Y0.0475
G01 X37.1820 Y0.0876
G01 X37.1217 Y0.1689
G01 X37.0915 Y0.2076
G01 X37.0563 Y0.2486
G01 X36.9883 Y0.3236
G01 X36.9544 Y0.3592
G01 X36.9154 Y0.3965
G01 X36.8404 Y0.4645
G01 X36.8032 Y0.4965
G01 X36.7607 Y0.5299
G01 X36.6794 Y0.5902
G01 X36.6393 Y0.6184
G01 X36.5937 Y0.6474
G01 X36.5069 Y0.6995
G01 X36.4598 Y0.7260
G01 X36.4160 Y0.7481
G01 X36.3244 Y0.7914
G01 X36.2796 Y0.8113
G01 X36.2292 Y0.8308
G01 X36.1339 Y0.8649
G01 X36.0873 Y0.8803
G01 X36.0353 Y0.8948
G01 X35.9370 Y0.9194
G01 X35.8892 Y0.9302
G01 X35.8360 Y0.9395
G01 X35.7358 Y0.9544
G01 X35.6866 Y0.9604
G01 X35.6322 Y0.9645
G01 X35.5311 Y0.9694
G01 X35.5046 Y0.9703
G01 X35.4806 Y0.9706
G01 X1.1113 Y0.9707
G01 X1.0843 Y0.9704
G01 X1.0598 Y0.9695
G01 X0.9586 Y0.9645
G01 X0.9097 Y0.9609
G01 X0.8561 Y0.9544
G01 X0.7559 Y0.9395
G01 X0.7076 Y0.9311
G01 X0.6549 Y0.9194
G01 X0.5566 Y0.8948
G01 X0.5046 Y0.8803
G01 X0.4580 Y0.8649
G01 X0.3627 Y0.8308
G01 X0.3169 Y0.8131
G01 X0.2675 Y0.7914
G01 X0.1759 Y0.7481
G01 X0.1321 Y0.7260
G01 X0.0850 Y0.6995
G01 X-0.0018 Y0.6474
G01 X-0.0474 Y0.6184
G01 X-0.0875 Y0.5902
G01 X-0.1688 Y0.5299
G01 X-0.2075 Y0.4997
G01 X-0.2485 Y0.4645
G01 X-0.3235 Y0.3965
G01 X-0.3591 Y0.3626
G01 X-0.3964 Y0.3236
G01 X-0.4644 Y0.2486
G01 X-0.4996 Y0.2076
G01 X-0.5298 Y0.1689
G01 X-0.5901 Y0.0876
G01 X-0.6183 Y0.0475
G01 X-0.6473 Y0.0019
G01 X-0.6994 Y-0.0849
G01 X-0.7236 Y-0.1277
G01 X-0.7480 Y-0.1758
G01 X-0.7913 Y-0.2674
G01 X-0.8130 Y-0.3168
G01 X-0.8307 Y-0.3626
G01 X-0.8648 Y-0.4579
G01 X-0.8802 Y-0.5045
G01 X-0.8947 Y-0.5565
G01 X-0.9193 Y-0.6548
G01 X-0.9301 Y-0.7026
G01 X-0.9394 Y-0.7558
G01 X-0.9543 Y-0.8560
G01 X-0.9603 Y-0.9047
G01 X-0.9644 Y-0.9585
G01 X-0.9694 Y-1.0597
G01 X-0.9703 Y-1.0867
G01 X-0.9706 Y-1.1112
G01 X-0.9706 Y-4.2431
G00 X-0.9706 Y-4.2431
G01 F60.00
G01 Z-1.7000
G01 F120.00
G01 X-0.9706 Y-1.1112
G01 X-0.9703 Y-1.0867
G01 X-0.9694 Y-1.0597
G01 X-0.9644 Y-0.9585
G01 X-0.9603 Y-0.9047
G01 X-0.9543 Y-0.8560
G01 X-0.9394 Y-0.7558
G01 X-0.9301 Y-0.7026
G01 X-0.9193 Y-0.6548
G01 X-0.8947 Y-0.5565
G01 X-0.8802 Y-0.5045
G01 X-0.8648 Y-0.4579
G01 X-0.8307 Y-0.3626
G01 X-0.8130 Y-0.3168
G01 X-0.7913 Y-0.2674
G01 X-0.7480 Y-0.1758
G01 X-0.7236 Y-0.1277
G01 X-0.6994 Y-0.0849
G01 X-0.6473 Y0.0019
G01 X-0.6183 Y0.0475
G01 X-0.5901 Y0.0876
G01 X-0.5298 Y0.1689
G01 X-0.4996 Y0.2076
G01 X-0.4644 Y0.2486
G01 X-0.3964 Y0.3236
G01 X-0.3591 Y0.3626
G01 X-0.3235 Y0.3965
G01 X-0.2485 Y0.4645
G01 X-0.2075 Y0.4997
G01 X-0.1688 Y0.5299
G01 X-0.0875 Y0.5902
G01 X-0.0474 Y0.6184
G01 X-0.0018 Y0.6474
G01 X0.0850 Y0.6995
G01 X0.1321 Y0.7260
G01 X0.1759 Y0.7481
G01 X0.2675 Y0.7914
G01 X0.3169 Y0.8131
G01 X0.3627 Y0.8308
G01 X0.4580 Y0.8649
G01 X0.5046 Y0.8803
G01 X0.5566 Y0.8948
G01 X0.6549 Y0.9194
G01 X0.7076 Y0.9311
G01 X0.7559 Y0.9395
G01 X0.8561 Y0.9544
G01 X0.9097 Y0.9609
G01 X0.9586 Y0.9645
G01 X1.0598 Y0.9695
G01 X1.0843 Y0.9704
G01 X1.1113 Y0.9707
G01 X35.4806 Y0.9706
G01 X35.5046 Y0.9703
G01 X35.5311 Y0.9694
G01 X35.6322 Y0.9645
G01 X35.6866 Y0.9604
G01 X35.7358 Y0.9544
G01 X35.8360 Y0.9395
G01 X35.8892 Y0.9302
G01 X35.9370 Y0.9194
G01 X36.0353 Y0.8948
G01 X36.0873 Y0.8803
G01 X36.1339 Y0.8649
G01 X36.2292 Y0.8308
G01 X36.2796 Y0.8113
G01 X36.3244 Y0.7914
G01 X36.4160 Y0.7481
G01 X36.4598 Y0.7260
G01 X36.5069 Y0.6995
G01 X36.5937 Y0.6474
G01 X36.6393 Y0.6184
G01 X36.6794 Y0.5902
G01 X36.7607 Y0.5299
G01 X36.8032 Y0.4965
G01 X36.8404 Y0.4645
G01 X36.9154 Y0.3965
G01 X36.9544 Y0.3592
G01 X36.9883 Y0.3236
G01 X37.0563 Y0.2486
G01 X37.0915 Y0.2076
G01 X37.1217 Y0.1689
G01 X37.1820 Y0.0876
G01 X37.2102 Y0.0475
G01 X37.2392 Y0.0019
G01 X37.2913 Y-0.0849
G01 X37.3178 Y-0.1320
G01 X37.3399 Y-0.1758
G01 X37.3832 Y-0.2674
G01 X37.4049 Y-0.3168
G01 X37.4226 Y-0.3626
G01 X37.4567 Y-0.4579
G01 X37.4735 Y-0.5092
G01 X37.4866 Y-0.5565
G01 X37.5112 Y-0.6548
G01 X37.5220 Y-0.7026
G01 X37.5313 Y-0.7558
G01 X37.5462 Y-0.8560
G01 X37.5527 Y-0.9096
G01 X37.5563 Y-0.9585
G01 X37.5622 Y-1.0842
G01 X37.5625 Y-1.1112
G01 X37.5625 Y-4.2431
G00 X37.5625 Y-4.2431
G01 F60.00
G01 Z-1.8000
G01 F120.00
G01 X37.5625 Y-1.1112
G01 X37.5622 Y-1.0842
G01 X37.5563 Y-0.9585
G01 X37.5527 Y-0.9096
G01 X37.5462 Y-0.8560
G01 X37.5313 Y-0.7558
G01 X37.5220 Y-0.7026
G01 X37.5112 Y-0.6548
G01 X37.4866 Y-0.5565
G01 X37.4735 Y-0.5092
G01 X37.4567 Y-0.4579
G01 X37.4226 Y-0.3626
G01 X37.4049 Y-0.3168
G01 X37.3832 Y-0.2674
G01 X37.3399 Y-0.1758
G01 X37.3178 Y-0.1320
G01 X37.2913 Y-0.0849
G01 X37.2392 Y0.0019
G01 X37.2102 Y0.0475
G01 X37.1820 Y0.0876
G01 X37.1217 Y0.1689
G01 X37.0915 Y0.2076
G01 X37.0563 Y0.2486
G01 X36.9883 Y0.3236
G01 X36.9544 Y0.3592
G01 X36.9154 Y0.3965
G01 X36.8404 Y0.4645
G01 X36.8032 Y0.4965
G01 X36.7607 Y0.5299
G01 X36.6794 Y0.5902
G01 X36.6393 Y0.6184
G01 X36.5937 Y0.6474
G01 X36.5069 Y0.6995
G01 X36.4598 Y0.7260
G01 X36.4160 Y0.7481
G01 X36.3244 Y0.7914
G01 X36.2796 Y0.8113
G01 X36.2292 Y0.8308
G01 X36.1339 Y0.8649
G01 X36.0873 Y0.8803
G01 X36.0353 Y0.8948
G01 X35.9370 Y0.9194
G01 X35.8892 Y0.9302
G01 X35.8360 Y0.9395
G01 X35.7358 Y0.9544
G01 X35.6866 Y0.9604
G01 X35.6322 Y0.9645
G01 X35.5311 Y0.9694
G01 X35.5046 Y0.9703
G01 X35.4806 Y0.9706
G01 X1.1113 Y0.9707
G01 X1.0843 Y0.9704
G01 X1.0598 Y0.9695
G01 X0.9586 Y0.9645
G01 X0.9097 Y0.9609
G01 X0.8561 Y0.9544
G01 X0.7559 Y0.9395
G01 X0.7076 Y0.9311
G01 X0.6549 Y0.9194
G01 X0.5566 Y0.8948
G01 X0.5046 Y0.8803
G01 X0.4580 Y0.8649
G01 X0.3627 Y0.8308
G01 X0.3169 Y0.8131
G01 X0.2675 Y0.7914
G01 X0.1759 Y0.7481
G01 X0.1321 Y0.7260
G01 X0.0850 Y0.6995
G01 X-0.0018 Y0.6474
G01 X-0.0474 Y0.6184
G01 X-0.0875 Y0.5902
G01 X-0.1688 Y0.5299
G01 X-0.2075 Y0.4997
G01 X-0.2485 Y0.4645
G01 X-0.3235 Y0.3965
G01 X-0.3591 Y0.3626
G01 X-0.3964 Y0.3236
G01 X-0.4644 Y0.2486
G01 X-0.4996 Y0.2076
G01 X-0.5298 Y0.1689
G01 X-0.5901 Y0.0876
G01 X-0.6183 Y0.0475
G01 X-0.6473 Y0.0019
G01 X-0.6994 Y-0.0849
G01 X-0.7236 Y-0.1277
G01 X-0.7480 Y-0.1758
G01 X-0.7913 Y-0.2674
G01 X-0.8130 Y-0.3168
G01 X-0.8307 Y-0.3626
G01 X-0.8648 Y-0.4579
G01 X-0.8802 Y-0.5045
G01 X-0.8947 Y-0.5565
G01 X-0.9193 Y-0.6548
G01 X-0.9301 Y-0.7026
G01 X-0.9394 Y-0.7558
G01 X-0.9543 Y-0.8560
G01 X-0.9603 Y-0.9047
G01 X-0.9644 Y-0.9585
G01 X-0.9694 Y-1.0597
G01 X-0.9703 Y-1.0867
G01 X-0.9706 Y-1.1112
G01 X-0.9706 Y-4.2431
G00 X-0.9706 Y-4.2431
G01 F60.00
G01 Z-1.9000
G01 F120.00
G01 X-0.9706 Y-1.1112
G01 X-0.9703 Y-1.0867
G01 X-0.9694 Y-1.0597
G01 X-0.9644 Y-0.9585
G01 X-0.9603 Y-0.9047
G01 X-0.9543 Y-0.8560
G01 X-0.9394 Y-0.7558
G01 X-0.9301 Y-0.7026
G01 X-0.9193 Y-0.6548
G01 X-0.8947 Y-0.5565
G01 X-0.8802 Y-0.5045
G01 X-0.8648 Y-0.4579
G01 X-0.8307 Y-0.3626
G01 X-0.8130 Y-0.3168
G01 X-0.7913 Y-0.2674
G01 X-0.7480 Y-0.1758
G01 X-0.7236 Y-0.1277
G01 X-0.6994 Y-0.0849
G01 X-0.6473 Y0.0019
G01 X-0.6183 Y0.0475
G01 X-0.5901 Y0.0876
G01 X-0.5298 Y0.1689
G01 X-0.4996 Y0.2076
G01 X-0.4644 Y0.2486
G01 X-0.3964 Y0.3236
G01 X-0.3591 Y0.3626
G01 X-0.3235 Y0.3965
G01 X-0.2485 Y0.4645
G01 X-0.2075 Y0.4997
G01 X-0.1688 Y0.5299
G01 X-0.0875 Y0.5902
G01 X-0.0474 Y0.6184
G01 X-0.0018 Y0.6474
G01 X0.0850 Y0.6995
G01 X0.1321 Y0.7260
G01 X0.1759 Y0.7481
G01 X0.2675 Y0.7914
G01 X0.3169 Y0.8131
G01 X0.3627 Y0.8308
G01 X0.4580 Y0.8649
G01 X0.5046 Y0.8803
G01 X0.5566 Y0.8948
G01 X0.6549 Y0.9194
G01 X0.7076 Y0.9311
G01 X0.7559 Y0.9395
G01 X0.8561 Y0.9544
G01 X0.9097 Y0.9609
G01 X0.9586 Y0.9645
G01 X1.0598 Y0.9695
G01 X1.0843 Y0.9704
G01 X1.1113 Y0.9707
G01 X35.4806 Y0.9706
G01 X35.5046 Y0.9703
G01 X35.5311 Y0.9694
G01 X35.6322 Y0.9645
G01 X35.6866 Y0.9604
G01 X35.7358 Y0.9544
G01 X35.8360 Y0.9395
G01 X35.8892 Y0.9302
G01 X35.9370 Y0.9194
G01 X36.0353 Y0.8948
G01 X36.0873 Y0.8803
G01 X36.1339 Y0.8649
G01 X36.2292 Y0.8308
G01 X36.2796 Y0.8113
G01 X36.3244 Y0.7914
G01 X36.4160 Y0.7481
G01 X36.4598 Y0.7260
G01 X36.5069 Y0.6995
G01 X36.5937 Y0.6474
G01 X36.6393 Y0.6184
G01 X36.6794 Y0.5902
G01 X36.7607 Y0.5299
G01 X36.8032 Y0.4965
G01 X36.8404 Y0.4645
G01 X36.9154 Y0.3965
G01 X36.9544 Y0.3592
G01 X36.9883 Y0.3236
G01 X37.0563 Y0.2486
G01 X37.0915 Y0.2076
G01 X37.1217 Y0.1689
G01 X37.1820 Y0.0876
G01 X37.2102 Y0.0475
G01 X37.2392 Y0.0019
G01 X37.2913 Y-0.0849
G01 X37.3178 Y-0.1320
G01 X37.3399 Y-0.1758
G01 X37.3832 Y-0.2674
G01 X37.4049 Y-0.3168
G01 X37.4226 Y-0.3626
G01 X37.4567 Y-0.4579
G01 X37.4735 Y-0.5092
G01 X37.4866 Y-0.5565
G01 X37.5112 Y-0.6548
G01 X37.5220 Y-0.7026
G01 X37.5313 Y-0.7558
G01 X37.5462 Y-0.8560
G01 X37.5527 Y-0.9096
G01 X37.5563 Y-0.9585
G01 X37.5622 Y-1.0842
G01 X37.5625 Y-1.1112
G01 X37.5625 Y-4.2431
G00 X37.5625 Y-4.2431
G01 F60.00
G01 Z-2.0000
G01 F120.00
G01 X37.5625 Y-1.1112
G01 X37.5622 Y-1.0842
G01 X37.5563 Y-0.9585
G01 X37.5527 Y-0.9096
G01 X37.5462 Y-0.8560
G01 X37.5313 Y-0.7558
G01 X37.5220 Y-0.7026
G01 X37.5112 Y-0.6548
G01 X37.4866 Y-0.5565
G01 X37.4735 Y-0.5092
G01 X37.4567 Y-0.4579
G01 X37.4226 Y-0.3626
G01 X37.4049 Y-0.3168
G01 X37.3832 Y-0.2674
G01 X37.3399 Y-0.1758
G01 X37.3178 Y-0.1320
G01 X37.2913 Y-0.0849
G01 X37.2392 Y0.0019
G01 X37.2102 Y0.0475
G01 X37.1820 Y0.0876
G01 X37.1217 Y0.1689
G01 X37.0915 Y0.2076
G01 X37.0563 Y0.2486
G01 X36.9883 Y0.3236
G01 X36.9544 Y0.3592
G01 X36.9154 Y0.3965
G01 X36.8404 Y0.4645
G01 X36.8032 Y0.4965
G01 X36.7607 Y0.5299
G01 X36.6794 Y0.5902
G01 X36.6393 Y0.6184
G01 X36.5937 Y0.6474
G01 X36.5069 Y0.6995
G01 X36.4598 Y0.7260
G01 X36.4160 Y0.7481
G01 X36.3244 Y0.7914
G01 X36.2796 Y0.8113
G01 X36.2292 Y0.8308
G01 X36.1339 Y0.8649
G01 X36.0873 Y0.8803
G01 X36.0353 Y0.8948
G01 X35.9370 Y0.9194
G01 X35.8892 Y0.9302
G01 X35.8360 Y0.9395
G01 X35.7358 Y0.9544
G01 X35.6866 Y0.9604
G01 X35.6322 Y0.9645
G01 X35.5311 Y0.9694
G01 X35.5046 Y0.9703
G01 X35.4806 Y0.9706
G01 X1.1113 Y0.9707
G01 X1.0843 Y0.9704
G01 X1.0598 Y0.9695
G01 X0.9586 Y0.9645
G01 X0.9097 Y0.9609
G01 X0.8561 Y0.9544
G01 X0.7559 Y0.9395
G01 X0.7076 Y0.9311
G01 X0.6549 Y0.9194
G01 X0.5566 Y0.8948
G01 X0.5046 Y0.8803
G01 X0.4580 Y0.8649
G01 X0.3627 Y0.8308
G01 X0.3169 Y0.8131
G01 X0.2675 Y0.7914
G01 X0.1759 Y0.7481
G01 X0.1321 Y0.7260
G01 X0.0850 Y0.6995
G01 X-0.0018 Y0.6474
G01 X-0.0474 Y0.6184
G01 X-0.0875 Y0.5902
G01 X-0.1688 Y0.5299
G01 X-0.2075 Y0.4997
G01 X-0.2485 Y0.4645
G01 X-0.3235 Y0.3965
G01 X-0.3591 Y0.3626
G01 X-0.3964 Y0.3236
G01 X-0.4644 Y0.2486
G01 X-0.4996 Y0.2076
G01 X-0.5298 Y0.1689
G01 X-0.5901 Y0.0876
G01 X-0.6183 Y0.0475
G01 X-0.6473 Y0.0019
G01 X-0.6994 Y-0.0849
G01 X-0.7236 Y-0.1277
G01 X-0.7480 Y-0.1758
G01 X-0.7913 Y-0.2674
G01 X-0.8130 Y-0.3168
G01 X-0.8307 Y-0.3626
G01 X-0.8648 Y-0.4579
G01 X-0.8802 Y-0.5045
G01 X-0.8947 Y-0.5565
G01 X-0.9193 Y-0.6548
G01 X-0.9301 Y-0.7026
G01 X-0.9394 Y-0.7558
G01 X-0.9543 Y-0.8560
G01 X-0.9603 Y-0.9047
G01 X-0.9644 Y-0.9585
G01 X-0.9694 Y-1.0597
G01 X-0.9703 Y-1.0867
G01 X-0.9706 Y-1.1112
G01 X-0.9706 Y-4.2431
G00 Z2.0000
G00 X37.5625 Y-6.3931
G01 F60.00
G01 Z-0.1000
G01 F120.00
G01 X37.5625 Y-9.5250
G01 X37.5622 Y-9.5520
G01 X37.5563 Y-9.6777
G01 X37.5527 Y-9.7266
G01 X37.5462 Y-9.7802
G01 X37.5313 Y-9.8804
G01 X37.5220 Y-9.9336
G01 X37.5112 Y-9.9814
G01 X37.4866 Y-10.0797
G01 X37.4735 Y-10.1270
G01 X37.4567 Y-10.1783
G01 X37.4226 Y-10.2736
G01 X37.4031 Y-10.3240
G01 X37.3832 Y-10.3688
G01 X37.3399 Y-10.4604
G01 X37.3155 Y-10.5085
G01 X37.2913 Y-10.5513
G01 X37.2392 Y-10.6381
G01 X37.2102 Y-10.6837
G01 X37.1820 Y-10.7238
G01 X37.1217 Y-10.8051
G01 X37.0915 Y-10.8438
G01 X37.0563 Y-10.8848
G01 X36.9883 Y-10.9598
G01 X36.9510 Y-10.9988
G01 X36.9154 Y-11.0327
G01 X36.8404 Y-11.1007
G01 X36.7994 Y-11.1359
G01 X36.7607 Y-11.1661
G01 X36.6794 Y-11.2264
G01 X36.6352 Y-11.2574
G01 X36.5937 Y-11.2836
G01 X36.5069 Y-11.3357
G01 X36.4598 Y-11.3622
G01 X36.4160 Y-11.3843
G01 X36.3244 Y-11.4276
G01 X36.2796 Y-11.4475
G01 X36.2292 Y-11.4670
G01 X36.1339 Y-11.5011
G01 X36.0826 Y-11.5179
G01 X36.0353 Y-11.5310
G01 X35.9370 Y-11.5556
G01 X35.8843 Y-11.5673
G01 X35.8360 Y-11.5757
G01 X35.7358 Y-11.5906
G01 X35.6822 Y-11.5971
G01 X35.6333 Y-11.6007
G01 X35.5321 Y-11.6057
G01 X35.5076 Y-11.6066
G01 X35.4806 Y-11.6069
G01 X1.1112 Y-11.6069
G01 X1.0837 Y-11.6065
G01 X1.0586 Y-11.6056
G01 X0.9575 Y-11.6005
G01 X0.9091 Y-11.5969
G01 X0.8560 Y-11.5905
G01 X0.7558 Y-11.5756
G01 X0.7027 Y-11.5663
G01 X0.6548 Y-11.5555
G01 X0.5565 Y-11.5309
G01 X0.5045 Y-11.5164
G01 X0.4579 Y-11.5010
G01 X0.3626 Y-11.4669
G01 X0.3168 Y-11.4492
G01 X0.2674 Y-11.4275
G01 X0.1759 Y-11.3842
G01 X0.1277 Y-11.3598
G01 X0.0850 Y-11.3356
G01 X-0.0019 Y-11.2835
G01 X-0.0474 Y-11.2546
G01 X-0.0875 Y-11.2263
G01 X-0.1689 Y-11.1660
G01 X-0.2076 Y-11.1358
G01 X-0.2485 Y-11.1006
G01 X-0.3235 Y-11.0326
G01 X-0.3626 Y-10.9953
G01 X-0.3964 Y-10.9597
G01 X-0.4644 Y-10.8847
G01 X-0.4996 Y-10.8438
G01 X-0.5298 Y-10.8051
G01 X-0.5901 Y-10.7237
G01 X-0.6184 Y-10.6836
G01 X-0.6473 Y-10.6381
G01 X-0.6994 Y-10.5512
G01 X-0.7259 Y-10.5042
G01 X-0.7480 Y-10.4603
G01 X-0.7913 Y-10.3688
G01 X-0.8130 Y-10.3194
G01 X-0.8307 Y-10.2736
G01 X-0.8648 Y-10.1783
G01 X-0.8816 Y-10.1270
G01 X-0.8947 Y-10.0797
G01 X-0.9193 Y-9.9814
G01 X-0.9301 Y-9.9335
G01 X-0.9394 Y-9.8804
G01 X-0.9543 Y-9.7802
G01 X-0.9603 Y-9.7315
G01 X-0.9644 Y-9.6777
G01 X-0.9694 Y-9.5765
G01 X-0.9706 Y-9.5250
G01 X-0.9706 Y-6.3931
G00 X-0.9706 Y-6.3931
G01 F60.00
G01 Z-0.2000
G01 F120.00
G01 X-0.9706 Y-9.5250
G01 X-0.9694 Y-9.5765
G01 X-0.9644 Y-9.6777
G01 X-0.9603 Y-9.7315
G01 X-0.9543 Y-9.7802
G01 X-0.9394 Y-9.8804
G01 X-0.9301 Y-9.9335
G01 X-0.9193 Y-9.9814
G01 X-0.8947 Y-10.0797
G01 X-0.8816 Y-10.1270
G01 X-0.8648 Y-10.1783
G01 X-0.8307 Y-10.2736
G01 X-0.8130 Y-10.3194
G01 X-0.7913 Y-10.3688
G01 X-0.7480 Y-10.4603
G01 X-0.7259 Y-10.5042
G01 X-0.6994 Y-10.5512
G01 X-0.6473 Y-10.6381
G01 X-0.6184 Y-10.6836
G01 X-0.5901 Y-10.7237
G01 X-0.5298 Y-10.8051
G01 X-0.4996 Y-10.8438
G01 X-0.4644 Y-10.8847
G01 X-0.3964 Y-10.9597
G01 X-0.3626 Y-10.9953
G01 X-0.3235 Y-11.0326
G01 X-0.2485 Y-11.1006
G01 X-0.2076 Y-11.1358
G01 X-0.1689 Y-11.1660
G01 X-0.0875 Y-11.2263
G01 X-0.0474 Y-11.2546
G01 X-0.0019 Y-11.2835
G01 X0.0850 Y-11.3356
G01 X0.1277 Y-11.3598
G01 X0.1759 Y-11.3842
G01 X0.2674 Y-11.4275
G01 X0.3168 Y-11.4492
G01 X0.3626 Y-11.4669
G01 X0.4579 Y-11.5010
G01 X0.5045 Y-11.5164
G01 X0.5565 Y-11.5309
G01 X0.6548 Y-11.5555
G01 X0.7027 Y-11.5663
G01 X0.7558 Y-11.5756
G01 X0.8560 Y-11.5905
G01 X0.9091 Y-11.5969
G01 X0.9575 Y-11.6005
G01 X1.0586 Y-11.6056
G01 X1.0837 Y-11.6065
G01 X1.1112 Y-11.6069
G01 X35.4806 Y-11.6069
G01 X35.5076 Y-11.6066
G01 X35.5321 Y-11.6057
G01 X35.6333 Y-11.6007
G01 X35.6822 Y-11.5971
G01 X35.7358 Y-11.5906
G01 X35.8360 Y-11.5757
G01 X35.8843 Y-11.5673
G01 X35.9370 Y-11.5556
G01 X36.0353 Y-11.5310
G01 X36.0826 Y-11.5179
G01 X36.1339 Y-11.5011
G01 X36.2292 Y-11.4670
G01 X36.2796 Y-11.4475
G01 X36.3244 Y-11.4276
G01 X36.4160 Y-11.3843
G01 X36.4598 Y-11.3622
G01 X36.5069 Y-11.3357
G01 X36.5937 Y-11.2836
G01 X36.6352 Y-11.2574
G01 X36.6794 Y-11.2264
G01 X36.7607 Y-11.1661
G01 X36.7994 Y-11.1359
G01 X36.8404 Y-11.1007
G01 X36.9154 Y-11.0327
G01 X36.9510 Y-10.9988
G01 X36.9883 Y-10.9598
G01 X37.0563 Y-10.8848
G01 X37.0915 Y-10.8438
G01 X37.1217 Y-10.8051
G01 X37.1820 Y-10.7238
G01 X37.2102 Y-10.6837
G01 X37.2392 Y-10.6381
G01 X37.2913 Y-10.5513
G01 X37.3155 Y-10.5085
G01 X37.3399 Y-10.4604
G01 X37.3832 Y-10.3688
G01 X37.4031 Y-10.3240
G01 X37.4226 Y-10.2736
G01 X37.4567 Y-10.1783
G01 X37.4735 Y-10.1270
G01 X37.4866 Y-10.0797
G01 X37.5112 Y-9.9814
G01 X37.5220 Y-9.9336
G01 X37.5313 Y-9.8804
G01 X37.5462 Y-9.7802
G01 X37.5527 Y-9.7266
G01 X37.5563 Y-9.6777
G01 X37.5622 Y-9.5520
G01 X37.5625 Y-9.5250
G01 X37.5625 Y-6.3931
G00 X37.5625 Y-6.3931
G01 F60.00
G01 Z-0.3000
G01 F120.00
G01 X37.5625 Y-9.5250
G01 X37.5622 Y-9.5520
G01 X37.5563 Y-9.6777
G01 X37.5527 Y-9.7266
G01 X37.5462 Y-9.7802
G01 X37.5313 Y-9.8804
G01 X37.5220 Y-9.9336
G01 X37.5112 Y-9.9814
G01 X37.4866 Y-10.0797
G01 X37.4735 Y-10.1270
G01 X37.4567 Y-10.1783
G01 X37.4226 Y-10.2736
G01 X37.4031 Y-10.3240
G01 X37.3832 Y-10.3688
G01 X37.3399 Y-10.4604
G01 X37.3155 Y-10.5085
G01 X37.2913 Y-10.5513
G01 X37.2392 Y-10.6381
G01 X37.2102 Y-10.6837
G01 X37.1820 Y-10.7238
G01 X37.1217 Y-10.8051
G01 X37.0915 Y-10.8438
G01 X37.0563 Y-10.8848
G01 X36.9883 Y-10.9598
G01 X36.9510 Y-10.9988
G01 X36.9154 Y-11.0327
G01 X36.8404 Y-11.1007
G01 X36.7994 Y-11.1359
G01 X36.7607 Y-11.1661
G01 X36.6794 Y-11.2264
G01 X36.6352 Y-11.2574
G01 X36.5937 Y-11.2836
G01 X36.5069 Y-11.3357
G01 X36.4598 Y-11.3622
G01 X36.4160 Y-11.3843
G01 X36.3244 Y-11.4276
G01 X36.2796 Y-11.4475
G01 X36.2292 Y-11.4670
G01 X36.1339 Y-11.5011
G01 X36.0826 Y-11.5179
G01 X36.0353 Y-11.5310
G01 X35.9370 Y-11.5556
G01 X35.8843 Y-11.5673
G01 X35.8360 Y-11.5757
G01 X35.7358 Y-11.5906
G01 X35.6822 Y-11.5971
G01 X35.6333 Y-11.6007
G01 X35.5321 Y-11.6057
G01 X35.5076 Y-11.6066
G01 X35.4806 Y-11.6069
G01 X1.1112 Y-11.6069
G01 X1.0837 Y-11.6065
G01 X1.0586 Y-11.6056
G01 X0.9575 Y-11.6005
G01 X0.9091 Y-11.5969
G01 X0.8560 Y-11.5905
G01 X0.7558 Y-11.5756
G01 X0.7027 Y-11.5663
G01 X0.6548 Y-11.5555
G01 X0.5565 Y-11.5309
G01 X0.5045 Y-11.5164
G01 X0.4579 Y-11.5010
G01 X0.3626 Y-11.4669
G01 X0.3168 Y-11.4492
G01 X0.2674 Y-11.4275
G01 X0.1759 Y-11.3842
G01 X0.1277 Y-11.3598
G01 X0.0850 Y-11.3356
G01 X-0.0019 Y-11.2835
G01 X-0.0474 Y-11.2546
G01 X-0.0875 Y-11.2263
G01 X-0.1689 Y-11.1660
G01 X-0.2076 Y-11.1358
G01 X-0.2485 Y-11.1006
G01 X-0.3235 Y-11.0326
G01 X-0.3626 Y-10.9953
G01 X-0.3964 Y-10.9597
G01 X-0.4644 Y-10.8847
G01 X-0.4996 Y-10.8438
G01 X-0.5298 Y-10.8051
G01 X-0.5901 Y-10.7237
G01 X-0.6184 Y-10.6836
G01 X-0.6473 Y-10.6381
G01 X-0.6994 Y-10.5512
G01 X-0.7259 Y-10.5042
G01 X-0.7480 Y-10.4603
G01 X-0.7913 Y-10.3688
G01 X-0.8130 Y-10.3194
G01 X-0.8307 Y-10.2736
G01 X-0.8648 Y-10.1783
G01 X-0.8816 Y-10.1270
G01 X-0.8947 Y-10.0797
G01 X-0.9193 Y-9.9814
G01 X-0.9301 Y-9.9335
G01 X-0.9394 Y-9.8804
G01 X-0.9543 Y-9.7802
G01 X-0.9603 Y-9.7315
G01 X-0.9644 Y-9.6777
G01 X-0.9694 Y-9.5765
G01 X-0.9706 Y-9.5250
G01 X-0.9706 Y-6.3931
G00 X-0.9706 Y-6.3931
G01 F60.00
G01 Z-0.4000
G01 F120.00
G01 X-0.9706 Y-9.5250
G01 X-0.9694 Y-9.5765
G01 X-0.9644 Y-9.6777
G01 X-0.9603 Y-9.7315
G01 X-0.9543 Y-9.7802
G01 X-0.9394 Y-9.8804
G01 X-0.9301 Y-9.9335
G01 X-0.9193 Y-9.9814
G01 X-0.8947 Y-10.0797
G01 X-0.8816 Y-10.1270
G01 X-0.8648 Y-10.1783
G01 X-0.8307 Y-10.2736
G01 X-0.8130 Y-10.3194
G01 X-0.7913 Y-10.3688
G01 X-0.7480 Y-10.4603
G01 X-0.7259 Y-10.5042
G01 X-0.6994 Y-10.5512
G01 X-0.6473 Y-10.6381
G01 X-0.6184 Y-10.6836
G01 X-0.5901 Y-10.7237
G01 X-0.5298 Y-10.8051
G01 X-0.4996 Y-10.8438
G01 X-0.4644 Y-10.8847
G01 X-0.3964 Y-10.9597
G01 X-0.3626 Y-10.9953
G01 X-0.3235 Y-11.0326
G01 X-0.2485 Y-11.1006
G01 X-0.2076 Y-11.1358
G01 X-0.1689 Y-11.1660
G01 X-0.0875 Y-11.2263
G01 X-0.0474 Y-11.2546
G01 X-0.0019 Y-11.2835
G01 X0.0850 Y-11.3356
G01 X0.1277 Y-11.3598
G01 X0.1759 Y-11.3842
G01 X0.2674 Y-11.4275
G01 X0.3168 Y-11.4492
G01 X0.3626 Y-11.4669
G01 X0.4579 Y-11.5010
G01 X0.5045 Y-11.5164
G01 X0.5565 Y-11.5309
G01 X0.6548 Y-11.5555
G01 X0.7027 Y-11.5663
G01 X0.7558 Y-11.5756
G01 X0.8560 Y-11.5905
G01 X0.9091 Y-11.5969
G01 X0.9575 Y-11.6005
G01 X1.0586 Y-11.6056
G01 X1.0837 Y-11.6065
G01 X1.1112 Y-11.6069
G01 X35.4806 Y-11.6069
G01 X35.5076 Y-11.6066
G01 X35.5321 Y-11.6057
G01 X35.6333 Y-11.6007
G01 X35.6822 Y-11.5971
G01 X35.7358 Y-11.5906
G01 X35.8360 Y-11.5757
G01 X35.8843 Y-11.5673
G01 X35.9370 Y-11.5556
G01 X36.0353 Y-11.5310
G01 X36.0826 Y-11.5179
G01 X36.1339 Y-11.5011
G01 X36.2292 Y-11.4670
G01 X36.2796 Y-11.4475
G01 X36.3244 Y-11.4276
G01 X36.4160 Y-11.3843
G01 X36.4598 Y-11.3622
G01 X36.5069 Y-11.3357
G01 X36.5937 Y-11.2836
G01 X36.6352 Y-11.2574
G01 X36.6794 Y-11.2264
G01 X36.7607 Y-11.1661
G01 X36.7994 Y-11.1359
G01 X36.8404 Y-11.1007
G01 X36.9154 Y-11.0327
G01 X36.9510 Y-10.9988
G01 X36.9883 Y-10.9598
G01 X37.0563 Y-10.8848
G01 X37.0915 Y-10.8438
G01 X37.1217 Y-10.8051
G01 X37.1820 Y-10.7238
G01 X37.2102 Y-10.6837
G01 X37.2392 Y-10.6381
G01 X37.2913 Y-10.5513
G01 X37.3155 Y-10.5085
G01 X37.3399 Y-10.4604
G01 X37.3832 Y-10.3688
G01 X37.4031 Y-10.3240
G01 X37.4226 Y-10.2736
G01 X37.4567 Y-10.1783
G01 X37.4735 Y-10.1270
G01 X37.4866 Y-10.0797
G01 X37.5112 Y-9.9814
G01 X37.5220 Y-9.9336
G01 X37.5313 Y-9.8804
G01 X37.5462 Y-9.7802
G01 X37.5527 Y-9.7266
G01 X37.5563 Y-9.6777
G01 X37.5622 Y-9.5520
G01 X37.5625 Y-9.5250
G01 X37.5625 Y-6.3931
G00 X37.5625 Y-6.3931
G01 F60.00
G01 Z-0.5000
G01 F120.00
G01 X37.5625 Y-9.5250
G01 X37.5622 Y-9.5520
G01 X37.5563 Y-9.6777
G01 X37.5527 Y-9.7266
G01 X37.5462 Y-9.7802
G01 X37.5313 Y-9.8804
G01 X37.5220 Y-9.9336
G01 X37.5112 Y-9.9814
G01 X37.4866 Y-10.0797
G01 X37.4735 Y-10.1270
G01 X37.4567 Y-10.1783
G01 X37.4226 Y-10.2736
G01 X37.4031 Y-10.3240
G01 X37.3832 Y-10.3688
G01 X37.3399 Y-10.4604
G01 X37.3155 Y-10.5085
G01 X37.2913 Y-10.5513
G01 X37.2392 Y-10.6381
G01 X37.2102 Y-10.6837
G01 X37.1820 Y-10.7238
G01 X37.1217 Y-10.8051
G01 X37.0915 Y-10.8438
G01 X37.0563 Y-10.8848
G01 X36.9883 Y-10.9598
G01 X36.9510 Y-10.9988
G01 X36.9154 Y-11.0327
G01 X36.8404 Y-11.1007
G01 X36.7994 Y-11.1359
G01 X36.7607 Y-11.1661
G01 X36.6794 Y-11.2264
G01 X36.6352 Y-11.2574
G01 X36.5937 Y-11.2836
G01 X36.5069 Y-11.3357
G01 X36.4598 Y-11.3622
G01 X36.4160 Y-11.3843
G01 X36.3244 Y-11.4276
G01 X36.2796 Y-11.4475
G01 X36.2292 Y-11.4670
G01 X36.1339 Y-11.5011
G01 X36.0826 Y-11.5179
G01 X36.0353 Y-11.5310
G01 X35.9370 Y-11.5556
G01 X35.8843 Y-11.5673
G01 X35.8360 Y-11.5757
G01 X35.7358 Y-11.5906
G01 X35.6822 Y-11.5971
G01 X35.6333 Y-11.6007
G01 X35.5321 Y-11.6057
G01 X35.5076 Y-11.6066
G01 X35.4806 Y-11.6069
G01 X1.1112 Y-11.6069
G01 X1.0837 Y-11.6065
G01 X1.0586 Y-11.6056
G01 X0.9575 Y-11.6005
G01 X0.9091 Y-11.5969
G01 X0.8560 Y-11.5905
G01 X0.7558 Y-11.5756
G01 X0.7027 Y-11.5663
G01 X0.6548 Y-11.5555
G01 X0.5565 Y-11.5309
G01 X0.5045 Y-11.5164
G01 X0.4579 Y-11.5010
G01 X0.3626 Y-11.4669
G01 X0.3168 Y-11.4492
G01 X0.2674 Y-11.4275
G01 X0.1759 Y-11.3842
G01 X0.1277 Y-11.3598
G01 X0.0850 Y-11.3356
G01 X-0.0019 Y-11.2835
G01 X-0.0474 Y-11.2546
G01 X-0.0875 Y-11.2263
G01 X-0.1689 Y-11.1660
G01 X-0.2076 Y-11.1358
G01 X-0.2485 Y-11.1006
G01 X-0.3235 Y-11.0326
G01 X-0.3626 Y-10.9953
G01 X-0.3964 Y-10.9597
G01 X-0.4644 Y-10.8847
G01 X-0.4996 Y-10.8438
G01 X-0.5298 Y-10.8051
G01 X-0.5901 Y-10.7237
G01 X-0.6184 Y-10.6836
G01 X-0.6473 Y-10.6381
G01 X-0.6994 Y-10.5512
G01 X-0.7259 Y-10.5042
G01 X-0.7480 Y-10.4603
G01 X-0.7913 Y-10.3688
G01 X-0.8130 Y-10.3194
G01 X-0.8307 Y-10.2736
G01 X-0.8648 Y-10.1783
G01 X-0.8816 Y-10.1270
G01 X-0.8947 Y-10.0797
G01 X-0.9193 Y-9.9814
G01 X-0.9301 Y-9.9335
G01 X-0.9394 Y-9.8804
G01 X-0.9543 Y-9.7802
G01 X-0.9603 Y-9.7315
G01 X-0.9644 Y-9.6777
G01 X-0.9694 Y-9.5765
G01 X-0.9706 Y-9.5250
G01 X-0.9706 Y-6.3931
G00 X-0.9706 Y-6.3931
G01 F60.00
G01 Z-0.6000
G01 F120.00
G01 X-0.9706 Y-9.5250
G01 X-0.9694 Y-9.5765
G01 X-0.9644 Y-9.6777
G01 X-0.9603 Y-9.7315
G01 X-0.9543 Y-9.7802
G01 X-0.9394 Y-9.8804
G01 X-0.9301 Y-9.9335
G01 X-0.9193 Y-9.9814
G01 X-0.8947 Y-10.0797
G01 X-0.8816 Y-10.1270
G01 X-0.8648 Y-10.1783
G01 X-0.8307 Y-10.2736
G01 X-0.8130 Y-10.3194
G01 X-0.7913 Y-10.3688
G01 X-0.7480 Y-10.4603
G01 X-0.7259 Y-10.5042
G01 X-0.6994 Y-10.5512
G01 X-0.6473 Y-10.6381
G01 X-0.6184 Y-10.6836
G01 X-0.5901 Y-10.7237
G01 X-0.5298 Y-10.8051
G01 X-0.4996 Y-10.8438
G01 X-0.4644 Y-10.8847
G01 X-0.3964 Y-10.9597
G01 X-0.3626 Y-10.9953
G01 X-0.3235 Y-11.0326
G01 X-0.2485 Y-11.1006
G01 X-0.2076 Y-11.1358
G01 X-0.1689 Y-11.1660
G01 X-0.0875 Y-11.2263
G01 X-0.0474 Y-11.2546
G01 X-0.0019 Y-11.2835
G01 X0.0850 Y-11.3356
G01 X0.1277 Y-11.3598
G01 X0.1759 Y-11.3842
G01 X0.2674 Y-11.4275
G01 X0.3168 Y-11.4492
G01 X0.3626 Y-11.4669
G01 X0.4579 Y-11.5010
G01 X0.5045 Y-11.5164
G01 X0.5565 Y-11.5309
G01 X0.6548 Y-11.5555
G01 X0.7027 Y-11.5663
G01 X0.7558 Y-11.5756
G01 X0.8560 Y-11.5905
G01 X0.9091 Y-11.5969
G01 X0.9575 Y-11.6005
G01 X1.0586 Y-11.6056
G01 X1.0837 Y-11.6065
G01 X1.1112 Y-11.6069
G01 X35.4806 Y-11.6069
G01 X35.5076 Y-11.6066
G01 X35.5321 Y-11.6057
G01 X35.6333 Y-11.6007
G01 X35.6822 Y-11.5971
G01 X35.7358 Y-11.5906
G01 X35.8360 Y-11.5757
G01 X35.8843 Y-11.5673
G01 X35.9370 Y-11.5556
G01 X36.0353 Y-11.5310
G01 X36.0826 Y-11.5179
G01 X36.1339 Y-11.5011
G01 X36.2292 Y-11.4670
G01 X36.2796 Y-11.4475
G01 X36.3244 Y-11.4276
G01 X36.4160 Y-11.3843
G01 X36.4598 Y-11.3622
G01 X36.5069 Y-11.3357
G01 X36.5937 Y-11.2836
G01 X36.6352 Y-11.2574
G01 X36.6794 Y-11.2264
G01 X36.7607 Y-11.1661
G01 X36.7994 Y-11.1359
G01 X36.8404 Y-11.1007
G01 X36.9154 Y-11.0327
G01 X36.9510 Y-10.9988
G01 X36.9883 Y-10.9598
G01 X37.0563 Y-10.8848
G01 X37.0915 Y-10.8438
G01 X37.1217 Y-10.8051
G01 X37.1820 Y-10.7238
G01 X37.2102 Y-10.6837
G01 X37.2392 Y-10.6381
G01 X37.2913 Y-10.5513
G01 X37.3155 Y-10.5085
G01 X37.3399 Y-10.4604
G01 X37.3832 Y-10.3688
G01 X37.4031 Y-10.3240
G01 X37.4226 Y-10.2736
G01 X37.4567 Y-10.1783
G01 X37.4735 Y-10.1270
G01 X37.4866 Y-10.0797
G01 X37.5112 Y-9.9814
G01 X37.5220 Y-9.9336
G01 X37.5313 Y-9.8804
G01 X37.5462 Y-9.7802
G01 X37.5527 Y-9.7266
G01 X37.5563 Y-9.6777
G01 X37.5622 Y-9.5520
G01 X37.5625 Y-9.5250
G01 X37.5625 Y-6.3931
G00 X37.5625 Y-6.3931
G01 F60.00
G01 Z-0.7000
G01 F120.00
G01 X37.5625 Y-9.5250
G01 X37.5622 Y-9.5520
G01 X37.5563 Y-9.6777
G01 X37.5527 Y-9.7266
G01 X37.5462 Y-9.7802
G01 X37.5313 Y-9.8804
G01 X37.5220 Y-9.9336
G01 X37.5112 Y-9.9814
G01 X37.4866 Y-10.0797
G01 X37.4735 Y-10.1270
G01 X37.4567 Y-10.1783
G01 X37.4226 Y-10.2736
G01 X37.4031 Y-10.3240
G01 X37.3832 Y-10.3688
G01 X37.3399 Y-10.4604
G01 X37.3155 Y-10.5085
G01 X37.2913 Y-10.5513
G01 X37.2392 Y-10.6381
G01 X37.2102 Y-10.6837
G01 X37.1820 Y-10.7238
G01 X37.1217 Y-10.8051
G01 X37.0915 Y-10.8438
G01 X37.0563 Y-10.8848
G01 X36.9883 Y-10.9598
G01 X36.9510 Y-10.9988
G01 X36.9154 Y-11.0327
G01 X36.8404 Y-11.1007
G01 X36.7994 Y-11.1359
G01 X36.7607 Y-11.1661
G01 X36.6794 Y-11.2264
G01 X36.6352 Y-11.2574
G01 X36.5937 Y-11.2836
G01 X36.5069 Y-11.3357
G01 X36.4598 Y-11.3622
G01 X36.4160 Y-11.3843
G01 X36.3244 Y-11.4276
G01 X36.2796 Y-11.4475
G01 X36.2292 Y-11.4670
G01 X36.1339 Y-11.5011
G01 X36.0826 Y-11.5179
G01 X36.0353 Y-11.5310
G01 X35.9370 Y-11.5556
G01 X35.8843 Y-11.5673
G01 X35.8360 Y-11.5757
G01 X35.7358 Y-11.5906
G01 X35.6822 Y-11.5971
G01 X35.6333 Y-11.6007
G01 X35.5321 Y-11.6057
G01 X35.5076 Y-11.6066
G01 X35.4806 Y-11.6069
G01 X1.1112 Y-11.6069
G01 X1.0837 Y-11.6065
G01 X1.0586 Y-11.6056
G01 X0.9575 Y-11.6005
G01 X0.9091 Y-11.5969
G01 X0.8560 Y-11.5905
G01 X0.7558 Y-11.5756
G01 X0.7027 Y-11.5663
G01 X0.6548 Y-11.5555
G01 X0.5565 Y-11.5309
G01 X0.5045 Y-11.5164
G01 X0.4579 Y-11.5010
G01 X0.3626 Y-11.4669
G01 X0.3168 Y-11.4492
G01 X0.2674 Y-11.4275
G01 X0.1759 Y-11.3842
G01 X0.1277 Y-11.3598
G01 X0.0850 Y-11.3356
G01 X-0.0019 Y-11.2835
G01 X-0.0474 Y-11.2546
G01 X-0.0875 Y-11.2263
G01 X-0.1689 Y-11.1660
G01 X-0.2076 Y-11.1358
G01 X-0.2485 Y-11.1006
G01 X-0.3235 Y-11.0326
G01 X-0.3626 Y-10.9953
G01 X-0.3964 Y-10.9597
G01 X-0.4644 Y-10.8847
G01 X-0.4996 Y-10.8438
G01 X-0.5298 Y-10.8051
G01 X-0.5901 Y-10.7237
G01 X-0.6184 Y-10.6836
G01 X-0.6473 Y-10.6381
G01 X-0.6994 Y-10.5512
G01 X-0.7259 Y-10.5042
G01 X-0.7480 Y-10.4603
G01 X-0.7913 Y-10.3688
G01 X-0.8130 Y-10.3194
G01 X-0.8307 Y-10.2736
G01 X-0.8648 Y-10.1783
G01 X-0.8816 Y-10.1270
G01 X-0.8947 Y-10.0797
G01 X-0.9193 Y-9.9814
G01 X-0.9301 Y-9.9335
G01 X-0.9394 Y-9.8804
G01 X-0.9543 Y-9.7802
G01 X-0.9603 Y-9.7315
G01 X-0.9644 Y-9.6777
G01 X-0.9694 Y-9.5765
G01 X-0.9706 Y-9.5250
G01 X-0.9706 Y-6.3931
G00 X-0.9706 Y-6.3931
G01 F60.00
G01 Z-0.8000
G01 F120.00
G01 X-0.9706 Y-9.5250
G01 X-0.9694 Y-9.5765
G01 X-0.9644 Y-9.6777
G01 X-0.9603 Y-9.7315
G01 X-0.9543 Y-9.7802
G01 X-0.9394 Y-9.8804
G01 X-0.9301 Y-9.9335
G01 X-0.9193 Y-9.9814
G01 X-0.8947 Y-10.0797
G01 X-0.8816 Y-10.1270
G01 X-0.8648 Y-10.1783
G01 X-0.8307 Y-10.2736
G01 X-0.8130 Y-10.3194
G01 X-0.7913 Y-10.3688
G01 X-0.7480 Y-10.4603
G01 X-0.7259 Y-10.5042
G01 X-0.6994 Y-10.5512
G01 X-0.6473 Y-10.6381
G01 X-0.6184 Y-10.6836
G01 X-0.5901 Y-10.7237
G01 X-0.5298 Y-10.8051
G01 X-0.4996 Y-10.8438
G01 X-0.4644 Y-10.8847
G01 X-0.3964 Y-10.9597
G01 X-0.3626 Y-10.9953
G01 X-0.3235 Y-11.0326
G01 X-0.2485 Y-11.1006
G01 X-0.2076 Y-11.1358
G01 X-0.1689 Y-11.1660
G01 X-0.0875 Y-11.2263
G01 X-0.0474 Y-11.2546
G01 X-0.0019 Y-11.2835
G01 X0.0850 Y-11.3356
G01 X0.1277 Y-11.3598
G01 X0.1759 Y-11.3842
G01 X0.2674 Y-11.4275
G01 X0.3168 Y-11.4492
G01 X0.3626 Y-11.4669
G01 X0.4579 Y-11.5010
G01 X0.5045 Y-11.5164
G01 X0.5565 Y-11.5309
G01 X0.6548 Y-11.5555
G01 X0.7027 Y-11.5663
G01 X0.7558 Y-11.5756
G01 X0.8560 Y-11.5905
G01 X0.9091 Y-11.5969
G01 X0.9575 Y-11.6005
G01 X1.0586 Y-11.6056
G01 X1.0837 Y-11.6065
G01 X1.1112 Y-11.6069
G01 X35.4806 Y-11.6069
G01 X35.5076 Y-11.6066
G01 X35.5321 Y-11.6057
G01 X35.6333 Y-11.6007
G01 X35.6822 Y-11.5971
G01 X35.7358 Y-11.5906
G01 X35.8360 Y-11.5757
G01 X35.8843 Y-11.5673
G01 X35.9370 Y-11.5556
G01 X36.0353 Y-11.5310
G01 X36.0826 Y-11.5179
G01 X36.1339 Y-11.5011
G01 X36.2292 Y-11.4670
G01 X36.2796 Y-11.4475
G01 X36.3244 Y-11.4276
G01 X36.4160 Y-11.3843
G01 X36.4598 Y-11.3622
G01 X36.5069 Y-11.3357
G01 X36.5937 Y-11.2836
G01 X36.6352 Y-11.2574
G01 X36.6794 Y-11.2264
G01 X36.7607 Y-11.1661
G01 X36.7994 Y-11.1359
G01 X36.8404 Y-11.1007
G01 X36.9154 Y-11.0327
G01 X36.9510 Y-10.9988
G01 X36.9883 Y-10.9598
G01 X37.0563 Y-10.8848
G01 X37.0915 Y-10.8438
G01 X37.1217 Y-10.8051
G01 X37.1820 Y-10.7238
G01 X37.2102 Y-10.6837
G01 X37.2392 Y-10.6381
G01 X37.2913 Y-10.5513
G01 X37.3155 Y-10.5085
G01 X37.3399 Y-10.4604
G01 X37.3832 Y-10.3688
G01 X37.4031 Y-10.3240
G01 X37.4226 Y-10.2736
G01 X37.4567 Y-10.1783
G01 X37.4735 Y-10.1270
G01 X37.4866 Y-10.0797
G01 X37.5112 Y-9.9814
G01 X37.5220 Y-9.9336
G01 X37.5313 Y-9.8804
G01 X37.5462 Y-9.7802
G01 X37.5527 Y-9.7266
G01 X37.5563 Y-9.6777
G01 X37.5622 Y-9.5520
G01 X37.5625 Y-9.5250
G01 X37.5625 Y-6.3931
G00 X37.5625 Y-6.3931
G01 F60.00
G01 Z-0.9000
G01 F120.00
G01 X37.5625 Y-9.5250
G01 X37.5622 Y-9.5520
G01 X37.5563 Y-9.6777
G01 X37.5527 Y-9.7266
G01 X37.5462 Y-9.7802
G01 X37.5313 Y-9.8804
G01 X37.5220 Y-9.9336
G01 X37.5112 Y-9.9814
G01 X37.4866 Y-10.0797
G01 X37.4735 Y-10.1270
G01 X37.4567 Y-10.1783
G01 X37.4226 Y-10.2736
G01 X37.4031 Y-10.3240
G01 X37.3832 Y-10.3688
G01 X37.3399 Y-10.4604
G01 X37.3155 Y-10.5085
G01 X37.2913 Y-10.5513
G01 X37.2392 Y-10.6381
G01 X37.2102 Y-10.6837
G01 X37.1820 Y-10.7238
G01 X37.1217 Y-10.8051
G01 X37.0915 Y-10.8438
G01 X37.0563 Y-10.8848
G01 X36.9883 Y-10.9598
G01 X36.9510 Y-10.9988
G01 X36.9154 Y-11.0327
G01 X36.8404 Y-11.1007
G01 X36.7994 Y-11.1359
G01 X36.7607 Y-11.1661
G01 X36.6794 Y-11.2264
G01 X36.6352 Y-11.2574
G01 X36.5937 Y-11.2836
G01 X36.5069 Y-11.3357
G01 X36.4598 Y-11.3622
G01 X36.4160 Y-11.3843
G01 X36.3244 Y-11.4276
G01 X36.2796 Y-11.4475
G01 X36.2292 Y-11.4670
G01 X36.1339 Y-11.5011
G01 X36.0826 Y-11.5179
G01 X36.0353 Y-11.5310
G01 X35.9370 Y-11.5556
G01 X35.8843 Y-11.5673
G01 X35.8360 Y-11.5757
G01 X35.7358 Y-11.5906
G01 X35.6822 Y-11.5971
G01 X35.6333 Y-11.6007
G01 X35.5321 Y-11.6057
G01 X35.5076 Y-11.6066
G01 X35.4806 Y-11.6069
G01 X1.1112 Y-11.6069
G01 X1.0837 Y-11.6065
G01 X1.0586 Y-11.6056
G01 X0.9575 Y-11.6005
G01 X0.9091 Y-11.5969
G01 X0.8560 Y-11.5905
G01 X0.7558 Y-11.5756
G01 X0.7027 Y-11.5663
G01 X0.6548 Y-11.5555
G01 X0.5565 Y-11.5309
G01 X0.5045 Y-11.5164
G01 X0.4579 Y-11.5010
G01 X0.3626 Y-11.4669
G01 X0.3168 Y-11.4492
G01 X0.2674 Y-11.4275
G01 X0.1759 Y-11.3842
G01 X0.1277 Y-11.3598
G01 X0.0850 Y-11.3356
G01 X-0.0019 Y-11.2835
G01 X-0.0474 Y-11.2546
G01 X-0.0875 Y-11.2263
G01 X-0.1689 Y-11.1660
G01 X-0.2076 Y-11.1358
G01 X-0.2485 Y-11.1006
G01 X-0.3235 Y-11.0326
G01 X-0.3626 Y-10.9953
G01 X-0.3964 Y-10.9597
G01 X-0.4644 Y-10.8847
G01 X-0.4996 Y-10.8438
G01 X-0.5298 Y-10.8051
G01 X-0.5901 Y-10.7237
G01 X-0.6184 Y-10.6836
G01 X-0.6473 Y-10.6381
G01 X-0.6994 Y-10.5512
G01 X-0.7259 Y-10.5042
G01 X-0.7480 Y-10.4603
G01 X-0.7913 Y-10.3688
G01 X-0.8130 Y-10.3194
G01 X-0.8307 Y-10.2736
G01 X-0.8648 Y-10.1783
G01 X-0.8816 Y-10.1270
G01 X-0.8947 Y-10.0797
G01 X-0.9193 Y-9.9814
G01 X-0.9301 Y-9.9335
G01 X-0.9394 Y-9.8804
G01 X-0.9543 Y-9.7802
G01 X-0.9603 Y-9.7315
G01 X-0.9644 Y-9.6777
G01 X-0.9694 Y-9.5765
G01 X-0.9706 Y-9.5250
G01 X-0.9706 Y-6.3931
G00 X-0.9706 Y-6.3931
G01 F60.00
G01 Z-1.0000
G01 F120.00
G01 X-0.9706 Y-9.5250
G01 X-0.9694 Y-9.5765
G01 X-0.9644 Y-9.6777
G01 X-0.9603 Y-9.7315
G01 X-0.9543 Y-9.7802
G01 X-0.9394 Y-9.8804
G01 X-0.9301 Y-9.9335
G01 X-0.9193 Y-9.9814
G01 X-0.8947 Y-10.0797
G01 X-0.8816 Y-10.1270
G01 X-0.8648 Y-10.1783
G01 X-0.8307 Y-10.2736
G01 X-0.8130 Y-10.3194
G01 X-0.7913 Y-10.3688
G01 X-0.7480 Y-10.4603
G01 X-0.7259 Y-10.5042
G01 X-0.6994 Y-10.5512
G01 X-0.6473 Y-10.6381
G01 X-0.6184 Y-10.6836
G01 X-0.5901 Y-10.7237
G01 X-0.5298 Y-10.8051
G01 X-0.4996 Y-10.8438
G01 X-0.4644 Y-10.8847
G01 X-0.3964 Y-10.9597
G01 X-0.3626 Y-10.9953
G01 X-0.3235 Y-11.0326
G01 X-0.2485 Y-11.1006
G01 X-0.2076 Y-11.1358
G01 X-0.1689 Y-11.1660
G01 X-0.0875 Y-11.2263
G01 X-0.0474 Y-11.2546
G01 X-0.0019 Y-11.2835
G01 X0.0850 Y-11.3356
G01 X0.1277 Y-11.3598
G01 X0.1759 Y-11.3842
G01 X0.2674 Y-11.4275
G01 X0.3168 Y-11.4492
G01 X0.3626 Y-11.4669
G01 X0.4579 Y-11.5010
G01 X0.5045 Y-11.5164
G01 X0.5565 Y-11.5309
G01 X0.6548 Y-11.5555
G01 X0.7027 Y-11.5663
G01 X0.7558 Y-11.5756
G01 X0.8560 Y-11.5905
G01 X0.9091 Y-11.5969
G01 X0.9575 Y-11.6005
G01 X1.0586 Y-11.6056
G01 X1.0837 Y-11.6065
G01 X1.1112 Y-11.6069
G01 X35.4806 Y-11.6069
G01 X35.5076 Y-11.6066
G01 X35.5321 Y-11.6057
G01 X35.6333 Y-11.6007
G01 X35.6822 Y-11.5971
G01 X35.7358 Y-11.5906
G01 X35.8360 Y-11.5757
G01 X35.8843 Y-11.5673
G01 X35.9370 Y-11.5556
G01 X36.0353 Y-11.5310
G01 X36.0826 Y-11.5179
G01 X36.1339 Y-11.5011
G01 X36.2292 Y-11.4670
G01 X36.2796 Y-11.4475
G01 X36.3244 Y-11.4276
G01 X36.4160 Y-11.3843
G01 X36.4598 Y-11.3622
G01 X36.5069 Y-11.3357
G01 X36.5937 Y-11.2836
G01 X36.6352 Y-11.2574
G01 X36.6794 Y-11.2264
G01 X36.7607 Y-11.1661
G01 X36.7994 Y-11.1359
G01 X36.8404 Y-11.1007
G01 X36.9154 Y-11.0327
G01 X36.9510 Y-10.9988
G01 X36.9883 Y-10.9598
G01 X37.0563 Y-10.8848
G01 X37.0915 Y-10.8438
G01 X37.1217 Y-10.8051
G01 X37.1820 Y-10.7238
G01 X37.2102 Y-10.6837
G01 X37.2392 Y-10.6381
G01 X37.2913 Y-10.5513
G01 X37.3155 Y-10.5085
G01 X37.3399 Y-10.4604
G01 X37.3832 Y-10.3688
G01 X37.4031 Y-10.3240
G01 X37.4226 Y-10.2736
G01 X37.4567 Y-10.1783
G01 X37.4735 Y-10.1270
G01 X37.4866 Y-10.0797
G01 X37.5112 Y-9.9814
G01 X37.5220 Y-9.9336
G01 X37.5313 Y-9.8804
G01 X37.5462 Y-9.7802
G01 X37.5527 Y-9.7266
G01 X37.5563 Y-9.6777
G01 X37.5622 Y-9.5520
G01 X37.5625 Y-9.5250
G01 X37.5625 Y-6.3931
G00 X37.5625 Y-6.3931
G01 F60.00
G01 Z-1.1000
G01 F120.00
G01 X37.5625 Y-9.5250
G01 X37.5622 Y-9.5520
G01 X37.5563 Y-9.6777
G01 X37.5527 Y-9.7266
G01 X37.5462 Y-9.7802
G01 X37.5313 Y-9.8804
G01 X37.5220 Y-9.9336
G01 X37.5112 Y-9.9814
G01 X37.4866 Y-10.0797
G01 X37.4735 Y-10.1270
G01 X37.4567 Y-10.1783
G01 X37.4226 Y-10.2736
G01 X37.4031 Y-10.3240
G01 X37.3832 Y-10.3688
G01 X37.3399 Y-10.4604
G01 X37.3155 Y-10.5085
G01 X37.2913 Y-10.5513
G01 X37.2392 Y-10.6381
G01 X37.2102 Y-10.6837
G01 X37.1820 Y-10.7238
G01 X37.1217 Y-10.8051
G01 X37.0915 Y-10.8438
G01 X37.0563 Y-10.8848
G01 X36.9883 Y-10.9598
G01 X36.9510 Y-10.9988
G01 X36.9154 Y-11.0327
G01 X36.8404 Y-11.1007
G01 X36.7994 Y-11.1359
G01 X36.7607 Y-11.1661
G01 X36.6794 Y-11.2264
G01 X36.6352 Y-11.2574
G01 X36.5937 Y-11.2836
G01 X36.5069 Y-11.3357
G01 X36.4598 Y-11.3622
G01 X36.4160 Y-11.3843
G01 X36.3244 Y-11.4276
G01 X36.2796 Y-11.4475
G01 X36.2292 Y-11.4670
G01 X36.1339 Y-11.5011
G01 X36.0826 Y-11.5179
G01 X36.0353 Y-11.5310
G01 X35.9370 Y-11.5556
G01 X35.8843 Y-11.5673
G01 X35.8360 Y-11.5757
G01 X35.7358 Y-11.5906
G01 X35.6822 Y-11.5971
G01 X35.6333 Y-11.6007
G01 X35.5321 Y-11.6057
G01 X35.5076 Y-11.6066
G01 X35.4806 Y-11.6069
G01 X1.1112 Y-11.6069
G01 X1.0837 Y-11.6065
G01 X1.0586 Y-11.6056
G01 X0.9575 Y-11.6005
G01 X0.9091 Y-11.5969
G01 X0.8560 Y-11.5905
G01 X0.7558 Y-11.5756
G01 X0.7027 Y-11.5663
G01 X0.6548 Y-11.5555
G01 X0.5565 Y-11.5309
G01 X0.5045 Y-11.5164
G01 X0.4579 Y-11.5010
G01 X0.3626 Y-11.4669
G01 X0.3168 Y-11.4492
G01 X0.2674 Y-11.4275
G01 X0.1759 Y-11.3842
G01 X0.1277 Y-11.3598
G01 X0.0850 Y-11.3356
G01 X-0.0019 Y-11.2835
G01 X-0.0474 Y-11.2546
G01 X-0.0875 Y-11.2263
G01 X-0.1689 Y-11.1660
G01 X-0.2076 Y-11.1358
G01 X-0.2485 Y-11.1006
G01 X-0.3235 Y-11.0326
G01 X-0.3626 Y-10.9953
G01 X-0.3964 Y-10.9597
G01 X-0.4644 Y-10.8847
G01 X-0.4996 Y-10.8438
G01 X-0.5298 Y-10.8051
G01 X-0.5901 Y-10.7237
G01 X-0.6184 Y-10.6836
G01 X-0.6473 Y-10.6381
G01 X-0.6994 Y-10.5512
G01 X-0.7259 Y-10.5042
G01 X-0.7480 Y-10.4603
G01 X-0.7913 Y-10.3688
G01 X-0.8130 Y-10.3194
G01 X-0.8307 Y-10.2736
G01 X-0.8648 Y-10.1783
G01 X-0.8816 Y-10.1270
G01 X-0.8947 Y-10.0797
G01 X-0.9193 Y-9.9814
G01 X-0.9301 Y-9.9335
G01 X-0.9394 Y-9.8804
G01 X-0.9543 Y-9.7802
G01 X-0.9603 Y-9.7315
G01 X-0.9644 Y-9.6777
G01 X-0.9694 Y-9.5765
G01 X-0.9706 Y-9.5250
G01 X-0.9706 Y-6.3931
G00 X-0.9706 Y-6.3931
G01 F60.00
G01 Z-1.2000
G01 F120.00
G01 X-0.9706 Y-9.5250
G01 X-0.9694 Y-9.5765
G01 X-0.9644 Y-9.6777
G01 X-0.9603 Y-9.7315
G01 X-0.9543 Y-9.7802
G01 X-0.9394 Y-9.8804
G01 X-0.9301 Y-9.9335
G01 X-0.9193 Y-9.9814
G01 X-0.8947 Y-10.0797
G01 X-0.8816 Y-10.1270
G01 X-0.8648 Y-10.1783
G01 X-0.8307 Y-10.2736
G01 X-0.8130 Y-10.3194
G01 X-0.7913 Y-10.3688
G01 X-0.7480 Y-10.4603
G01 X-0.7259 Y-10.5042
G01 X-0.6994 Y-10.5512
G01 X-0.6473 Y-10.6381
G01 X-0.6184 Y-10.6836
G01 X-0.5901 Y-10.7237
G01 X-0.5298 Y-10.8051
G01 X-0.4996 Y-10.8438
G01 X-0.4644 Y-10.8847
G01 X-0.3964 Y-10.9597
G01 X-0.3626 Y-10.9953
G01 X-0.3235 Y-11.0326
G01 X-0.2485 Y-11.1006
G01 X-0.2076 Y-11.1358
G01 X-0.1689 Y-11.1660
G01 X-0.0875 Y-11.2263
G01 X-0.0474 Y-11.2546
G01 X-0.0019 Y-11.2835
G01 X0.0850 Y-11.3356
G01 X0.1277 Y-11.3598
G01 X0.1759 Y-11.3842
G01 X0.2674 Y-11.4275
G01 X0.3168 Y-11.4492
G01 X0.3626 Y-11.4669
G01 X0.4579 Y-11.5010
G01 X0.5045 Y-11.5164
G01 X0.5565 Y-11.5309
G01 X0.6548 Y-11.5555
G01 X0.7027 Y-11.5663
G01 X0.7558 Y-11.5756
G01 X0.8560 Y-11.5905
G01 X0.9091 Y-11.5969
G01 X0.9575 Y-11.6005
G01 X1.0586 Y-11.6056
G01 X1.0837 Y-11.6065
G01 X1.1112 Y-11.6069
G01 X35.4806 Y-11.6069
G01 X35.5076 Y-11.6066
G01 X35.5321 Y-11.6057
G01 X35.6333 Y-11.6007
G01 X35.6822 Y-11.5971
G01 X35.7358 Y-11.5906
G01 X35.8360 Y-11.5757
G01 X35.8843 Y-11.5673
G01 X35.9370 Y-11.5556
G01 X36.0353 Y-11.5310
G01 X36.0826 Y-11.5179
G01 X36.1339 Y-11.5011
G01 X36.2292 Y-11.4670
G01 X36.2796 Y-11.4475
G01 X36.3244 Y-11.4276
G01 X36.4160 Y-11.3843
G01 X36.4598 Y-11.3622
G01 X36.5069 Y-11.3357
G01 X36.5937 Y-11.2836
G01 X36.6352 Y-11.2574
G01 X36.6794 Y-11.2264
G01 X36.7607 Y-11.1661
G01 X36.7994 Y-11.1359
G01 X36.8404 Y-11.1007
G01 X36.9154 Y-11.0327
G01 X36.9510 Y-10.9988
G01 X36.9883 Y-10.9598
G01 X37.0563 Y-10.8848
G01 X37.0915 Y-10.8438
G01 X37.1217 Y-10.8051
G01 X37.1820 Y-10.7238
G01 X37.2102 Y-10.6837
G01 X37.2392 Y-10.6381
G01 X37.2913 Y-10.5513
G01 X37.3155 Y-10.5085
G01 X37.3399 Y-10.4604
G01 X37.3832 Y-10.3688
G01 X37.4031 Y-10.3240
G01 X37.4226 Y-10.2736
G01 X37.4567 Y-10.1783
G01 X37.4735 Y-10.1270
G01 X37.4866 Y-10.0797
G01 X37.5112 Y-9.9814
G01 X37.5220 Y-9.9336
G01 X37.5313 Y-9.8804
G01 X37.5462 Y-9.7802
G01 X37.5527 Y-9.7266
G01 X37.5563 Y-9.6777
G01 X37.5622 Y-9.5520
G01 X37.5625 Y-9.5250
G01 X37.5625 Y-6.3931
G00 X37.5625 Y-6.3931
G01 F60.00
G01 Z-1.3000
G01 F120.00
G01 X37.5625 Y-9.5250
G01 X37.5622 Y-9.5520
G01 X37.5563 Y-9.6777
G01 X37.5527 Y-9.7266
G01 X37.5462 Y-9.7802
G01 X37.5313 Y-9.8804
G01 X37.5220 Y-9.9336
G01 X37.5112 Y-9.9814
G01 X37.4866 Y-10.0797
G01 X37.4735 Y-10.1270
G01 X37.4567 Y-10.1783
G01 X37.4226 Y-10.2736
G01 X37.4031 Y-10.3240
G01 X37.3832 Y-10.3688
G01 X37.3399 Y-10.4604
G01 X37.3155 Y-10.5085
G01 X37.2913 Y-10.5513
G01 X37.2392 Y-10.6381
G01 X37.2102 Y-10.6837
G01 X37.1820 Y-10.7238
G01 X37.1217 Y-10.8051
G01 X37.0915 Y-10.8438
G01 X37.0563 Y-10.8848
G01 X36.9883 Y-10.9598
G01 X36.9510 Y-10.9988
G01 X36.9154 Y-11.0327
G01 X36.8404 Y-11.1007
G01 X36.7994 Y-11.1359
G01 X36.7607 Y-11.1661
G01 X36.6794 Y-11.2264
G01 X36.6352 Y-11.2574
G01 X36.5937 Y-11.2836
G01 X36.5069 Y-11.3357
G01 X36.4598 Y-11.3622
G01 X36.4160 Y-11.3843
G01 X36.3244 Y-11.4276
G01 X36.2796 Y-11.4475
G01 X36.2292 Y-11.4670
G01 X36.1339 Y-11.5011
G01 X36.0826 Y-11.5179
G01 X36.0353 Y-11.5310
G01 X35.9370 Y-11.5556
G01 X35.8843 Y-11.5673
G01 X35.8360 Y-11.5757
G01 X35.7358 Y-11.5906
G01 X35.6822 Y-11.5971
G01 X35.6333 Y-11.6007
G01 X35.5321 Y-11.6057
G01 X35.5076 Y-11.6066
G01 X35.4806 Y-11.6069
G01 X1.1112 Y-11.6069
G01 X1.0837 Y-11.6065
G01 X1.0586 Y-11.6056
G01 X0.9575 Y-11.6005
G01 X0.9091 Y-11.5969
G01 X0.8560 Y-11.5905
G01 X0.7558 Y-11.5756
G01 X0.7027 Y-11.5663
G01 X0.6548 Y-11.5555
G01 X0.5565 Y-11.5309
G01 X0.5045 Y-11.5164
G01 X0.4579 Y-11.5010
G01 X0.3626 Y-11.4669
G01 X0.3168 Y-11.4492
G01 X0.2674 Y-11.4275
G01 X0.1759 Y-11.3842
G01 X0.1277 Y-11.3598
G01 X0.0850 Y-11.3356
G01 X-0.0019 Y-11.2835
G01 X-0.0474 Y-11.2546
G01 X-0.0875 Y-11.2263
G01 X-0.1689 Y-11.1660
G01 X-0.2076 Y-11.1358
G01 X-0.2485 Y-11.1006
G01 X-0.3235 Y-11.0326
G01 X-0.3626 Y-10.9953
G01 X-0.3964 Y-10.9597
G01 X-0.4644 Y-10.8847
G01 X-0.4996 Y-10.8438
G01 X-0.5298 Y-10.8051
G01 X-0.5901 Y-10.7237
G01 X-0.6184 Y-10.6836
G01 X-0.6473 Y-10.6381
G01 X-0.6994 Y-10.5512
G01 X-0.7259 Y-10.5042
G01 X-0.7480 Y-10.4603
G01 X-0.7913 Y-10.3688
G01 X-0.8130 Y-10.3194
G01 X-0.8307 Y-10.2736
G01 X-0.8648 Y-10.1783
G01 X-0.8816 Y-10.1270
G01 X-0.8947 Y-10.0797
G01 X-0.9193 Y-9.9814
G01 X-0.9301 Y-9.9335
G01 X-0.9394 Y-9.8804
G01 X-0.9543 Y-9.7802
G01 X-0.9603 Y-9.7315
G01 X-0.9644 Y-9.6777
G01 X-0.9694 Y-9.5765
G01 X-0.9706 Y-9.5250
G01 X-0.9706 Y-6.3931
G00 X-0.9706 Y-6.3931
G01 F60.00
G01 Z-1.4000
G01 F120.00
G01 X-0.9706 Y-9.5250
G01 X-0.9694 Y-9.5765
G01 X-0.9644 Y-9.6777
G01 X-0.9603 Y-9.7315
G01 X-0.9543 Y-9.7802
G01 X-0.9394 Y-9.8804
G01 X-0.9301 Y-9.9335
G01 X-0.9193 Y-9.9814
G01 X-0.8947 Y-10.0797
G01 X-0.8816 Y-10.1270
G01 X-0.8648 Y-10.1783
G01 X-0.8307 Y-10.2736
G01 X-0.8130 Y-10.3194
G01 X-0.7913 Y-10.3688
G01 X-0.7480 Y-10.4603
G01 X-0.7259 Y-10.5042
G01 X-0.6994 Y-10.5512
G01 X-0.6473 Y-10.6381
G01 X-0.6184 Y-10.6836
G01 X-0.5901 Y-10.7237
G01 X-0.5298 Y-10.8051
G01 X-0.4996 Y-10.8438
G01 X-0.4644 Y-10.8847
G01 X-0.3964 Y-10.9597
G01 X-0.3626 Y-10.9953
G01 X-0.3235 Y-11.0326
G01 X-0.2485 Y-11.1006
G01 X-0.2076 Y-11.1358
G01 X-0.1689 Y-11.1660
G01 X-0.0875 Y-11.2263
G01 X-0.0474 Y-11.2546
G01 X-0.0019 Y-11.2835
G01 X0.0850 Y-11.3356
G01 X0.1277 Y-11.3598
G01 X0.1759 Y-11.3842
G01 X0.2674 Y-11.4275
G01 X0.3168 Y-11.4492
G01 X0.3626 Y-11.4669
G01 X0.4579 Y-11.5010
G01 X0.5045 Y-11.5164
G01 X0.5565 Y-11.5309
G01 X0.6548 Y-11.5555
G01 X0.7027 Y-11.5663
G01 X0.7558 Y-11.5756
G01 X0.8560 Y-11.5905
G01 X0.9091 Y-11.5969
G01 X0.9575 Y-11.6005
G01 X1.0586 Y-11.6056
G01 X1.0837 Y-11.6065
G01 X1.1112 Y-11.6069
G01 X35.4806 Y-11.6069
G01 X35.5076 Y-11.6066
G01 X35.5321 Y-11.6057
G01 X35.6333 Y-11.6007
G01 X35.6822 Y-11.5971
G01 X35.7358 Y-11.5906
G01 X35.8360 Y-11.5757
G01 X35.8843 Y-11.5673
G01 X35.9370 Y-11.5556
G01 X36.0353 Y-11.5310
G01 X36.0826 Y-11.5179
G01 X36.1339 Y-11.5011
G01 X36.2292 Y-11.4670
G01 X36.2796 Y-11.4475
G01 X36.3244 Y-11.4276
G01 X36.4160 Y-11.3843
G01 X36.4598 Y-11.3622
G01 X36.5069 Y-11.3357
G01 X36.5937 Y-11.2836
G01 X36.6352 Y-11.2574
G01 X36.6794 Y-11.2264
G01 X36.7607 Y-11.1661
G01 X36.7994 Y-11.1359
G01 X36.8404 Y-11.1007
G01 X36.9154 Y-11.0327
G01 X36.9510 Y-10.9988
G01 X36.9883 Y-10.9598
G01 X37.0563 Y-10.8848
G01 X37.0915 Y-10.8438
G01 X37.1217 Y-10.8051
G01 X37.1820 Y-10.7238
G01 X37.2102 Y-10.6837
G01 X37.2392 Y-10.6381
G01 X37.2913 Y-10.5513
G01 X37.3155 Y-10.5085
G01 X37.3399 Y-10.4604
G01 X37.3832 Y-10.3688
G01 X37.4031 Y-10.3240
G01 X37.4226 Y-10.2736
G01 X37.4567 Y-10.1783
G01 X37.4735 Y-10.1270
G01 X37.4866 Y-10.0797
G01 X37.5112 Y-9.9814
G01 X37.5220 Y-9.9336
G01 X37.5313 Y-9.8804
G01 X37.5462 Y-9.7802
G01 X37.5527 Y-9.7266
G01 X37.5563 Y-9.6777
G01 X37.5622 Y-9.5520
G01 X37.5625 Y-9.5250
G01 X37.5625 Y-6.3931
G00 X37.5625 Y-6.3931
G01 F60.00
G01 Z-1.5000
G01 F120.00
G01 X37.5625 Y-9.5250
G01 X37.5622 Y-9.5520
G01 X37.5563 Y-9.6777
G01 X37.5527 Y-9.7266
G01 X37.5462 Y-9.7802
G01 X37.5313 Y-9.8804
G01 X37.5220 Y-9.9336
G01 X37.5112 Y-9.9814
G01 X37.4866 Y-10.0797
G01 X37.4735 Y-10.1270
G01 X37.4567 Y-10.1783
G01 X37.4226 Y-10.2736
G01 X37.4031 Y-10.3240
G01 X37.3832 Y-10.3688
G01 X37.3399 Y-10.4604
G01 X37.3155 Y-10.5085
G01 X37.2913 Y-10.5513
G01 X37.2392 Y-10.6381
G01 X37.2102 Y-10.6837
G01 X37.1820 Y-10.7238
G01 X37.1217 Y-10.8051
G01 X37.0915 Y-10.8438
G01 X37.0563 Y-10.8848
G01 X36.9883 Y-10.9598
G01 X36.9510 Y-10.9988
G01 X36.9154 Y-11.0327
G01 X36.8404 Y-11.1007
G01 X36.7994 Y-11.1359
G01 X36.7607 Y-11.1661
G01 X36.6794 Y-11.2264
G01 X36.6352 Y-11.2574
G01 X36.5937 Y-11.2836
G01 X36.5069 Y-11.3357
G01 X36.4598 Y-11.3622
G01 X36.4160 Y-11.3843
G01 X36.3244 Y-11.4276
G01 X36.2796 Y-11.4475
G01 X36.2292 Y-11.4670
G01 X36.1339 Y-11.5011
G01 X36.0826 Y-11.5179
G01 X36.0353 Y-11.5310
G01 X35.9370 Y-11.5556
G01 X35.8843 Y-11.5673
G01 X35.8360 Y-11.5757
G01 X35.7358 Y-11.5906
G01 X35.6822 Y-11.5971
G01 X35.6333 Y-11.6007
G01 X35.5321 Y-11.6057
G01 X35.5076 Y-11.6066
G01 X35.4806 Y-11.6069
G01 X1.1112 Y-11.6069
G01 X1.0837 Y-11.6065
G01 X1.0586 Y-11.6056
G01 X0.9575 Y-11.6005
G01 X0.9091 Y-11.5969
G01 X0.8560 Y-11.5905
G01 X0.7558 Y-11.5756
G01 X0.7027 Y-11.5663
G01 X0.6548 Y-11.5555
G01 X0.5565 Y-11.5309
G01 X0.5045 Y-11.5164
G01 X0.4579 Y-11.5010
G01 X0.3626 Y-11.4669
G01 X0.3168 Y-11.4492
G01 X0.2674 Y-11.4275
G01 X0.1759 Y-11.3842
G01 X0.1277 Y-11.3598
G01 X0.0850 Y-11.3356
G01 X-0.0019 Y-11.2835
G01 X-0.0474 Y-11.2546
G01 X-0.0875 Y-11.2263
G01 X-0.1689 Y-11.1660
G01 X-0.2076 Y-11.1358
G01 X-0.2485 Y-11.1006
G01 X-0.3235 Y-11.0326
G01 X-0.3626 Y-10.9953
G01 X-0.3964 Y-10.9597
G01 X-0.4644 Y-10.8847
G01 X-0.4996 Y-10.8438
G01 X-0.5298 Y-10.8051
G01 X-0.5901 Y-10.7237
G01 X-0.6184 Y-10.6836
G01 X-0.6473 Y-10.6381
G01 X-0.6994 Y-10.5512
G01 X-0.7259 Y-10.5042
G01 X-0.7480 Y-10.4603
G01 X-0.7913 Y-10.3688
G01 X-0.8130 Y-10.3194
G01 X-0.8307 Y-10.2736
G01 X-0.8648 Y-10.1783
G01 X-0.8816 Y-10.1270
G01 X-0.8947 Y-10.0797
G01 X-0.9193 Y-9.9814
G01 X-0.9301 Y-9.9335
G01 X-0.9394 Y-9.8804
G01 X-0.9543 Y-9.7802
G01 X-0.9603 Y-9.7315
G01 X-0.9644 Y-9.6777
G01 X-0.9694 Y-9.5765
G01 X-0.9706 Y-9.5250
G01 X-0.9706 Y-6.3931
G00 X-0.9706 Y-6.3931
G01 F60.00
G01 Z-1.6000
G01 F120.00
G01 X-0.9706 Y-9.5250
G01 X-0.9694 Y-9.5765
G01 X-0.9644 Y-9.6777
G01 X-0.9603 Y-9.7315
G01 X-0.9543 Y-9.7802
G01 X-0.9394 Y-9.8804
G01 X-0.9301 Y-9.9335
G01 X-0.9193 Y-9.9814
G01 X-0.8947 Y-10.0797
G01 X-0.8816 Y-10.1270
G01 X-0.8648 Y-10.1783
G01 X-0.8307 Y-10.2736
G01 X-0.8130 Y-10.3194
G01 X-0.7913 Y-10.3688
G01 X-0.7480 Y-10.4603
G01 X-0.7259 Y-10.5042
G01 X-0.6994 Y-10.5512
G01 X-0.6473 Y-10.6381
G01 X-0.6184 Y-10.6836
G01 X-0.5901 Y-10.7237
G01 X-0.5298 Y-10.8051
G01 X-0.4996 Y-10.8438
G01 X-0.4644 Y-10.8847
G01 X-0.3964 Y-10.9597
G01 X-0.3626 Y-10.9953
G01 X-0.3235 Y-11.0326
G01 X-0.2485 Y-11.1006
G01 X-0.2076 Y-11.1358
G01 X-0.1689 Y-11.1660
G01 X-0.0875 Y-11.2263
G01 X-0.0474 Y-11.2546
G01 X-0.0019 Y-11.2835
G01 X0.0850 Y-11.3356
G01 X0.1277 Y-11.3598
G01 X0.1759 Y-11.3842
G01 X0.2674 Y-11.4275
G01 X0.3168 Y-11.4492
G01 X0.3626 Y-11.4669
G01 X0.4579 Y-11.5010
G01 X0.5045 Y-11.5164
G01 X0.5565 Y-11.5309
G01 X0.6548 Y-11.5555
G01 X0.7027 Y-11.5663
G01 X0.7558 Y-11.5756
G01 X0.8560 Y-11.5905
G01 X0.9091 Y-11.5969
G01 X0.9575 Y-11.6005
G01 X1.0586 Y-11.6056
G01 X1.0837 Y-11.6065
G01 X1.1112 Y-11.6069
G01 X35.4806 Y-11.6069
G01 X35.5076 Y-11.6066
G01 X35.5321 Y-11.6057
G01 X35.6333 Y-11.6007
G01 X35.6822 Y-11.5971
G01 X35.7358 Y-11.5906
G01 X35.8360 Y-11.5757
G01 X35.8843 Y-11.5673
G01 X35.9370 Y-11.5556
G01 X36.0353 Y-11.5310
G01 X36.0826 Y-11.5179
G01 X36.1339 Y-11.5011
G01 X36.2292 Y-11.4670
G01 X36.2796 Y-11.4475
G01 X36.3244 Y-11.4276
G01 X36.4160 Y-11.3843
G01 X36.4598 Y-11.3622
G01 X36.5069 Y-11.3357
G01 X36.5937 Y-11.2836
G01 X36.6352 Y-11.2574
G01 X36.6794 Y-11.2264
G01 X36.7607 Y-11.1661
G01 X36.7994 Y-11.1359
G01 X36.8404 Y-11.1007
G01 X36.9154 Y-11.0327
G01 X36.9510 Y-10.9988
G01 X36.9883 Y-10.9598
G01 X37.0563 Y-10.8848
G01 X37.0915 Y-10.8438
G01 X37.1217 Y-10.8051
G01 X37.1820 Y-10.7238
G01 X37.2102 Y-10.6837
G01 X37.2392 Y-10.6381
G01 X37.2913 Y-10.5513
G01 X37.3155 Y-10.5085
G01 X37.3399 Y-10.4604
G01 X37.3832 Y-10.3688
G01 X37.4031 Y-10.3240
G01 X37.4226 Y-10.2736
G01 X37.4567 Y-10.1783
G01 X37.4735 Y-10.1270
G01 X37.4866 Y-10.0797
G01 X37.5112 Y-9.9814
G01 X37.5220 Y-9.9336
G01 X37.5313 Y-9.8804
G01 X37.5462 Y-9.7802
G01 X37.5527 Y-9.7266
G01 X37.5563 Y-9.6777
G01 X37.5622 Y-9.5520
G01 X37.5625 Y-9.5250
G01 X37.5625 Y-6.3931
G00 X37.5625 Y-6.3931
G01 F60.00
G01 Z-1.7000
G01 F120.00
G01 X37.5625 Y-9.5250
G01 X37.5622 Y-9.5520
G01 X37.5563 Y-9.6777
G01 X37.5527 Y-9.7266
G01 X37.5462 Y-9.7802
G01 X37.5313 Y-9.8804
G01 X37.5220 Y-9.9336
G01 X37.5112 Y-9.9814
G01 X37.4866 Y-10.0797
G01 X37.4735 Y-10.1270
G01 X37.4567 Y-10.1783
G01 X37.4226 Y-10.2736
G01 X37.4031 Y-10.3240
G01 X37.3832 Y-10.3688
G01 X37.3399 Y-10.4604
G01 X37.3155 Y-10.5085
G01 X37.2913 Y-10.5513
G01 X37.2392 Y-10.6381
G01 X37.2102 Y-10.6837
G01 X37.1820 Y-10.7238
G01 X37.1217 Y-10.8051
G01 X37.0915 Y-10.8438
G01 X37.0563 Y-10.8848
G01 X36.9883 Y-10.9598
G01 X36.9510 Y-10.9988
G01 X36.9154 Y-11.0327
G01 X36.8404 Y-11.1007
G01 X36.7994 Y-11.1359
G01 X36.7607 Y-11.1661
G01 X36.6794 Y-11.2264
G01 X36.6352 Y-11.2574
G01 X36.5937 Y-11.2836
G01 X36.5069 Y-11.3357
G01 X36.4598 Y-11.3622
G01 X36.4160 Y-11.3843
G01 X36.3244 Y-11.4276
G01 X36.2796 Y-11.4475
G01 X36.2292 Y-11.4670
G01 X36.1339 Y-11.5011
G01 X36.0826 Y-11.5179
G01 X36.0353 Y-11.5310
G01 X35.9370 Y-11.5556
G01 X35.8843 Y-11.5673
G01 X35.8360 Y-11.5757
G01 X35.7358 Y-11.5906
G01 X35.6822 Y-11.5971
G01 X35.6333 Y-11.6007
G01 X35.5321 Y-11.6057
G01 X35.5076 Y-11.6066
G01 X35.4806 Y-11.6069
G01 X1.1112 Y-11.6069
G01 X1.0837 Y-11.6065
G01 X1.0586 Y-11.6056
G01 X0.9575 Y-11.6005
G01 X0.9091 Y-11.5969
G01 X0.8560 Y-11.5905
G01 X0.7558 Y-11.5756
G01 X0.7027 Y-11.5663
G01 X0.6548 Y-11.5555
G01 X0.5565 Y-11.5309
G01 X0.5045 Y-11.5164
G01 X0.4579 Y-11.5010
G01 X0.3626 Y-11.4669
G01 X0.3168 Y-11.4492
G01 X0.2674 Y-11.4275
G01 X0.1759 Y-11.3842
G01 X0.1277 Y-11.3598
G01 X0.0850 Y-11.3356
G01 X-0.0019 Y-11.2835
G01 X-0.0474 Y-11.2546
G01 X-0.0875 Y-11.2263
G01 X-0.1689 Y-11.1660
G01 X-0.2076 Y-11.1358
G01 X-0.2485 Y-11.1006
G01 X-0.3235 Y-11.0326
G01 X-0.3626 Y-10.9953
G01 X-0.3964 Y-10.9597
G01 X-0.4644 Y-10.8847
G01 X-0.4996 Y-10.8438
G01 X-0.5298 Y-10.8051
G01 X-0.5901 Y-10.7237
G01 X-0.6184 Y-10.6836
G01 X-0.6473 Y-10.6381
G01 X-0.6994 Y-10.5512
G01 X-0.7259 Y-10.5042
G01 X-0.7480 Y-10.4603
G01 X-0.7913 Y-10.3688
G01 X-0.8130 Y-10.3194
G01 X-0.8307 Y-10.2736
G01 X-0.8648 Y-10.1783
G01 X-0.8816 Y-10.1270
G01 X-0.8947 Y-10.0797
G01 X-0.9193 Y-9.9814
G01 X-0.9301 Y-9.9335
G01 X-0.9394 Y-9.8804
G01 X-0.9543 Y-9.7802
G01 X-0.9603 Y-9.7315
G01 X-0.9644 Y-9.6777
G01 X-0.9694 Y-9.5765
G01 X-0.9706 Y-9.5250
G01 X-0.9706 Y-6.3931
G00 X-0.9706 Y-6.3931
G01 F60.00
G01 Z-1.8000
G01 F120.00
G01 X-0.9706 Y-9.5250
G01 X-0.9694 Y-9.5765
G01 X-0.9644 Y-9.6777
G01 X-0.9603 Y-9.7315
G01 X-0.9543 Y-9.7802
G01 X-0.9394 Y-9.8804
G01 X-0.9301 Y-9.9335
G01 X-0.9193 Y-9.9814
G01 X-0.8947 Y-10.0797
G01 X-0.8816 Y-10.1270
G01 X-0.8648 Y-10.1783
G01 X-0.8307 Y-10.2736
G01 X-0.8130 Y-10.3194
G01 X-0.7913 Y-10.3688
G01 X-0.7480 Y-10.4603
G01 X-0.7259 Y-10.5042
G01 X-0.6994 Y-10.5512
G01 X-0.6473 Y-10.6381
G01 X-0.6184 Y-10.6836
G01 X-0.5901 Y-10.7237
G01 X-0.5298 Y-10.8051
G01 X-0.4996 Y-10.8438
G01 X-0.4644 Y-10.8847
G01 X-0.3964 Y-10.9597
G01 X-0.3626 Y-10.9953
G01 X-0.3235 Y-11.0326
G01 X-0.2485 Y-11.1006
G01 X-0.2076 Y-11.1358
G01 X-0.1689 Y-11.1660
G01 X-0.0875 Y-11.2263
G01 X-0.0474 Y-11.2546
G01 X-0.0019 Y-11.2835
G01 X0.0850 Y-11.3356
G01 X0.1277 Y-11.3598
G01 X0.1759 Y-11.3842
G01 X0.2674 Y-11.4275
G01 X0.3168 Y-11.4492
G01 X0.3626 Y-11.4669
G01 X0.4579 Y-11.5010
G01 X0.5045 Y-11.5164
G01 X0.5565 Y-11.5309
G01 X0.6548 Y-11.5555
G01 X0.7027 Y-11.5663
G01 X0.7558 Y-11.5756
G01 X0.8560 Y-11.5905
G01 X0.9091 Y-11.5969
G01 X0.9575 Y-11.6005
G01 X1.0586 Y-11.6056
G01 X1.0837 Y-11.6065
G01 X1.1112 Y-11.6069
G01 X35.4806 Y-11.6069
G01 X35.5076 Y-11.6066
G01 X35.5321 Y-11.6057
G01 X35.6333 Y-11.6007
G01 X35.6822 Y-11.5971
G01 X35.7358 Y-11.5906
G01 X35.8360 Y-11.5757
G01 X35.8843 Y-11.5673
G01 X35.9370 Y-11.5556
G01 X36.0353 Y-11.5310
G01 X36.0826 Y-11.5179
G01 X36.1339 Y-11.5011
G01 X36.2292 Y-11.4670
G01 X36.2796 Y-11.4475
G01 X36.3244 Y-11.4276
G01 X36.4160 Y-11.3843
G01 X36.4598 Y-11.3622
G01 X36.5069 Y-11.3357
G01 X36.5937 Y-11.2836
G01 X36.6352 Y-11.2574
G01 X36.6794 Y-11.2264
G01 X36.7607 Y-11.1661
G01 X36.7994 Y-11.1359
G01 X36.8404 Y-11.1007
G01 X36.9154 Y-11.0327
G01 X36.9510 Y-10.9988
G01 X36.9883 Y-10.9598
G01 X37.0563 Y-10.8848
G01 X37.0915 Y-10.8438
G01 X37.1217 Y-10.8051
G01 X37.1820 Y-10.7238
G01 X37.2102 Y-10.6837
G01 X37.2392 Y-10.6381
G01 X37.2913 Y-10.5513
G01 X37.3155 Y-10.5085
G01 X37.3399 Y-10.4604
G01 X37.3832 Y-10.3688
G01 X37.4031 Y-10.3240
G01 X37.4226 Y-10.2736
G01 X37.4567 Y-10.1783
G01 X37.4735 Y-10.1270
G01 X37.4866 Y-10.0797
G01 X37.5112 Y-9.9814
G01 X37.5220 Y-9.9336
G01 X37.5313 Y-9.8804
G01 X37.5462 Y-9.7802
G01 X37.5527 Y-9.7266
G01 X37.5563 Y-9.6777
G01 X37.5622 Y-9.5520
G01 X37.5625 Y-9.5250
G01 X37.5625 Y-6.3931
G00 X37.5625 Y-6.3931
G01 F60.00
G01 Z-1.9000
G01 F120.00
G01 X37.5625 Y-9.5250
G01 X37.5622 Y-9.5520
G01 X37.5563 Y-9.6777
G01 X37.5527 Y-9.7266
G01 X37.5462 Y-9.7802
G01 X37.5313 Y-9.8804
G01 X37.5220 Y-9.9336
G01 X37.5112 Y-9.9814
G01 X37.4866 Y-10.0797
G01 X37.4735 Y-10.1270
G01 X37.4567 Y-10.1783
G01 X37.4226 Y-10.2736
G01 X37.4031 Y-10.3240
G01 X37.3832 Y-10.3688
G01 X37.3399 Y-10.4604
G01 X37.3155 Y-10.5085
G01 X37.2913 Y-10.5513
G01 X37.2392 Y-10.6381
G01 X37.2102 Y-10.6837
G01 X37.1820 Y-10.7238
G01 X37.1217 Y-10.8051
G01 X37.0915 Y-10.8438
G01 X37.0563 Y-10.8848
G01 X36.9883 Y-10.9598
G01 X36.9510 Y-10.9988
G01 X36.9154 Y-11.0327
G01 X36.8404 Y-11.1007
G01 X36.7994 Y-11.1359
G01 X36.7607 Y-11.1661
G01 X36.6794 Y-11.2264
G01 X36.6352 Y-11.2574
G01 X36.5937 Y-11.2836
G01 X36.5069 Y-11.3357
G01 X36.4598 Y-11.3622
G01 X36.4160 Y-11.3843
G01 X36.3244 Y-11.4276
G01 X36.2796 Y-11.4475
G01 X36.2292 Y-11.4670
G01 X36.1339 Y-11.5011
G01 X36.0826 Y-11.5179
G01 X36.0353 Y-11.5310
G01 X35.9370 Y-11.5556
G01 X35.8843 Y-11.5673
G01 X35.8360 Y-11.5757
G01 X35.7358 Y-11.5906
G01 X35.6822 Y-11.5971
G01 X35.6333 Y-11.6007
G01 X35.5321 Y-11.6057
G01 X35.5076 Y-11.6066
G01 X35.4806 Y-11.6069
G01 X1.1112 Y-11.6069
G01 X1.0837 Y-11.6065
G01 X1.0586 Y-11.6056
G01 X0.9575 Y-11.6005
G01 X0.9091 Y-11.5969
G01 X0.8560 Y-11.5905
G01 X0.7558 Y-11.5756
G01 X0.7027 Y-11.5663
G01 X0.6548 Y-11.5555
G01 X0.5565 Y-11.5309
G01 X0.5045 Y-11.5164
G01 X0.4579 Y-11.5010
G01 X0.3626 Y-11.4669
G01 X0.3168 Y-11.4492
G01 X0.2674 Y-11.4275
G01 X0.1759 Y-11.3842
G01 X0.1277 Y-11.3598
G01 X0.0850 Y-11.3356
G01 X-0.0019 Y-11.2835
G01 X-0.0474 Y-11.2546
G01 X-0.0875 Y-11.2263
G01 X-0.1689 Y-11.1660
G01 X-0.2076 Y-11.1358
G01 X-0.2485 Y-11.1006
G01 X-0.3235 Y-11.0326
G01 X-0.3626 Y-10.9953
G01 X-0.3964 Y-10.9597
G01 X-0.4644 Y-10.8847
G01 X-0.4996 Y-10.8438
G01 X-0.5298 Y-10.8051
G01 X-0.5901 Y-10.7237
G01 X-0.6184 Y-10.6836
G01 X-0.6473 Y-10.6381
G01 X-0.6994 Y-10.5512
G01 X-0.7259 Y-10.5042
G01 X-0.7480 Y-10.4603
G01 X-0.7913 Y-10.3688
G01 X-0.8130 Y-10.3194
G01 X-0.8307 Y-10.2736
G01 X-0.8648 Y-10.1783
G01 X-0.8816 Y-10.1270
G01 X-0.8947 Y-10.0797
G01 X-0.9193 Y-9.9814
G01 X-0.9301 Y-9.9335
G01 X-0.9394 Y-9.8804
G01 X-0.9543 Y-9.7802
G01 X-0.9603 Y-9.7315
G01 X-0.9644 Y-9.6777
G01 X-0.9694 Y-9.5765
G01 X-0.9706 Y-9.5250
G01 X-0.9706 Y-6.3931
G00 X-0.9706 Y-6.3931
G01 F60.00
G01 Z-2.0000
G01 F120.00
G01 X-0.9706 Y-9.5250
G01 X-0.9694 Y-9.5765
G01 X-0.9644 Y-9.6777
G01 X-0.9603 Y-9.7315
G01 X-0.9543 Y-9.7802
G01 X-0.9394 Y-9.8804
G01 X-0.9301 Y-9.9335
G01 X-0.9193 Y-9.9814
G01 X-0.8947 Y-10.0797
G01 X-0.8816 Y-10.1270
G01 X-0.8648 Y-10.1783
G01 X-0.8307 Y-10.2736
G01 X-0.8130 Y-10.3194
G01 X-0.7913 Y-10.3688
G01 X-0.7480 Y-10.4603
G01 X-0.7259 Y-10.5042
G01 X-0.6994 Y-10.5512
G01 X-0.6473 Y-10.6381
G01 X-0.6184 Y-10.6836
G01 X-0.5901 Y-10.7237
G01 X-0.5298 Y-10.8051
G01 X-0.4996 Y-10.8438
G01 X-0.4644 Y-10.8847
G01 X-0.3964 Y-10.9597
G01 X-0.3626 Y-10.9953
G01 X-0.3235 Y-11.0326
G01 X-0.2485 Y-11.1006
G01 X-0.2076 Y-11.1358
G01 X-0.1689 Y-11.1660
G01 X-0.0875 Y-11.2263
G01 X-0.0474 Y-11.2546
G01 X-0.0019 Y-11.2835
G01 X0.0850 Y-11.3356
G01 X0.1277 Y-11.3598
G01 X0.1759 Y-11.3842
G01 X0.2674 Y-11.4275
G01 X0.3168 Y-11.4492
G01 X0.3626 Y-11.4669
G01 X0.4579 Y-11.5010
G01 X0.5045 Y-11.5164
G01 X0.5565 Y-11.5309
G01 X0.6548 Y-11.5555
G01 X0.7027 Y-11.5663
G01 X0.7558 Y-11.5756
G01 X0.8560 Y-11.5905
G01 X0.9091 Y-11.5969
G01 X0.9575 Y-11.6005
G01 X1.0586 Y-11.6056
G01 X1.0837 Y-11.6065
G01 X1.1112 Y-11.6069
G01 X35.4806 Y-11.6069
G01 X35.5076 Y-11.6066
G01 X35.5321 Y-11.6057
G01 X35.6333 Y-11.6007
G01 X35.6822 Y-11.5971
G01 X35.7358 Y-11.5906
G01 X35.8360 Y-11.5757
G01 X35.8843 Y-11.5673
G01 X35.9370 Y-11.5556
G01 X36.0353 Y-11.5310
G01 X36.0826 Y-11.5179
G01 X36.1339 Y-11.5011
G01 X36.2292 Y-11.4670
G01 X36.2796 Y-11.4475
G01 X36.3244 Y-11.4276
G01 X36.4160 Y-11.3843
G01 X36.4598 Y-11.3622
G01 X36.5069 Y-11.3357
G01 X36.5937 Y-11.2836
G01 X36.6352 Y-11.2574
G01 X36.6794 Y-11.2264
G01 X36.7607 Y-11.1661
G01 X36.7994 Y-11.1359
G01 X36.8404 Y-11.1007
G01 X36.9154 Y-11.0327
G01 X36.9510 Y-10.9988
G01 X36.9883 Y-10.9598
G01 X37.0563 Y-10.8848
G01 X37.0915 Y-10.8438
G01 X37.1217 Y-10.8051
G01 X37.1820 Y-10.7238
G01 X37.2102 Y-10.6837
G01 X37.2392 Y-10.6381
G01 X37.2913 Y-10.5513
G01 X37.3155 Y-10.5085
G01 X37.3399 Y-10.4604
G01 X37.3832 Y-10.3688
G01 X37.4031 Y-10.3240
G01 X37.4226 Y-10.2736
G01 X37.4567 Y-10.1783
G01 X37.4735 Y-10.1270
G01 X37.4866 Y-10.0797
G01 X37.5112 Y-9.9814
G01 X37.5220 Y-9.9336
G01 X37.5313 Y-9.8804
G01 X37.5462 Y-9.7802
G01 X37.5527 Y-9.7266
G01 X37.5563 Y-9.6777
G01 X37.5622 Y-9.5520
G01 X37.5625 Y-9.5250
G01 X37.5625 Y-6.3931
G00 Z2.0000
M05
G00 Z2.0000
G00 Z30.00


