(G-CODE GENERATED BY FLATCAM v8.993 - www.flatcam.org - Version Date: 2020/06/05)

(Name: driver_Ф1_верх.gbr_iso_combined_cnc)
(Type: G-code from Geometry)
(Units: MM)

(Created on Saturday, 31 October 2020 at 22:20)

(This preprocessor is the default preprocessor used by FlatCAM.)
(It is made to work with MACH3 compatible motion controllers.)

(TOOL DIAMETER: 0.14 mm)
(Feedrate_XY: 120.0 mm/min)
(Feedrate_Z: 70.0 mm/min)
(Feedrate rapids 1500.0 mm/min)

(Z_Cut: -0.06 mm)
(Z_Move: 2.0 mm)
(Z Start: None mm)
(Z End: 25.0 mm)
(Steps per circle: 128)
(Preprocessor Geometry: default)

(X range:   -0.2800 ...   15.2800  mm)
(Y range:  -10.2925 ...    0.2675  mm)

(Spindle Speed: 10000 RPM)
G21
G90
G94



G01 F120.00
G00 Z2.0000

M03 S10000
G00 X-0.0700 Y-0.0125
G01 F70.00
G01 Z-0.0600
G01 F120.00
G01 X-0.0700 Y-10.0125
G01 X-0.0694 Y-10.0219
G01 X-0.0675 Y-10.0312
G01 X-0.0643 Y-10.0401
G01 X-0.0600 Y-10.0485
G01 X-0.0552 Y-10.0556
G01 X-0.0489 Y-10.0626
G01 X-0.0417 Y-10.0687
G01 X-0.0345 Y-10.0734
G01 X-0.0268 Y-10.0772
G01 X-0.0178 Y-10.0802
G01 X-0.0094 Y-10.0819
G01 X0.0000 Y-10.0825
G01 X5.9272 Y-10.0825
G01 X5.9366 Y-10.0819
G01 X5.9458 Y-10.0800
G01 X5.9548 Y-10.0768
G01 X5.9632 Y-10.0725
G01 X5.9748 Y-10.0638
G01 X5.9839 Y-10.0535
G01 X5.9912 Y-10.0409
G01 X5.9957 Y-10.0270
G01 X5.9972 Y-10.0125
G01 X5.9957 Y-9.9980
G01 X5.9912 Y-9.9841
G01 X5.9839 Y-9.9715
G01 X5.9748 Y-9.9612
G01 X5.9639 Y-9.9529
G01 X5.9290 Y-9.9350
G01 X5.8765 Y-9.9053
G01 X5.8255 Y-9.8730
G01 X5.7761 Y-9.8382
G01 X5.7285 Y-9.8011
G01 X5.6828 Y-9.7617
G01 X5.6391 Y-9.7200
G01 X5.5974 Y-9.6763
G01 X5.5580 Y-9.6306
G01 X5.5209 Y-9.5830
G01 X5.4861 Y-9.5336
G01 X5.4538 Y-9.4826
G01 X5.4241 Y-9.4301
G01 X5.3969 Y-9.3762
G01 X5.3724 Y-9.3210
G01 X5.3507 Y-9.2647
G01 X5.3318 Y-9.2073
G01 X5.3157 Y-9.1492
G01 X5.3025 Y-9.0903
G01 X5.2921 Y-9.0308
G01 X5.2847 Y-8.9709
G01 X5.2803 Y-8.9107
G01 X5.2788 Y-8.8503
G01 X5.2803 Y-8.7899
G01 X5.2847 Y-8.7297
G01 X5.2921 Y-8.6698
G01 X5.3025 Y-8.6103
G01 X5.3157 Y-8.5514
G01 X5.3318 Y-8.4933
G01 X5.3507 Y-8.4359
G01 X5.3724 Y-8.3796
G01 X5.3969 Y-8.3244
G01 X5.4241 Y-8.2705
G01 X5.4538 Y-8.2180
G01 X5.4861 Y-8.1670
G01 X5.5209 Y-8.1176
G01 X5.5580 Y-8.0700
G01 X5.5974 Y-8.0243
G01 X5.6391 Y-7.9806
G01 X5.6828 Y-7.9389
G01 X5.7285 Y-7.8995
G01 X5.7761 Y-7.8624
G01 X5.8255 Y-7.8276
G01 X5.8765 Y-7.7953
G01 X5.9290 Y-7.7656
G01 X5.9829 Y-7.7384
G01 X6.0381 Y-7.7139
G01 X6.0944 Y-7.6922
G01 X6.1518 Y-7.6733
G01 X6.2099 Y-7.6572
G01 X6.2688 Y-7.6440
G01 X6.3283 Y-7.6336
G01 X6.3882 Y-7.6262
G01 X6.4484 Y-7.6218
G01 X6.5088 Y-7.6203
G01 X6.5692 Y-7.6218
G01 X6.6294 Y-7.6262
G01 X6.6893 Y-7.6336
G01 X6.7488 Y-7.6440
G01 X6.7783 Y-7.6505
G01 X6.7893 Y-7.6517
G01 X6.8012 Y-7.6510
G01 X6.8137 Y-7.6480
G01 X6.8254 Y-7.6428
G01 X6.8353 Y-7.6360
G01 X6.8466 Y-7.6244
G01 X7.7736 Y-6.4205
G01 X7.7788 Y-6.4126
G01 X7.7830 Y-6.4040
G01 X7.7860 Y-6.3950
G01 X7.7877 Y-6.3856
G01 X7.7878 Y-5.8533
G01 X7.7862 Y-5.8431
G01 X7.7827 Y-5.8324
G01 X7.7776 Y-5.8225
G01 X7.7710 Y-5.8135
G01 X7.7631 Y-5.8056
G01 X7.7539 Y-5.7992
G01 X7.7439 Y-5.7942
G01 X7.7332 Y-5.7909
G01 X7.7178 Y-5.7893
G01 X7.2178 Y-5.7911
G01 X7.2085 Y-5.7917
G01 X7.2001 Y-5.7934
G01 X7.1919 Y-5.7962
G01 X7.1842 Y-5.7998
G01 X7.1770 Y-5.8044
G01 X7.1704 Y-5.8099
G01 X7.1645 Y-5.8161
G01 X7.1594 Y-5.8230
G01 X7.1552 Y-5.8304
G01 X7.1519 Y-5.8384
G01 X7.1493 Y-5.8483
G01 X7.1481 Y-5.8585
G01 X7.1481 Y-5.9435
G01 X5.7881 Y-5.9435
G01 X5.7881 Y-4.6835
G01 X7.1481 Y-4.6835
G01 X7.1482 Y-4.7648
G01 X7.1502 Y-4.7776
G01 X7.1545 Y-4.7897
G01 X7.1590 Y-4.7980
G01 X7.1652 Y-4.8063
G01 X7.1718 Y-4.8131
G01 X7.1793 Y-4.8188
G01 X7.1876 Y-4.8235
G01 X7.1963 Y-4.8271
G01 X7.2055 Y-4.8294
G01 X7.2149 Y-4.8304
G01 X7.7252 Y-4.8284
G01 X7.7361 Y-4.8264
G01 X7.7466 Y-4.8226
G01 X7.7557 Y-4.8178
G01 X7.7646 Y-4.8111
G01 X7.7717 Y-4.8037
G01 X7.7782 Y-4.7946
G01 X7.7831 Y-4.7847
G01 X7.7864 Y-4.7740
G01 X7.7881 Y-4.7587
G01 X7.7881 Y-3.6828
G01 X7.8005 Y-3.6800
G01 X7.8123 Y-3.6748
G01 X7.8229 Y-3.6676
G01 X7.8321 Y-3.6586
G01 X7.8394 Y-3.6480
G01 X7.8447 Y-3.6363
G01 X7.8478 Y-3.6238
G01 X7.8485 Y-3.6110
G01 X7.8473 Y-3.6007
G01 X7.7123 Y-2.8731
G01 X7.7082 Y-2.8591
G01 X7.7035 Y-2.8499
G01 X7.6981 Y-2.8422
G01 X7.6918 Y-2.8352
G01 X7.6838 Y-2.8287
G01 X7.6757 Y-2.8238
G01 X7.6671 Y-2.8200
G01 X7.6571 Y-2.8172
G01 X7.6478 Y-2.8160
G01 X6.9690 Y-2.8159
G01 X6.9690 Y-0.7559
G01 X9.0290 Y-0.7559
G01 X9.0290 Y-2.8159
G01 X8.7628 Y-2.8159
G01 X8.7492 Y-2.8172
G01 X8.7384 Y-2.8203
G01 X8.7276 Y-2.8254
G01 X8.7184 Y-2.8318
G01 X8.7104 Y-2.8395
G01 X8.7037 Y-2.8484
G01 X8.6982 Y-2.8591
G01 X8.6947 Y-2.8697
G01 X8.6930 Y-2.8807
G01 X8.6929 Y-2.8893
G01 X8.6940 Y-2.8987
G01 X8.8299 Y-3.6305
G01 X8.8332 Y-3.6403
G01 X8.8378 Y-3.6495
G01 X8.8437 Y-3.6579
G01 X8.8508 Y-3.6654
G01 X8.8582 Y-3.6712
G01 X8.8671 Y-3.6764
G01 X8.8767 Y-3.6802
G01 X8.8867 Y-3.6826
G01 X8.8979 Y-3.6835
G01 X9.1481 Y-3.6835
G01 X9.1481 Y-4.7542
G01 X9.1496 Y-4.7679
G01 X9.1538 Y-4.7810
G01 X9.1599 Y-4.7923
G01 X9.1687 Y-4.8029
G01 X9.1786 Y-4.8111
G01 X9.1907 Y-4.8177
G01 X9.2038 Y-4.8219
G01 X9.2166 Y-4.8233
G01 X10.0237 Y-4.8204
G01 X10.0364 Y-4.8192
G01 X10.0472 Y-4.8163
G01 X10.0581 Y-4.8112
G01 X10.0673 Y-4.8050
G01 X10.0759 Y-4.7967
G01 X10.0830 Y-4.7871
G01 X10.0881 Y-4.7772
G01 X10.0917 Y-4.7657
G01 X10.0933 Y-4.7547
G01 X10.0934 Y-3.9200
G01 X10.7108 Y-3.9199
G01 X10.7209 Y-3.9185
G01 X10.7300 Y-3.9159
G01 X10.7394 Y-3.9118
G01 X10.7481 Y-3.9063
G01 X10.7559 Y-3.8995
G01 X10.7621 Y-3.8924
G01 X10.7677 Y-3.8838
G01 X10.7720 Y-3.8745
G01 X10.7759 Y-3.8587
G01 X10.9663 Y-2.3364
G01 X10.9660 Y-2.3209
G01 X10.9623 Y-2.3059
G01 X10.9558 Y-2.2928
G01 X10.9461 Y-2.2808
G01 X10.9362 Y-2.2725
G01 X10.9055 Y-2.2530
G01 X10.8561 Y-2.2182
G01 X10.8085 Y-2.1811
G01 X10.7628 Y-2.1417
G01 X10.7191 Y-2.1000
G01 X10.6774 Y-2.0563
G01 X10.6380 Y-2.0106
G01 X10.6009 Y-1.9630
G01 X10.5661 Y-1.9136
G01 X10.5338 Y-1.8626
G01 X10.5041 Y-1.8101
G01 X10.4769 Y-1.7562
G01 X10.4524 Y-1.7010
G01 X10.4307 Y-1.6447
G01 X10.4118 Y-1.5873
G01 X10.3957 Y-1.5292
G01 X10.3825 Y-1.4703
G01 X10.3721 Y-1.4108
G01 X10.3647 Y-1.3509
G01 X10.3603 Y-1.2907
G01 X10.3588 Y-1.2303
G01 X10.3603 Y-1.1699
G01 X10.3647 Y-1.1097
G01 X10.3721 Y-1.0498
G01 X10.3825 Y-0.9903
G01 X10.3957 Y-0.9314
G01 X10.4118 Y-0.8733
G01 X10.4307 Y-0.8159
G01 X10.4524 Y-0.7596
G01 X10.4769 Y-0.7044
G01 X10.5041 Y-0.6505
G01 X10.5338 Y-0.5980
G01 X10.5661 Y-0.5470
G01 X10.6009 Y-0.4976
G01 X10.6380 Y-0.4500
G01 X10.6774 Y-0.4043
G01 X10.7191 Y-0.3606
G01 X10.7628 Y-0.3189
G01 X10.8085 Y-0.2795
G01 X10.8561 Y-0.2424
G01 X10.9055 Y-0.2076
G01 X10.9565 Y-0.1753
G01 X11.0090 Y-0.1456
G01 X11.0629 Y-0.1184
G01 X11.1181 Y-0.0939
G01 X11.1639 Y-0.0761
G01 X11.1722 Y-0.0716
G01 X11.1798 Y-0.0661
G01 X11.1889 Y-0.0569
G01 X11.1957 Y-0.0470
G01 X11.2009 Y-0.0353
G01 X11.2039 Y-0.0236
G01 X11.2047 Y-0.0116
G01 X11.2036 Y0.0003
G01 X11.2001 Y0.0127
G01 X11.1948 Y0.0235
G01 X11.1899 Y0.0306
G01 X11.1836 Y0.0376
G01 X11.1771 Y0.0432
G01 X11.1693 Y0.0484
G01 X11.1615 Y0.0522
G01 X11.1526 Y0.0552
G01 X11.1442 Y0.0569
G01 X11.1348 Y0.0575
G01 X1.8808 Y0.0575
G01 X1.8722 Y0.0567
G01 X1.8638 Y0.0550
G01 X1.8557 Y0.0522
G01 X1.8480 Y0.0484
G01 X1.8401 Y0.0432
G01 X1.8336 Y0.0376
G01 X1.8278 Y0.0312
G01 X1.8229 Y0.0242
G01 X1.8188 Y0.0167
G01 X1.8158 Y0.0086
G01 X1.8137 Y0.0003
G01 X1.8126 Y-0.0082
G01 X1.8126 Y-0.0168
G01 X1.8137 Y-0.0253
G01 X1.8158 Y-0.0336
G01 X1.8188 Y-0.0417
G01 X1.8243 Y-0.0514
G01 X1.8312 Y-0.0601
G01 X1.8394 Y-0.0677
G01 X1.8480 Y-0.0734
G01 X1.8565 Y-0.0775
G01 X1.8994 Y-0.0940
G01 X1.9650 Y-0.1237
G01 X1.8442 Y-0.2445
G01 X1.7892 Y-0.2229
G01 X1.7393 Y-0.2065
G01 X1.6887 Y-0.1925
G01 X1.6374 Y-0.1810
G01 X1.5857 Y-0.1720
G01 X1.5336 Y-0.1656
G01 X1.4812 Y-0.1617
G01 X1.4287 Y-0.1604
G01 X1.3762 Y-0.1617
G01 X1.3238 Y-0.1656
G01 X1.2717 Y-0.1720
G01 X1.2200 Y-0.1810
G01 X1.1687 Y-0.1925
G01 X1.1181 Y-0.2065
G01 X1.0682 Y-0.2229
G01 X1.0132 Y-0.2445
G01 X0.8924 Y-0.1237
G01 X0.9580 Y-0.0940
G01 X1.0009 Y-0.0775
G01 X1.0087 Y-0.0738
G01 X1.0173 Y-0.0682
G01 X1.0250 Y-0.0614
G01 X1.0321 Y-0.0528
G01 X1.0374 Y-0.0440
G01 X1.0408 Y-0.0361
G01 X1.0432 Y-0.0278
G01 X1.0449 Y-0.0116
G01 X1.0443 Y-0.0031
G01 X1.0426 Y0.0053
G01 X1.0366 Y0.0205
G01 X1.0274 Y0.0339
G01 X1.0213 Y0.0399
G01 X1.0145 Y0.0452
G01 X1.0071 Y0.0496
G01 X0.9993 Y0.0531
G01 X0.9835 Y0.0570
G01 X0.9749 Y0.0575
G01 X-0.0043 Y0.0574
G01 X-0.0170 Y0.0554
G01 X-0.0299 Y0.0508
G01 X-0.0410 Y0.0442
G01 X-0.0507 Y0.0358
G01 X-0.0591 Y0.0249
G01 X-0.0650 Y0.0135
G01 X-0.0687 Y0.0012
G01 X-0.0700 Y-0.0125
G00 Z2.0000
G00 X-0.1400 Y-0.0125
G01 F70.00
G01 Z-0.0600
G01 F120.00
G01 X-0.1400 Y-10.0125
G01 X-0.1387 Y-10.0313
G01 X-0.1349 Y-10.0498
G01 X-0.1287 Y-10.0677
G01 X-0.1201 Y-10.0845
G01 X-0.1104 Y-10.0986
G01 X-0.0978 Y-10.1127
G01 X-0.0848 Y-10.1239
G01 X-0.0705 Y-10.1335
G01 X-0.0552 Y-10.1412
G01 X-0.0373 Y-10.1474
G01 X-0.0205 Y-10.1510
G01 X-0.0017 Y-10.1525
G01 X5.9272 Y-10.1525
G01 X5.9460 Y-10.1512
G01 X5.9645 Y-10.1474
G01 X5.9823 Y-10.1412
G01 X5.9992 Y-10.1326
G01 X6.0106 Y-10.1249
G01 X6.0212 Y-10.1162
G01 X6.0309 Y-10.1065
G01 X6.0406 Y-10.0945
G01 X6.0481 Y-10.0830
G01 X6.0545 Y-10.0708
G01 X6.0596 Y-10.0580
G01 X6.0634 Y-10.0448
G01 X6.0659 Y-10.0313
G01 X6.0671 Y-10.0177
G01 X6.0669 Y-10.0039
G01 X6.0651 Y-9.9886
G01 X6.0621 Y-9.9752
G01 X6.0578 Y-9.9621
G01 X6.0522 Y-9.9496
G01 X6.0455 Y-9.9376
G01 X6.0375 Y-9.9264
G01 X6.0286 Y-9.9160
G01 X6.0186 Y-9.9065
G01 X6.0078 Y-9.8980
G01 X5.9947 Y-9.8899
G01 X5.9620 Y-9.8733
G01 X5.9125 Y-9.8452
G01 X5.8644 Y-9.8148
G01 X5.8178 Y-9.7820
G01 X5.7729 Y-9.7470
G01 X5.7298 Y-9.7098
G01 X5.6886 Y-9.6705
G01 X5.6493 Y-9.6293
G01 X5.6121 Y-9.5862
G01 X5.5771 Y-9.5413
G01 X5.5443 Y-9.4947
G01 X5.5139 Y-9.4466
G01 X5.4858 Y-9.3971
G01 X5.4602 Y-9.3462
G01 X5.4371 Y-9.2942
G01 X5.4166 Y-9.2411
G01 X5.3988 Y-9.1870
G01 X5.3836 Y-9.1321
G01 X5.3711 Y-9.0766
G01 X5.3614 Y-9.0205
G01 X5.3544 Y-8.9640
G01 X5.3502 Y-8.9072
G01 X5.3488 Y-8.8503
G01 X5.3502 Y-8.7934
G01 X5.3544 Y-8.7366
G01 X5.3614 Y-8.6801
G01 X5.3711 Y-8.6240
G01 X5.3836 Y-8.5685
G01 X5.3988 Y-8.5136
G01 X5.4166 Y-8.4595
G01 X5.4371 Y-8.4064
G01 X5.4602 Y-8.3544
G01 X5.4858 Y-8.3035
G01 X5.5139 Y-8.2540
G01 X5.5443 Y-8.2059
G01 X5.5771 Y-8.1593
G01 X5.6121 Y-8.1144
G01 X5.6493 Y-8.0713
G01 X5.6886 Y-8.0301
G01 X5.7298 Y-7.9908
G01 X5.7729 Y-7.9536
G01 X5.8178 Y-7.9186
G01 X5.8644 Y-7.8858
G01 X5.9125 Y-7.8554
G01 X5.9620 Y-7.8273
G01 X6.0129 Y-7.8017
G01 X6.0649 Y-7.7786
G01 X6.1180 Y-7.7581
G01 X6.1721 Y-7.7403
G01 X6.2270 Y-7.7251
G01 X6.2825 Y-7.7126
G01 X6.3386 Y-7.7029
G01 X6.3951 Y-7.6959
G01 X6.4519 Y-7.6917
G01 X6.5088 Y-7.6903
G01 X6.5657 Y-7.6917
G01 X6.6225 Y-7.6959
G01 X6.6790 Y-7.7029
G01 X6.7351 Y-7.7126
G01 X6.7688 Y-7.7199
G01 X6.7807 Y-7.7213
G01 X6.7944 Y-7.7217
G01 X6.8164 Y-7.7194
G01 X6.8281 Y-7.7167
G01 X6.8395 Y-7.7131
G01 X6.8505 Y-7.7085
G01 X6.8611 Y-7.7029
G01 X6.8794 Y-7.6903
G01 X6.8908 Y-7.6800
G01 X6.9020 Y-7.6671
G01 X7.8301 Y-6.4619
G01 X7.8404 Y-6.4459
G01 X7.8486 Y-6.4286
G01 X7.8538 Y-6.4121
G01 X7.8572 Y-6.3934
G01 X7.8581 Y-6.3778
G01 X7.8581 Y-5.8593
G01 X7.8563 Y-5.8370
G01 X7.8515 Y-5.8169
G01 X7.8439 Y-5.7977
G01 X7.8344 Y-5.7813
G01 X7.8217 Y-5.7651
G01 X7.8067 Y-5.7509
G01 X7.7898 Y-5.7390
G01 X7.7713 Y-5.7298
G01 X7.7534 Y-5.7238
G01 X7.7348 Y-5.7203
G01 X7.7176 Y-5.7193
G01 X7.2159 Y-5.7211
G01 X7.2005 Y-5.7222
G01 X7.1870 Y-5.7246
G01 X7.1754 Y-5.7277
G01 X7.1642 Y-5.7319
G01 X7.1518 Y-5.7378
G01 X7.1415 Y-5.7439
G01 X7.1317 Y-5.7509
G01 X7.1226 Y-5.7587
G01 X7.1142 Y-5.7672
G01 X7.1055 Y-5.7778
G01 X7.0988 Y-5.7878
G01 X7.0930 Y-5.7983
G01 X7.0874 Y-5.8108
G01 X7.0836 Y-5.8222
G01 X7.0808 Y-5.8338
G01 X7.0789 Y-5.8457
G01 X7.0781 Y-5.8735
G01 X5.8581 Y-5.8735
G01 X5.8581 Y-4.7535
G01 X7.0781 Y-4.7535
G01 X7.0784 Y-4.7691
G01 X7.0799 Y-4.7828
G01 X7.0827 Y-4.7963
G01 X7.0869 Y-4.8094
G01 X7.0923 Y-4.8221
G01 X7.0990 Y-4.8341
G01 X7.1068 Y-4.8455
G01 X7.1157 Y-4.8560
G01 X7.1256 Y-4.8656
G01 X7.1377 Y-4.8752
G01 X7.1494 Y-4.8825
G01 X7.1617 Y-4.8887
G01 X7.1746 Y-4.8936
G01 X7.1878 Y-4.8972
G01 X7.2014 Y-4.8995
G01 X7.2152 Y-4.9005
G01 X7.7186 Y-4.8987
G01 X7.7306 Y-4.8982
G01 X7.7425 Y-4.8966
G01 X7.7624 Y-4.8915
G01 X7.7814 Y-4.8836
G01 X7.7976 Y-4.8740
G01 X7.8136 Y-4.8611
G01 X7.8275 Y-4.8460
G01 X7.8391 Y-4.8291
G01 X7.8481 Y-4.8106
G01 X7.8543 Y-4.7910
G01 X7.8573 Y-4.7741
G01 X7.8581 Y-4.7587
G01 X7.8581 Y-3.7287
G01 X7.8725 Y-3.7173
G01 X7.8845 Y-3.7050
G01 X7.8949 Y-3.6913
G01 X7.9035 Y-3.6765
G01 X7.9103 Y-3.6607
G01 X7.9151 Y-3.6442
G01 X7.9178 Y-3.6273
G01 X7.9184 Y-3.6084
G01 X7.9162 Y-3.5880
G01 X7.7811 Y-2.8604
G01 X7.7780 Y-2.8470
G01 X7.7735 Y-2.8340
G01 X7.7653 Y-2.8169
G01 X7.7549 Y-2.8012
G01 X7.7425 Y-2.7869
G01 X7.7283 Y-2.7745
G01 X7.7140 Y-2.7650
G01 X7.6971 Y-2.7566
G01 X7.6792 Y-2.7505
G01 X7.6606 Y-2.7470
G01 X7.6435 Y-2.7459
G01 X7.0390 Y-2.7459
G01 X7.0390 Y-0.8259
G01 X8.9590 Y-0.8259
G01 X8.9590 Y-2.7459
G01 X8.7577 Y-2.7460
G01 X8.7457 Y-2.7470
G01 X8.7338 Y-2.7489
G01 X8.7125 Y-2.7553
G01 X8.6953 Y-2.7632
G01 X8.6781 Y-2.7745
G01 X8.6626 Y-2.7881
G01 X8.6504 Y-2.8025
G01 X8.6402 Y-2.8184
G01 X8.6316 Y-2.8371
G01 X8.6259 Y-2.8568
G01 X8.6232 Y-2.8755
G01 X8.6231 Y-2.8944
G01 X8.6252 Y-2.9114
G01 X8.7625 Y-3.6491
G01 X8.7678 Y-3.6654
G01 X8.7752 Y-3.6810
G01 X8.7844 Y-3.6955
G01 X8.7953 Y-3.7087
G01 X8.8090 Y-3.7217
G01 X8.8229 Y-3.7318
G01 X8.8380 Y-3.7400
G01 X8.8539 Y-3.7464
G01 X8.8722 Y-3.7511
G01 X8.8927 Y-3.7534
G01 X9.0781 Y-3.7535
G01 X9.0782 Y-4.7585
G01 X9.0792 Y-4.7705
G01 X9.0815 Y-4.7841
G01 X9.0852 Y-4.7973
G01 X9.0902 Y-4.8102
G01 X9.0964 Y-4.8225
G01 X9.1038 Y-4.8341
G01 X9.1122 Y-4.8449
G01 X9.1218 Y-4.8549
G01 X9.1322 Y-4.8639
G01 X9.1420 Y-4.8708
G01 X9.1539 Y-4.8778
G01 X9.1649 Y-4.8828
G01 X9.1762 Y-4.8869
G01 X9.1878 Y-4.8900
G01 X9.2014 Y-4.8923
G01 X9.2134 Y-4.8932
G01 X10.0239 Y-4.8904
G01 X10.0376 Y-4.8897
G01 X10.0528 Y-4.8873
G01 X10.0725 Y-4.8815
G01 X10.0927 Y-4.8721
G01 X10.1111 Y-4.8595
G01 X10.1273 Y-4.8443
G01 X10.1399 Y-4.8280
G01 X10.1507 Y-4.8086
G01 X10.1584 Y-4.7877
G01 X10.1624 Y-4.7675
G01 X10.1634 Y-4.7504
G01 X10.1634 Y-3.9900
G01 X10.7065 Y-3.9900
G01 X10.7253 Y-3.9887
G01 X10.7438 Y-3.9849
G01 X10.7600 Y-3.9794
G01 X10.7769 Y-3.9710
G01 X10.7925 Y-3.9604
G01 X10.8066 Y-3.9479
G01 X10.8188 Y-3.9335
G01 X10.8290 Y-3.9177
G01 X10.8370 Y-3.9006
G01 X10.8422 Y-3.8842
G01 X10.8454 Y-3.8674
G01 X11.0359 Y-2.3442
G01 X11.0366 Y-2.3305
G01 X11.0358 Y-2.3150
G01 X11.0336 Y-2.3014
G01 X11.0296 Y-2.2865
G01 X11.0239 Y-2.2721
G01 X11.0176 Y-2.2598
G01 X11.0091 Y-2.2469
G01 X11.0004 Y-2.2363
G01 X10.9907 Y-2.2265
G01 X10.9786 Y-2.2168
G01 X10.9444 Y-2.1948
G01 X10.8978 Y-2.1620
G01 X10.8529 Y-2.1270
G01 X10.8098 Y-2.0898
G01 X10.7686 Y-2.0505
G01 X10.7293 Y-2.0093
G01 X10.6921 Y-1.9662
G01 X10.6571 Y-1.9213
G01 X10.6243 Y-1.8747
G01 X10.5939 Y-1.8266
G01 X10.5658 Y-1.7771
G01 X10.5402 Y-1.7262
G01 X10.5171 Y-1.6742
G01 X10.4966 Y-1.6211
G01 X10.4788 Y-1.5670
G01 X10.4636 Y-1.5121
G01 X10.4511 Y-1.4566
G01 X10.4414 Y-1.4005
G01 X10.4344 Y-1.3440
G01 X10.4302 Y-1.2872
G01 X10.4288 Y-1.2303
G01 X10.4302 Y-1.1734
G01 X10.4344 Y-1.1166
G01 X10.4414 Y-1.0601
G01 X10.4511 Y-1.0040
G01 X10.4636 Y-0.9485
G01 X10.4788 Y-0.8936
G01 X10.4966 Y-0.8395
G01 X10.5171 Y-0.7864
G01 X10.5402 Y-0.7344
G01 X10.5658 Y-0.6835
G01 X10.5939 Y-0.6340
G01 X10.6243 Y-0.5859
G01 X10.6571 Y-0.5393
G01 X10.6921 Y-0.4944
G01 X10.7293 Y-0.4513
G01 X10.7686 Y-0.4101
G01 X10.8098 Y-0.3708
G01 X10.8529 Y-0.3336
G01 X10.8978 Y-0.2986
G01 X10.9444 Y-0.2658
G01 X10.9925 Y-0.2354
G01 X11.0420 Y-0.2073
G01 X11.0929 Y-0.1817
G01 X11.1449 Y-0.1586
G01 X11.1867 Y-0.1425
G01 X11.1977 Y-0.1376
G01 X11.2154 Y-0.1270
G01 X11.2325 Y-0.1127
G01 X11.2408 Y-0.1039
G01 X11.2482 Y-0.0945
G01 X11.2598 Y-0.0754
G01 X11.2647 Y-0.0645
G01 X11.2687 Y-0.0531
G01 X11.2717 Y-0.0415
G01 X11.2737 Y-0.0296
G01 X11.2747 Y-0.0177
G01 X11.2746 Y-0.0056
G01 X11.2717 Y0.0165
G01 X11.2654 Y0.0379
G01 X11.2606 Y0.0489
G01 X11.2548 Y0.0595
G01 X11.2451 Y0.0736
G01 X11.2325 Y0.0877
G01 X11.2195 Y0.0989
G01 X11.2052 Y0.1085
G01 X11.1883 Y0.1168
G01 X11.1721 Y0.1224
G01 X11.1553 Y0.1260
G01 X11.1365 Y0.1275
G01 X1.8791 Y0.1275
G01 X1.8671 Y0.1266
G01 X1.8552 Y0.1248
G01 X1.8435 Y0.1220
G01 X1.8321 Y0.1181
G01 X1.8211 Y0.1133
G01 X1.8105 Y0.1076
G01 X1.8005 Y0.1010
G01 X1.7910 Y0.0935
G01 X1.7823 Y0.0853
G01 X1.7743 Y0.0763
G01 X1.7670 Y0.0667
G01 X1.7607 Y0.0565
G01 X1.7552 Y0.0458
G01 X1.7507 Y0.0347
G01 X1.7471 Y0.0232
G01 X1.7446 Y0.0114
G01 X1.7425 Y-0.0108
G01 X1.7438 Y-0.0313
G01 X1.7480 Y-0.0515
G01 X1.7559 Y-0.0724
G01 X1.7633 Y-0.0859
G01 X1.7711 Y-0.0973
G01 X1.7799 Y-0.1078
G01 X1.7910 Y-0.1185
G01 X1.8019 Y-0.1270
G01 X1.8150 Y-0.1351
G01 X1.8273 Y-0.1412
G01 X1.8425 Y-0.1471
G01 X1.8271 Y-0.1625
G01 X1.8111 Y-0.1565
G01 X1.7580 Y-0.1390
G01 X1.7057 Y-0.1246
G01 X1.6494 Y-0.1120
G01 X1.5960 Y-0.1027
G01 X1.5404 Y-0.0959
G01 X1.4846 Y-0.0918
G01 X1.4287 Y-0.0904
G01 X1.3728 Y-0.0918
G01 X1.3170 Y-0.0959
G01 X1.2614 Y-0.1027
G01 X1.2080 Y-0.1120
G01 X1.1517 Y-0.1246
G01 X1.0994 Y-0.1390
G01 X1.0463 Y-0.1565
G01 X1.0303 Y-0.1625
G01 X1.0149 Y-0.1471
G01 X1.0301 Y-0.1412
G01 X1.0424 Y-0.1351
G01 X1.0541 Y-0.1279
G01 X1.0664 Y-0.1185
G01 X1.0775 Y-0.1078
G01 X1.0863 Y-0.0973
G01 X1.0941 Y-0.0859
G01 X1.1007 Y-0.0739
G01 X1.1089 Y-0.0531
G01 X1.1134 Y-0.0330
G01 X1.1149 Y-0.0108
G01 X1.1131 Y0.0097
G01 X1.1078 Y0.0314
G01 X1.1036 Y0.0427
G01 X1.0984 Y0.0535
G01 X1.0923 Y0.0638
G01 X1.0853 Y0.0736
G01 X1.0702 Y0.0901
G01 X1.0610 Y0.0979
G01 X1.0513 Y0.1049
G01 X1.0316 Y0.1155
G01 X1.0205 Y0.1199
G01 X1.0089 Y0.1233
G01 X0.9972 Y0.1257
G01 X0.9852 Y0.1271
G01 X-0.0000 Y0.1275
G01 X-0.0171 Y0.1264
G01 X-0.0290 Y0.1245
G01 X-0.0423 Y0.1210
G01 X-0.0536 Y0.1168
G01 X-0.0660 Y0.1110
G01 X-0.0778 Y0.1039
G01 X-0.0875 Y0.0968
G01 X-0.0965 Y0.0889
G01 X-0.1049 Y0.0802
G01 X-0.1124 Y0.0709
G01 X-0.1201 Y0.0595
G01 X-0.1258 Y0.0489
G01 X-0.1312 Y0.0363
G01 X-0.1349 Y0.0248
G01 X-0.1376 Y0.0131
G01 X-0.1395 Y-0.0005
G01 X-0.1400 Y-0.0125
G00 Z2.0000
G00 X0.3220 Y-0.6941
G01 F70.00
G01 Z-0.0600
G01 F120.00
G01 X0.2923 Y-0.7597
G01 X0.2706 Y-0.8160
G01 X0.2517 Y-0.8734
G01 X0.2356 Y-0.9315
G01 X0.2224 Y-0.9904
G01 X0.2120 Y-1.0499
G01 X0.2046 Y-1.1098
G01 X0.2002 Y-1.1700
G01 X0.1987 Y-1.2304
G01 X0.2002 Y-1.2908
G01 X0.2046 Y-1.3510
G01 X0.2120 Y-1.4109
G01 X0.2224 Y-1.4704
G01 X0.2356 Y-1.5293
G01 X0.2517 Y-1.5874
G01 X0.2706 Y-1.6448
G01 X0.2923 Y-1.7011
G01 X0.3220 Y-1.7666
G01 X0.4428 Y-1.6458
G01 X0.4212 Y-1.5909
G01 X0.4048 Y-1.5410
G01 X0.3908 Y-1.4904
G01 X0.3793 Y-1.4391
G01 X0.3703 Y-1.3874
G01 X0.3639 Y-1.3353
G01 X0.3600 Y-1.2829
G01 X0.3587 Y-1.2304
G01 X0.3600 Y-1.1779
G01 X0.3639 Y-1.1255
G01 X0.3703 Y-1.0734
G01 X0.3793 Y-1.0217
G01 X0.3908 Y-0.9704
G01 X0.4048 Y-0.9198
G01 X0.4212 Y-0.8699
G01 X0.4428 Y-0.8149
G01 X0.3220 Y-0.6941
G00 Z2.0000
G00 X0.3455 Y-0.8165
G01 F70.00
G01 Z-0.0600
G01 F120.00
G01 X0.3365 Y-0.8396
G01 X0.3187 Y-0.8937
G01 X0.3035 Y-0.9486
G01 X0.2910 Y-1.0041
G01 X0.2813 Y-1.0602
G01 X0.2743 Y-1.1167
G01 X0.2701 Y-1.1735
G01 X0.2687 Y-1.2304
G01 X0.2701 Y-1.2873
G01 X0.2743 Y-1.3441
G01 X0.2813 Y-1.4006
G01 X0.2910 Y-1.4567
G01 X0.3035 Y-1.5122
G01 X0.3187 Y-1.5671
G01 X0.3365 Y-1.6212
G01 X0.3454 Y-1.6442
G01 X0.3608 Y-1.6288
G01 X0.3548 Y-1.6128
G01 X0.3373 Y-1.5597
G01 X0.3229 Y-1.5074
G01 X0.3103 Y-1.4511
G01 X0.3010 Y-1.3977
G01 X0.2942 Y-1.3421
G01 X0.2901 Y-1.2863
G01 X0.2887 Y-1.2304
G01 X0.2901 Y-1.1745
G01 X0.2942 Y-1.1187
G01 X0.3010 Y-1.0631
G01 X0.3103 Y-1.0097
G01 X0.3229 Y-0.9534
G01 X0.3373 Y-0.9011
G01 X0.3548 Y-0.8480
G01 X0.3609 Y-0.8319
G01 X0.3455 Y-0.8165
G00 Z2.0000
G00 X1.5086 Y-1.2304
G01 F70.00
G01 Z-0.0600
G01 F120.00
G01 X1.5071 Y-1.2148
G01 X1.5025 Y-1.1998
G01 X1.4951 Y-1.1860
G01 X1.4852 Y-1.1739
G01 X1.4731 Y-1.1640
G01 X1.4593 Y-1.1566
G01 X1.4443 Y-1.1520
G01 X1.4287 Y-1.1505
G01 X1.4131 Y-1.1520
G01 X1.3981 Y-1.1566
G01 X1.3843 Y-1.1640
G01 X1.3722 Y-1.1739
G01 X1.3623 Y-1.1860
G01 X1.3549 Y-1.1998
G01 X1.3503 Y-1.2148
G01 X1.3488 Y-1.2304
G01 X1.3503 Y-1.2460
G01 X1.3549 Y-1.2610
G01 X1.3623 Y-1.2748
G01 X1.3722 Y-1.2869
G01 X1.3843 Y-1.2968
G01 X1.3981 Y-1.3042
G01 X1.4131 Y-1.3088
G01 X1.4287 Y-1.3103
G01 X1.4443 Y-1.3088
G01 X1.4593 Y-1.3042
G01 X1.4731 Y-1.2968
G01 X1.4852 Y-1.2869
G01 X1.4951 Y-1.2748
G01 X1.5025 Y-1.2610
G01 X1.5071 Y-1.2460
G01 X1.5086 Y-1.2304
G00 Z2.0000
G00 X1.5786 Y-1.2304
G01 F70.00
G01 Z-0.0600
G01 F120.00
G01 X1.5779 Y-1.2157
G01 X1.5758 Y-1.2011
G01 X1.5722 Y-1.1869
G01 X1.5672 Y-1.1730
G01 X1.5609 Y-1.1597
G01 X1.5534 Y-1.1471
G01 X1.5446 Y-1.1353
G01 X1.5347 Y-1.1244
G01 X1.5238 Y-1.1145
G01 X1.5120 Y-1.1057
G01 X1.4994 Y-1.0982
G01 X1.4861 Y-1.0919
G01 X1.4722 Y-1.0869
G01 X1.4580 Y-1.0833
G01 X1.4434 Y-1.0812
G01 X1.4287 Y-1.0805
G01 X1.4140 Y-1.0812
G01 X1.3994 Y-1.0833
G01 X1.3852 Y-1.0869
G01 X1.3713 Y-1.0919
G01 X1.3580 Y-1.0982
G01 X1.3454 Y-1.1057
G01 X1.3336 Y-1.1145
G01 X1.3227 Y-1.1244
G01 X1.3128 Y-1.1353
G01 X1.3040 Y-1.1471
G01 X1.2965 Y-1.1597
G01 X1.2902 Y-1.1730
G01 X1.2852 Y-1.1869
G01 X1.2816 Y-1.2011
G01 X1.2795 Y-1.2157
G01 X1.2788 Y-1.2304
G01 X1.2795 Y-1.2451
G01 X1.2816 Y-1.2597
G01 X1.2852 Y-1.2739
G01 X1.2902 Y-1.2878
G01 X1.2965 Y-1.3011
G01 X1.3040 Y-1.3137
G01 X1.3128 Y-1.3255
G01 X1.3227 Y-1.3364
G01 X1.3336 Y-1.3463
G01 X1.3454 Y-1.3551
G01 X1.3580 Y-1.3626
G01 X1.3713 Y-1.3689
G01 X1.3852 Y-1.3739
G01 X1.3994 Y-1.3775
G01 X1.4140 Y-1.3796
G01 X1.4287 Y-1.3803
G01 X1.4434 Y-1.3796
G01 X1.4580 Y-1.3775
G01 X1.4722 Y-1.3739
G01 X1.4861 Y-1.3689
G01 X1.4994 Y-1.3626
G01 X1.5120 Y-1.3551
G01 X1.5238 Y-1.3463
G01 X1.5347 Y-1.3364
G01 X1.5446 Y-1.3255
G01 X1.5534 Y-1.3137
G01 X1.5609 Y-1.3011
G01 X1.5672 Y-1.2878
G01 X1.5722 Y-1.2739
G01 X1.5758 Y-1.2597
G01 X1.5779 Y-1.2451
G01 X1.5786 Y-1.2304
G00 Z2.0000
G00 X1.6487 Y-1.2304
G01 F70.00
G01 Z-0.0600
G01 F120.00
G01 X1.6476 Y-1.2088
G01 X1.6444 Y-1.1875
G01 X1.6392 Y-1.1665
G01 X1.6319 Y-1.1462
G01 X1.6227 Y-1.1267
G01 X1.6116 Y-1.1082
G01 X1.5987 Y-1.0909
G01 X1.5842 Y-1.0749
G01 X1.5682 Y-1.0604
G01 X1.5509 Y-1.0475
G01 X1.5324 Y-1.0364
G01 X1.5129 Y-1.0272
G01 X1.4926 Y-1.0199
G01 X1.4716 Y-1.0147
G01 X1.4503 Y-1.0115
G01 X1.4287 Y-1.0104
G01 X1.4071 Y-1.0115
G01 X1.3858 Y-1.0147
G01 X1.3648 Y-1.0199
G01 X1.3445 Y-1.0272
G01 X1.3250 Y-1.0364
G01 X1.3065 Y-1.0475
G01 X1.2892 Y-1.0604
G01 X1.2732 Y-1.0749
G01 X1.2587 Y-1.0909
G01 X1.2458 Y-1.1082
G01 X1.2347 Y-1.1267
G01 X1.2255 Y-1.1462
G01 X1.2182 Y-1.1665
G01 X1.2130 Y-1.1875
G01 X1.2098 Y-1.2088
G01 X1.2087 Y-1.2304
G01 X1.2098 Y-1.2520
G01 X1.2130 Y-1.2733
G01 X1.2182 Y-1.2943
G01 X1.2255 Y-1.3146
G01 X1.2347 Y-1.3341
G01 X1.2458 Y-1.3526
G01 X1.2587 Y-1.3699
G01 X1.2732 Y-1.3859
G01 X1.2892 Y-1.4004
G01 X1.3065 Y-1.4133
G01 X1.3250 Y-1.4244
G01 X1.3445 Y-1.4336
G01 X1.3648 Y-1.4409
G01 X1.3858 Y-1.4461
G01 X1.4071 Y-1.4493
G01 X1.4287 Y-1.4504
G01 X1.4503 Y-1.4493
G01 X1.4716 Y-1.4461
G01 X1.4926 Y-1.4409
G01 X1.5129 Y-1.4336
G01 X1.5324 Y-1.4244
G01 X1.5509 Y-1.4133
G01 X1.5682 Y-1.4004
G01 X1.5842 Y-1.3859
G01 X1.5987 Y-1.3699
G01 X1.6116 Y-1.3526
G01 X1.6227 Y-1.3341
G01 X1.6319 Y-1.3146
G01 X1.6392 Y-1.2943
G01 X1.6444 Y-1.2733
G01 X1.6476 Y-1.2520
G01 X1.6487 Y-1.2304
G00 Z2.0000
G00 X1.7187 Y-1.2304
G01 F70.00
G01 Z-0.0600
G01 F120.00
G01 X1.7173 Y-1.2020
G01 X1.7131 Y-1.1738
G01 X1.7062 Y-1.1462
G01 X1.6966 Y-1.1194
G01 X1.6844 Y-1.0937
G01 X1.6698 Y-1.0693
G01 X1.6529 Y-1.0464
G01 X1.6337 Y-1.0254
G01 X1.6127 Y-1.0062
G01 X1.5898 Y-0.9893
G01 X1.5654 Y-0.9747
G01 X1.5397 Y-0.9625
G01 X1.5129 Y-0.9529
G01 X1.4853 Y-0.9460
G01 X1.4571 Y-0.9418
G01 X1.4287 Y-0.9404
G01 X1.4003 Y-0.9418
G01 X1.3721 Y-0.9460
G01 X1.3445 Y-0.9529
G01 X1.3177 Y-0.9625
G01 X1.2920 Y-0.9747
G01 X1.2676 Y-0.9893
G01 X1.2447 Y-1.0062
G01 X1.2237 Y-1.0254
G01 X1.2045 Y-1.0464
G01 X1.1876 Y-1.0693
G01 X1.1730 Y-1.0937
G01 X1.1608 Y-1.1194
G01 X1.1512 Y-1.1462
G01 X1.1443 Y-1.1738
G01 X1.1401 Y-1.2020
G01 X1.1387 Y-1.2304
G01 X1.1401 Y-1.2588
G01 X1.1443 Y-1.2870
G01 X1.1512 Y-1.3146
G01 X1.1608 Y-1.3414
G01 X1.1730 Y-1.3671
G01 X1.1876 Y-1.3915
G01 X1.2045 Y-1.4144
G01 X1.2237 Y-1.4354
G01 X1.2447 Y-1.4546
G01 X1.2676 Y-1.4715
G01 X1.2920 Y-1.4861
G01 X1.3177 Y-1.4983
G01 X1.3445 Y-1.5079
G01 X1.3721 Y-1.5148
G01 X1.4003 Y-1.5190
G01 X1.4287 Y-1.5204
G01 X1.4571 Y-1.5190
G01 X1.4853 Y-1.5148
G01 X1.5129 Y-1.5079
G01 X1.5397 Y-1.4983
G01 X1.5654 Y-1.4861
G01 X1.5898 Y-1.4715
G01 X1.6127 Y-1.4546
G01 X1.6337 Y-1.4354
G01 X1.6529 Y-1.4144
G01 X1.6698 Y-1.3915
G01 X1.6844 Y-1.3671
G01 X1.6966 Y-1.3414
G01 X1.7062 Y-1.3146
G01 X1.7131 Y-1.2870
G01 X1.7173 Y-1.2588
G01 X1.7187 Y-1.2304
G00 Z2.0000
G00 X2.4146 Y-0.8149
G01 F70.00
G01 Z-0.0600
G01 F120.00
G01 X2.4362 Y-0.8699
G01 X2.4526 Y-0.9198
G01 X2.4666 Y-0.9704
G01 X2.4781 Y-1.0217
G01 X2.4871 Y-1.0734
G01 X2.4935 Y-1.1255
G01 X2.4974 Y-1.1779
G01 X2.4987 Y-1.2304
G01 X2.4974 Y-1.2829
G01 X2.4935 Y-1.3353
G01 X2.4871 Y-1.3874
G01 X2.4781 Y-1.4391
G01 X2.4666 Y-1.4904
G01 X2.4526 Y-1.5410
G01 X2.4362 Y-1.5909
G01 X2.4146 Y-1.6458
G01 X2.5354 Y-1.7666
G01 X2.5651 Y-1.7011
G01 X2.5868 Y-1.6448
G01 X2.6057 Y-1.5874
G01 X2.6218 Y-1.5293
G01 X2.6350 Y-1.4704
G01 X2.6454 Y-1.4109
G01 X2.6528 Y-1.3510
G01 X2.6572 Y-1.2908
G01 X2.6587 Y-1.2304
G01 X2.6572 Y-1.1700
G01 X2.6528 Y-1.1098
G01 X2.6454 Y-1.0499
G01 X2.6350 Y-0.9904
G01 X2.6218 Y-0.9315
G01 X2.6057 Y-0.8734
G01 X2.5868 Y-0.8160
G01 X2.5651 Y-0.7597
G01 X2.5354 Y-0.6941
G01 X2.4146 Y-0.8149
G00 Z2.0000
G00 X2.4965 Y-0.8319
G01 F70.00
G01 Z-0.0600
G01 F120.00
G01 X2.5026 Y-0.8480
G01 X2.5201 Y-0.9011
G01 X2.5345 Y-0.9534
G01 X2.5471 Y-1.0097
G01 X2.5564 Y-1.0631
G01 X2.5632 Y-1.1187
G01 X2.5673 Y-1.1745
G01 X2.5687 Y-1.2270
G01 X2.5673 Y-1.2863
G01 X2.5632 Y-1.3421
G01 X2.5564 Y-1.3977
G01 X2.5474 Y-1.4494
G01 X2.5345 Y-1.5074
G01 X2.5201 Y-1.5597
G01 X2.5026 Y-1.6128
G01 X2.4966 Y-1.6288
G01 X2.5120 Y-1.6442
G01 X2.5209 Y-1.6212
G01 X2.5387 Y-1.5671
G01 X2.5539 Y-1.5122
G01 X2.5664 Y-1.4567
G01 X2.5761 Y-1.4006
G01 X2.5831 Y-1.3441
G01 X2.5873 Y-1.2873
G01 X2.5887 Y-1.2304
G01 X2.5873 Y-1.1735
G01 X2.5831 Y-1.1167
G01 X2.5761 Y-1.0602
G01 X2.5664 Y-1.0041
G01 X2.5539 Y-0.9486
G01 X2.5387 Y-0.8937
G01 X2.5209 Y-0.8396
G01 X2.5119 Y-0.8165
G01 X2.4965 Y-0.8319
G00 Z2.0000
G00 X1.0148 Y-2.3136
G01 F70.00
G01 Z-0.0600
G01 F120.00
G01 X1.0379 Y-2.3226
G01 X1.0920 Y-2.3404
G01 X1.1469 Y-2.3556
G01 X1.2024 Y-2.3681
G01 X1.2585 Y-2.3778
G01 X1.3150 Y-2.3848
G01 X1.3718 Y-2.3890
G01 X1.4287 Y-2.3904
G01 X1.4856 Y-2.3890
G01 X1.5424 Y-2.3848
G01 X1.5989 Y-2.3778
G01 X1.6550 Y-2.3681
G01 X1.7105 Y-2.3556
G01 X1.7654 Y-2.3404
G01 X1.8195 Y-2.3226
G01 X1.8426 Y-2.3136
G01 X1.8272 Y-2.2982
G01 X1.8111 Y-2.3043
G01 X1.7580 Y-2.3218
G01 X1.7057 Y-2.3362
G01 X1.6494 Y-2.3488
G01 X1.5960 Y-2.3581
G01 X1.5404 Y-2.3649
G01 X1.4846 Y-2.3690
G01 X1.4287 Y-2.3704
G01 X1.3728 Y-2.3690
G01 X1.3170 Y-2.3649
G01 X1.2614 Y-2.3581
G01 X1.2080 Y-2.3488
G01 X1.1517 Y-2.3362
G01 X1.0994 Y-2.3218
G01 X1.0463 Y-2.3043
G01 X1.0302 Y-2.2982
G01 X1.0148 Y-2.3136
G00 Z2.0000
G00 X0.8924 Y-2.3370
G01 F70.00
G01 Z-0.0600
G01 F120.00
G01 X0.9580 Y-2.3668
G01 X1.0143 Y-2.3885
G01 X1.0717 Y-2.4074
G01 X1.1298 Y-2.4235
G01 X1.1887 Y-2.4367
G01 X1.2482 Y-2.4471
G01 X1.3081 Y-2.4545
G01 X1.3683 Y-2.4589
G01 X1.4287 Y-2.4604
G01 X1.4891 Y-2.4589
G01 X1.5493 Y-2.4545
G01 X1.6092 Y-2.4471
G01 X1.6687 Y-2.4367
G01 X1.7276 Y-2.4235
G01 X1.7857 Y-2.4074
G01 X1.8431 Y-2.3885
G01 X1.8994 Y-2.3668
G01 X1.9650 Y-2.3370
G01 X1.8443 Y-2.2163
G01 X1.7892 Y-2.2379
G01 X1.7393 Y-2.2543
G01 X1.6887 Y-2.2683
G01 X1.6374 Y-2.2798
G01 X1.5857 Y-2.2888
G01 X1.5336 Y-2.2952
G01 X1.4812 Y-2.2991
G01 X1.4287 Y-2.3004
G01 X1.3762 Y-2.2991
G01 X1.3238 Y-2.2952
G01 X1.2717 Y-2.2888
G01 X1.2200 Y-2.2798
G01 X1.1687 Y-2.2683
G01 X1.1181 Y-2.2543
G01 X1.0682 Y-2.2379
G01 X1.0131 Y-2.2163
G01 X0.8924 Y-2.3370
G00 Z2.0000
G00 X2.6159 Y-4.7748
G01 F70.00
G01 Z-0.0600
G01 F120.00
G01 X3.5062 Y-4.7667
G01 X3.5062 Y-5.0887
G01 X3.5071 Y-5.0998
G01 X3.5097 Y-5.1107
G01 X3.5141 Y-5.1209
G01 X3.5200 Y-5.1304
G01 X3.5273 Y-5.1388
G01 X3.5359 Y-5.1459
G01 X3.5455 Y-5.1516
G01 X3.5559 Y-5.1557
G01 X3.5668 Y-5.1581
G01 X3.5762 Y-5.1587
G01 X5.1771 Y-5.1587
G01 X5.1915 Y-5.1570
G01 X5.2054 Y-5.1523
G01 X5.2179 Y-5.1449
G01 X5.2286 Y-5.1351
G01 X5.2358 Y-5.1254
G01 X5.2415 Y-5.1139
G01 X5.2449 Y-5.1024
G01 X5.2462 Y-5.0896
G01 X5.2462 Y-3.7887
G01 X5.2447 Y-3.7742
G01 X5.2418 Y-3.7643
G01 X5.2371 Y-3.7542
G01 X5.2314 Y-3.7456
G01 X5.2245 Y-3.7380
G01 X5.2165 Y-3.7315
G01 X5.2077 Y-3.7262
G01 X5.1982 Y-3.7222
G01 X5.1882 Y-3.7197
G01 X5.1762 Y-3.7187
G01 X4.9347 Y-3.7187
G01 X5.2643 Y-2.6559
G01 X6.0024 Y-2.6558
G01 X6.0127 Y-2.6546
G01 X6.0226 Y-2.6518
G01 X6.0312 Y-2.6480
G01 X6.0400 Y-2.6426
G01 X6.0479 Y-2.6360
G01 X6.0542 Y-2.6290
G01 X6.0599 Y-2.6204
G01 X6.0640 Y-2.6119
G01 X6.0677 Y-2.5996
G01 X6.0690 Y-2.5859
G01 X6.0690 Y-0.9850
G01 X6.0673 Y-0.9706
G01 X6.0626 Y-0.9567
G01 X6.0552 Y-0.9442
G01 X6.0454 Y-0.9335
G01 X6.0357 Y-0.9263
G01 X6.0242 Y-0.9206
G01 X6.0127 Y-0.9172
G01 X5.9999 Y-0.9159
G01 X4.3990 Y-0.9159
G01 X4.3837 Y-0.9176
G01 X4.3683 Y-0.9230
G01 X4.3553 Y-0.9312
G01 X4.3443 Y-0.9422
G01 X4.3381 Y-0.9514
G01 X4.3331 Y-0.9623
G01 X4.3300 Y-0.9739
G01 X4.3290 Y-0.9850
G01 X4.3290 Y-2.5859
G01 X4.3298 Y-2.5962
G01 X4.3320 Y-2.6062
G01 X4.3361 Y-2.6166
G01 X4.3413 Y-2.6255
G01 X4.3477 Y-2.6335
G01 X4.3553 Y-2.6406
G01 X4.3645 Y-2.6468
G01 X4.3738 Y-2.6512
G01 X4.3837 Y-2.6542
G01 X4.3981 Y-2.6559
G01 X4.5940 Y-2.6559
G01 X4.2643 Y-3.7187
G01 X3.5753 Y-3.7187
G01 X3.5592 Y-3.7208
G01 X3.5510 Y-3.7234
G01 X3.5432 Y-3.7270
G01 X3.5359 Y-3.7315
G01 X3.5292 Y-3.7368
G01 X3.5232 Y-3.7430
G01 X3.5180 Y-3.7498
G01 X3.5137 Y-3.7572
G01 X3.5103 Y-3.7651
G01 X3.5079 Y-3.7734
G01 X3.5065 Y-3.7818
G01 X3.5062 Y-4.1265
G01 X2.6159 Y-4.1346
G01 X2.6155 Y-3.6549
G01 X2.6134 Y-3.6439
G01 X2.6095 Y-3.6334
G01 X2.6041 Y-3.6237
G01 X2.5972 Y-3.6150
G01 X2.5890 Y-3.6074
G01 X2.5797 Y-3.6013
G01 X2.5695 Y-3.5967
G01 X2.5587 Y-3.5938
G01 X2.5459 Y-3.5926
G01 X0.9450 Y-3.5926
G01 X0.9289 Y-3.5947
G01 X0.9207 Y-3.5973
G01 X0.9129 Y-3.6009
G01 X0.9056 Y-3.6054
G01 X0.8989 Y-3.6107
G01 X0.8929 Y-3.6169
G01 X0.8877 Y-3.6237
G01 X0.8826 Y-3.6327
G01 X0.8792 Y-3.6415
G01 X0.8768 Y-3.6515
G01 X0.8759 Y-3.6617
G01 X0.8759 Y-5.2635
G01 X0.8780 Y-5.2796
G01 X0.8806 Y-5.2878
G01 X0.8842 Y-5.2956
G01 X0.8887 Y-5.3029
G01 X0.8940 Y-5.3096
G01 X0.9002 Y-5.3156
G01 X0.9070 Y-5.3208
G01 X0.9160 Y-5.3259
G01 X0.9256 Y-5.3296
G01 X0.9356 Y-5.3318
G01 X0.9459 Y-5.3326
G01 X2.5459 Y-5.3326
G01 X2.5570 Y-5.3317
G01 X2.5670 Y-5.3293
G01 X2.5766 Y-5.3255
G01 X2.5855 Y-5.3203
G01 X2.5935 Y-5.3139
G01 X2.6006 Y-5.3063
G01 X2.6064 Y-5.2978
G01 X2.6109 Y-5.2886
G01 X2.6140 Y-5.2788
G01 X2.6156 Y-5.2686
G01 X2.6159 Y-4.7748
G00 Z2.0000
G00 X2.6859 Y-4.8442
G01 F70.00
G01 Z-0.0600
G01 F120.00
G01 X3.4362 Y-4.8374
G01 X3.4362 Y-5.0921
G01 X3.4380 Y-5.1109
G01 X3.4427 Y-5.1310
G01 X3.4496 Y-5.1486
G01 X3.4598 Y-5.1665
G01 X3.4725 Y-5.1827
G01 X3.4861 Y-5.1958
G01 X3.5028 Y-5.2079
G01 X3.5210 Y-5.2174
G01 X3.5389 Y-5.2236
G01 X3.5591 Y-5.2276
G01 X3.5762 Y-5.2287
G01 X5.1796 Y-5.2287
G01 X5.1950 Y-5.2274
G01 X5.2085 Y-5.2249
G01 X5.2234 Y-5.2205
G01 X5.2361 Y-5.2153
G01 X5.2496 Y-5.2079
G01 X5.2610 Y-5.2001
G01 X5.2715 Y-5.1913
G01 X5.2822 Y-5.1801
G01 X5.2897 Y-5.1707
G01 X5.2963 Y-5.1607
G01 X5.3020 Y-5.1501
G01 X5.3068 Y-5.1391
G01 X5.3107 Y-5.1277
G01 X5.3135 Y-5.1160
G01 X5.3153 Y-5.1041
G01 X5.3162 Y-5.0921
G01 X5.3162 Y-3.7887
G01 X5.3144 Y-3.7665
G01 X5.3107 Y-3.7497
G01 X5.3049 Y-3.7335
G01 X5.2963 Y-3.7167
G01 X5.2866 Y-3.7026
G01 X5.2740 Y-3.6885
G01 X5.2610 Y-3.6773
G01 X5.2467 Y-3.6677
G01 X5.2298 Y-3.6594
G01 X5.2185 Y-3.6552
G01 X5.2069 Y-3.6521
G01 X5.1950 Y-3.6500
G01 X5.1831 Y-3.6489
G01 X5.0297 Y-3.6487
G01 X5.3159 Y-2.7259
G01 X5.9990 Y-2.7259
G01 X6.0144 Y-2.7250
G01 X6.0330 Y-2.7217
G01 X6.0510 Y-2.7159
G01 X6.0680 Y-2.7077
G01 X6.0838 Y-2.6973
G01 X6.0980 Y-2.6849
G01 X6.1104 Y-2.6707
G01 X6.1216 Y-2.6534
G01 X6.1296 Y-2.6363
G01 X6.1335 Y-2.6249
G01 X6.1366 Y-2.6115
G01 X6.1385 Y-2.5979
G01 X6.1390 Y-2.5859
G01 X6.1390 Y-0.9825
G01 X6.1379 Y-0.9688
G01 X6.1352 Y-0.9536
G01 X6.1308 Y-0.9387
G01 X6.1256 Y-0.9260
G01 X6.1191 Y-0.9139
G01 X6.1104 Y-0.9011
G01 X6.1016 Y-0.8906
G01 X6.0904 Y-0.8799
G01 X6.0810 Y-0.8724
G01 X6.0710 Y-0.8658
G01 X6.0604 Y-0.8601
G01 X6.0494 Y-0.8553
G01 X6.0380 Y-0.8514
G01 X6.0263 Y-0.8486
G01 X6.0144 Y-0.8468
G01 X6.0024 Y-0.8459
G01 X4.3973 Y-0.8459
G01 X4.3819 Y-0.8470
G01 X4.3667 Y-0.8497
G01 X4.3535 Y-0.8535
G01 X4.3391 Y-0.8593
G01 X4.3256 Y-0.8667
G01 X4.3129 Y-0.8755
G01 X4.3025 Y-0.8845
G01 X4.2919 Y-0.8958
G01 X4.2845 Y-0.9053
G01 X4.2780 Y-0.9154
G01 X4.2724 Y-0.9260
G01 X4.2678 Y-0.9371
G01 X4.2641 Y-0.9486
G01 X4.2614 Y-0.9603
G01 X4.2590 Y-0.9825
G01 X4.2590 Y-2.5859
G01 X4.2599 Y-2.6013
G01 X4.2628 Y-2.6182
G01 X4.2678 Y-2.6347
G01 X4.2747 Y-2.6504
G01 X4.2836 Y-2.6651
G01 X4.2941 Y-2.6786
G01 X4.3063 Y-2.6908
G01 X4.3198 Y-2.7013
G01 X4.3345 Y-2.7102
G01 X4.3470 Y-2.7159
G01 X4.3600 Y-2.7204
G01 X4.3717 Y-2.7232
G01 X4.3853 Y-2.7252
G01 X4.3990 Y-2.7259
G01 X4.4990 Y-2.7259
G01 X4.2128 Y-3.6487
G01 X3.5728 Y-3.6487
G01 X3.5574 Y-3.6500
G01 X3.5422 Y-3.6529
G01 X3.5274 Y-3.6575
G01 X3.5117 Y-3.6644
G01 X3.4984 Y-3.6723
G01 X3.4861 Y-3.6816
G01 X3.4748 Y-3.6922
G01 X3.4638 Y-3.7053
G01 X3.4552 Y-3.7182
G01 X3.4475 Y-3.7335
G01 X3.4422 Y-3.7481
G01 X3.4386 Y-3.7631
G01 X3.4369 Y-3.7750
G01 X3.4362 Y-3.7870
G01 X3.4362 Y-4.0571
G01 X2.6859 Y-4.0639
G01 X2.6859 Y-3.6609
G01 X2.6850 Y-3.6472
G01 X2.6829 Y-3.6336
G01 X2.6771 Y-3.6138
G01 X2.6685 Y-3.5951
G01 X2.6573 Y-3.5778
G01 X2.6437 Y-3.5624
G01 X2.6279 Y-3.5491
G01 X2.6104 Y-3.5383
G01 X2.5914 Y-3.5302
G01 X2.5715 Y-3.5250
G01 X2.5596 Y-3.5233
G01 X2.5459 Y-3.5226
G01 X0.9407 Y-3.5227
G01 X0.9237 Y-3.5244
G01 X0.9086 Y-3.5277
G01 X0.8923 Y-3.5333
G01 X0.8784 Y-3.5400
G01 X0.8639 Y-3.5491
G01 X0.8519 Y-3.5589
G01 X0.8399 Y-3.5712
G01 X0.8305 Y-3.5834
G01 X0.8201 Y-3.6012
G01 X0.8124 Y-3.6203
G01 X0.8077 Y-3.6404
G01 X0.8059 Y-3.6609
G01 X0.8059 Y-5.2660
G01 X0.8074 Y-5.2831
G01 X0.8105 Y-5.2983
G01 X0.8159 Y-5.3146
G01 X0.8224 Y-5.3286
G01 X0.8314 Y-5.3432
G01 X0.8422 Y-5.3566
G01 X0.8532 Y-5.3675
G01 X0.8667 Y-5.3780
G01 X0.8845 Y-5.3884
G01 X0.9036 Y-5.3961
G01 X0.9237 Y-5.4008
G01 X0.9442 Y-5.4026
G01 X2.5459 Y-5.4026
G01 X2.5664 Y-5.4011
G01 X2.5849 Y-5.3971
G01 X2.6026 Y-5.3906
G01 X2.6193 Y-5.3818
G01 X2.6347 Y-5.3708
G01 X2.6496 Y-5.3566
G01 X2.6623 Y-5.3404
G01 X2.6717 Y-5.3240
G01 X2.6788 Y-5.3065
G01 X2.6835 Y-5.2882
G01 X2.6852 Y-5.2763
G01 X2.6859 Y-5.2626
G01 X2.6859 Y-4.8442
G00 Z2.0000
G00 X2.7059 Y-5.0029
G01 F70.00
G01 Z-0.0600
G01 F120.00
G01 X2.7064 Y-4.9909
G01 X2.7083 Y-4.9772
G01 X2.7110 Y-4.9655
G01 X2.7147 Y-4.9540
G01 X2.7201 Y-4.9414
G01 X2.7259 Y-4.9308
G01 X2.7325 Y-4.9207
G01 X2.7412 Y-4.9100
G01 X2.7495 Y-4.9013
G01 X2.7600 Y-4.8924
G01 X2.7698 Y-4.8854
G01 X2.7817 Y-4.8785
G01 X2.7942 Y-4.8728
G01 X2.8056 Y-4.8688
G01 X2.8173 Y-4.8659
G01 X2.8292 Y-4.8639
G01 X2.8446 Y-4.8629
G01 X3.2749 Y-4.8590
G01 X3.2886 Y-4.8595
G01 X3.3022 Y-4.8614
G01 X3.3172 Y-4.8651
G01 X3.3317 Y-4.8704
G01 X3.3455 Y-4.8773
G01 X3.3584 Y-4.8857
G01 X3.3704 Y-4.8954
G01 X3.3812 Y-4.9064
G01 X3.3898 Y-4.9171
G01 X3.4005 Y-4.9346
G01 X3.4086 Y-4.9535
G01 X3.4138 Y-4.9734
G01 X3.4162 Y-4.9956
G01 X3.4163 Y-5.9820
G01 X3.4363 Y-5.9820
G01 X3.4363 Y-5.6853
G01 X3.4372 Y-5.6733
G01 X3.4390 Y-5.6614
G01 X3.4451 Y-5.6399
G01 X3.4537 Y-5.6212
G01 X3.4659 Y-5.6026
G01 X3.4798 Y-5.5873
G01 X3.4957 Y-5.5742
G01 X3.5149 Y-5.5629
G01 X3.5340 Y-5.5552
G01 X3.5558 Y-5.5502
G01 X3.5763 Y-5.5487
G01 X5.1763 Y-5.5487
G01 X5.1934 Y-5.5498
G01 X5.2103 Y-5.5529
G01 X5.2267 Y-5.5581
G01 X5.2438 Y-5.5661
G01 X5.2597 Y-5.5763
G01 X5.2741 Y-5.5885
G01 X5.2867 Y-5.6026
G01 X5.2964 Y-5.6167
G01 X5.3050 Y-5.6335
G01 X5.3108 Y-5.6497
G01 X5.3148 Y-5.6682
G01 X5.3163 Y-5.6870
G01 X5.3163 Y-5.9820
G01 X5.3363 Y-5.9820
G01 X5.3362 Y-3.6287
G01 X5.2453 Y-3.6287
G01 X5.2265 Y-3.6272
G01 X5.2098 Y-3.6237
G01 X5.1952 Y-3.6188
G01 X5.1797 Y-3.6115
G01 X5.1666 Y-3.6033
G01 X5.1520 Y-3.5915
G01 X5.1379 Y-3.5765
G01 X5.1271 Y-3.5611
G01 X5.1185 Y-3.5443
G01 X5.1122 Y-3.5266
G01 X5.1081 Y-3.5065
G01 X5.1070 Y-3.4877
G01 X5.1086 Y-3.4672
G01 X5.1133 Y-3.4472
G01 X5.3019 Y-2.8395
G01 X5.3110 Y-2.8190
G01 X5.3232 Y-2.8002
G01 X5.3383 Y-2.7837
G01 X5.3544 Y-2.7707
G01 X5.3707 Y-2.7610
G01 X5.3898 Y-2.7530
G01 X5.4099 Y-2.7480
G01 X5.4305 Y-2.7459
G01 X6.1590 Y-2.7459
G01 X6.1590 Y-0.8259
G01 X4.2390 Y-0.8259
G01 X4.2390 Y-2.7459
G01 X4.2920 Y-2.7463
G01 X4.3072 Y-2.7483
G01 X4.3206 Y-2.7514
G01 X4.3367 Y-2.7572
G01 X4.3520 Y-2.7648
G01 X4.3662 Y-2.7743
G01 X4.3804 Y-2.7867
G01 X4.3929 Y-2.8008
G01 X4.4033 Y-2.8165
G01 X4.4115 Y-2.8334
G01 X4.4173 Y-2.8513
G01 X4.4208 Y-2.8698
G01 X4.4217 Y-2.8869
G01 X4.4203 Y-2.9057
G01 X4.4164 Y-2.9241
G01 X4.2274 Y-3.5335
G01 X4.2216 Y-3.5479
G01 X4.2143 Y-3.5616
G01 X4.2055 Y-3.5744
G01 X4.1953 Y-3.5861
G01 X4.1865 Y-3.5944
G01 X4.1757 Y-3.6029
G01 X4.1655 Y-3.6095
G01 X4.1533 Y-3.6159
G01 X4.1405 Y-3.6210
G01 X4.1272 Y-3.6249
G01 X4.1136 Y-3.6274
G01 X4.1016 Y-3.6285
G01 X3.4162 Y-3.6287
G01 X3.4162 Y-3.9001
G01 X3.4153 Y-3.9139
G01 X3.4135 Y-3.9258
G01 X3.4096 Y-3.9408
G01 X3.4041 Y-3.9552
G01 X3.3971 Y-3.9690
G01 X3.3875 Y-3.9833
G01 X3.3774 Y-3.9951
G01 X3.3661 Y-4.0057
G01 X3.3523 Y-4.0159
G01 X3.3389 Y-4.0236
G01 X3.3263 Y-4.0291
G01 X3.3115 Y-4.0339
G01 X3.2963 Y-4.0369
G01 X3.2809 Y-4.0383
G01 X2.8420 Y-4.0423
G01 X2.8199 Y-4.0399
G01 X2.8082 Y-4.0371
G01 X2.7968 Y-4.0334
G01 X2.7766 Y-4.0240
G01 X2.7665 Y-4.0176
G01 X2.7569 Y-4.0104
G01 X2.7467 Y-4.0011
G01 X2.7376 Y-3.9910
G01 X2.7294 Y-3.9799
G01 X2.7224 Y-3.9682
G01 X2.7165 Y-3.9558
G01 X2.7119 Y-3.9429
G01 X2.7086 Y-3.9296
G01 X2.7066 Y-3.9160
G01 X2.7059 Y-3.9023
G01 X2.7059 Y-3.5026
G01 X0.7859 Y-3.5026
G01 X0.7859 Y-5.4226
G01 X2.7059 Y-5.4226
G01 X2.7059 Y-5.0029
G00 Z2.0000
G00 X2.7759 Y-5.0029
G01 F70.00
G01 Z-0.0600
G01 F120.00
G01 X2.7771 Y-4.9901
G01 X2.7809 Y-4.9769
G01 X2.7868 Y-4.9654
G01 X2.7947 Y-4.9552
G01 X2.8043 Y-4.9466
G01 X2.8161 Y-4.9396
G01 X2.8282 Y-4.9352
G01 X2.8410 Y-4.9331
G01 X3.2807 Y-4.9291
G01 X3.2892 Y-4.9302
G01 X3.2975 Y-4.9323
G01 X3.3055 Y-4.9354
G01 X3.3138 Y-4.9399
G01 X3.3214 Y-4.9455
G01 X3.3276 Y-4.9514
G01 X3.3330 Y-4.9581
G01 X3.3376 Y-4.9653
G01 X3.3412 Y-4.9731
G01 X3.3439 Y-4.9812
G01 X3.3456 Y-4.9896
G01 X3.3462 Y-4.9981
G01 X3.3463 Y-6.0520
G01 X3.5063 Y-6.0520
G01 X3.5063 Y-5.6887
G01 X3.5072 Y-5.6776
G01 X3.5104 Y-5.6651
G01 X3.5154 Y-5.6542
G01 X3.5222 Y-5.6443
G01 X3.5312 Y-5.6351
G01 X3.5418 Y-5.6278
G01 X3.5527 Y-5.6228
G01 X3.5643 Y-5.6197
G01 X3.5763 Y-5.6187
G01 X5.1763 Y-5.6187
G01 X5.1925 Y-5.6206
G01 X5.2031 Y-5.6240
G01 X5.2123 Y-5.6287
G01 X5.2214 Y-5.6351
G01 X5.2287 Y-5.6423
G01 X5.2350 Y-5.6505
G01 X5.2399 Y-5.6595
G01 X5.2438 Y-5.6700
G01 X5.2458 Y-5.6801
G01 X5.2463 Y-5.6887
G01 X5.2463 Y-6.0520
G01 X5.4063 Y-6.0520
G01 X5.4062 Y-3.5587
G01 X5.2453 Y-3.5587
G01 X5.2342 Y-3.5575
G01 X5.2235 Y-3.5546
G01 X5.2126 Y-3.5497
G01 X5.2027 Y-3.5429
G01 X5.1941 Y-3.5346
G01 X5.1871 Y-3.5249
G01 X5.1818 Y-3.5141
G01 X5.1782 Y-3.5018
G01 X5.1770 Y-3.4899
G01 X5.1778 Y-3.4780
G01 X5.1801 Y-3.4680
G01 X5.3676 Y-2.8635
G01 X5.3725 Y-2.8525
G01 X5.3791 Y-2.8424
G01 X5.3874 Y-2.8336
G01 X5.3963 Y-2.8269
G01 X5.4055 Y-2.8220
G01 X5.4144 Y-2.8187
G01 X5.4236 Y-2.8167
G01 X5.4331 Y-2.8159
G01 X6.2290 Y-2.8159
G01 X6.2290 Y-0.7559
G01 X4.1690 Y-0.7559
G01 X4.1690 Y-2.8159
G01 X4.2851 Y-2.8160
G01 X4.2986 Y-2.8180
G01 X4.3123 Y-2.8229
G01 X4.3226 Y-2.8291
G01 X4.3317 Y-2.8369
G01 X4.3393 Y-2.8461
G01 X4.3452 Y-2.8565
G01 X4.3493 Y-2.8678
G01 X4.3514 Y-2.8796
G01 X4.3514 Y-2.8924
G01 X4.3493 Y-2.9042
G01 X4.1613 Y-3.5103
G01 X4.1545 Y-3.5251
G01 X4.1444 Y-3.5380
G01 X4.1345 Y-3.5463
G01 X4.1224 Y-3.5530
G01 X4.1093 Y-3.5572
G01 X4.0964 Y-3.5587
G01 X3.3462 Y-3.5587
G01 X3.3459 Y-3.9053
G01 X3.3443 Y-3.9146
G01 X3.3418 Y-3.9228
G01 X3.3379 Y-3.9315
G01 X3.3334 Y-3.9388
G01 X3.3274 Y-3.9461
G01 X3.3212 Y-3.9520
G01 X3.3143 Y-3.9572
G01 X3.3068 Y-3.9614
G01 X3.2922 Y-3.9665
G01 X3.2777 Y-3.9684
G01 X2.8448 Y-3.9723
G01 X2.8312 Y-3.9707
G01 X2.8190 Y-3.9669
G01 X2.8069 Y-3.9604
G01 X2.7963 Y-3.9517
G01 X2.7881 Y-3.9418
G01 X2.7815 Y-3.9298
G01 X2.7776 Y-3.9176
G01 X2.7759 Y-3.9049
G01 X2.7759 Y-3.4326
G01 X0.7159 Y-3.4326
G01 X0.7159 Y-5.4926
G01 X2.7759 Y-5.4926
G01 X2.7759 Y-5.0029
G00 Z2.0000
G00 X3.4862 Y-5.2784
G01 F70.00
G01 Z-0.0600
G01 F120.00
G01 X3.4863 Y-5.4990
G01 X3.5080 Y-5.4901
G01 X3.5303 Y-5.4838
G01 X3.5532 Y-5.4800
G01 X3.5763 Y-5.4787
G01 X5.1789 Y-5.4787
G01 X5.2020 Y-5.4803
G01 X5.2248 Y-5.4844
G01 X5.2470 Y-5.4910
G01 X5.2663 Y-5.4990
G01 X5.2662 Y-5.2784
G01 X5.2445 Y-5.2873
G01 X5.2222 Y-5.2936
G01 X5.1993 Y-5.2974
G01 X5.1762 Y-5.2987
G01 X3.5736 Y-5.2987
G01 X3.5505 Y-5.2971
G01 X3.5277 Y-5.2930
G01 X3.5055 Y-5.2864
G01 X3.4862 Y-5.2784
G00 Z2.0000
G00 X3.5562 Y-5.3680
G01 F70.00
G01 Z-0.0600
G01 F120.00
G01 X3.5563 Y-5.4094
G01 X3.5763 Y-5.4087
G01 X5.1763 Y-5.4087
G01 X5.1963 Y-5.4094
G01 X5.1962 Y-5.3680
G01 X5.1762 Y-5.3687
G01 X3.5762 Y-5.3687
G01 X3.5562 Y-5.3680
G00 Z2.0000
G00 X3.3463 Y-6.6253
G01 F70.00
G01 Z-0.0600
G01 F120.00
G01 X3.3463 Y-7.2187
G01 X4.0896 Y-7.2187
G01 X4.0896 Y-7.0587
G01 X3.5746 Y-7.0587
G01 X3.5635 Y-7.0575
G01 X3.5527 Y-7.0546
G01 X3.5425 Y-7.0500
G01 X3.5326 Y-7.0434
G01 X3.5222 Y-7.0331
G01 X3.5142 Y-7.0209
G01 X3.5088 Y-7.0074
G01 X3.5064 Y-6.9930
G01 X3.5063 Y-6.6253
G01 X3.3463 Y-6.6253
G00 Z2.0000
G00 X3.4163 Y-6.6953
G01 F70.00
G01 Z-0.0600
G01 F120.00
G01 X3.4163 Y-7.1487
G01 X4.0196 Y-7.1487
G01 X4.0196 Y-7.1287
G01 X3.5763 Y-7.1287
G01 X3.5643 Y-7.1282
G01 X3.5456 Y-7.1253
G01 X3.5259 Y-7.1193
G01 X3.5088 Y-7.1113
G01 X3.4915 Y-7.1001
G01 X3.4823 Y-7.0924
G01 X3.4726 Y-7.0827
G01 X3.4649 Y-7.0735
G01 X3.4571 Y-7.0621
G01 X3.4505 Y-7.0501
G01 X3.4457 Y-7.0391
G01 X3.4418 Y-7.0277
G01 X3.4387 Y-7.0143
G01 X3.4370 Y-7.0024
G01 X3.4363 Y-6.9904
G01 X3.4363 Y-6.6953
G01 X3.4163 Y-6.6953
G00 Z2.0000
G00 X2.7759 Y-6.9260
G01 F70.00
G01 Z-0.0600
G01 F120.00
G01 X2.7759 Y-6.2326
G01 X2.0826 Y-6.2326
G01 X2.0826 Y-6.3926
G01 X2.5485 Y-6.3926
G01 X2.5612 Y-6.3943
G01 X2.5735 Y-6.3983
G01 X2.5848 Y-6.4044
G01 X2.5954 Y-6.4131
G01 X2.6036 Y-6.4230
G01 X2.6099 Y-6.4342
G01 X2.6142 Y-6.4473
G01 X2.6159 Y-6.4600
G01 X2.6159 Y-6.9260
G01 X2.7759 Y-6.9260
G00 Z2.0000
G00 X2.7059 Y-6.8560
G01 F70.00
G01 Z-0.0600
G01 F120.00
G01 X2.7059 Y-6.3026
G01 X2.1526 Y-6.3026
G01 X2.1526 Y-6.3226
G01 X2.5459 Y-6.3226
G01 X2.5630 Y-6.3237
G01 X2.5849 Y-6.3281
G01 X2.5963 Y-6.3320
G01 X2.6073 Y-6.3368
G01 X2.6179 Y-6.3425
G01 X2.6279 Y-6.3491
G01 X2.6449 Y-6.3636
G01 X2.6594 Y-6.3806
G01 X2.6660 Y-6.3906
G01 X2.6717 Y-6.4012
G01 X2.6765 Y-6.4122
G01 X2.6804 Y-6.4236
G01 X2.6848 Y-6.4455
G01 X2.6859 Y-6.4626
G01 X2.6859 Y-6.8560
G01 X2.7059 Y-6.8560
G00 Z2.0000
G00 X2.7059 Y-8.2226
G01 F70.00
G01 Z-0.0600
G01 F120.00
G01 X2.7059 Y-7.6693
G01 X2.6859 Y-7.6693
G01 X2.6859 Y-8.0626
G01 X2.6854 Y-8.0746
G01 X2.6838 Y-8.0865
G01 X2.6813 Y-8.0983
G01 X2.6777 Y-8.1098
G01 X2.6732 Y-8.1209
G01 X2.6677 Y-8.1316
G01 X2.6613 Y-8.1418
G01 X2.6541 Y-8.1514
G01 X2.6461 Y-8.1604
G01 X2.6373 Y-8.1686
G01 X2.6279 Y-8.1761
G01 X2.6179 Y-8.1827
G01 X2.6073 Y-8.1884
G01 X2.5963 Y-8.1932
G01 X2.5849 Y-8.1971
G01 X2.5630 Y-8.2015
G01 X2.5459 Y-8.2026
G01 X2.1526 Y-8.2026
G01 X2.1526 Y-8.2226
G01 X2.7059 Y-8.2226
G00 Z2.0000
G00 X2.7759 Y-8.2926
G01 F70.00
G01 Z-0.0600
G01 F120.00
G01 X2.7759 Y-7.5993
G01 X2.6159 Y-7.5993
G01 X2.6158 Y-8.0660
G01 X2.6136 Y-8.0804
G01 X2.6080 Y-8.0948
G01 X2.5995 Y-8.1077
G01 X2.5883 Y-8.1183
G01 X2.5789 Y-8.1243
G01 X2.5687 Y-8.1288
G01 X2.5587 Y-8.1314
G01 X2.5476 Y-8.1326
G01 X2.0826 Y-8.1326
G01 X2.0826 Y-8.2926
G01 X2.7759 Y-8.2926
G00 Z2.0000
G00 X0.7859 Y-7.6693
G01 F70.00
G01 Z-0.0600
G01 F120.00
G01 X0.7859 Y-8.2226
G01 X1.3393 Y-8.2226
G01 X1.3393 Y-8.2026
G01 X0.9459 Y-8.2026
G01 X0.9288 Y-8.2015
G01 X0.9069 Y-8.1971
G01 X0.8955 Y-8.1932
G01 X0.8845 Y-8.1884
G01 X0.8653 Y-8.1771
G01 X0.8558 Y-8.1697
G01 X0.8469 Y-8.1616
G01 X0.8324 Y-8.1446
G01 X0.8258 Y-8.1346
G01 X0.8201 Y-8.1240
G01 X0.8153 Y-8.1130
G01 X0.8114 Y-8.1016
G01 X0.8070 Y-8.0797
G01 X0.8059 Y-8.0626
G01 X0.8059 Y-7.6693
G01 X0.7859 Y-7.6693
G00 Z2.0000
G00 X0.7159 Y-7.5993
G01 F70.00
G01 Z-0.0600
G01 F120.00
G01 X0.7159 Y-8.2926
G01 X1.4093 Y-8.2926
G01 X1.4093 Y-8.1326
G01 X0.9433 Y-8.1326
G01 X0.9297 Y-8.1307
G01 X0.9175 Y-8.1266
G01 X0.9063 Y-8.1203
G01 X0.8964 Y-8.1121
G01 X0.8882 Y-8.1022
G01 X0.8819 Y-8.0910
G01 X0.8776 Y-8.0779
G01 X0.8759 Y-8.0652
G01 X0.8759 Y-7.5993
G01 X0.7159 Y-7.5993
G00 Z2.0000
G00 X1.3393 Y-6.3026
G01 F70.00
G01 Z-0.0600
G01 F120.00
G01 X0.7859 Y-6.3026
G01 X0.7859 Y-6.8560
G01 X0.8059 Y-6.8560
G01 X0.8059 Y-6.4626
G01 X0.8070 Y-6.4455
G01 X0.8114 Y-6.4236
G01 X0.8153 Y-6.4122
G01 X0.8201 Y-6.4012
G01 X0.8258 Y-6.3906
G01 X0.8324 Y-6.3806
G01 X0.8469 Y-6.3636
G01 X0.8639 Y-6.3491
G01 X0.8739 Y-6.3425
G01 X0.8845 Y-6.3368
G01 X0.8955 Y-6.3320
G01 X0.9069 Y-6.3281
G01 X0.9288 Y-6.3237
G01 X0.9459 Y-6.3226
G01 X1.3393 Y-6.3226
G01 X1.3393 Y-6.3026
G00 Z2.0000
G00 X1.4093 Y-6.2326
G01 F70.00
G01 Z-0.0600
G01 F120.00
G01 X0.7159 Y-6.2326
G01 X0.7159 Y-6.9260
G01 X0.8759 Y-6.9260
G01 X0.8759 Y-6.4600
G01 X0.8778 Y-6.4464
G01 X0.8819 Y-6.4342
G01 X0.8882 Y-6.4230
G01 X0.8964 Y-6.4131
G01 X0.9070 Y-6.4044
G01 X0.9183 Y-6.3983
G01 X0.9306 Y-6.3943
G01 X0.9433 Y-6.3926
G01 X1.4093 Y-6.3926
G01 X1.4093 Y-6.2326
G00 Z2.0000
G00 X4.6629 Y-7.2187
G01 F70.00
G01 Z-0.0600
G01 F120.00
G01 X5.4063 Y-7.2187
G01 X5.4063 Y-6.6253
G01 X5.2463 Y-6.6253
G01 X5.2462 Y-6.9930
G01 X5.2438 Y-7.0074
G01 X5.2384 Y-7.0209
G01 X5.2304 Y-7.0331
G01 X5.2200 Y-7.0434
G01 X5.2108 Y-7.0496
G01 X5.1999 Y-7.0546
G01 X5.1891 Y-7.0575
G01 X5.1780 Y-7.0587
G01 X4.6629 Y-7.0587
G01 X4.6629 Y-7.2187
G00 Z2.0000
G00 X4.7329 Y-7.1487
G01 F70.00
G01 Z-0.0600
G01 F120.00
G01 X5.3363 Y-7.1487
G01 X5.3363 Y-6.6953
G01 X5.3163 Y-6.6953
G01 X5.3163 Y-6.9904
G01 X5.3156 Y-7.0024
G01 X5.3139 Y-7.0143
G01 X5.3108 Y-7.0277
G01 X5.3069 Y-7.0391
G01 X5.3021 Y-7.0501
G01 X5.2955 Y-7.0621
G01 X5.2877 Y-7.0735
G01 X5.2800 Y-7.0827
G01 X5.2716 Y-7.0913
G01 X5.2611 Y-7.1001
G01 X5.2438 Y-7.1113
G01 X5.2267 Y-7.1193
G01 X5.2070 Y-7.1253
G01 X5.1883 Y-7.1282
G01 X5.1763 Y-7.1287
G01 X4.7329 Y-7.1287
G01 X4.7329 Y-7.1487
G00 Z2.0000
G00 X6.8531 Y-7.7638
G01 F70.00
G01 Z-0.0600
G01 F120.00
G01 X6.8381 Y-7.7589
G01 X6.7875 Y-7.7449
G01 X6.7329 Y-7.7326
G01 X6.6761 Y-7.7226
G01 X6.6222 Y-7.7160
G01 X6.5647 Y-7.7117
G01 X6.5088 Y-7.7103
G01 X6.4529 Y-7.7117
G01 X6.3988 Y-7.7156
G01 X6.3415 Y-7.7226
G01 X6.2864 Y-7.7322
G01 X6.2318 Y-7.7445
G01 X6.1779 Y-7.7594
G01 X6.1247 Y-7.7769
G01 X6.0725 Y-7.7971
G01 X6.0214 Y-7.8198
G01 X5.9729 Y-7.8441
G01 X5.9227 Y-7.8725
G01 X5.8754 Y-7.9024
G01 X5.8297 Y-7.9346
G01 X5.7856 Y-7.9691
G01 X5.7432 Y-8.0056
G01 X5.7027 Y-8.0442
G01 X5.6641 Y-8.0847
G01 X5.6276 Y-8.1271
G01 X5.5931 Y-8.1712
G01 X5.5609 Y-8.2169
G01 X5.5310 Y-8.2642
G01 X5.5034 Y-8.3129
G01 X5.4783 Y-8.3629
G01 X5.4556 Y-8.4140
G01 X5.4354 Y-8.4662
G01 X5.4184 Y-8.5177
G01 X5.4030 Y-8.5733
G01 X5.3907 Y-8.6279
G01 X5.3811 Y-8.6830
G01 X5.3743 Y-8.7386
G01 X5.3702 Y-8.7944
G01 X5.3688 Y-8.8503
G01 X5.3702 Y-8.9062
G01 X5.3743 Y-8.9620
G01 X5.3811 Y-9.0176
G01 X5.3907 Y-9.0727
G01 X5.4030 Y-9.1273
G01 X5.4179 Y-9.1812
G01 X5.4354 Y-9.2344
G01 X5.4556 Y-9.2866
G01 X5.4783 Y-9.3377
G01 X5.5034 Y-9.3877
G01 X5.5310 Y-9.4364
G01 X5.5609 Y-9.4837
G01 X5.5931 Y-9.5294
G01 X5.6276 Y-9.5735
G01 X5.6641 Y-9.6159
G01 X5.7027 Y-9.6564
G01 X5.7432 Y-9.6950
G01 X5.7856 Y-9.7315
G01 X5.8297 Y-9.7660
G01 X5.8754 Y-9.7982
G01 X5.9227 Y-9.8281
G01 X5.9714 Y-9.8557
G01 X6.0214 Y-9.8808
G01 X6.0725 Y-9.9035
G01 X6.1247 Y-9.9237
G01 X6.1762 Y-9.9407
G01 X6.2351 Y-9.9569
G01 X6.2864 Y-9.9684
G01 X6.3415 Y-9.9780
G01 X6.3971 Y-9.9848
G01 X6.4494 Y-9.9887
G01 X6.5088 Y-9.9903
G01 X6.5682 Y-9.9887
G01 X6.6205 Y-9.9848
G01 X6.6761 Y-9.9780
G01 X6.7312 Y-9.9684
G01 X6.7825 Y-9.9569
G01 X6.8430 Y-9.9402
G01 X6.8929 Y-9.9237
G01 X6.9451 Y-9.9035
G01 X6.9962 Y-9.8808
G01 X7.0431 Y-9.8573
G01 X7.0978 Y-9.8263
G01 X7.1422 Y-9.7982
G01 X7.1851 Y-9.7680
G01 X7.2346 Y-9.7293
G01 X7.2744 Y-9.6950
G01 X7.3149 Y-9.6564
G01 X7.3558 Y-9.6133
G01 X7.3900 Y-9.5735
G01 X7.4234 Y-9.5308
G01 X7.4585 Y-9.4808
G01 X7.4866 Y-9.4364
G01 X7.5142 Y-9.3877
G01 X7.5408 Y-9.3346
G01 X7.5620 Y-9.2866
G01 X7.5822 Y-9.2344
G01 X7.5997 Y-9.1812
G01 X7.6138 Y-9.1306
G01 X7.6269 Y-9.0727
G01 X7.6365 Y-9.0176
G01 X7.6429 Y-8.9655
G01 X7.6475 Y-8.9045
G01 X7.6488 Y-8.8503
G01 X7.6476 Y-8.7978
G01 X7.6433 Y-8.7386
G01 X7.6365 Y-8.6830
G01 X7.6275 Y-8.6313
G01 X7.6142 Y-8.5716
G01 X7.5997 Y-8.5194
G01 X7.5833 Y-8.4695
G01 X7.5614 Y-8.4125
G01 X7.5393 Y-8.3629
G01 X7.5150 Y-8.3144
G01 X7.4875 Y-8.2657
G01 X7.4712 Y-8.2398
G01 X8.5387 Y-6.8535
G01 X8.6464 Y-6.8535
G01 X10.1834 Y-7.6850
G01 X10.1834 Y-8.5500
G01 X10.1847 Y-8.5688
G01 X10.1872 Y-8.5823
G01 X10.1905 Y-8.5939
G01 X10.1947 Y-8.6052
G01 X10.1999 Y-8.6160
G01 X10.2060 Y-8.6263
G01 X10.2130 Y-8.6361
G01 X10.2208 Y-8.6453
G01 X10.2307 Y-8.6549
G01 X10.2400 Y-8.6624
G01 X10.2500 Y-8.6692
G01 X10.2605 Y-8.6751
G01 X10.2714 Y-8.6800
G01 X10.2828 Y-8.6840
G01 X10.2944 Y-8.6870
G01 X10.3080 Y-8.6891
G01 X10.3200 Y-8.6900
G01 X11.9268 Y-8.6900
G01 X11.9388 Y-8.6891
G01 X11.9524 Y-8.6870
G01 X11.9657 Y-8.6835
G01 X11.9786 Y-8.6787
G01 X11.9909 Y-8.6726
G01 X12.0026 Y-8.6654
G01 X12.0135 Y-8.6571
G01 X12.0224 Y-8.6490
G01 X12.0316 Y-8.6388
G01 X12.0388 Y-8.6292
G01 X12.0460 Y-8.6175
G01 X12.0521 Y-8.6052
G01 X12.0569 Y-8.5923
G01 X12.0604 Y-8.5790
G01 X12.0625 Y-8.5654
G01 X12.0634 Y-8.5534
G01 X12.0634 Y-6.9500
G01 X12.0616 Y-6.9278
G01 X12.0592 Y-6.9160
G01 X12.0558 Y-6.9045
G01 X12.0514 Y-6.8933
G01 X12.0460 Y-6.8825
G01 X12.0398 Y-6.8722
G01 X12.0327 Y-6.8625
G01 X12.0248 Y-6.8535
G01 X12.0161 Y-6.8451
G01 X12.0068 Y-6.8376
G01 X11.9968 Y-6.8308
G01 X11.9770 Y-6.8207
G01 X11.9657 Y-6.8165
G01 X11.9541 Y-6.8134
G01 X11.9422 Y-6.8113
G01 X11.9303 Y-6.8102
G01 X10.3217 Y-6.8100
G01 X10.3029 Y-6.8115
G01 X10.2828 Y-6.8160
G01 X10.2651 Y-6.8227
G01 X10.2473 Y-6.8325
G01 X9.0581 Y-6.1891
G01 X9.0581 Y-5.9118
G01 X9.0572 Y-5.8981
G01 X9.0554 Y-5.8862
G01 X9.0510 Y-5.8696
G01 X9.0454 Y-5.8552
G01 X9.0373 Y-5.8401
G01 X9.0285 Y-5.8274
G01 X9.0171 Y-5.8145
G01 X9.0056 Y-5.8042
G01 X8.9915 Y-5.7943
G01 X8.9780 Y-5.7869
G01 X8.9636 Y-5.7811
G01 X8.9488 Y-5.7769
G01 X8.9352 Y-5.7746
G01 X8.9198 Y-5.7735
G01 X8.0181 Y-5.7735
G01 X7.9959 Y-5.7753
G01 X7.9758 Y-5.7800
G01 X7.9552 Y-5.7884
G01 X7.9361 Y-5.8000
G01 X7.9191 Y-5.8145
G01 X7.9046 Y-5.8315
G01 X7.8938 Y-5.8490
G01 X7.8852 Y-5.8696
G01 X7.8802 Y-5.8896
G01 X7.8786 Y-5.9015
G01 X7.8781 Y-5.9135
G01 X7.8781 Y-6.4325
G01 X6.8531 Y-7.7638
G00 Z2.0000
G00 X6.8779 Y-7.8462
G01 F70.00
G01 Z-0.0600
G01 F120.00
G01 X6.8194 Y-7.8264
G01 X6.7688 Y-7.8124
G01 X6.7175 Y-7.8009
G01 X6.6658 Y-7.7919
G01 X6.6137 Y-7.7855
G01 X6.5613 Y-7.7816
G01 X6.5088 Y-7.7803
G01 X6.4563 Y-7.7816
G01 X6.4039 Y-7.7855
G01 X6.3518 Y-7.7919
G01 X6.3001 Y-7.8009
G01 X6.2488 Y-7.8124
G01 X6.1982 Y-7.8264
G01 X6.1483 Y-7.8428
G01 X6.0993 Y-7.8617
G01 X6.0513 Y-7.8830
G01 X6.0044 Y-7.9066
G01 X5.9587 Y-7.9325
G01 X5.9143 Y-7.9606
G01 X5.8714 Y-7.9909
G01 X5.8300 Y-8.0232
G01 X5.7902 Y-8.0575
G01 X5.7522 Y-8.0937
G01 X5.7160 Y-8.1317
G01 X5.6817 Y-8.1715
G01 X5.6494 Y-8.2129
G01 X5.6191 Y-8.2558
G01 X5.5910 Y-8.3002
G01 X5.5651 Y-8.3459
G01 X5.5415 Y-8.3928
G01 X5.5202 Y-8.4408
G01 X5.5013 Y-8.4898
G01 X5.4849 Y-8.5397
G01 X5.4709 Y-8.5903
G01 X5.4594 Y-8.6416
G01 X5.4504 Y-8.6933
G01 X5.4440 Y-8.7454
G01 X5.4401 Y-8.7978
G01 X5.4388 Y-8.8503
G01 X5.4401 Y-8.9028
G01 X5.4440 Y-8.9552
G01 X5.4504 Y-9.0073
G01 X5.4594 Y-9.0590
G01 X5.4709 Y-9.1103
G01 X5.4849 Y-9.1609
G01 X5.5013 Y-9.2108
G01 X5.5202 Y-9.2598
G01 X5.5415 Y-9.3078
G01 X5.5651 Y-9.3547
G01 X5.5910 Y-9.4004
G01 X5.6191 Y-9.4448
G01 X5.6494 Y-9.4877
G01 X5.6817 Y-9.5291
G01 X5.7160 Y-9.5689
G01 X5.7522 Y-9.6069
G01 X5.7902 Y-9.6431
G01 X5.8300 Y-9.6774
G01 X5.8714 Y-9.7097
G01 X5.9143 Y-9.7400
G01 X5.9587 Y-9.7681
G01 X6.0044 Y-9.7940
G01 X6.0513 Y-9.8176
G01 X6.0993 Y-9.8389
G01 X6.1483 Y-9.8578
G01 X6.1982 Y-9.8742
G01 X6.2471 Y-9.8878
G01 X6.3001 Y-9.8997
G01 X6.3518 Y-9.9087
G01 X6.4022 Y-9.9150
G01 X6.4580 Y-9.9191
G01 X6.5088 Y-9.9203
G01 X6.5613 Y-9.9190
G01 X6.6137 Y-9.9151
G01 X6.6641 Y-9.9090
G01 X6.7192 Y-9.8994
G01 X6.7688 Y-9.8882
G01 X6.8194 Y-9.8742
G01 X6.8709 Y-9.8572
G01 X6.9183 Y-9.8389
G01 X6.9663 Y-9.8176
G01 X7.0132 Y-9.7940
G01 X7.0574 Y-9.7689
G01 X7.1047 Y-9.7390
G01 X7.1462 Y-9.7097
G01 X7.1876 Y-9.6774
G01 X7.2274 Y-9.6431
G01 X7.2642 Y-9.6081
G01 X7.3028 Y-9.5676
G01 X7.3359 Y-9.5291
G01 X7.3677 Y-9.4884
G01 X7.3994 Y-9.4433
G01 X7.4266 Y-9.4004
G01 X7.4525 Y-9.3547
G01 X7.4761 Y-9.3078
G01 X7.4967 Y-9.2614
G01 X7.5168 Y-9.2091
G01 X7.5327 Y-9.1609
G01 X7.5467 Y-9.1103
G01 X7.5582 Y-9.0590
G01 X7.5669 Y-9.0090
G01 X7.5738 Y-8.9535
G01 X7.5775 Y-8.9028
G01 X7.5788 Y-8.8512
G01 X7.5774 Y-8.7961
G01 X7.5736 Y-8.7454
G01 X7.5672 Y-8.6933
G01 X7.5582 Y-8.6416
G01 X7.5471 Y-8.5920
G01 X7.5325 Y-8.5389
G01 X7.5163 Y-8.4898
G01 X7.4980 Y-8.4424
G01 X7.4757 Y-8.3920
G01 X7.4525 Y-8.3459
G01 X7.4270 Y-8.3009
G01 X7.3989 Y-8.2566
G01 X7.3852 Y-8.2369
G01 X8.5043 Y-6.7835
G01 X8.6641 Y-6.7835
G01 X10.2534 Y-7.6433
G01 X10.2536 Y-8.5551
G01 X10.2557 Y-8.5678
G01 X10.2598 Y-8.5792
G01 X10.2662 Y-8.5903
G01 X10.2745 Y-8.6001
G01 X10.2845 Y-8.6082
G01 X10.2950 Y-8.6140
G01 X10.3072 Y-8.6181
G01 X10.3200 Y-8.6199
G01 X11.9243 Y-8.6200
G01 X11.9371 Y-8.6187
G01 X11.9502 Y-8.6147
G01 X11.9623 Y-8.6082
G01 X11.9729 Y-8.5995
G01 X11.9816 Y-8.5889
G01 X11.9881 Y-8.5768
G01 X11.9921 Y-8.5637
G01 X11.9934 Y-8.5509
G01 X11.9934 Y-6.9500
G01 X11.9924 Y-6.9380
G01 X11.9893 Y-6.9264
G01 X11.9843 Y-6.9155
G01 X11.9775 Y-6.9056
G01 X11.9691 Y-6.8970
G01 X11.9594 Y-6.8900
G01 X11.9486 Y-6.8847
G01 X11.9371 Y-6.8813
G01 X11.9243 Y-6.8800
G01 X10.3217 Y-6.8800
G01 X10.3123 Y-6.8809
G01 X10.3031 Y-6.8830
G01 X10.2942 Y-6.8864
G01 X10.2860 Y-6.8909
G01 X10.2783 Y-6.8964
G01 X10.2715 Y-6.9030
G01 X10.2657 Y-6.9104
G01 X10.2605 Y-6.9192
G01 X8.9881 Y-6.2308
G01 X8.9877 Y-5.9058
G01 X8.9862 Y-5.8973
G01 X8.9834 Y-5.8883
G01 X8.9798 Y-5.8805
G01 X8.9748 Y-5.8725
G01 X8.9694 Y-5.8659
G01 X8.9632 Y-5.8599
G01 X8.9555 Y-5.8544
G01 X8.9480 Y-5.8502
G01 X8.9334 Y-5.8452
G01 X8.9181 Y-5.8435
G01 X8.0181 Y-5.8435
G01 X8.0061 Y-5.8445
G01 X7.9945 Y-5.8476
G01 X7.9843 Y-5.8522
G01 X7.9750 Y-5.8583
G01 X7.9668 Y-5.8659
G01 X7.9599 Y-5.8746
G01 X7.9545 Y-5.8843
G01 X7.9506 Y-5.8948
G01 X7.9484 Y-5.9066
G01 X7.9481 Y-6.4564
G01 X6.8779 Y-7.8462
G00 Z2.0000
G00 X6.7988 Y-8.8503
G01 F70.00
G01 Z-0.0600
G01 F120.00
G01 X6.7974 Y-8.8219
G01 X6.7932 Y-8.7937
G01 X6.7863 Y-8.7661
G01 X6.7767 Y-8.7393
G01 X6.7645 Y-8.7136
G01 X6.7499 Y-8.6892
G01 X6.7330 Y-8.6663
G01 X6.7138 Y-8.6453
G01 X6.6928 Y-8.6261
G01 X6.6699 Y-8.6092
G01 X6.6455 Y-8.5946
G01 X6.6198 Y-8.5824
G01 X6.5930 Y-8.5728
G01 X6.5654 Y-8.5659
G01 X6.5372 Y-8.5617
G01 X6.5088 Y-8.5603
G01 X6.4804 Y-8.5617
G01 X6.4522 Y-8.5659
G01 X6.4246 Y-8.5728
G01 X6.3978 Y-8.5824
G01 X6.3721 Y-8.5946
G01 X6.3477 Y-8.6092
G01 X6.3248 Y-8.6261
G01 X6.3038 Y-8.6453
G01 X6.2846 Y-8.6663
G01 X6.2677 Y-8.6892
G01 X6.2531 Y-8.7136
G01 X6.2409 Y-8.7393
G01 X6.2313 Y-8.7661
G01 X6.2244 Y-8.7937
G01 X6.2202 Y-8.8219
G01 X6.2188 Y-8.8503
G01 X6.2202 Y-8.8787
G01 X6.2244 Y-8.9069
G01 X6.2313 Y-8.9345
G01 X6.2409 Y-8.9613
G01 X6.2531 Y-8.9870
G01 X6.2677 Y-9.0114
G01 X6.2846 Y-9.0343
G01 X6.3038 Y-9.0553
G01 X6.3248 Y-9.0745
G01 X6.3477 Y-9.0914
G01 X6.3721 Y-9.1060
G01 X6.3978 Y-9.1182
G01 X6.4246 Y-9.1278
G01 X6.4522 Y-9.1347
G01 X6.4804 Y-9.1389
G01 X6.5088 Y-9.1403
G01 X6.5372 Y-9.1389
G01 X6.5654 Y-9.1347
G01 X6.5930 Y-9.1278
G01 X6.6198 Y-9.1182
G01 X6.6455 Y-9.1060
G01 X6.6699 Y-9.0914
G01 X6.6928 Y-9.0745
G01 X6.7138 Y-9.0553
G01 X6.7330 Y-9.0343
G01 X6.7499 Y-9.0114
G01 X6.7645 Y-8.9870
G01 X6.7767 Y-8.9613
G01 X6.7863 Y-8.9345
G01 X6.7932 Y-8.9069
G01 X6.7974 Y-8.8787
G01 X6.7988 Y-8.8503
G00 Z2.0000
G00 X6.7288 Y-8.8503
G01 F70.00
G01 Z-0.0600
G01 F120.00
G01 X6.7277 Y-8.8287
G01 X6.7245 Y-8.8074
G01 X6.7193 Y-8.7864
G01 X6.7120 Y-8.7661
G01 X6.7028 Y-8.7466
G01 X6.6917 Y-8.7281
G01 X6.6788 Y-8.7108
G01 X6.6643 Y-8.6948
G01 X6.6483 Y-8.6803
G01 X6.6310 Y-8.6674
G01 X6.6125 Y-8.6563
G01 X6.5930 Y-8.6471
G01 X6.5727 Y-8.6398
G01 X6.5517 Y-8.6346
G01 X6.5304 Y-8.6314
G01 X6.5088 Y-8.6303
G01 X6.4872 Y-8.6314
G01 X6.4659 Y-8.6346
G01 X6.4449 Y-8.6398
G01 X6.4246 Y-8.6471
G01 X6.4051 Y-8.6563
G01 X6.3866 Y-8.6674
G01 X6.3693 Y-8.6803
G01 X6.3533 Y-8.6948
G01 X6.3388 Y-8.7108
G01 X6.3259 Y-8.7281
G01 X6.3148 Y-8.7466
G01 X6.3056 Y-8.7661
G01 X6.2983 Y-8.7864
G01 X6.2931 Y-8.8074
G01 X6.2899 Y-8.8287
G01 X6.2888 Y-8.8503
G01 X6.2899 Y-8.8719
G01 X6.2931 Y-8.8932
G01 X6.2983 Y-8.9142
G01 X6.3056 Y-8.9345
G01 X6.3148 Y-8.9540
G01 X6.3259 Y-8.9725
G01 X6.3388 Y-8.9898
G01 X6.3533 Y-9.0058
G01 X6.3693 Y-9.0203
G01 X6.3866 Y-9.0332
G01 X6.4051 Y-9.0443
G01 X6.4246 Y-9.0535
G01 X6.4449 Y-9.0608
G01 X6.4659 Y-9.0660
G01 X6.4872 Y-9.0692
G01 X6.5088 Y-9.0703
G01 X6.5304 Y-9.0692
G01 X6.5517 Y-9.0660
G01 X6.5727 Y-9.0608
G01 X6.5930 Y-9.0535
G01 X6.6125 Y-9.0443
G01 X6.6310 Y-9.0332
G01 X6.6483 Y-9.0203
G01 X6.6643 Y-9.0058
G01 X6.6788 Y-8.9898
G01 X6.6917 Y-8.9725
G01 X6.7028 Y-8.9540
G01 X6.7120 Y-8.9345
G01 X6.7193 Y-8.9142
G01 X6.7245 Y-8.8932
G01 X6.7277 Y-8.8719
G01 X6.7288 Y-8.8503
G00 Z2.0000
G00 X6.6587 Y-8.8503
G01 F70.00
G01 Z-0.0600
G01 F120.00
G01 X6.6580 Y-8.8356
G01 X6.6559 Y-8.8210
G01 X6.6523 Y-8.8068
G01 X6.6473 Y-8.7929
G01 X6.6410 Y-8.7796
G01 X6.6335 Y-8.7670
G01 X6.6247 Y-8.7552
G01 X6.6148 Y-8.7443
G01 X6.6039 Y-8.7344
G01 X6.5921 Y-8.7256
G01 X6.5795 Y-8.7181
G01 X6.5662 Y-8.7118
G01 X6.5523 Y-8.7068
G01 X6.5381 Y-8.7032
G01 X6.5235 Y-8.7011
G01 X6.5088 Y-8.7004
G01 X6.4941 Y-8.7011
G01 X6.4795 Y-8.7032
G01 X6.4653 Y-8.7068
G01 X6.4514 Y-8.7118
G01 X6.4381 Y-8.7181
G01 X6.4255 Y-8.7256
G01 X6.4137 Y-8.7344
G01 X6.4028 Y-8.7443
G01 X6.3929 Y-8.7552
G01 X6.3841 Y-8.7670
G01 X6.3766 Y-8.7796
G01 X6.3703 Y-8.7929
G01 X6.3653 Y-8.8068
G01 X6.3617 Y-8.8210
G01 X6.3596 Y-8.8356
G01 X6.3589 Y-8.8503
G01 X6.3596 Y-8.8650
G01 X6.3617 Y-8.8796
G01 X6.3653 Y-8.8938
G01 X6.3703 Y-8.9077
G01 X6.3766 Y-8.9210
G01 X6.3841 Y-8.9336
G01 X6.3929 Y-8.9454
G01 X6.4028 Y-8.9563
G01 X6.4137 Y-8.9662
G01 X6.4255 Y-8.9750
G01 X6.4381 Y-8.9825
G01 X6.4514 Y-8.9888
G01 X6.4653 Y-8.9938
G01 X6.4795 Y-8.9974
G01 X6.4941 Y-8.9995
G01 X6.5088 Y-9.0002
G01 X6.5235 Y-8.9995
G01 X6.5381 Y-8.9974
G01 X6.5523 Y-8.9938
G01 X6.5662 Y-8.9888
G01 X6.5795 Y-8.9825
G01 X6.5921 Y-8.9750
G01 X6.6039 Y-8.9662
G01 X6.6148 Y-8.9563
G01 X6.6247 Y-8.9454
G01 X6.6335 Y-8.9336
G01 X6.6410 Y-8.9210
G01 X6.6473 Y-8.9077
G01 X6.6523 Y-8.8938
G01 X6.6559 Y-8.8796
G01 X6.6580 Y-8.8650
G01 X6.6587 Y-8.8503
G00 Z2.0000
G00 X6.5887 Y-8.8503
G01 F70.00
G01 Z-0.0600
G01 F120.00
G01 X6.5872 Y-8.8347
G01 X6.5826 Y-8.8197
G01 X6.5752 Y-8.8059
G01 X6.5653 Y-8.7938
G01 X6.5532 Y-8.7839
G01 X6.5394 Y-8.7765
G01 X6.5244 Y-8.7719
G01 X6.5088 Y-8.7704
G01 X6.4932 Y-8.7719
G01 X6.4782 Y-8.7765
G01 X6.4644 Y-8.7839
G01 X6.4523 Y-8.7938
G01 X6.4424 Y-8.8059
G01 X6.4350 Y-8.8197
G01 X6.4304 Y-8.8347
G01 X6.4289 Y-8.8503
G01 X6.4304 Y-8.8659
G01 X6.4350 Y-8.8809
G01 X6.4424 Y-8.8947
G01 X6.4523 Y-8.9068
G01 X6.4644 Y-8.9167
G01 X6.4782 Y-8.9241
G01 X6.4932 Y-8.9287
G01 X6.5088 Y-8.9302
G01 X6.5244 Y-8.9287
G01 X6.5394 Y-8.9241
G01 X6.5532 Y-8.9167
G01 X6.5653 Y-8.9068
G01 X6.5752 Y-8.8947
G01 X6.5826 Y-8.8809
G01 X6.5872 Y-8.8659
G01 X6.5887 Y-8.8503
G00 Z2.0000
G00 X7.0581 Y-5.7015
G01 F70.00
G01 Z-0.0600
G01 F120.00
G01 X10.1834 Y-5.6903
G01 X10.1834 Y-5.7534
G01 X10.1852 Y-5.7722
G01 X10.1880 Y-5.7857
G01 X10.1928 Y-5.8004
G01 X10.1991 Y-5.8145
G01 X10.2060 Y-5.8263
G01 X10.2152 Y-5.8388
G01 X10.2256 Y-5.8502
G01 X10.2386 Y-5.8614
G01 X10.2514 Y-5.8701
G01 X10.2651 Y-5.8773
G01 X10.2811 Y-5.8835
G01 X10.2961 Y-5.8873
G01 X10.3114 Y-5.8895
G01 X10.3234 Y-5.8900
G01 X11.9268 Y-5.8900
G01 X11.9405 Y-5.8889
G01 X11.9541 Y-5.8866
G01 X11.9673 Y-5.8829
G01 X11.9786 Y-5.8787
G01 X11.9909 Y-5.8726
G01 X12.0012 Y-5.8664
G01 X12.0122 Y-5.8582
G01 X12.0224 Y-5.8490
G01 X12.0305 Y-5.8401
G01 X12.0388 Y-5.8292
G01 X12.0460 Y-5.8175
G01 X12.0521 Y-5.8052
G01 X12.0569 Y-5.7923
G01 X12.0604 Y-5.7790
G01 X12.0625 Y-5.7654
G01 X12.0634 Y-5.7534
G01 X12.0634 Y-4.1500
G01 X12.0625 Y-4.1346
G01 X12.0604 Y-4.1210
G01 X12.0552 Y-4.1028
G01 X12.0477 Y-4.0855
G01 X12.0379 Y-4.0694
G01 X12.0248 Y-4.0535
G01 X12.0109 Y-4.0407
G01 X11.9954 Y-4.0299
G01 X11.9786 Y-4.0213
G01 X11.9591 Y-4.0146
G01 X11.9422 Y-4.0113
G01 X11.9251 Y-4.0100
G01 X11.6342 Y-4.0100
G01 X11.8430 Y-2.3413
G01 X11.8675 Y-2.3357
G01 X11.9181 Y-2.3217
G01 X11.9745 Y-2.3031
G01 X12.0251 Y-2.2835
G01 X12.0731 Y-2.2623
G01 X12.1277 Y-2.2349
G01 X12.1749 Y-2.2081
G01 X12.2193 Y-2.1800
G01 X12.2679 Y-2.1460
G01 X12.3120 Y-2.1115
G01 X12.3518 Y-2.0773
G01 X12.3961 Y-2.0352
G01 X12.4335 Y-1.9959
G01 X12.4678 Y-1.9561
G01 X12.5045 Y-1.9094
G01 X12.5367 Y-1.8637
G01 X12.5648 Y-1.8193
G01 X12.5942 Y-1.7677
G01 X12.6193 Y-1.7177
G01 X12.6407 Y-1.6697
G01 X12.6622 Y-1.6144
G01 X12.6807 Y-1.5579
G01 X12.6946 Y-1.5073
G01 X12.7065 Y-1.4544
G01 X12.7165 Y-1.3976
G01 X12.7236 Y-1.3386
G01 X12.7274 Y-1.2862
G01 X12.7288 Y-1.2337
G01 X12.7274 Y-1.1744
G01 X12.7233 Y-1.1186
G01 X12.7159 Y-1.0596
G01 X12.7069 Y-1.0079
G01 X12.6954 Y-0.9566
G01 X12.6797 Y-0.8994
G01 X12.6622 Y-0.8462
G01 X12.6407 Y-0.7909
G01 X12.6193 Y-0.7429
G01 X12.5958 Y-0.6960
G01 X12.5666 Y-0.6442
G01 X12.5347 Y-0.5941
G01 X12.5045 Y-0.5512
G01 X12.4722 Y-0.5098
G01 X12.4335 Y-0.4647
G01 X12.3949 Y-0.4242
G01 X12.3518 Y-0.3833
G01 X12.3120 Y-0.3491
G01 X12.2706 Y-0.3167
G01 X12.2222 Y-0.2824
G01 X12.1749 Y-0.2525
G01 X12.1262 Y-0.2249
G01 X12.0731 Y-0.1983
G01 X12.0219 Y-0.1758
G01 X11.9729 Y-0.1569
G01 X11.9230 Y-0.1404
G01 X11.8658 Y-0.1245
G01 X11.8112 Y-0.1122
G01 X11.7561 Y-0.1026
G01 X11.6971 Y-0.0955
G01 X11.6447 Y-0.0917
G01 X11.5922 Y-0.0903
G01 X11.5363 Y-0.0915
G01 X11.4771 Y-0.0958
G01 X11.4181 Y-0.1032
G01 X11.3630 Y-0.1129
G01 X11.3118 Y-0.1245
G01 X11.2612 Y-0.1384
G01 X11.2047 Y-0.1569
G01 X11.1525 Y-0.1771
G01 X11.0983 Y-0.2013
G01 X11.0514 Y-0.2249
G01 X11.0057 Y-0.2508
G01 X10.9554 Y-0.2824
G01 X10.9097 Y-0.3146
G01 X10.8656 Y-0.3491
G01 X10.8207 Y-0.3880
G01 X10.7827 Y-0.4242
G01 X10.7465 Y-0.4622
G01 X10.7076 Y-0.5071
G01 X10.6731 Y-0.5512
G01 X10.6391 Y-0.5998
G01 X10.6110 Y-0.6442
G01 X10.5851 Y-0.6899
G01 X10.5590 Y-0.7413
G01 X10.5356 Y-0.7940
G01 X10.5154 Y-0.8462
G01 X10.4979 Y-0.8994
G01 X10.4830 Y-0.9533
G01 X10.4707 Y-1.0079
G01 X10.4611 Y-1.0630
G01 X10.4543 Y-1.1186
G01 X10.4502 Y-1.1744
G01 X10.4488 Y-1.2303
G01 X10.4502 Y-1.2862
G01 X10.4543 Y-1.3420
G01 X10.4611 Y-1.3976
G01 X10.4707 Y-1.4527
G01 X10.4830 Y-1.5073
G01 X10.4979 Y-1.5612
G01 X10.5149 Y-1.6127
G01 X10.5356 Y-1.6666
G01 X10.5583 Y-1.7177
G01 X10.5834 Y-1.7677
G01 X10.6110 Y-1.8164
G01 X10.6409 Y-1.8637
G01 X10.6731 Y-1.9094
G01 X10.7076 Y-1.9535
G01 X10.7430 Y-1.9946
G01 X10.7827 Y-2.0364
G01 X10.8232 Y-2.0750
G01 X10.8656 Y-2.1115
G01 X10.9083 Y-2.1449
G01 X10.9554 Y-2.1782
G01 X11.0013 Y-2.2072
G01 X11.0499 Y-2.2349
G01 X11.0687 Y-2.2445
G01 X10.8478 Y-4.0100
G01 X10.3234 Y-4.0100
G01 X10.3114 Y-4.0105
G01 X10.2978 Y-4.0124
G01 X10.2828 Y-4.0160
G01 X10.2682 Y-4.0213
G01 X10.2559 Y-4.0274
G01 X10.2428 Y-4.0355
G01 X10.2307 Y-4.0451
G01 X10.2208 Y-4.0547
G01 X10.2110 Y-4.0666
G01 X10.1991 Y-4.0855
G01 X10.1910 Y-4.1045
G01 X10.1858 Y-4.1244
G01 X10.1835 Y-4.1448
G01 X10.1834 Y-4.9100
G01 X7.0581 Y-4.9212
G01 X7.0579 Y-4.9066
G01 X7.0566 Y-4.8930
G01 X7.0539 Y-4.8795
G01 X7.0499 Y-4.8663
G01 X7.0447 Y-4.8536
G01 X7.0373 Y-4.8401
G01 X7.0295 Y-4.8287
G01 X7.0207 Y-4.8182
G01 X7.0108 Y-4.8086
G01 X7.0001 Y-4.8000
G01 X6.9871 Y-4.7917
G01 X6.9748 Y-4.7855
G01 X6.9620 Y-4.7806
G01 X6.9488 Y-4.7769
G01 X6.9352 Y-4.7746
G01 X6.9215 Y-4.7735
G01 X6.0112 Y-4.7737
G01 X5.9959 Y-4.7753
G01 X5.9808 Y-4.7786
G01 X5.9661 Y-4.7835
G01 X5.9521 Y-4.7900
G01 X5.9389 Y-4.7981
G01 X5.9267 Y-4.8075
G01 X5.9155 Y-4.8182
G01 X5.9067 Y-4.8287
G01 X5.8955 Y-4.8460
G01 X5.8863 Y-4.8663
G01 X5.8805 Y-4.8879
G01 X5.8782 Y-4.9083
G01 X5.8781 Y-5.7169
G01 X5.8794 Y-5.7323
G01 X5.8823 Y-5.7475
G01 X5.8869 Y-5.7623
G01 X5.8938 Y-5.7780
G01 X5.9017 Y-5.7913
G01 X5.9110 Y-5.8036
G01 X5.9216 Y-5.8149
G01 X5.9333 Y-5.8249
G01 X5.9506 Y-5.8361
G01 X5.9709 Y-5.8453
G01 X5.9925 Y-5.8511
G01 X6.0147 Y-5.8535
G01 X6.9181 Y-5.8535
G01 X6.9335 Y-5.8526
G01 X6.9471 Y-5.8505
G01 X6.9604 Y-5.8470
G01 X6.9733 Y-5.8422
G01 X6.9856 Y-5.8361
G01 X6.9973 Y-5.8289
G01 X7.0082 Y-5.8206
G01 X7.0183 Y-5.8113
G01 X7.0263 Y-5.8023
G01 X7.0335 Y-5.7927
G01 X7.0407 Y-5.7810
G01 X7.0468 Y-5.7687
G01 X7.0516 Y-5.7558
G01 X7.0547 Y-5.7442
G01 X7.0570 Y-5.7306
G01 X7.0580 Y-5.7187
G01 X7.0581 Y-5.7015
G00 Z2.0000
G00 X6.9881 Y-5.6318
G01 F70.00
G01 Z-0.0600
G01 F120.00
G01 X10.2534 Y-5.6200
G01 X10.2534 Y-5.7517
G01 X10.2543 Y-5.7611
G01 X10.2567 Y-5.7711
G01 X10.2605 Y-5.7807
G01 X10.2652 Y-5.7889
G01 X10.2715 Y-5.7970
G01 X10.2790 Y-5.8041
G01 X10.2874 Y-5.8100
G01 X10.2966 Y-5.8147
G01 X10.3064 Y-5.8179
G01 X10.3157 Y-5.8196
G01 X11.9243 Y-5.8200
G01 X11.9379 Y-5.8185
G01 X11.9502 Y-5.8147
G01 X11.9616 Y-5.8087
G01 X11.9717 Y-5.8007
G01 X11.9806 Y-5.7903
G01 X11.9874 Y-5.7784
G01 X11.9919 Y-5.7645
G01 X11.9934 Y-5.7509
G01 X11.9934 Y-4.1500
G01 X11.9915 Y-4.1338
G01 X11.9881 Y-4.1232
G01 X11.9834 Y-4.1140
G01 X11.9775 Y-4.1056
G01 X11.9698 Y-4.0976
G01 X11.9616 Y-4.0913
G01 X11.9526 Y-4.0864
G01 X11.9421 Y-4.0825
G01 X11.9320 Y-4.0805
G01 X11.9234 Y-4.0800
G01 X11.5549 Y-4.0800
G01 X11.7797 Y-2.2829
G01 X11.7984 Y-2.2796
G01 X11.8496 Y-2.2680
G01 X11.8994 Y-2.2542
G01 X11.9485 Y-2.2380
G01 X11.9999 Y-2.2182
G01 X12.0463 Y-2.1976
G01 X12.0924 Y-2.1744
G01 X12.1404 Y-2.1472
G01 X12.1833 Y-2.1200
G01 X12.2262 Y-2.0897
G01 X12.2689 Y-2.0563
G01 X12.3074 Y-2.0231
G01 X12.3448 Y-1.9875
G01 X12.3828 Y-1.9476
G01 X12.4159 Y-1.9091
G01 X12.4482 Y-1.8677
G01 X12.4785 Y-1.8248
G01 X12.5057 Y-1.7819
G01 X12.5325 Y-1.7347
G01 X12.5561 Y-1.6878
G01 X12.5767 Y-1.6414
G01 X12.5963 Y-1.5908
G01 X12.6132 Y-1.5393
G01 X12.6267 Y-1.4903
G01 X12.6379 Y-1.4407
G01 X12.6472 Y-1.3873
G01 X12.6538 Y-1.3335
G01 X12.6575 Y-1.2828
G01 X12.6588 Y-1.2320
G01 X12.6575 Y-1.1778
G01 X12.6536 Y-1.1254
G01 X12.6469 Y-1.0716
G01 X12.6382 Y-1.0216
G01 X12.6271 Y-0.9720
G01 X12.6127 Y-0.9197
G01 X12.5963 Y-0.8698
G01 X12.5767 Y-0.8192
G01 X12.5561 Y-0.7728
G01 X12.5332 Y-0.7274
G01 X12.5066 Y-0.6802
G01 X12.4785 Y-0.6358
G01 X12.4472 Y-0.5915
G01 X12.4148 Y-0.5502
G01 X12.3816 Y-0.5117
G01 X12.3466 Y-0.4749
G01 X12.3074 Y-0.4375
G01 X12.2663 Y-0.4021
G01 X12.2262 Y-0.3709
G01 X12.1847 Y-0.3416
G01 X12.1389 Y-0.3125
G01 X12.0932 Y-0.2866
G01 X12.0447 Y-0.2623
G01 X11.9967 Y-0.2411
G01 X11.9493 Y-0.2228
G01 X11.9010 Y-0.2069
G01 X11.8488 Y-0.1924
G01 X11.7959 Y-0.1805
G01 X11.7441 Y-0.1716
G01 X11.6937 Y-0.1655
G01 X11.6430 Y-0.1617
G01 X11.5888 Y-0.1603
G01 X11.5363 Y-0.1616
G01 X11.4839 Y-0.1655
G01 X11.4301 Y-0.1722
G01 X11.3784 Y-0.1812
G01 X11.3288 Y-0.1924
G01 X11.2798 Y-0.2059
G01 X11.2283 Y-0.2228
G01 X11.1793 Y-0.2417
G01 X11.1298 Y-0.2638
G01 X11.0844 Y-0.2866
G01 X11.0402 Y-0.3117
G01 X10.9943 Y-0.3406
G01 X10.9514 Y-0.3709
G01 X10.9100 Y-0.4032
G01 X10.8690 Y-0.4387
G01 X10.8322 Y-0.4737
G01 X10.7972 Y-0.5105
G01 X10.7617 Y-0.5515
G01 X10.7284 Y-0.5943
G01 X10.6991 Y-0.6358
G01 X10.6719 Y-0.6787
G01 X10.6451 Y-0.7259
G01 X10.6212 Y-0.7736
G01 X10.6002 Y-0.8208
G01 X10.5813 Y-0.8698
G01 X10.5649 Y-0.9197
G01 X10.5509 Y-0.9703
G01 X10.5394 Y-1.0216
G01 X10.5304 Y-1.0733
G01 X10.5240 Y-1.1254
G01 X10.5201 Y-1.1778
G01 X10.5188 Y-1.2303
G01 X10.5201 Y-1.2828
G01 X10.5240 Y-1.3352
G01 X10.5304 Y-1.3873
G01 X10.5394 Y-1.4390
G01 X10.5509 Y-1.4903
G01 X10.5649 Y-1.5409
G01 X10.5816 Y-1.5916
G01 X10.6002 Y-1.6398
G01 X10.6215 Y-1.6878
G01 X10.6451 Y-1.7347
G01 X10.6710 Y-1.7804
G01 X10.6991 Y-1.8248
G01 X10.7294 Y-1.8677
G01 X10.7617 Y-1.9091
G01 X10.7966 Y-1.9495
G01 X10.8322 Y-1.9869
G01 X10.8702 Y-2.0231
G01 X10.9100 Y-2.0574
G01 X10.9521 Y-2.0902
G01 X10.9943 Y-2.1200
G01 X11.0394 Y-2.1485
G01 X11.0852 Y-2.1744
G01 X11.1305 Y-2.1972
G01 X11.1444 Y-2.2034
G01 X10.9096 Y-4.0800
G01 X10.3200 Y-4.0801
G01 X10.3047 Y-4.0825
G01 X10.2896 Y-4.0887
G01 X10.2770 Y-4.0976
G01 X10.2667 Y-4.1090
G01 X10.2613 Y-4.1178
G01 X10.2569 Y-4.1280
G01 X10.2543 Y-4.1389
G01 X10.2534 Y-4.1491
G01 X10.2534 Y-4.9797
G01 X6.9881 Y-4.9915
G01 X6.9880 Y-4.9101
G01 X6.9864 Y-4.8982
G01 X6.9824 Y-4.8859
G01 X6.9786 Y-4.8783
G01 X6.9733 Y-4.8704
G01 X6.9670 Y-4.8634
G01 X6.9598 Y-4.8573
G01 X6.9526 Y-4.8526
G01 X6.9441 Y-4.8485
G01 X6.9351 Y-4.8456
G01 X6.9258 Y-4.8439
G01 X6.0164 Y-4.8435
G01 X6.0011 Y-4.8456
G01 X5.9859 Y-4.8514
G01 X5.9730 Y-4.8599
G01 X5.9619 Y-4.8718
G01 X5.9560 Y-4.8813
G01 X5.9516 Y-4.8915
G01 X5.9490 Y-4.9024
G01 X5.9481 Y-4.9126
G01 X5.9481 Y-5.7144
G01 X5.9502 Y-5.7305
G01 X5.9560 Y-5.7457
G01 X5.9645 Y-5.7586
G01 X5.9764 Y-5.7697
G01 X5.9859 Y-5.7756
G01 X5.9953 Y-5.7797
G01 X6.0061 Y-5.7825
G01 X6.0172 Y-5.7835
G01 X6.9181 Y-5.7835
G01 X6.9275 Y-5.7829
G01 X6.9368 Y-5.7810
G01 X6.9457 Y-5.7778
G01 X6.9533 Y-5.7740
G01 X6.9612 Y-5.7687
G01 X6.9676 Y-5.7630
G01 X6.9738 Y-5.7559
G01 X6.9790 Y-5.7480
G01 X6.9831 Y-5.7395
G01 X6.9866 Y-5.7280
G01 X6.9880 Y-5.7169
G01 X6.9881 Y-5.6318
G00 Z2.0000
G00 X7.9725 Y-3.7811
G01 F70.00
G01 Z-0.0600
G01 F120.00
G01 X7.9521 Y-3.7900
G01 X7.9347 Y-3.8011
G01 X7.9191 Y-3.8145
G01 X7.9057 Y-3.8301
G01 X7.8946 Y-3.8475
G01 X7.8863 Y-3.8663
G01 X7.8808 Y-3.8862
G01 X7.8783 Y-3.9066
G01 X7.8783 Y-4.7204
G01 X7.8796 Y-4.7340
G01 X7.8819 Y-4.7458
G01 X7.8857 Y-4.7590
G01 X7.8901 Y-4.7702
G01 X7.8963 Y-4.7825
G01 X7.9027 Y-4.7927
G01 X7.9110 Y-4.8036
G01 X7.9203 Y-4.8137
G01 X7.9306 Y-4.8228
G01 X7.9403 Y-4.8299
G01 X7.9521 Y-4.8370
G01 X7.9629 Y-4.8422
G01 X7.9758 Y-4.8470
G01 X7.9874 Y-4.8501
G01 X8.0010 Y-4.8524
G01 X8.0129 Y-4.8534
G01 X8.9181 Y-4.8535
G01 X8.9318 Y-4.8528
G01 X8.9454 Y-4.8508
G01 X8.9587 Y-4.8475
G01 X8.9733 Y-4.8422
G01 X8.9856 Y-4.8361
G01 X8.9973 Y-4.8289
G01 X9.0082 Y-4.8206
G01 X9.0183 Y-4.8113
G01 X9.0274 Y-4.8010
G01 X9.0345 Y-4.7913
G01 X9.0416 Y-4.7795
G01 X9.0468 Y-4.7687
G01 X9.0510 Y-4.7574
G01 X9.0547 Y-4.7442
G01 X9.0570 Y-4.7306
G01 X9.0580 Y-4.7187
G01 X9.0581 Y-3.9135
G01 X9.0572 Y-3.8981
G01 X9.0551 Y-3.8845
G01 X9.0505 Y-3.8680
G01 X9.0439 Y-3.8521
G01 X9.0355 Y-3.8372
G01 X9.0252 Y-3.8234
G01 X9.0134 Y-3.8109
G01 X8.9987 Y-3.7990
G01 X8.9841 Y-3.7900
G01 X8.9685 Y-3.7829
G01 X8.9471 Y-3.7765
G01 X8.9250 Y-3.7737
G01 X8.7647 Y-3.7735
G01 X8.5702 Y-2.7259
G01 X8.8024 Y-2.7259
G01 X8.8229 Y-2.7238
G01 X8.8429 Y-2.7188
G01 X8.8604 Y-2.7117
G01 X8.8768 Y-2.7023
G01 X8.8930 Y-2.6896
G01 X8.9061 Y-2.6760
G01 X8.9173 Y-2.6608
G01 X8.9263 Y-2.6442
G01 X8.9335 Y-2.6249
G01 X8.9375 Y-2.6064
G01 X8.9390 Y-2.5859
G01 X8.9387 Y-0.9773
G01 X8.9360 Y-0.9569
G01 X8.9296 Y-0.9355
G01 X8.9208 Y-0.9169
G01 X8.9083 Y-0.8984
G01 X8.8943 Y-0.8833
G01 X8.8768 Y-0.8695
G01 X8.8573 Y-0.8586
G01 X8.8380 Y-0.8514
G01 X8.8195 Y-0.8474
G01 X8.7990 Y-0.8459
G01 X7.1921 Y-0.8461
G01 X7.1717 Y-0.8486
G01 X7.1502 Y-0.8547
G01 X7.1315 Y-0.8633
G01 X7.1129 Y-0.8755
G01 X7.0964 Y-0.8906
G01 X7.0836 Y-0.9067
G01 X7.0724 Y-0.9260
G01 X7.0645 Y-0.9469
G01 X7.0605 Y-0.9654
G01 X7.0590 Y-0.9859
G01 X7.0590 Y-2.5859
G01 X7.0605 Y-2.6064
G01 X7.0655 Y-2.6282
G01 X7.0732 Y-2.6473
G01 X7.0826 Y-2.6637
G01 X7.0941 Y-2.6786
G01 X7.1089 Y-2.6930
G01 X7.1256 Y-2.7051
G01 X7.1423 Y-2.7139
G01 X7.1600 Y-2.7204
G01 X7.1802 Y-2.7246
G01 X7.1990 Y-2.7259
G01 X7.7767 Y-2.7259
G01 X7.9725 Y-3.7811
G00 Z2.0000
G00 X8.7065 Y-3.8435
G01 F70.00
G01 Z-0.0600
G01 F120.00
G01 X8.4861 Y-2.6559
G01 X8.7990 Y-2.6559
G01 X8.8093 Y-2.6551
G01 X8.8193 Y-2.6529
G01 X8.8289 Y-2.6492
G01 X8.8379 Y-2.6441
G01 X8.8466 Y-2.6372
G01 X8.8537 Y-2.6296
G01 X8.8595 Y-2.6211
G01 X8.8640 Y-2.6119
G01 X8.8673 Y-2.6012
G01 X8.8690 Y-2.5859
G01 X8.8690 Y-0.9859
G01 X8.8685 Y-0.9773
G01 X8.8669 Y-0.9689
G01 X8.8643 Y-0.9607
G01 X8.8607 Y-0.9529
G01 X8.8557 Y-0.9449
G01 X8.8497 Y-0.9376
G01 X8.8427 Y-0.9312
G01 X8.8350 Y-0.9259
G01 X8.8266 Y-0.9216
G01 X8.8177 Y-0.9184
G01 X8.8093 Y-0.9167
G01 X8.7999 Y-0.9159
G01 X7.1990 Y-0.9159
G01 X7.1904 Y-0.9164
G01 X7.1820 Y-0.9180
G01 X7.1738 Y-0.9206
G01 X7.1660 Y-0.9242
G01 X7.1580 Y-0.9292
G01 X7.1507 Y-0.9352
G01 X7.1443 Y-0.9422
G01 X7.1394 Y-0.9492
G01 X7.1354 Y-0.9567
G01 X7.1320 Y-0.9656
G01 X7.1299 Y-0.9748
G01 X7.1290 Y-0.9842
G01 X7.1290 Y-2.5859
G01 X7.1305 Y-2.6004
G01 X7.1337 Y-2.6111
G01 X7.1385 Y-2.6211
G01 X7.1449 Y-2.6303
G01 X7.1526 Y-2.6383
G01 X7.1616 Y-2.6450
G01 X7.1714 Y-2.6502
G01 X7.1828 Y-2.6540
G01 X7.1939 Y-2.6557
G01 X7.8349 Y-2.6559
G01 X8.0553 Y-3.8435
G01 X8.0172 Y-3.8435
G01 X8.0087 Y-3.8441
G01 X7.9945 Y-3.8476
G01 X7.9821 Y-3.8535
G01 X7.9692 Y-3.8634
G01 X7.9590 Y-3.8761
G01 X7.9548 Y-3.8836
G01 X7.9516 Y-3.8915
G01 X7.9484 Y-3.9075
G01 X7.9481 Y-4.7152
G01 X7.9502 Y-4.7305
G01 X7.9552 Y-4.7442
G01 X7.9634 Y-4.7572
G01 X7.9744 Y-4.7682
G01 X7.9843 Y-4.7748
G01 X7.9945 Y-4.7794
G01 X8.0061 Y-4.7825
G01 X8.0172 Y-4.7835
G01 X8.9190 Y-4.7835
G01 X8.9343 Y-4.7816
G01 X8.9488 Y-4.7764
G01 X8.9618 Y-4.7682
G01 X8.9728 Y-4.7572
G01 X8.9790 Y-4.7480
G01 X8.9840 Y-4.7371
G01 X8.9869 Y-4.7263
G01 X8.9881 Y-4.7144
G01 X8.9881 Y-3.9135
G01 X8.9875 Y-3.9041
G01 X8.9853 Y-3.8940
G01 X8.9821 Y-3.8851
G01 X8.9772 Y-3.8761
G01 X8.9717 Y-3.8684
G01 X8.9651 Y-3.8616
G01 X8.9577 Y-3.8558
G01 X8.9496 Y-3.8510
G01 X8.9401 Y-3.8470
G01 X8.9309 Y-3.8447
G01 X8.9181 Y-3.8435
G01 X8.7065 Y-3.8435
G00 Z2.0000
G00 X11.6687 Y-1.2303
G01 F70.00
G01 Z-0.0600
G01 F120.00
G01 X11.6672 Y-1.2147
G01 X11.6626 Y-1.1997
G01 X11.6552 Y-1.1859
G01 X11.6453 Y-1.1738
G01 X11.6332 Y-1.1639
G01 X11.6194 Y-1.1565
G01 X11.6044 Y-1.1519
G01 X11.5888 Y-1.1504
G01 X11.5732 Y-1.1519
G01 X11.5582 Y-1.1565
G01 X11.5444 Y-1.1639
G01 X11.5323 Y-1.1738
G01 X11.5224 Y-1.1859
G01 X11.5150 Y-1.1997
G01 X11.5104 Y-1.2147
G01 X11.5089 Y-1.2303
G01 X11.5104 Y-1.2459
G01 X11.5150 Y-1.2609
G01 X11.5224 Y-1.2747
G01 X11.5323 Y-1.2868
G01 X11.5444 Y-1.2967
G01 X11.5582 Y-1.3041
G01 X11.5732 Y-1.3087
G01 X11.5888 Y-1.3102
G01 X11.6044 Y-1.3087
G01 X11.6194 Y-1.3041
G01 X11.6332 Y-1.2967
G01 X11.6453 Y-1.2868
G01 X11.6552 Y-1.2747
G01 X11.6626 Y-1.2609
G01 X11.6672 Y-1.2459
G01 X11.6687 Y-1.2303
G00 Z2.0000
G00 X11.7387 Y-1.2303
G01 F70.00
G01 Z-0.0600
G01 F120.00
G01 X11.7380 Y-1.2156
G01 X11.7359 Y-1.2010
G01 X11.7323 Y-1.1868
G01 X11.7273 Y-1.1729
G01 X11.7210 Y-1.1596
G01 X11.7135 Y-1.1470
G01 X11.7047 Y-1.1352
G01 X11.6948 Y-1.1243
G01 X11.6839 Y-1.1144
G01 X11.6721 Y-1.1056
G01 X11.6595 Y-1.0981
G01 X11.6462 Y-1.0918
G01 X11.6323 Y-1.0868
G01 X11.6181 Y-1.0832
G01 X11.6035 Y-1.0811
G01 X11.5888 Y-1.0804
G01 X11.5741 Y-1.0811
G01 X11.5595 Y-1.0832
G01 X11.5453 Y-1.0868
G01 X11.5314 Y-1.0918
G01 X11.5181 Y-1.0981
G01 X11.5055 Y-1.1056
G01 X11.4937 Y-1.1144
G01 X11.4828 Y-1.1243
G01 X11.4729 Y-1.1352
G01 X11.4641 Y-1.1470
G01 X11.4566 Y-1.1596
G01 X11.4503 Y-1.1729
G01 X11.4453 Y-1.1868
G01 X11.4417 Y-1.2010
G01 X11.4396 Y-1.2156
G01 X11.4389 Y-1.2303
G01 X11.4396 Y-1.2450
G01 X11.4417 Y-1.2596
G01 X11.4453 Y-1.2738
G01 X11.4503 Y-1.2877
G01 X11.4566 Y-1.3010
G01 X11.4641 Y-1.3136
G01 X11.4729 Y-1.3254
G01 X11.4828 Y-1.3363
G01 X11.4937 Y-1.3462
G01 X11.5055 Y-1.3550
G01 X11.5181 Y-1.3625
G01 X11.5314 Y-1.3688
G01 X11.5453 Y-1.3738
G01 X11.5595 Y-1.3774
G01 X11.5741 Y-1.3795
G01 X11.5888 Y-1.3802
G01 X11.6035 Y-1.3795
G01 X11.6181 Y-1.3774
G01 X11.6323 Y-1.3738
G01 X11.6462 Y-1.3688
G01 X11.6595 Y-1.3625
G01 X11.6721 Y-1.3550
G01 X11.6839 Y-1.3462
G01 X11.6948 Y-1.3363
G01 X11.7047 Y-1.3254
G01 X11.7135 Y-1.3136
G01 X11.7210 Y-1.3010
G01 X11.7273 Y-1.2877
G01 X11.7323 Y-1.2738
G01 X11.7359 Y-1.2596
G01 X11.7380 Y-1.2450
G01 X11.7387 Y-1.2303
G00 Z2.0000
G00 X11.8088 Y-1.2303
G01 F70.00
G01 Z-0.0600
G01 F120.00
G01 X11.8077 Y-1.2087
G01 X11.8045 Y-1.1874
G01 X11.7993 Y-1.1664
G01 X11.7920 Y-1.1461
G01 X11.7828 Y-1.1266
G01 X11.7717 Y-1.1081
G01 X11.7588 Y-1.0908
G01 X11.7443 Y-1.0748
G01 X11.7283 Y-1.0603
G01 X11.7110 Y-1.0474
G01 X11.6925 Y-1.0363
G01 X11.6730 Y-1.0271
G01 X11.6527 Y-1.0198
G01 X11.6317 Y-1.0146
G01 X11.6104 Y-1.0114
G01 X11.5888 Y-1.0103
G01 X11.5672 Y-1.0114
G01 X11.5459 Y-1.0146
G01 X11.5249 Y-1.0198
G01 X11.5046 Y-1.0271
G01 X11.4851 Y-1.0363
G01 X11.4666 Y-1.0474
G01 X11.4493 Y-1.0603
G01 X11.4333 Y-1.0748
G01 X11.4188 Y-1.0908
G01 X11.4059 Y-1.1081
G01 X11.3948 Y-1.1266
G01 X11.3856 Y-1.1461
G01 X11.3783 Y-1.1664
G01 X11.3731 Y-1.1874
G01 X11.3699 Y-1.2087
G01 X11.3688 Y-1.2303
G01 X11.3699 Y-1.2519
G01 X11.3731 Y-1.2732
G01 X11.3783 Y-1.2942
G01 X11.3856 Y-1.3145
G01 X11.3948 Y-1.3340
G01 X11.4059 Y-1.3525
G01 X11.4188 Y-1.3698
G01 X11.4333 Y-1.3858
G01 X11.4493 Y-1.4003
G01 X11.4666 Y-1.4132
G01 X11.4851 Y-1.4243
G01 X11.5046 Y-1.4335
G01 X11.5249 Y-1.4408
G01 X11.5459 Y-1.4460
G01 X11.5672 Y-1.4492
G01 X11.5888 Y-1.4503
G01 X11.6104 Y-1.4492
G01 X11.6317 Y-1.4460
G01 X11.6527 Y-1.4408
G01 X11.6730 Y-1.4335
G01 X11.6925 Y-1.4243
G01 X11.7110 Y-1.4132
G01 X11.7283 Y-1.4003
G01 X11.7443 Y-1.3858
G01 X11.7588 Y-1.3698
G01 X11.7717 Y-1.3525
G01 X11.7828 Y-1.3340
G01 X11.7920 Y-1.3145
G01 X11.7993 Y-1.2942
G01 X11.8045 Y-1.2732
G01 X11.8077 Y-1.2519
G01 X11.8088 Y-1.2303
G00 Z2.0000
G00 X11.8788 Y-1.2303
G01 F70.00
G01 Z-0.0600
G01 F120.00
G01 X11.8774 Y-1.2019
G01 X11.8732 Y-1.1737
G01 X11.8663 Y-1.1461
G01 X11.8567 Y-1.1193
G01 X11.8445 Y-1.0936
G01 X11.8299 Y-1.0692
G01 X11.8130 Y-1.0463
G01 X11.7938 Y-1.0253
G01 X11.7728 Y-1.0061
G01 X11.7499 Y-0.9892
G01 X11.7255 Y-0.9746
G01 X11.6998 Y-0.9624
G01 X11.6730 Y-0.9528
G01 X11.6454 Y-0.9459
G01 X11.6172 Y-0.9417
G01 X11.5888 Y-0.9403
G01 X11.5604 Y-0.9417
G01 X11.5322 Y-0.9459
G01 X11.5046 Y-0.9528
G01 X11.4778 Y-0.9624
G01 X11.4521 Y-0.9746
G01 X11.4277 Y-0.9892
G01 X11.4048 Y-1.0061
G01 X11.3838 Y-1.0253
G01 X11.3646 Y-1.0463
G01 X11.3477 Y-1.0692
G01 X11.3331 Y-1.0936
G01 X11.3209 Y-1.1193
G01 X11.3113 Y-1.1461
G01 X11.3044 Y-1.1737
G01 X11.3002 Y-1.2019
G01 X11.2988 Y-1.2303
G01 X11.3002 Y-1.2587
G01 X11.3044 Y-1.2869
G01 X11.3113 Y-1.3145
G01 X11.3209 Y-1.3413
G01 X11.3331 Y-1.3670
G01 X11.3477 Y-1.3914
G01 X11.3646 Y-1.4143
G01 X11.3838 Y-1.4353
G01 X11.4048 Y-1.4545
G01 X11.4277 Y-1.4714
G01 X11.4521 Y-1.4860
G01 X11.4778 Y-1.4982
G01 X11.5046 Y-1.5078
G01 X11.5322 Y-1.5147
G01 X11.5604 Y-1.5189
G01 X11.5888 Y-1.5203
G01 X11.6172 Y-1.5189
G01 X11.6454 Y-1.5147
G01 X11.6730 Y-1.5078
G01 X11.6998 Y-1.4982
G01 X11.7255 Y-1.4860
G01 X11.7499 Y-1.4714
G01 X11.7728 Y-1.4545
G01 X11.7938 Y-1.4353
G01 X11.8130 Y-1.4143
G01 X11.8299 Y-1.3914
G01 X11.8445 Y-1.3670
G01 X11.8567 Y-1.3413
G01 X11.8663 Y-1.3145
G01 X11.8732 Y-1.2869
G01 X11.8774 Y-1.2587
G01 X11.8788 Y-1.2303
G00 Z2.0000
G00 X11.9925 Y-0.1431
G01 F70.00
G01 Z-0.0600
G01 F120.00
G01 X12.0327 Y-0.1586
G01 X12.0847 Y-0.1817
G01 X12.1356 Y-0.2073
G01 X12.1851 Y-0.2354
G01 X12.2332 Y-0.2658
G01 X12.2798 Y-0.2986
G01 X12.3247 Y-0.3336
G01 X12.3678 Y-0.3708
G01 X12.4090 Y-0.4101
G01 X12.4483 Y-0.4513
G01 X12.4855 Y-0.4944
G01 X12.5205 Y-0.5393
G01 X12.5533 Y-0.5859
G01 X12.5837 Y-0.6340
G01 X12.6118 Y-0.6835
G01 X12.6374 Y-0.7344
G01 X12.6605 Y-0.7864
G01 X12.6810 Y-0.8395
G01 X12.6988 Y-0.8936
G01 X12.7140 Y-0.9485
G01 X12.7265 Y-1.0040
G01 X12.7362 Y-1.0601
G01 X12.7432 Y-1.1166
G01 X12.7474 Y-1.1734
G01 X12.7488 Y-1.2303
G01 X12.7474 Y-1.2872
G01 X12.7432 Y-1.3440
G01 X12.7362 Y-1.4005
G01 X12.7265 Y-1.4566
G01 X12.7140 Y-1.5121
G01 X12.6988 Y-1.5670
G01 X12.6810 Y-1.6211
G01 X12.6605 Y-1.6742
G01 X12.6374 Y-1.7262
G01 X12.6118 Y-1.7771
G01 X12.5837 Y-1.8266
G01 X12.5533 Y-1.8747
G01 X12.5205 Y-1.9213
G01 X12.4855 Y-1.9662
G01 X12.4483 Y-2.0093
G01 X12.4090 Y-2.0505
G01 X12.3678 Y-2.0898
G01 X12.3247 Y-2.1270
G01 X12.2798 Y-2.1620
G01 X12.2332 Y-2.1948
G01 X12.1851 Y-2.2252
G01 X12.1356 Y-2.2533
G01 X12.0847 Y-2.2789
G01 X12.0327 Y-2.3020
G01 X11.9796 Y-2.3225
G01 X11.9367 Y-2.3369
G01 X11.9242 Y-2.3426
G01 X11.9109 Y-2.3505
G01 X11.8999 Y-2.3586
G01 X11.8885 Y-2.3691
G01 X11.8794 Y-2.3793
G01 X11.8704 Y-2.3919
G01 X11.8629 Y-2.4053
G01 X11.8569 Y-2.4195
G01 X11.8525 Y-2.4343
G01 X11.8500 Y-2.4478
G01 X11.6767 Y-3.8326
G01 X11.6756 Y-3.8463
G01 X11.6760 Y-3.8601
G01 X11.6790 Y-3.8805
G01 X11.6849 Y-3.9002
G01 X11.6937 Y-3.9189
G01 X11.7051 Y-3.9360
G01 X11.7190 Y-3.9513
G01 X11.7363 Y-3.9654
G01 X11.7541 Y-3.9758
G01 X11.7733 Y-3.9834
G01 X11.7916 Y-3.9879
G01 X11.8122 Y-3.9900
G01 X12.0834 Y-3.9900
G01 X12.0834 Y-5.9100
G01 X10.1634 Y-5.9100
G01 X10.1634 Y-5.8475
G01 X10.1619 Y-5.8304
G01 X10.1596 Y-5.8186
G01 X10.1558 Y-5.8053
G01 X10.1513 Y-5.7941
G01 X10.1451 Y-5.7818
G01 X10.1367 Y-5.7688
G01 X10.1270 Y-5.7568
G01 X10.1159 Y-5.7459
G01 X10.1052 Y-5.7373
G01 X10.0921 Y-5.7290
G01 X10.0798 Y-5.7228
G01 X10.0669 Y-5.7179
G01 X10.0520 Y-5.7139
G01 X10.0367 Y-5.7116
G01 X10.0229 Y-5.7110
G01 X9.2090 Y-5.7142
G01 X9.1887 Y-5.7170
G01 X9.1690 Y-5.7228
G01 X9.1503 Y-5.7314
G01 X9.1331 Y-5.7426
G01 X9.1177 Y-5.7563
G01 X9.1045 Y-5.7720
G01 X9.0938 Y-5.7895
G01 X9.0857 Y-5.8084
G01 X9.0802 Y-5.8300
G01 X9.0781 Y-5.8505
G01 X9.0781 Y-6.0953
G01 X9.0796 Y-6.1141
G01 X9.0831 Y-6.1308
G01 X9.0887 Y-6.1469
G01 X9.0970 Y-6.1638
G01 X9.1064 Y-6.1780
G01 X9.1187 Y-6.1922
G01 X9.1315 Y-6.2036
G01 X9.1456 Y-6.2133
G01 X10.1800 Y-6.7731
G01 X10.1973 Y-6.7810
G01 X10.2156 Y-6.7865
G01 X10.2310 Y-6.7891
G01 X10.2466 Y-6.7900
G01 X12.0834 Y-6.7900
G01 X12.0834 Y-8.7100
G01 X10.1634 Y-8.7100
G01 X10.1633 Y-7.7754
G01 X10.1624 Y-7.7635
G01 X10.1604 Y-7.7517
G01 X10.1574 Y-7.7401
G01 X10.1535 Y-7.7288
G01 X10.1486 Y-7.7179
G01 X10.1428 Y-7.7074
G01 X10.1361 Y-7.6975
G01 X10.1286 Y-7.6882
G01 X10.1191 Y-7.6783
G01 X10.1100 Y-7.6705
G01 X10.1003 Y-7.6636
G01 X10.0900 Y-7.6574
G01 X8.6792 Y-6.8942
G01 X8.6667 Y-6.8884
G01 X8.6538 Y-6.8839
G01 X8.6404 Y-6.8806
G01 X8.6285 Y-6.8789
G01 X8.6148 Y-6.8781
G01 X8.6028 Y-6.8786
G01 X8.5892 Y-6.8803
G01 X8.5758 Y-6.8834
G01 X8.5549 Y-6.8912
G01 X8.5355 Y-6.9022
G01 X8.5194 Y-6.9150
G01 X8.5042 Y-6.9314
G01 X7.5522 Y-8.1677
G01 X7.5434 Y-8.1805
G01 X7.5369 Y-8.1926
G01 X7.5321 Y-8.2038
G01 X7.5284 Y-8.2152
G01 X7.5256 Y-8.2270
G01 X7.5239 Y-8.2390
G01 X7.5234 Y-8.2614
G01 X7.5246 Y-8.2734
G01 X7.5269 Y-8.2853
G01 X7.5302 Y-8.2969
G01 X7.5352 Y-8.3098
G01 X7.5574 Y-8.3544
G01 X7.5805 Y-8.4064
G01 X7.6010 Y-8.4595
G01 X7.6188 Y-8.5136
G01 X7.6340 Y-8.5685
G01 X7.6465 Y-8.6240
G01 X7.6562 Y-8.6801
G01 X7.6632 Y-8.7366
G01 X7.6674 Y-8.7934
G01 X7.6688 Y-8.8503
G01 X7.6674 Y-8.9072
G01 X7.6632 Y-8.9640
G01 X7.6562 Y-9.0205
G01 X7.6465 Y-9.0766
G01 X7.6340 Y-9.1321
G01 X7.6188 Y-9.1870
G01 X7.6010 Y-9.2411
G01 X7.5805 Y-9.2942
G01 X7.5574 Y-9.3462
G01 X7.5318 Y-9.3971
G01 X7.5037 Y-9.4466
G01 X7.4733 Y-9.4947
G01 X7.4405 Y-9.5413
G01 X7.4055 Y-9.5862
G01 X7.3683 Y-9.6293
G01 X7.3290 Y-9.6705
G01 X7.2878 Y-9.7098
G01 X7.2447 Y-9.7470
G01 X7.1998 Y-9.7820
G01 X7.1532 Y-9.8148
G01 X7.1051 Y-9.8452
G01 X7.0556 Y-9.8733
G01 X7.0229 Y-9.8899
G01 X7.0098 Y-9.8980
G01 X6.9977 Y-9.9076
G01 X6.9878 Y-9.9172
G01 X6.9780 Y-9.9291
G01 X6.9703 Y-9.9405
G01 X6.9631 Y-9.9542
G01 X6.9580 Y-9.9670
G01 X6.9542 Y-9.9802
G01 X6.9517 Y-9.9937
G01 X6.9505 Y-10.0073
G01 X6.9508 Y-10.0228
G01 X6.9525 Y-10.0364
G01 X6.9560 Y-10.0515
G01 X6.9604 Y-10.0645
G01 X6.9662 Y-10.0770
G01 X6.9731 Y-10.0888
G01 X6.9822 Y-10.1013
G01 X6.9926 Y-10.1127
G01 X7.0029 Y-10.1218
G01 X7.0155 Y-10.1308
G01 X7.0275 Y-10.1376
G01 X7.0416 Y-10.1437
G01 X7.0581 Y-10.1487
G01 X7.0750 Y-10.1516
G01 X7.0904 Y-10.1525
G01 X15.0017 Y-10.1525
G01 X15.0205 Y-10.1510
G01 X15.0390 Y-10.1470
G01 X15.0583 Y-10.1398
G01 X15.0749 Y-10.1308
G01 X15.0901 Y-10.1196
G01 X15.1037 Y-10.1065
G01 X15.1154 Y-10.0917
G01 X15.1251 Y-10.0754
G01 X15.1312 Y-10.0613
G01 X15.1362 Y-10.0448
G01 X15.1391 Y-10.0279
G01 X15.1400 Y-10.0125
G01 X15.1400 Y-0.0125
G01 X15.1385 Y0.0080
G01 X15.1335 Y0.0298
G01 X15.1251 Y0.0504
G01 X15.1145 Y0.0681
G01 X15.1002 Y0.0853
G01 X15.0848 Y0.0989
G01 X15.0660 Y0.1110
G01 X15.0472 Y0.1193
G01 X15.0273 Y0.1248
G01 X15.0052 Y0.1274
G01 X12.0360 Y0.1273
G01 X12.0240 Y0.1262
G01 X12.0122 Y0.1241
G01 X12.0006 Y0.1210
G01 X11.9893 Y0.1168
G01 X11.9784 Y0.1118
G01 X11.9679 Y0.1058
G01 X11.9581 Y0.0989
G01 X11.9488 Y0.0912
G01 X11.9403 Y0.0828
G01 X11.9325 Y0.0736
G01 X11.9202 Y0.0550
G01 X11.9149 Y0.0442
G01 X11.9105 Y0.0330
G01 X11.9070 Y0.0215
G01 X11.9046 Y0.0097
G01 X11.9032 Y-0.0022
G01 X11.9029 Y-0.0142
G01 X11.9035 Y-0.0262
G01 X11.9052 Y-0.0381
G01 X11.9079 Y-0.0498
G01 X11.9116 Y-0.0613
G01 X11.9163 Y-0.0724
G01 X11.9219 Y-0.0830
G01 X11.9284 Y-0.0931
G01 X11.9357 Y-0.1026
G01 X11.9514 Y-0.1185
G01 X11.9608 Y-0.1260
G01 X11.9709 Y-0.1326
G01 X11.9814 Y-0.1383
G01 X11.9925 Y-0.1431
G00 Z2.0000
G00 X12.0177 Y-0.0778
G01 F70.00
G01 Z-0.0600
G01 F120.00
G01 X12.0595 Y-0.0939
G01 X12.1147 Y-0.1184
G01 X12.1686 Y-0.1456
G01 X12.2211 Y-0.1753
G01 X12.2721 Y-0.2076
G01 X12.3215 Y-0.2424
G01 X12.3691 Y-0.2795
G01 X12.4148 Y-0.3189
G01 X12.4585 Y-0.3606
G01 X12.5002 Y-0.4043
G01 X12.5396 Y-0.4500
G01 X12.5767 Y-0.4976
G01 X12.6115 Y-0.5470
G01 X12.6438 Y-0.5980
G01 X12.6735 Y-0.6505
G01 X12.7007 Y-0.7044
G01 X12.7252 Y-0.7596
G01 X12.7469 Y-0.8159
G01 X12.7658 Y-0.8733
G01 X12.7819 Y-0.9314
G01 X12.7951 Y-0.9903
G01 X12.8055 Y-1.0498
G01 X12.8129 Y-1.1097
G01 X12.8173 Y-1.1699
G01 X12.8188 Y-1.2303
G01 X12.8173 Y-1.2907
G01 X12.8129 Y-1.3509
G01 X12.8055 Y-1.4108
G01 X12.7951 Y-1.4703
G01 X12.7819 Y-1.5292
G01 X12.7658 Y-1.5873
G01 X12.7469 Y-1.6447
G01 X12.7252 Y-1.7010
G01 X12.7007 Y-1.7562
G01 X12.6735 Y-1.8101
G01 X12.6438 Y-1.8626
G01 X12.6115 Y-1.9136
G01 X12.5767 Y-1.9630
G01 X12.5396 Y-2.0106
G01 X12.5002 Y-2.0563
G01 X12.4585 Y-2.1000
G01 X12.4148 Y-2.1417
G01 X12.3691 Y-2.1811
G01 X12.3215 Y-2.2182
G01 X12.2721 Y-2.2530
G01 X12.2211 Y-2.2853
G01 X12.1686 Y-2.3150
G01 X12.1147 Y-2.3422
G01 X12.0595 Y-2.3667
G01 X12.0032 Y-2.3884
G01 X11.9643 Y-2.4013
G01 X11.9527 Y-2.4068
G01 X11.9404 Y-2.4162
G01 X11.9305 Y-2.4279
G01 X11.9231 Y-2.4424
G01 X11.9193 Y-2.4574
G01 X11.7461 Y-3.8413
G01 X11.7458 Y-3.8550
G01 X11.7475 Y-3.8661
G01 X11.7512 Y-3.8775
G01 X11.7564 Y-3.8874
G01 X11.7637 Y-3.8970
G01 X11.7725 Y-3.9052
G01 X11.7818 Y-3.9113
G01 X11.7928 Y-3.9162
G01 X11.8045 Y-3.9191
G01 X11.8156 Y-3.9200
G01 X12.1534 Y-3.9200
G01 X12.1534 Y-5.9800
G01 X10.0934 Y-5.9800
G01 X10.0934 Y-5.8501
G01 X10.0926 Y-5.8407
G01 X10.0909 Y-5.8323
G01 X10.0877 Y-5.8233
G01 X10.0834 Y-5.8149
G01 X10.0780 Y-5.8072
G01 X10.0716 Y-5.8002
G01 X10.0643 Y-5.7942
G01 X10.0562 Y-5.7892
G01 X10.0476 Y-5.7853
G01 X10.0385 Y-5.7826
G01 X10.0231 Y-5.7810
G01 X9.2153 Y-5.7839
G01 X9.2042 Y-5.7853
G01 X9.1927 Y-5.7886
G01 X9.1827 Y-5.7935
G01 X9.1729 Y-5.8004
G01 X9.1645 Y-5.8089
G01 X9.1580 Y-5.8180
G01 X9.1528 Y-5.8287
G01 X9.1496 Y-5.8394
G01 X9.1481 Y-5.8539
G01 X9.1481 Y-6.0945
G01 X9.1489 Y-6.1038
G01 X9.1508 Y-6.1130
G01 X9.1537 Y-6.1211
G01 X9.1580 Y-6.1294
G01 X9.1628 Y-6.1365
G01 X9.1690 Y-6.1435
G01 X9.1762 Y-6.1496
G01 X9.1833 Y-6.1543
G01 X10.2133 Y-6.7116
G01 X10.2228 Y-6.7158
G01 X10.2319 Y-6.7185
G01 X10.2466 Y-6.7200
G01 X12.1534 Y-6.7200
G01 X12.1534 Y-8.7800
G01 X10.0934 Y-8.7800
G01 X10.0934 Y-7.7797
G01 X10.0922 Y-7.7678
G01 X10.0893 Y-7.7571
G01 X10.0844 Y-7.7462
G01 X10.0777 Y-7.7363
G01 X10.0680 Y-7.7266
G01 X10.0567 Y-7.7190
G01 X8.6466 Y-6.9561
G01 X8.6348 Y-6.9512
G01 X8.6222 Y-6.9486
G01 X8.6093 Y-6.9483
G01 X8.5966 Y-6.9503
G01 X8.5853 Y-6.9543
G01 X8.5755 Y-6.9597
G01 X8.5667 Y-6.9666
G01 X8.5592 Y-6.9747
G01 X7.6077 Y-8.2104
G01 X7.6004 Y-8.2221
G01 X7.5958 Y-8.2342
G01 X7.5935 Y-8.2460
G01 X7.5934 Y-8.2590
G01 X7.5954 Y-8.2709
G01 X7.5995 Y-8.2822
G01 X7.6207 Y-8.3244
G01 X7.6452 Y-8.3796
G01 X7.6669 Y-8.4359
G01 X7.6858 Y-8.4933
G01 X7.7019 Y-8.5514
G01 X7.7151 Y-8.6103
G01 X7.7255 Y-8.6698
G01 X7.7329 Y-8.7297
G01 X7.7373 Y-8.7899
G01 X7.7388 Y-8.8503
G01 X7.7373 Y-8.9107
G01 X7.7329 Y-8.9709
G01 X7.7255 Y-9.0308
G01 X7.7151 Y-9.0903
G01 X7.7019 Y-9.1492
G01 X7.6858 Y-9.2073
G01 X7.6669 Y-9.2647
G01 X7.6452 Y-9.3210
G01 X7.6207 Y-9.3762
G01 X7.5935 Y-9.4301
G01 X7.5638 Y-9.4826
G01 X7.5315 Y-9.5336
G01 X7.4967 Y-9.5830
G01 X7.4596 Y-9.6306
G01 X7.4202 Y-9.6763
G01 X7.3785 Y-9.7200
G01 X7.3348 Y-9.7617
G01 X7.2891 Y-9.8011
G01 X7.2415 Y-9.8382
G01 X7.1921 Y-9.8730
G01 X7.1411 Y-9.9053
G01 X7.0886 Y-9.9350
G01 X7.0537 Y-9.9529
G01 X7.0428 Y-9.9612
G01 X7.0337 Y-9.9715
G01 X7.0264 Y-9.9841
G01 X7.0218 Y-9.9988
G01 X7.0204 Y-10.0142
G01 X7.0225 Y-10.0295
G01 X7.0275 Y-10.0432
G01 X7.0358 Y-10.0562
G01 X7.0460 Y-10.0666
G01 X7.0589 Y-10.0750
G01 X7.0742 Y-10.0806
G01 X7.0904 Y-10.0825
G01 X15.0000 Y-10.0825
G01 X15.0094 Y-10.0819
G01 X15.0195 Y-10.0797
G01 X15.0284 Y-10.0765
G01 X15.0367 Y-10.0721
G01 X15.0444 Y-10.0666
G01 X15.0519 Y-10.0595
G01 X15.0577 Y-10.0521
G01 X15.0625 Y-10.0440
G01 X15.0681 Y-10.0287
G01 X15.0700 Y-10.0125
G01 X15.0700 Y-0.0125
G01 X15.0692 Y-0.0022
G01 X15.0670 Y0.0078
G01 X15.0629 Y0.0182
G01 X15.0572 Y0.0278
G01 X15.0501 Y0.0364
G01 X15.0417 Y0.0437
G01 X15.0322 Y0.0496
G01 X15.0220 Y0.0540
G01 X15.0120 Y0.0565
G01 X15.0009 Y0.0575
G01 X12.0411 Y0.0575
G01 X12.0292 Y0.0562
G01 X12.0177 Y0.0528
G01 X12.0069 Y0.0475
G01 X11.9971 Y0.0405
G01 X11.9887 Y0.0319
G01 X11.9819 Y0.0220
G01 X11.9769 Y0.0111
G01 X11.9739 Y-0.0005
G01 X11.9728 Y-0.0125
G01 X11.9739 Y-0.0245
G01 X11.9769 Y-0.0361
G01 X11.9819 Y-0.0470
G01 X11.9887 Y-0.0569
G01 X11.9971 Y-0.0655
G01 X12.0069 Y-0.0725
G01 X12.0177 Y-0.0778
G00 Z2.0000
G00 X11.8355 Y-0.0459
G01 F70.00
G01 Z-0.0600
G01 F120.00
G01 X11.7663 Y-0.0334
G01 X11.7074 Y-0.0261
G01 X11.6482 Y-0.0218
G01 X11.5888 Y-0.0203
G01 X11.5294 Y-0.0218
G01 X11.4702 Y-0.0261
G01 X11.4113 Y-0.0334
G01 X11.3421 Y-0.0459
G01 X11.3444 Y-0.0254
G01 X11.3445 Y-0.0022
G01 X11.3421 Y0.0209
G01 X11.3371 Y0.0435
G01 X11.3297 Y0.0655
G01 X11.3200 Y0.0865
G01 X11.3079 Y0.1063
G01 X11.2954 Y0.1227
G01 X11.2814 Y0.1378
G01 X11.2640 Y0.1531
G01 X11.2449 Y0.1663
G01 X11.2245 Y0.1773
G01 X11.2031 Y0.1861
G01 X11.1833 Y0.1918
G01 X11.1605 Y0.1959
G01 X11.1373 Y0.1975
G01 X1.8773 Y0.1974
G01 X1.8568 Y0.1959
G01 X1.8340 Y0.1918
G01 X1.8117 Y0.1852
G01 X1.7904 Y0.1762
G01 X1.7701 Y0.1649
G01 X1.7513 Y0.1515
G01 X1.7358 Y0.1378
G01 X1.7202 Y0.1207
G01 X1.7065 Y0.1020
G01 X1.6961 Y0.0842
G01 X1.6866 Y0.0631
G01 X1.6794 Y0.0410
G01 X1.6752 Y0.0209
G01 X1.6727 Y-0.0022
G01 X1.6729 Y-0.0254
G01 X1.6752 Y-0.0459
G01 X1.6062 Y-0.0335
G01 X1.5473 Y-0.0262
G01 X1.4881 Y-0.0219
G01 X1.4287 Y-0.0204
G01 X1.3693 Y-0.0219
G01 X1.3101 Y-0.0262
G01 X1.2512 Y-0.0335
G01 X1.1822 Y-0.0459
G01 X1.1845 Y-0.0254
G01 X1.1848 Y-0.0048
G01 X1.1830 Y0.0158
G01 X1.1786 Y0.0385
G01 X1.1726 Y0.0582
G01 X1.1647 Y0.0773
G01 X1.1550 Y0.0955
G01 X1.1420 Y0.1147
G01 X1.1270 Y0.1323
G01 X1.1121 Y0.1465
G01 X1.0958 Y0.1592
G01 X1.0784 Y0.1702
G01 X1.0576 Y0.1805
G01 X1.0383 Y0.1877
G01 X1.0184 Y0.1929
G01 X0.9981 Y0.1962
G01 X0.9749 Y0.1975
G01 X-0.0077 Y0.1974
G01 X-0.0257 Y0.1959
G01 X-0.0435 Y0.1929
G01 X-0.0585 Y0.1892
G01 X-0.0756 Y0.1834
G01 X-0.0898 Y0.1773
G01 X-0.1057 Y0.1689
G01 X-0.1209 Y0.1592
G01 X-0.1352 Y0.1482
G01 X-0.1503 Y0.1342
G01 X-0.1656 Y0.1167
G01 X-0.1788 Y0.0977
G01 X-0.1898 Y0.0773
G01 X-0.1986 Y0.0558
G01 X-0.2049 Y0.0335
G01 X-0.2087 Y0.0106
G01 X-0.2100 Y-0.0125
G01 X-0.2100 Y-10.0125
G01 X-0.2092 Y-10.0305
G01 X-0.2069 Y-10.0484
G01 X-0.2031 Y-10.0660
G01 X-0.1977 Y-10.0832
G01 X-0.1909 Y-10.1000
G01 X-0.1814 Y-10.1182
G01 X-0.1717 Y-10.1334
G01 X-0.1607 Y-10.1477
G01 X-0.1448 Y-10.1646
G01 X-0.1272 Y-10.1796
G01 X-0.1080 Y-10.1926
G01 X-0.0898 Y-10.2023
G01 X-0.0683 Y-10.2111
G01 X-0.0485 Y-10.2168
G01 X-0.0257 Y-10.2209
G01 X-0.0026 Y-10.2225
G01 X5.9323 Y-10.2224
G01 X5.9529 Y-10.2209
G01 X5.9732 Y-10.2174
G01 X5.9931 Y-10.2119
G01 X6.0123 Y-10.2045
G01 X6.0307 Y-10.1952
G01 X6.0502 Y-10.1827
G01 X6.0663 Y-10.1698
G01 X6.0810 Y-10.1554
G01 X6.0959 Y-10.1376
G01 X6.1073 Y-10.1205
G01 X6.1170 Y-10.1023
G01 X6.1249 Y-10.0832
G01 X6.1309 Y-10.0635
G01 X6.1349 Y-10.0433
G01 X6.1369 Y-10.0228
G01 X6.1369 Y-10.0014
G01 X6.1600 Y-10.0089
G01 X6.2173 Y-10.0246
G01 X6.2727 Y-10.0371
G01 X6.3287 Y-10.0468
G01 X6.3953 Y-10.0549
G01 X6.4494 Y-10.0588
G01 X6.5088 Y-10.0603
G01 X6.5682 Y-10.0588
G01 X6.6223 Y-10.0549
G01 X6.6889 Y-10.0468
G01 X6.7449 Y-10.0371
G01 X6.8003 Y-10.0246
G01 X6.8576 Y-10.0089
G01 X6.8807 Y-10.0014
G01 X6.8807 Y-10.0228
G01 X6.8827 Y-10.0433
G01 X6.8867 Y-10.0635
G01 X6.8927 Y-10.0832
G01 X6.9006 Y-10.1023
G01 X6.9103 Y-10.1205
G01 X6.9217 Y-10.1376
G01 X6.9366 Y-10.1554
G01 X6.9533 Y-10.1715
G01 X6.9695 Y-10.1842
G01 X6.9869 Y-10.1952
G01 X7.0053 Y-10.2045
G01 X7.0245 Y-10.2119
G01 X7.0444 Y-10.2174
G01 X7.0647 Y-10.2209
G01 X7.0853 Y-10.2224
G01 X15.0000 Y-10.2225
G01 X15.0206 Y-10.2215
G01 X15.0384 Y-10.2190
G01 X15.0560 Y-10.2149
G01 X15.0732 Y-10.2093
G01 X15.0898 Y-10.2023
G01 X15.1057 Y-10.1939
G01 X15.1209 Y-10.1842
G01 X15.1352 Y-10.1732
G01 X15.1521 Y-10.1573
G01 X15.1671 Y-10.1397
G01 X15.1801 Y-10.1205
G01 X15.1898 Y-10.1023
G01 X15.1986 Y-10.0808
G01 X15.2043 Y-10.0610
G01 X15.2084 Y-10.0382
G01 X15.2100 Y-10.0151
G01 X15.2100 Y-0.0125
G01 X15.2092 Y0.0055
G01 X15.2073 Y0.0209
G01 X15.2043 Y0.0360
G01 X15.1994 Y0.0534
G01 X15.1940 Y0.0679
G01 X15.1876 Y0.0819
G01 X15.1801 Y0.0955
G01 X15.1717 Y0.1084
G01 X15.1623 Y0.1207
G01 X15.1521 Y0.1323
G01 X15.1410 Y0.1431
G01 X15.1272 Y0.1546
G01 X15.1145 Y0.1635
G01 X15.0990 Y0.1727
G01 X15.0851 Y0.1795
G01 X15.0707 Y0.1852
G01 X15.0560 Y0.1899
G01 X15.0410 Y0.1935
G01 X15.0257 Y0.1959
G01 X15.0103 Y0.1972
G01 X12.0377 Y0.1974
G01 X12.0171 Y0.1959
G01 X11.9943 Y0.1918
G01 X11.9721 Y0.1852
G01 X11.9507 Y0.1762
G01 X11.9305 Y0.1649
G01 X11.9116 Y0.1515
G01 X11.8962 Y0.1378
G01 X11.8805 Y0.1207
G01 X11.8668 Y0.1020
G01 X11.8553 Y0.0819
G01 X11.8469 Y0.0631
G01 X11.8398 Y0.0410
G01 X11.8351 Y0.0183
G01 X11.8331 Y-0.0022
G01 X11.8332 Y-0.0254
G01 X11.8355 Y-0.0459
G00 Z2.0000
G00 X11.7673 Y0.0371
G01 F70.00
G01 Z-0.0600
G01 F120.00
G01 X11.7143 Y0.0435
G01 X11.6585 Y0.0477
G01 X11.5888 Y0.0497
G01 X11.5191 Y0.0477
G01 X11.4633 Y0.0435
G01 X11.4103 Y0.0371
G01 X11.4046 Y0.0622
G01 X11.3972 Y0.0851
G01 X11.3879 Y0.1072
G01 X11.3767 Y0.1285
G01 X11.3637 Y0.1487
G01 X11.3490 Y0.1678
G01 X11.3327 Y0.1855
G01 X11.3150 Y0.2017
G01 X11.2960 Y0.2164
G01 X11.2757 Y0.2294
G01 X11.2545 Y0.2406
G01 X11.2323 Y0.2500
G01 X11.2094 Y0.2574
G01 X11.1860 Y0.2628
G01 X11.1622 Y0.2662
G01 X11.1382 Y0.2675
G01 X1.8756 Y0.2674
G01 X1.8516 Y0.2658
G01 X1.8279 Y0.2621
G01 X1.8045 Y0.2564
G01 X1.7817 Y0.2487
G01 X1.7597 Y0.2391
G01 X1.7385 Y0.2277
G01 X1.7185 Y0.2144
G01 X1.6996 Y0.1995
G01 X1.6821 Y0.1830
G01 X1.6660 Y0.1651
G01 X1.6516 Y0.1459
G01 X1.6389 Y0.1255
G01 X1.6279 Y0.1041
G01 X1.6189 Y0.0818
G01 X1.6117 Y0.0589
G01 X1.6069 Y0.0370
G01 X1.5542 Y0.0434
G01 X1.4984 Y0.0476
G01 X1.4287 Y0.0496
G01 X1.3590 Y0.0476
G01 X1.3032 Y0.0434
G01 X1.2505 Y0.0370
G01 X1.2457 Y0.0589
G01 X1.2385 Y0.0818
G01 X1.2295 Y0.1041
G01 X1.2202 Y0.1225
G01 X1.2077 Y0.1431
G01 X1.1935 Y0.1625
G01 X1.1777 Y0.1806
G01 X1.1629 Y0.1950
G01 X1.1445 Y0.2103
G01 X1.1247 Y0.2241
G01 X1.1039 Y0.2360
G01 X1.0852 Y0.2449
G01 X1.0627 Y0.2534
G01 X1.0429 Y0.2591
G01 X1.0194 Y0.2639
G01 X0.9989 Y0.2665
G01 X0.9749 Y0.2675
G01 X-0.0000 Y0.2675
G01 X-0.0172 Y0.2670
G01 X-0.0411 Y0.2645
G01 X-0.0613 Y0.2607
G01 X-0.0846 Y0.2544
G01 X-0.1040 Y0.2475
G01 X-0.1228 Y0.2391
G01 X-0.1439 Y0.2277
G01 X-0.1640 Y0.2144
G01 X-0.1829 Y0.1995
G01 X-0.2028 Y0.1806
G01 X-0.2228 Y0.1570
G01 X-0.2402 Y0.1314
G01 X-0.2546 Y0.1041
G01 X-0.2659 Y0.0753
G01 X-0.2732 Y0.0488
G01 X-0.2783 Y0.0184
G01 X-0.2800 Y-0.0125
G01 X-0.2800 Y-10.0159
G01 X-0.2787 Y-10.0399
G01 X-0.2753 Y-10.0638
G01 X-0.2699 Y-10.0872
G01 X-0.2625 Y-10.1101
G01 X-0.2531 Y-10.1322
G01 X-0.2419 Y-10.1535
G01 X-0.2289 Y-10.1737
G01 X-0.2120 Y-10.1954
G01 X-0.1906 Y-10.2176
G01 X-0.1695 Y-10.2353
G01 X-0.1439 Y-10.2527
G01 X-0.1166 Y-10.2671
G01 X-0.0911 Y-10.2773
G01 X-0.0613 Y-10.2857
G01 X-0.0309 Y-10.2908
G01 X-0.0034 Y-10.2925
G01 X5.9306 Y-10.2925
G01 X5.9512 Y-10.2915
G01 X5.9750 Y-10.2884
G01 X5.9985 Y-10.2833
G01 X6.0183 Y-10.2773
G01 X6.0406 Y-10.2685
G01 X6.0592 Y-10.2594
G01 X6.0770 Y-10.2491
G01 X6.0967 Y-10.2353
G01 X6.1127 Y-10.2223
G01 X6.1300 Y-10.2056
G01 X6.1458 Y-10.1875
G01 X6.1581 Y-10.1709
G01 X6.1691 Y-10.1535
G01 X6.1803 Y-10.1322
G01 X6.1884 Y-10.1133
G01 X6.1958 Y-10.0914
G01 X6.2591 Y-10.1057
G01 X6.3278 Y-10.1174
G01 X6.3833 Y-10.1241
G01 X6.4391 Y-10.1283
G01 X6.5088 Y-10.1303
G01 X6.5785 Y-10.1283
G01 X6.6343 Y-10.1241
G01 X6.6898 Y-10.1174
G01 X6.7585 Y-10.1057
G01 X6.8218 Y-10.0914
G01 X6.8292 Y-10.1133
G01 X6.8373 Y-10.1322
G01 X6.8485 Y-10.1535
G01 X6.8595 Y-10.1709
G01 X6.8718 Y-10.1875
G01 X6.8876 Y-10.2056
G01 X6.9024 Y-10.2200
G01 X6.9209 Y-10.2353
G01 X6.9377 Y-10.2472
G01 X6.9584 Y-10.2594
G01 X6.9801 Y-10.2699
G01 X6.9993 Y-10.2773
G01 X7.0224 Y-10.2841
G01 X7.0426 Y-10.2884
G01 X7.0664 Y-10.2915
G01 X7.0870 Y-10.2925
G01 X15.0034 Y-10.2925
G01 X15.0274 Y-10.2912
G01 X15.0513 Y-10.2878
G01 X15.0747 Y-10.2824
G01 X15.0976 Y-10.2750
G01 X15.1197 Y-10.2656
G01 X15.1439 Y-10.2527
G01 X15.1640 Y-10.2394
G01 X15.1829 Y-10.2245
G01 X15.2051 Y-10.2031
G01 X15.2228 Y-10.1820
G01 X15.2402 Y-10.1564
G01 X15.2531 Y-10.1322
G01 X15.2648 Y-10.1036
G01 X15.2732 Y-10.0738
G01 X15.2783 Y-10.0434
G01 X15.2800 Y-10.0159
G01 X15.2800 Y-0.0125
G01 X15.2792 Y0.0081
G01 X15.2764 Y0.0320
G01 X15.2716 Y0.0555
G01 X15.2659 Y0.0753
G01 X15.2587 Y0.0947
G01 X15.2501 Y0.1134
G01 X15.2402 Y0.1314
G01 X15.2289 Y0.1487
G01 X15.2164 Y0.1651
G01 X15.2028 Y0.1806
G01 X15.1880 Y0.1950
G01 X15.1695 Y0.2103
G01 X15.1527 Y0.2222
G01 X15.1350 Y0.2328
G01 X15.1166 Y0.2421
G01 X15.0976 Y0.2500
G01 X15.0780 Y0.2564
G01 X15.0580 Y0.2614
G01 X15.0377 Y0.2650
G01 X15.0172 Y0.2670
G01 X15.0000 Y0.2675
G01 X12.0394 Y0.2675
G01 X12.0154 Y0.2662
G01 X11.9916 Y0.2628
G01 X11.9682 Y0.2574
G01 X11.9453 Y0.2500
G01 X11.9231 Y0.2406
G01 X11.9019 Y0.2294
G01 X11.8816 Y0.2164
G01 X11.8626 Y0.2017
G01 X11.8449 Y0.1855
G01 X11.8286 Y0.1678
G01 X11.8139 Y0.1487
G01 X11.8009 Y0.1285
G01 X11.7897 Y0.1072
G01 X11.7804 Y0.0851
G01 X11.7730 Y0.0622
G01 X11.7673 Y0.0371
G00 Z2.0000
M05
G00 Z2.0000
G00 Z25.00

