(G-CODE GENERATED BY FLATCAM v8.993 - www.flatcam.org - Version Date: 2020/06/05)

(Name: ion.drl_mill_cnc)
(Type: G-code from Geometry)
(Units: MM)

(Created on Thursday, 23 September 2021 at 12:03)

(This preprocessor is the default preprocessor used by FlatCAM.)
(It is made to work with MACH3 compatible motion controllers.)

(TOOL DIAMETER: 2.0 mm)
(Feedrate_XY: 120.0 mm/min)
(Feedrate_Z: 70.0 mm/min)
(Feedrate rapids 1500.0 mm/min)

(Z_Cut: -2.0 mm)
(DepthPerCut: 0.10000000000000014 mm <=>20 passes)
(Z_Move: 2.0 mm)
(Z Start: None mm)
(Z End: 25.0 mm)
(Steps per circle: 128)
(Preprocessor Geometry: default)

(X range:    3.2600 ...    4.3600  mm)
(Y range:   -4.6800 ...   -3.5800  mm)

(Spindle Speed: 10000 RPM)
G21
G90
G94



G01 F120.00
G00 Z2.0000

M03 S10000
G00 X4.3600 Y-4.1300
G01 F70.00
G01 Z-0.1000
G01 F120.00
G01 X4.3574 Y-4.1839
G01 X4.3494 Y-4.2373
G01 X4.3363 Y-4.2897
G01 X4.3181 Y-4.3405
G01 X4.2951 Y-4.3893
G01 X4.2673 Y-4.4356
G01 X4.2352 Y-4.4789
G01 X4.1989 Y-4.5189
G01 X4.1589 Y-4.5552
G01 X4.1156 Y-4.5873
G01 X4.0693 Y-4.6151
G01 X4.0205 Y-4.6381
G01 X3.9697 Y-4.6563
G01 X3.9173 Y-4.6694
G01 X3.8639 Y-4.6774
G01 X3.8100 Y-4.6800
G01 X3.7561 Y-4.6774
G01 X3.7027 Y-4.6694
G01 X3.6503 Y-4.6563
G01 X3.5995 Y-4.6381
G01 X3.5507 Y-4.6151
G01 X3.5044 Y-4.5873
G01 X3.4611 Y-4.5552
G01 X3.4211 Y-4.5189
G01 X3.3848 Y-4.4789
G01 X3.3527 Y-4.4356
G01 X3.3249 Y-4.3893
G01 X3.3019 Y-4.3405
G01 X3.2837 Y-4.2897
G01 X3.2706 Y-4.2373
G01 X3.2626 Y-4.1839
G01 X3.2600 Y-4.1300
G01 X3.2626 Y-4.0761
G01 X3.2706 Y-4.0227
G01 X3.2837 Y-3.9703
G01 X3.3019 Y-3.9195
G01 X3.3249 Y-3.8707
G01 X3.3527 Y-3.8244
G01 X3.3848 Y-3.7811
G01 X3.4211 Y-3.7411
G01 X3.4611 Y-3.7048
G01 X3.5044 Y-3.6727
G01 X3.5507 Y-3.6449
G01 X3.5995 Y-3.6219
G01 X3.6503 Y-3.6037
G01 X3.7027 Y-3.5906
G01 X3.7561 Y-3.5826
G01 X3.8100 Y-3.5800
G01 X3.8639 Y-3.5826
G01 X3.9173 Y-3.5906
G01 X3.9697 Y-3.6037
G01 X4.0205 Y-3.6219
G01 X4.0693 Y-3.6449
G01 X4.1156 Y-3.6727
G01 X4.1589 Y-3.7048
G01 X4.1989 Y-3.7411
G01 X4.2352 Y-3.7811
G01 X4.2673 Y-3.8244
G01 X4.2951 Y-3.8707
G01 X4.3181 Y-3.9195
G01 X4.3363 Y-3.9703
G01 X4.3494 Y-4.0227
G01 X4.3574 Y-4.0761
G01 X4.3600 Y-4.1300
G00 X4.3600 Y-4.1300
G01 F70.00
G01 Z-0.2000
G01 F120.00
G01 X4.3574 Y-4.1839
G01 X4.3494 Y-4.2373
G01 X4.3363 Y-4.2897
G01 X4.3181 Y-4.3405
G01 X4.2951 Y-4.3893
G01 X4.2673 Y-4.4356
G01 X4.2352 Y-4.4789
G01 X4.1989 Y-4.5189
G01 X4.1589 Y-4.5552
G01 X4.1156 Y-4.5873
G01 X4.0693 Y-4.6151
G01 X4.0205 Y-4.6381
G01 X3.9697 Y-4.6563
G01 X3.9173 Y-4.6694
G01 X3.8639 Y-4.6774
G01 X3.8100 Y-4.6800
G01 X3.7561 Y-4.6774
G01 X3.7027 Y-4.6694
G01 X3.6503 Y-4.6563
G01 X3.5995 Y-4.6381
G01 X3.5507 Y-4.6151
G01 X3.5044 Y-4.5873
G01 X3.4611 Y-4.5552
G01 X3.4211 Y-4.5189
G01 X3.3848 Y-4.4789
G01 X3.3527 Y-4.4356
G01 X3.3249 Y-4.3893
G01 X3.3019 Y-4.3405
G01 X3.2837 Y-4.2897
G01 X3.2706 Y-4.2373
G01 X3.2626 Y-4.1839
G01 X3.2600 Y-4.1300
G01 X3.2626 Y-4.0761
G01 X3.2706 Y-4.0227
G01 X3.2837 Y-3.9703
G01 X3.3019 Y-3.9195
G01 X3.3249 Y-3.8707
G01 X3.3527 Y-3.8244
G01 X3.3848 Y-3.7811
G01 X3.4211 Y-3.7411
G01 X3.4611 Y-3.7048
G01 X3.5044 Y-3.6727
G01 X3.5507 Y-3.6449
G01 X3.5995 Y-3.6219
G01 X3.6503 Y-3.6037
G01 X3.7027 Y-3.5906
G01 X3.7561 Y-3.5826
G01 X3.8100 Y-3.5800
G01 X3.8639 Y-3.5826
G01 X3.9173 Y-3.5906
G01 X3.9697 Y-3.6037
G01 X4.0205 Y-3.6219
G01 X4.0693 Y-3.6449
G01 X4.1156 Y-3.6727
G01 X4.1589 Y-3.7048
G01 X4.1989 Y-3.7411
G01 X4.2352 Y-3.7811
G01 X4.2673 Y-3.8244
G01 X4.2951 Y-3.8707
G01 X4.3181 Y-3.9195
G01 X4.3363 Y-3.9703
G01 X4.3494 Y-4.0227
G01 X4.3574 Y-4.0761
G01 X4.3600 Y-4.1300
G00 X4.3600 Y-4.1300
G01 F70.00
G01 Z-0.3000
G01 F120.00
G01 X4.3574 Y-4.1839
G01 X4.3494 Y-4.2373
G01 X4.3363 Y-4.2897
G01 X4.3181 Y-4.3405
G01 X4.2951 Y-4.3893
G01 X4.2673 Y-4.4356
G01 X4.2352 Y-4.4789
G01 X4.1989 Y-4.5189
G01 X4.1589 Y-4.5552
G01 X4.1156 Y-4.5873
G01 X4.0693 Y-4.6151
G01 X4.0205 Y-4.6381
G01 X3.9697 Y-4.6563
G01 X3.9173 Y-4.6694
G01 X3.8639 Y-4.6774
G01 X3.8100 Y-4.6800
G01 X3.7561 Y-4.6774
G01 X3.7027 Y-4.6694
G01 X3.6503 Y-4.6563
G01 X3.5995 Y-4.6381
G01 X3.5507 Y-4.6151
G01 X3.5044 Y-4.5873
G01 X3.4611 Y-4.5552
G01 X3.4211 Y-4.5189
G01 X3.3848 Y-4.4789
G01 X3.3527 Y-4.4356
G01 X3.3249 Y-4.3893
G01 X3.3019 Y-4.3405
G01 X3.2837 Y-4.2897
G01 X3.2706 Y-4.2373
G01 X3.2626 Y-4.1839
G01 X3.2600 Y-4.1300
G01 X3.2626 Y-4.0761
G01 X3.2706 Y-4.0227
G01 X3.2837 Y-3.9703
G01 X3.3019 Y-3.9195
G01 X3.3249 Y-3.8707
G01 X3.3527 Y-3.8244
G01 X3.3848 Y-3.7811
G01 X3.4211 Y-3.7411
G01 X3.4611 Y-3.7048
G01 X3.5044 Y-3.6727
G01 X3.5507 Y-3.6449
G01 X3.5995 Y-3.6219
G01 X3.6503 Y-3.6037
G01 X3.7027 Y-3.5906
G01 X3.7561 Y-3.5826
G01 X3.8100 Y-3.5800
G01 X3.8639 Y-3.5826
G01 X3.9173 Y-3.5906
G01 X3.9697 Y-3.6037
G01 X4.0205 Y-3.6219
G01 X4.0693 Y-3.6449
G01 X4.1156 Y-3.6727
G01 X4.1589 Y-3.7048
G01 X4.1989 Y-3.7411
G01 X4.2352 Y-3.7811
G01 X4.2673 Y-3.8244
G01 X4.2951 Y-3.8707
G01 X4.3181 Y-3.9195
G01 X4.3363 Y-3.9703
G01 X4.3494 Y-4.0227
G01 X4.3574 Y-4.0761
G01 X4.3600 Y-4.1300
G00 X4.3600 Y-4.1300
G01 F70.00
G01 Z-0.4000
G01 F120.00
G01 X4.3574 Y-4.1839
G01 X4.3494 Y-4.2373
G01 X4.3363 Y-4.2897
G01 X4.3181 Y-4.3405
G01 X4.2951 Y-4.3893
G01 X4.2673 Y-4.4356
G01 X4.2352 Y-4.4789
G01 X4.1989 Y-4.5189
G01 X4.1589 Y-4.5552
G01 X4.1156 Y-4.5873
G01 X4.0693 Y-4.6151
G01 X4.0205 Y-4.6381
G01 X3.9697 Y-4.6563
G01 X3.9173 Y-4.6694
G01 X3.8639 Y-4.6774
G01 X3.8100 Y-4.6800
G01 X3.7561 Y-4.6774
G01 X3.7027 Y-4.6694
G01 X3.6503 Y-4.6563
G01 X3.5995 Y-4.6381
G01 X3.5507 Y-4.6151
G01 X3.5044 Y-4.5873
G01 X3.4611 Y-4.5552
G01 X3.4211 Y-4.5189
G01 X3.3848 Y-4.4789
G01 X3.3527 Y-4.4356
G01 X3.3249 Y-4.3893
G01 X3.3019 Y-4.3405
G01 X3.2837 Y-4.2897
G01 X3.2706 Y-4.2373
G01 X3.2626 Y-4.1839
G01 X3.2600 Y-4.1300
G01 X3.2626 Y-4.0761
G01 X3.2706 Y-4.0227
G01 X3.2837 Y-3.9703
G01 X3.3019 Y-3.9195
G01 X3.3249 Y-3.8707
G01 X3.3527 Y-3.8244
G01 X3.3848 Y-3.7811
G01 X3.4211 Y-3.7411
G01 X3.4611 Y-3.7048
G01 X3.5044 Y-3.6727
G01 X3.5507 Y-3.6449
G01 X3.5995 Y-3.6219
G01 X3.6503 Y-3.6037
G01 X3.7027 Y-3.5906
G01 X3.7561 Y-3.5826
G01 X3.8100 Y-3.5800
G01 X3.8639 Y-3.5826
G01 X3.9173 Y-3.5906
G01 X3.9697 Y-3.6037
G01 X4.0205 Y-3.6219
G01 X4.0693 Y-3.6449
G01 X4.1156 Y-3.6727
G01 X4.1589 Y-3.7048
G01 X4.1989 Y-3.7411
G01 X4.2352 Y-3.7811
G01 X4.2673 Y-3.8244
G01 X4.2951 Y-3.8707
G01 X4.3181 Y-3.9195
G01 X4.3363 Y-3.9703
G01 X4.3494 Y-4.0227
G01 X4.3574 Y-4.0761
G01 X4.3600 Y-4.1300
G00 X4.3600 Y-4.1300
G01 F70.00
G01 Z-0.5000
G01 F120.00
G01 X4.3574 Y-4.1839
G01 X4.3494 Y-4.2373
G01 X4.3363 Y-4.2897
G01 X4.3181 Y-4.3405
G01 X4.2951 Y-4.3893
G01 X4.2673 Y-4.4356
G01 X4.2352 Y-4.4789
G01 X4.1989 Y-4.5189
G01 X4.1589 Y-4.5552
G01 X4.1156 Y-4.5873
G01 X4.0693 Y-4.6151
G01 X4.0205 Y-4.6381
G01 X3.9697 Y-4.6563
G01 X3.9173 Y-4.6694
G01 X3.8639 Y-4.6774
G01 X3.8100 Y-4.6800
G01 X3.7561 Y-4.6774
G01 X3.7027 Y-4.6694
G01 X3.6503 Y-4.6563
G01 X3.5995 Y-4.6381
G01 X3.5507 Y-4.6151
G01 X3.5044 Y-4.5873
G01 X3.4611 Y-4.5552
G01 X3.4211 Y-4.5189
G01 X3.3848 Y-4.4789
G01 X3.3527 Y-4.4356
G01 X3.3249 Y-4.3893
G01 X3.3019 Y-4.3405
G01 X3.2837 Y-4.2897
G01 X3.2706 Y-4.2373
G01 X3.2626 Y-4.1839
G01 X3.2600 Y-4.1300
G01 X3.2626 Y-4.0761
G01 X3.2706 Y-4.0227
G01 X3.2837 Y-3.9703
G01 X3.3019 Y-3.9195
G01 X3.3249 Y-3.8707
G01 X3.3527 Y-3.8244
G01 X3.3848 Y-3.7811
G01 X3.4211 Y-3.7411
G01 X3.4611 Y-3.7048
G01 X3.5044 Y-3.6727
G01 X3.5507 Y-3.6449
G01 X3.5995 Y-3.6219
G01 X3.6503 Y-3.6037
G01 X3.7027 Y-3.5906
G01 X3.7561 Y-3.5826
G01 X3.8100 Y-3.5800
G01 X3.8639 Y-3.5826
G01 X3.9173 Y-3.5906
G01 X3.9697 Y-3.6037
G01 X4.0205 Y-3.6219
G01 X4.0693 Y-3.6449
G01 X4.1156 Y-3.6727
G01 X4.1589 Y-3.7048
G01 X4.1989 Y-3.7411
G01 X4.2352 Y-3.7811
G01 X4.2673 Y-3.8244
G01 X4.2951 Y-3.8707
G01 X4.3181 Y-3.9195
G01 X4.3363 Y-3.9703
G01 X4.3494 Y-4.0227
G01 X4.3574 Y-4.0761
G01 X4.3600 Y-4.1300
G00 X4.3600 Y-4.1300
G01 F70.00
G01 Z-0.6000
G01 F120.00
G01 X4.3574 Y-4.1839
G01 X4.3494 Y-4.2373
G01 X4.3363 Y-4.2897
G01 X4.3181 Y-4.3405
G01 X4.2951 Y-4.3893
G01 X4.2673 Y-4.4356
G01 X4.2352 Y-4.4789
G01 X4.1989 Y-4.5189
G01 X4.1589 Y-4.5552
G01 X4.1156 Y-4.5873
G01 X4.0693 Y-4.6151
G01 X4.0205 Y-4.6381
G01 X3.9697 Y-4.6563
G01 X3.9173 Y-4.6694
G01 X3.8639 Y-4.6774
G01 X3.8100 Y-4.6800
G01 X3.7561 Y-4.6774
G01 X3.7027 Y-4.6694
G01 X3.6503 Y-4.6563
G01 X3.5995 Y-4.6381
G01 X3.5507 Y-4.6151
G01 X3.5044 Y-4.5873
G01 X3.4611 Y-4.5552
G01 X3.4211 Y-4.5189
G01 X3.3848 Y-4.4789
G01 X3.3527 Y-4.4356
G01 X3.3249 Y-4.3893
G01 X3.3019 Y-4.3405
G01 X3.2837 Y-4.2897
G01 X3.2706 Y-4.2373
G01 X3.2626 Y-4.1839
G01 X3.2600 Y-4.1300
G01 X3.2626 Y-4.0761
G01 X3.2706 Y-4.0227
G01 X3.2837 Y-3.9703
G01 X3.3019 Y-3.9195
G01 X3.3249 Y-3.8707
G01 X3.3527 Y-3.8244
G01 X3.3848 Y-3.7811
G01 X3.4211 Y-3.7411
G01 X3.4611 Y-3.7048
G01 X3.5044 Y-3.6727
G01 X3.5507 Y-3.6449
G01 X3.5995 Y-3.6219
G01 X3.6503 Y-3.6037
G01 X3.7027 Y-3.5906
G01 X3.7561 Y-3.5826
G01 X3.8100 Y-3.5800
G01 X3.8639 Y-3.5826
G01 X3.9173 Y-3.5906
G01 X3.9697 Y-3.6037
G01 X4.0205 Y-3.6219
G01 X4.0693 Y-3.6449
G01 X4.1156 Y-3.6727
G01 X4.1589 Y-3.7048
G01 X4.1989 Y-3.7411
G01 X4.2352 Y-3.7811
G01 X4.2673 Y-3.8244
G01 X4.2951 Y-3.8707
G01 X4.3181 Y-3.9195
G01 X4.3363 Y-3.9703
G01 X4.3494 Y-4.0227
G01 X4.3574 Y-4.0761
G01 X4.3600 Y-4.1300
G00 X4.3600 Y-4.1300
G01 F70.00
G01 Z-0.7000
G01 F120.00
G01 X4.3574 Y-4.1839
G01 X4.3494 Y-4.2373
G01 X4.3363 Y-4.2897
G01 X4.3181 Y-4.3405
G01 X4.2951 Y-4.3893
G01 X4.2673 Y-4.4356
G01 X4.2352 Y-4.4789
G01 X4.1989 Y-4.5189
G01 X4.1589 Y-4.5552
G01 X4.1156 Y-4.5873
G01 X4.0693 Y-4.6151
G01 X4.0205 Y-4.6381
G01 X3.9697 Y-4.6563
G01 X3.9173 Y-4.6694
G01 X3.8639 Y-4.6774
G01 X3.8100 Y-4.6800
G01 X3.7561 Y-4.6774
G01 X3.7027 Y-4.6694
G01 X3.6503 Y-4.6563
G01 X3.5995 Y-4.6381
G01 X3.5507 Y-4.6151
G01 X3.5044 Y-4.5873
G01 X3.4611 Y-4.5552
G01 X3.4211 Y-4.5189
G01 X3.3848 Y-4.4789
G01 X3.3527 Y-4.4356
G01 X3.3249 Y-4.3893
G01 X3.3019 Y-4.3405
G01 X3.2837 Y-4.2897
G01 X3.2706 Y-4.2373
G01 X3.2626 Y-4.1839
G01 X3.2600 Y-4.1300
G01 X3.2626 Y-4.0761
G01 X3.2706 Y-4.0227
G01 X3.2837 Y-3.9703
G01 X3.3019 Y-3.9195
G01 X3.3249 Y-3.8707
G01 X3.3527 Y-3.8244
G01 X3.3848 Y-3.7811
G01 X3.4211 Y-3.7411
G01 X3.4611 Y-3.7048
G01 X3.5044 Y-3.6727
G01 X3.5507 Y-3.6449
G01 X3.5995 Y-3.6219
G01 X3.6503 Y-3.6037
G01 X3.7027 Y-3.5906
G01 X3.7561 Y-3.5826
G01 X3.8100 Y-3.5800
G01 X3.8639 Y-3.5826
G01 X3.9173 Y-3.5906
G01 X3.9697 Y-3.6037
G01 X4.0205 Y-3.6219
G01 X4.0693 Y-3.6449
G01 X4.1156 Y-3.6727
G01 X4.1589 Y-3.7048
G01 X4.1989 Y-3.7411
G01 X4.2352 Y-3.7811
G01 X4.2673 Y-3.8244
G01 X4.2951 Y-3.8707
G01 X4.3181 Y-3.9195
G01 X4.3363 Y-3.9703
G01 X4.3494 Y-4.0227
G01 X4.3574 Y-4.0761
G01 X4.3600 Y-4.1300
G00 X4.3600 Y-4.1300
G01 F70.00
G01 Z-0.8000
G01 F120.00
G01 X4.3574 Y-4.1839
G01 X4.3494 Y-4.2373
G01 X4.3363 Y-4.2897
G01 X4.3181 Y-4.3405
G01 X4.2951 Y-4.3893
G01 X4.2673 Y-4.4356
G01 X4.2352 Y-4.4789
G01 X4.1989 Y-4.5189
G01 X4.1589 Y-4.5552
G01 X4.1156 Y-4.5873
G01 X4.0693 Y-4.6151
G01 X4.0205 Y-4.6381
G01 X3.9697 Y-4.6563
G01 X3.9173 Y-4.6694
G01 X3.8639 Y-4.6774
G01 X3.8100 Y-4.6800
G01 X3.7561 Y-4.6774
G01 X3.7027 Y-4.6694
G01 X3.6503 Y-4.6563
G01 X3.5995 Y-4.6381
G01 X3.5507 Y-4.6151
G01 X3.5044 Y-4.5873
G01 X3.4611 Y-4.5552
G01 X3.4211 Y-4.5189
G01 X3.3848 Y-4.4789
G01 X3.3527 Y-4.4356
G01 X3.3249 Y-4.3893
G01 X3.3019 Y-4.3405
G01 X3.2837 Y-4.2897
G01 X3.2706 Y-4.2373
G01 X3.2626 Y-4.1839
G01 X3.2600 Y-4.1300
G01 X3.2626 Y-4.0761
G01 X3.2706 Y-4.0227
G01 X3.2837 Y-3.9703
G01 X3.3019 Y-3.9195
G01 X3.3249 Y-3.8707
G01 X3.3527 Y-3.8244
G01 X3.3848 Y-3.7811
G01 X3.4211 Y-3.7411
G01 X3.4611 Y-3.7048
G01 X3.5044 Y-3.6727
G01 X3.5507 Y-3.6449
G01 X3.5995 Y-3.6219
G01 X3.6503 Y-3.6037
G01 X3.7027 Y-3.5906
G01 X3.7561 Y-3.5826
G01 X3.8100 Y-3.5800
G01 X3.8639 Y-3.5826
G01 X3.9173 Y-3.5906
G01 X3.9697 Y-3.6037
G01 X4.0205 Y-3.6219
G01 X4.0693 Y-3.6449
G01 X4.1156 Y-3.6727
G01 X4.1589 Y-3.7048
G01 X4.1989 Y-3.7411
G01 X4.2352 Y-3.7811
G01 X4.2673 Y-3.8244
G01 X4.2951 Y-3.8707
G01 X4.3181 Y-3.9195
G01 X4.3363 Y-3.9703
G01 X4.3494 Y-4.0227
G01 X4.3574 Y-4.0761
G01 X4.3600 Y-4.1300
G00 X4.3600 Y-4.1300
G01 F70.00
G01 Z-0.9000
G01 F120.00
G01 X4.3574 Y-4.1839
G01 X4.3494 Y-4.2373
G01 X4.3363 Y-4.2897
G01 X4.3181 Y-4.3405
G01 X4.2951 Y-4.3893
G01 X4.2673 Y-4.4356
G01 X4.2352 Y-4.4789
G01 X4.1989 Y-4.5189
G01 X4.1589 Y-4.5552
G01 X4.1156 Y-4.5873
G01 X4.0693 Y-4.6151
G01 X4.0205 Y-4.6381
G01 X3.9697 Y-4.6563
G01 X3.9173 Y-4.6694
G01 X3.8639 Y-4.6774
G01 X3.8100 Y-4.6800
G01 X3.7561 Y-4.6774
G01 X3.7027 Y-4.6694
G01 X3.6503 Y-4.6563
G01 X3.5995 Y-4.6381
G01 X3.5507 Y-4.6151
G01 X3.5044 Y-4.5873
G01 X3.4611 Y-4.5552
G01 X3.4211 Y-4.5189
G01 X3.3848 Y-4.4789
G01 X3.3527 Y-4.4356
G01 X3.3249 Y-4.3893
G01 X3.3019 Y-4.3405
G01 X3.2837 Y-4.2897
G01 X3.2706 Y-4.2373
G01 X3.2626 Y-4.1839
G01 X3.2600 Y-4.1300
G01 X3.2626 Y-4.0761
G01 X3.2706 Y-4.0227
G01 X3.2837 Y-3.9703
G01 X3.3019 Y-3.9195
G01 X3.3249 Y-3.8707
G01 X3.3527 Y-3.8244
G01 X3.3848 Y-3.7811
G01 X3.4211 Y-3.7411
G01 X3.4611 Y-3.7048
G01 X3.5044 Y-3.6727
G01 X3.5507 Y-3.6449
G01 X3.5995 Y-3.6219
G01 X3.6503 Y-3.6037
G01 X3.7027 Y-3.5906
G01 X3.7561 Y-3.5826
G01 X3.8100 Y-3.5800
G01 X3.8639 Y-3.5826
G01 X3.9173 Y-3.5906
G01 X3.9697 Y-3.6037
G01 X4.0205 Y-3.6219
G01 X4.0693 Y-3.6449
G01 X4.1156 Y-3.6727
G01 X4.1589 Y-3.7048
G01 X4.1989 Y-3.7411
G01 X4.2352 Y-3.7811
G01 X4.2673 Y-3.8244
G01 X4.2951 Y-3.8707
G01 X4.3181 Y-3.9195
G01 X4.3363 Y-3.9703
G01 X4.3494 Y-4.0227
G01 X4.3574 Y-4.0761
G01 X4.3600 Y-4.1300
G00 X4.3600 Y-4.1300
G01 F70.00
G01 Z-1.0000
G01 F120.00
G01 X4.3574 Y-4.1839
G01 X4.3494 Y-4.2373
G01 X4.3363 Y-4.2897
G01 X4.3181 Y-4.3405
G01 X4.2951 Y-4.3893
G01 X4.2673 Y-4.4356
G01 X4.2352 Y-4.4789
G01 X4.1989 Y-4.5189
G01 X4.1589 Y-4.5552
G01 X4.1156 Y-4.5873
G01 X4.0693 Y-4.6151
G01 X4.0205 Y-4.6381
G01 X3.9697 Y-4.6563
G01 X3.9173 Y-4.6694
G01 X3.8639 Y-4.6774
G01 X3.8100 Y-4.6800
G01 X3.7561 Y-4.6774
G01 X3.7027 Y-4.6694
G01 X3.6503 Y-4.6563
G01 X3.5995 Y-4.6381
G01 X3.5507 Y-4.6151
G01 X3.5044 Y-4.5873
G01 X3.4611 Y-4.5552
G01 X3.4211 Y-4.5189
G01 X3.3848 Y-4.4789
G01 X3.3527 Y-4.4356
G01 X3.3249 Y-4.3893
G01 X3.3019 Y-4.3405
G01 X3.2837 Y-4.2897
G01 X3.2706 Y-4.2373
G01 X3.2626 Y-4.1839
G01 X3.2600 Y-4.1300
G01 X3.2626 Y-4.0761
G01 X3.2706 Y-4.0227
G01 X3.2837 Y-3.9703
G01 X3.3019 Y-3.9195
G01 X3.3249 Y-3.8707
G01 X3.3527 Y-3.8244
G01 X3.3848 Y-3.7811
G01 X3.4211 Y-3.7411
G01 X3.4611 Y-3.7048
G01 X3.5044 Y-3.6727
G01 X3.5507 Y-3.6449
G01 X3.5995 Y-3.6219
G01 X3.6503 Y-3.6037
G01 X3.7027 Y-3.5906
G01 X3.7561 Y-3.5826
G01 X3.8100 Y-3.5800
G01 X3.8639 Y-3.5826
G01 X3.9173 Y-3.5906
G01 X3.9697 Y-3.6037
G01 X4.0205 Y-3.6219
G01 X4.0693 Y-3.6449
G01 X4.1156 Y-3.6727
G01 X4.1589 Y-3.7048
G01 X4.1989 Y-3.7411
G01 X4.2352 Y-3.7811
G01 X4.2673 Y-3.8244
G01 X4.2951 Y-3.8707
G01 X4.3181 Y-3.9195
G01 X4.3363 Y-3.9703
G01 X4.3494 Y-4.0227
G01 X4.3574 Y-4.0761
G01 X4.3600 Y-4.1300
G00 X4.3600 Y-4.1300
G01 F70.00
G01 Z-1.1000
G01 F120.00
G01 X4.3574 Y-4.1839
G01 X4.3494 Y-4.2373
G01 X4.3363 Y-4.2897
G01 X4.3181 Y-4.3405
G01 X4.2951 Y-4.3893
G01 X4.2673 Y-4.4356
G01 X4.2352 Y-4.4789
G01 X4.1989 Y-4.5189
G01 X4.1589 Y-4.5552
G01 X4.1156 Y-4.5873
G01 X4.0693 Y-4.6151
G01 X4.0205 Y-4.6381
G01 X3.9697 Y-4.6563
G01 X3.9173 Y-4.6694
G01 X3.8639 Y-4.6774
G01 X3.8100 Y-4.6800
G01 X3.7561 Y-4.6774
G01 X3.7027 Y-4.6694
G01 X3.6503 Y-4.6563
G01 X3.5995 Y-4.6381
G01 X3.5507 Y-4.6151
G01 X3.5044 Y-4.5873
G01 X3.4611 Y-4.5552
G01 X3.4211 Y-4.5189
G01 X3.3848 Y-4.4789
G01 X3.3527 Y-4.4356
G01 X3.3249 Y-4.3893
G01 X3.3019 Y-4.3405
G01 X3.2837 Y-4.2897
G01 X3.2706 Y-4.2373
G01 X3.2626 Y-4.1839
G01 X3.2600 Y-4.1300
G01 X3.2626 Y-4.0761
G01 X3.2706 Y-4.0227
G01 X3.2837 Y-3.9703
G01 X3.3019 Y-3.9195
G01 X3.3249 Y-3.8707
G01 X3.3527 Y-3.8244
G01 X3.3848 Y-3.7811
G01 X3.4211 Y-3.7411
G01 X3.4611 Y-3.7048
G01 X3.5044 Y-3.6727
G01 X3.5507 Y-3.6449
G01 X3.5995 Y-3.6219
G01 X3.6503 Y-3.6037
G01 X3.7027 Y-3.5906
G01 X3.7561 Y-3.5826
G01 X3.8100 Y-3.5800
G01 X3.8639 Y-3.5826
G01 X3.9173 Y-3.5906
G01 X3.9697 Y-3.6037
G01 X4.0205 Y-3.6219
G01 X4.0693 Y-3.6449
G01 X4.1156 Y-3.6727
G01 X4.1589 Y-3.7048
G01 X4.1989 Y-3.7411
G01 X4.2352 Y-3.7811
G01 X4.2673 Y-3.8244
G01 X4.2951 Y-3.8707
G01 X4.3181 Y-3.9195
G01 X4.3363 Y-3.9703
G01 X4.3494 Y-4.0227
G01 X4.3574 Y-4.0761
G01 X4.3600 Y-4.1300
G00 X4.3600 Y-4.1300
G01 F70.00
G01 Z-1.2000
G01 F120.00
G01 X4.3574 Y-4.1839
G01 X4.3494 Y-4.2373
G01 X4.3363 Y-4.2897
G01 X4.3181 Y-4.3405
G01 X4.2951 Y-4.3893
G01 X4.2673 Y-4.4356
G01 X4.2352 Y-4.4789
G01 X4.1989 Y-4.5189
G01 X4.1589 Y-4.5552
G01 X4.1156 Y-4.5873
G01 X4.0693 Y-4.6151
G01 X4.0205 Y-4.6381
G01 X3.9697 Y-4.6563
G01 X3.9173 Y-4.6694
G01 X3.8639 Y-4.6774
G01 X3.8100 Y-4.6800
G01 X3.7561 Y-4.6774
G01 X3.7027 Y-4.6694
G01 X3.6503 Y-4.6563
G01 X3.5995 Y-4.6381
G01 X3.5507 Y-4.6151
G01 X3.5044 Y-4.5873
G01 X3.4611 Y-4.5552
G01 X3.4211 Y-4.5189
G01 X3.3848 Y-4.4789
G01 X3.3527 Y-4.4356
G01 X3.3249 Y-4.3893
G01 X3.3019 Y-4.3405
G01 X3.2837 Y-4.2897
G01 X3.2706 Y-4.2373
G01 X3.2626 Y-4.1839
G01 X3.2600 Y-4.1300
G01 X3.2626 Y-4.0761
G01 X3.2706 Y-4.0227
G01 X3.2837 Y-3.9703
G01 X3.3019 Y-3.9195
G01 X3.3249 Y-3.8707
G01 X3.3527 Y-3.8244
G01 X3.3848 Y-3.7811
G01 X3.4211 Y-3.7411
G01 X3.4611 Y-3.7048
G01 X3.5044 Y-3.6727
G01 X3.5507 Y-3.6449
G01 X3.5995 Y-3.6219
G01 X3.6503 Y-3.6037
G01 X3.7027 Y-3.5906
G01 X3.7561 Y-3.5826
G01 X3.8100 Y-3.5800
G01 X3.8639 Y-3.5826
G01 X3.9173 Y-3.5906
G01 X3.9697 Y-3.6037
G01 X4.0205 Y-3.6219
G01 X4.0693 Y-3.6449
G01 X4.1156 Y-3.6727
G01 X4.1589 Y-3.7048
G01 X4.1989 Y-3.7411
G01 X4.2352 Y-3.7811
G01 X4.2673 Y-3.8244
G01 X4.2951 Y-3.8707
G01 X4.3181 Y-3.9195
G01 X4.3363 Y-3.9703
G01 X4.3494 Y-4.0227
G01 X4.3574 Y-4.0761
G01 X4.3600 Y-4.1300
G00 X4.3600 Y-4.1300
G01 F70.00
G01 Z-1.3000
G01 F120.00
G01 X4.3574 Y-4.1839
G01 X4.3494 Y-4.2373
G01 X4.3363 Y-4.2897
G01 X4.3181 Y-4.3405
G01 X4.2951 Y-4.3893
G01 X4.2673 Y-4.4356
G01 X4.2352 Y-4.4789
G01 X4.1989 Y-4.5189
G01 X4.1589 Y-4.5552
G01 X4.1156 Y-4.5873
G01 X4.0693 Y-4.6151
G01 X4.0205 Y-4.6381
G01 X3.9697 Y-4.6563
G01 X3.9173 Y-4.6694
G01 X3.8639 Y-4.6774
G01 X3.8100 Y-4.6800
G01 X3.7561 Y-4.6774
G01 X3.7027 Y-4.6694
G01 X3.6503 Y-4.6563
G01 X3.5995 Y-4.6381
G01 X3.5507 Y-4.6151
G01 X3.5044 Y-4.5873
G01 X3.4611 Y-4.5552
G01 X3.4211 Y-4.5189
G01 X3.3848 Y-4.4789
G01 X3.3527 Y-4.4356
G01 X3.3249 Y-4.3893
G01 X3.3019 Y-4.3405
G01 X3.2837 Y-4.2897
G01 X3.2706 Y-4.2373
G01 X3.2626 Y-4.1839
G01 X3.2600 Y-4.1300
G01 X3.2626 Y-4.0761
G01 X3.2706 Y-4.0227
G01 X3.2837 Y-3.9703
G01 X3.3019 Y-3.9195
G01 X3.3249 Y-3.8707
G01 X3.3527 Y-3.8244
G01 X3.3848 Y-3.7811
G01 X3.4211 Y-3.7411
G01 X3.4611 Y-3.7048
G01 X3.5044 Y-3.6727
G01 X3.5507 Y-3.6449
G01 X3.5995 Y-3.6219
G01 X3.6503 Y-3.6037
G01 X3.7027 Y-3.5906
G01 X3.7561 Y-3.5826
G01 X3.8100 Y-3.5800
G01 X3.8639 Y-3.5826
G01 X3.9173 Y-3.5906
G01 X3.9697 Y-3.6037
G01 X4.0205 Y-3.6219
G01 X4.0693 Y-3.6449
G01 X4.1156 Y-3.6727
G01 X4.1589 Y-3.7048
G01 X4.1989 Y-3.7411
G01 X4.2352 Y-3.7811
G01 X4.2673 Y-3.8244
G01 X4.2951 Y-3.8707
G01 X4.3181 Y-3.9195
G01 X4.3363 Y-3.9703
G01 X4.3494 Y-4.0227
G01 X4.3574 Y-4.0761
G01 X4.3600 Y-4.1300
G00 X4.3600 Y-4.1300
G01 F70.00
G01 Z-1.4000
G01 F120.00
G01 X4.3574 Y-4.1839
G01 X4.3494 Y-4.2373
G01 X4.3363 Y-4.2897
G01 X4.3181 Y-4.3405
G01 X4.2951 Y-4.3893
G01 X4.2673 Y-4.4356
G01 X4.2352 Y-4.4789
G01 X4.1989 Y-4.5189
G01 X4.1589 Y-4.5552
G01 X4.1156 Y-4.5873
G01 X4.0693 Y-4.6151
G01 X4.0205 Y-4.6381
G01 X3.9697 Y-4.6563
G01 X3.9173 Y-4.6694
G01 X3.8639 Y-4.6774
G01 X3.8100 Y-4.6800
G01 X3.7561 Y-4.6774
G01 X3.7027 Y-4.6694
G01 X3.6503 Y-4.6563
G01 X3.5995 Y-4.6381
G01 X3.5507 Y-4.6151
G01 X3.5044 Y-4.5873
G01 X3.4611 Y-4.5552
G01 X3.4211 Y-4.5189
G01 X3.3848 Y-4.4789
G01 X3.3527 Y-4.4356
G01 X3.3249 Y-4.3893
G01 X3.3019 Y-4.3405
G01 X3.2837 Y-4.2897
G01 X3.2706 Y-4.2373
G01 X3.2626 Y-4.1839
G01 X3.2600 Y-4.1300
G01 X3.2626 Y-4.0761
G01 X3.2706 Y-4.0227
G01 X3.2837 Y-3.9703
G01 X3.3019 Y-3.9195
G01 X3.3249 Y-3.8707
G01 X3.3527 Y-3.8244
G01 X3.3848 Y-3.7811
G01 X3.4211 Y-3.7411
G01 X3.4611 Y-3.7048
G01 X3.5044 Y-3.6727
G01 X3.5507 Y-3.6449
G01 X3.5995 Y-3.6219
G01 X3.6503 Y-3.6037
G01 X3.7027 Y-3.5906
G01 X3.7561 Y-3.5826
G01 X3.8100 Y-3.5800
G01 X3.8639 Y-3.5826
G01 X3.9173 Y-3.5906
G01 X3.9697 Y-3.6037
G01 X4.0205 Y-3.6219
G01 X4.0693 Y-3.6449
G01 X4.1156 Y-3.6727
G01 X4.1589 Y-3.7048
G01 X4.1989 Y-3.7411
G01 X4.2352 Y-3.7811
G01 X4.2673 Y-3.8244
G01 X4.2951 Y-3.8707
G01 X4.3181 Y-3.9195
G01 X4.3363 Y-3.9703
G01 X4.3494 Y-4.0227
G01 X4.3574 Y-4.0761
G01 X4.3600 Y-4.1300
G00 X4.3600 Y-4.1300
G01 F70.00
G01 Z-1.5000
G01 F120.00
G01 X4.3574 Y-4.1839
G01 X4.3494 Y-4.2373
G01 X4.3363 Y-4.2897
G01 X4.3181 Y-4.3405
G01 X4.2951 Y-4.3893
G01 X4.2673 Y-4.4356
G01 X4.2352 Y-4.4789
G01 X4.1989 Y-4.5189
G01 X4.1589 Y-4.5552
G01 X4.1156 Y-4.5873
G01 X4.0693 Y-4.6151
G01 X4.0205 Y-4.6381
G01 X3.9697 Y-4.6563
G01 X3.9173 Y-4.6694
G01 X3.8639 Y-4.6774
G01 X3.8100 Y-4.6800
G01 X3.7561 Y-4.6774
G01 X3.7027 Y-4.6694
G01 X3.6503 Y-4.6563
G01 X3.5995 Y-4.6381
G01 X3.5507 Y-4.6151
G01 X3.5044 Y-4.5873
G01 X3.4611 Y-4.5552
G01 X3.4211 Y-4.5189
G01 X3.3848 Y-4.4789
G01 X3.3527 Y-4.4356
G01 X3.3249 Y-4.3893
G01 X3.3019 Y-4.3405
G01 X3.2837 Y-4.2897
G01 X3.2706 Y-4.2373
G01 X3.2626 Y-4.1839
G01 X3.2600 Y-4.1300
G01 X3.2626 Y-4.0761
G01 X3.2706 Y-4.0227
G01 X3.2837 Y-3.9703
G01 X3.3019 Y-3.9195
G01 X3.3249 Y-3.8707
G01 X3.3527 Y-3.8244
G01 X3.3848 Y-3.7811
G01 X3.4211 Y-3.7411
G01 X3.4611 Y-3.7048
G01 X3.5044 Y-3.6727
G01 X3.5507 Y-3.6449
G01 X3.5995 Y-3.6219
G01 X3.6503 Y-3.6037
G01 X3.7027 Y-3.5906
G01 X3.7561 Y-3.5826
G01 X3.8100 Y-3.5800
G01 X3.8639 Y-3.5826
G01 X3.9173 Y-3.5906
G01 X3.9697 Y-3.6037
G01 X4.0205 Y-3.6219
G01 X4.0693 Y-3.6449
G01 X4.1156 Y-3.6727
G01 X4.1589 Y-3.7048
G01 X4.1989 Y-3.7411
G01 X4.2352 Y-3.7811
G01 X4.2673 Y-3.8244
G01 X4.2951 Y-3.8707
G01 X4.3181 Y-3.9195
G01 X4.3363 Y-3.9703
G01 X4.3494 Y-4.0227
G01 X4.3574 Y-4.0761
G01 X4.3600 Y-4.1300
G00 X4.3600 Y-4.1300
G01 F70.00
G01 Z-1.6000
G01 F120.00
G01 X4.3574 Y-4.1839
G01 X4.3494 Y-4.2373
G01 X4.3363 Y-4.2897
G01 X4.3181 Y-4.3405
G01 X4.2951 Y-4.3893
G01 X4.2673 Y-4.4356
G01 X4.2352 Y-4.4789
G01 X4.1989 Y-4.5189
G01 X4.1589 Y-4.5552
G01 X4.1156 Y-4.5873
G01 X4.0693 Y-4.6151
G01 X4.0205 Y-4.6381
G01 X3.9697 Y-4.6563
G01 X3.9173 Y-4.6694
G01 X3.8639 Y-4.6774
G01 X3.8100 Y-4.6800
G01 X3.7561 Y-4.6774
G01 X3.7027 Y-4.6694
G01 X3.6503 Y-4.6563
G01 X3.5995 Y-4.6381
G01 X3.5507 Y-4.6151
G01 X3.5044 Y-4.5873
G01 X3.4611 Y-4.5552
G01 X3.4211 Y-4.5189
G01 X3.3848 Y-4.4789
G01 X3.3527 Y-4.4356
G01 X3.3249 Y-4.3893
G01 X3.3019 Y-4.3405
G01 X3.2837 Y-4.2897
G01 X3.2706 Y-4.2373
G01 X3.2626 Y-4.1839
G01 X3.2600 Y-4.1300
G01 X3.2626 Y-4.0761
G01 X3.2706 Y-4.0227
G01 X3.2837 Y-3.9703
G01 X3.3019 Y-3.9195
G01 X3.3249 Y-3.8707
G01 X3.3527 Y-3.8244
G01 X3.3848 Y-3.7811
G01 X3.4211 Y-3.7411
G01 X3.4611 Y-3.7048
G01 X3.5044 Y-3.6727
G01 X3.5507 Y-3.6449
G01 X3.5995 Y-3.6219
G01 X3.6503 Y-3.6037
G01 X3.7027 Y-3.5906
G01 X3.7561 Y-3.5826
G01 X3.8100 Y-3.5800
G01 X3.8639 Y-3.5826
G01 X3.9173 Y-3.5906
G01 X3.9697 Y-3.6037
G01 X4.0205 Y-3.6219
G01 X4.0693 Y-3.6449
G01 X4.1156 Y-3.6727
G01 X4.1589 Y-3.7048
G01 X4.1989 Y-3.7411
G01 X4.2352 Y-3.7811
G01 X4.2673 Y-3.8244
G01 X4.2951 Y-3.8707
G01 X4.3181 Y-3.9195
G01 X4.3363 Y-3.9703
G01 X4.3494 Y-4.0227
G01 X4.3574 Y-4.0761
G01 X4.3600 Y-4.1300
G00 X4.3600 Y-4.1300
G01 F70.00
G01 Z-1.7000
G01 F120.00
G01 X4.3574 Y-4.1839
G01 X4.3494 Y-4.2373
G01 X4.3363 Y-4.2897
G01 X4.3181 Y-4.3405
G01 X4.2951 Y-4.3893
G01 X4.2673 Y-4.4356
G01 X4.2352 Y-4.4789
G01 X4.1989 Y-4.5189
G01 X4.1589 Y-4.5552
G01 X4.1156 Y-4.5873
G01 X4.0693 Y-4.6151
G01 X4.0205 Y-4.6381
G01 X3.9697 Y-4.6563
G01 X3.9173 Y-4.6694
G01 X3.8639 Y-4.6774
G01 X3.8100 Y-4.6800
G01 X3.7561 Y-4.6774
G01 X3.7027 Y-4.6694
G01 X3.6503 Y-4.6563
G01 X3.5995 Y-4.6381
G01 X3.5507 Y-4.6151
G01 X3.5044 Y-4.5873
G01 X3.4611 Y-4.5552
G01 X3.4211 Y-4.5189
G01 X3.3848 Y-4.4789
G01 X3.3527 Y-4.4356
G01 X3.3249 Y-4.3893
G01 X3.3019 Y-4.3405
G01 X3.2837 Y-4.2897
G01 X3.2706 Y-4.2373
G01 X3.2626 Y-4.1839
G01 X3.2600 Y-4.1300
G01 X3.2626 Y-4.0761
G01 X3.2706 Y-4.0227
G01 X3.2837 Y-3.9703
G01 X3.3019 Y-3.9195
G01 X3.3249 Y-3.8707
G01 X3.3527 Y-3.8244
G01 X3.3848 Y-3.7811
G01 X3.4211 Y-3.7411
G01 X3.4611 Y-3.7048
G01 X3.5044 Y-3.6727
G01 X3.5507 Y-3.6449
G01 X3.5995 Y-3.6219
G01 X3.6503 Y-3.6037
G01 X3.7027 Y-3.5906
G01 X3.7561 Y-3.5826
G01 X3.8100 Y-3.5800
G01 X3.8639 Y-3.5826
G01 X3.9173 Y-3.5906
G01 X3.9697 Y-3.6037
G01 X4.0205 Y-3.6219
G01 X4.0693 Y-3.6449
G01 X4.1156 Y-3.6727
G01 X4.1589 Y-3.7048
G01 X4.1989 Y-3.7411
G01 X4.2352 Y-3.7811
G01 X4.2673 Y-3.8244
G01 X4.2951 Y-3.8707
G01 X4.3181 Y-3.9195
G01 X4.3363 Y-3.9703
G01 X4.3494 Y-4.0227
G01 X4.3574 Y-4.0761
G01 X4.3600 Y-4.1300
G00 X4.3600 Y-4.1300
G01 F70.00
G01 Z-1.8000
G01 F120.00
G01 X4.3574 Y-4.1839
G01 X4.3494 Y-4.2373
G01 X4.3363 Y-4.2897
G01 X4.3181 Y-4.3405
G01 X4.2951 Y-4.3893
G01 X4.2673 Y-4.4356
G01 X4.2352 Y-4.4789
G01 X4.1989 Y-4.5189
G01 X4.1589 Y-4.5552
G01 X4.1156 Y-4.5873
G01 X4.0693 Y-4.6151
G01 X4.0205 Y-4.6381
G01 X3.9697 Y-4.6563
G01 X3.9173 Y-4.6694
G01 X3.8639 Y-4.6774
G01 X3.8100 Y-4.6800
G01 X3.7561 Y-4.6774
G01 X3.7027 Y-4.6694
G01 X3.6503 Y-4.6563
G01 X3.5995 Y-4.6381
G01 X3.5507 Y-4.6151
G01 X3.5044 Y-4.5873
G01 X3.4611 Y-4.5552
G01 X3.4211 Y-4.5189
G01 X3.3848 Y-4.4789
G01 X3.3527 Y-4.4356
G01 X3.3249 Y-4.3893
G01 X3.3019 Y-4.3405
G01 X3.2837 Y-4.2897
G01 X3.2706 Y-4.2373
G01 X3.2626 Y-4.1839
G01 X3.2600 Y-4.1300
G01 X3.2626 Y-4.0761
G01 X3.2706 Y-4.0227
G01 X3.2837 Y-3.9703
G01 X3.3019 Y-3.9195
G01 X3.3249 Y-3.8707
G01 X3.3527 Y-3.8244
G01 X3.3848 Y-3.7811
G01 X3.4211 Y-3.7411
G01 X3.4611 Y-3.7048
G01 X3.5044 Y-3.6727
G01 X3.5507 Y-3.6449
G01 X3.5995 Y-3.6219
G01 X3.6503 Y-3.6037
G01 X3.7027 Y-3.5906
G01 X3.7561 Y-3.5826
G01 X3.8100 Y-3.5800
G01 X3.8639 Y-3.5826
G01 X3.9173 Y-3.5906
G01 X3.9697 Y-3.6037
G01 X4.0205 Y-3.6219
G01 X4.0693 Y-3.6449
G01 X4.1156 Y-3.6727
G01 X4.1589 Y-3.7048
G01 X4.1989 Y-3.7411
G01 X4.2352 Y-3.7811
G01 X4.2673 Y-3.8244
G01 X4.2951 Y-3.8707
G01 X4.3181 Y-3.9195
G01 X4.3363 Y-3.9703
G01 X4.3494 Y-4.0227
G01 X4.3574 Y-4.0761
G01 X4.3600 Y-4.1300
G00 X4.3600 Y-4.1300
G01 F70.00
G01 Z-1.9000
G01 F120.00
G01 X4.3574 Y-4.1839
G01 X4.3494 Y-4.2373
G01 X4.3363 Y-4.2897
G01 X4.3181 Y-4.3405
G01 X4.2951 Y-4.3893
G01 X4.2673 Y-4.4356
G01 X4.2352 Y-4.4789
G01 X4.1989 Y-4.5189
G01 X4.1589 Y-4.5552
G01 X4.1156 Y-4.5873
G01 X4.0693 Y-4.6151
G01 X4.0205 Y-4.6381
G01 X3.9697 Y-4.6563
G01 X3.9173 Y-4.6694
G01 X3.8639 Y-4.6774
G01 X3.8100 Y-4.6800
G01 X3.7561 Y-4.6774
G01 X3.7027 Y-4.6694
G01 X3.6503 Y-4.6563
G01 X3.5995 Y-4.6381
G01 X3.5507 Y-4.6151
G01 X3.5044 Y-4.5873
G01 X3.4611 Y-4.5552
G01 X3.4211 Y-4.5189
G01 X3.3848 Y-4.4789
G01 X3.3527 Y-4.4356
G01 X3.3249 Y-4.3893
G01 X3.3019 Y-4.3405
G01 X3.2837 Y-4.2897
G01 X3.2706 Y-4.2373
G01 X3.2626 Y-4.1839
G01 X3.2600 Y-4.1300
G01 X3.2626 Y-4.0761
G01 X3.2706 Y-4.0227
G01 X3.2837 Y-3.9703
G01 X3.3019 Y-3.9195
G01 X3.3249 Y-3.8707
G01 X3.3527 Y-3.8244
G01 X3.3848 Y-3.7811
G01 X3.4211 Y-3.7411
G01 X3.4611 Y-3.7048
G01 X3.5044 Y-3.6727
G01 X3.5507 Y-3.6449
G01 X3.5995 Y-3.6219
G01 X3.6503 Y-3.6037
G01 X3.7027 Y-3.5906
G01 X3.7561 Y-3.5826
G01 X3.8100 Y-3.5800
G01 X3.8639 Y-3.5826
G01 X3.9173 Y-3.5906
G01 X3.9697 Y-3.6037
G01 X4.0205 Y-3.6219
G01 X4.0693 Y-3.6449
G01 X4.1156 Y-3.6727
G01 X4.1589 Y-3.7048
G01 X4.1989 Y-3.7411
G01 X4.2352 Y-3.7811
G01 X4.2673 Y-3.8244
G01 X4.2951 Y-3.8707
G01 X4.3181 Y-3.9195
G01 X4.3363 Y-3.9703
G01 X4.3494 Y-4.0227
G01 X4.3574 Y-4.0761
G01 X4.3600 Y-4.1300
G00 X4.3600 Y-4.1300
G01 F70.00
G01 Z-2.0000
G01 F120.00
G01 X4.3574 Y-4.1839
G01 X4.3494 Y-4.2373
G01 X4.3363 Y-4.2897
G01 X4.3181 Y-4.3405
G01 X4.2951 Y-4.3893
G01 X4.2673 Y-4.4356
G01 X4.2352 Y-4.4789
G01 X4.1989 Y-4.5189
G01 X4.1589 Y-4.5552
G01 X4.1156 Y-4.5873
G01 X4.0693 Y-4.6151
G01 X4.0205 Y-4.6381
G01 X3.9697 Y-4.6563
G01 X3.9173 Y-4.6694
G01 X3.8639 Y-4.6774
G01 X3.8100 Y-4.6800
G01 X3.7561 Y-4.6774
G01 X3.7027 Y-4.6694
G01 X3.6503 Y-4.6563
G01 X3.5995 Y-4.6381
G01 X3.5507 Y-4.6151
G01 X3.5044 Y-4.5873
G01 X3.4611 Y-4.5552
G01 X3.4211 Y-4.5189
G01 X3.3848 Y-4.4789
G01 X3.3527 Y-4.4356
G01 X3.3249 Y-4.3893
G01 X3.3019 Y-4.3405
G01 X3.2837 Y-4.2897
G01 X3.2706 Y-4.2373
G01 X3.2626 Y-4.1839
G01 X3.2600 Y-4.1300
G01 X3.2626 Y-4.0761
G01 X3.2706 Y-4.0227
G01 X3.2837 Y-3.9703
G01 X3.3019 Y-3.9195
G01 X3.3249 Y-3.8707
G01 X3.3527 Y-3.8244
G01 X3.3848 Y-3.7811
G01 X3.4211 Y-3.7411
G01 X3.4611 Y-3.7048
G01 X3.5044 Y-3.6727
G01 X3.5507 Y-3.6449
G01 X3.5995 Y-3.6219
G01 X3.6503 Y-3.6037
G01 X3.7027 Y-3.5906
G01 X3.7561 Y-3.5826
G01 X3.8100 Y-3.5800
G01 X3.8639 Y-3.5826
G01 X3.9173 Y-3.5906
G01 X3.9697 Y-3.6037
G01 X4.0205 Y-3.6219
G01 X4.0693 Y-3.6449
G01 X4.1156 Y-3.6727
G01 X4.1589 Y-3.7048
G01 X4.1989 Y-3.7411
G01 X4.2352 Y-3.7811
G01 X4.2673 Y-3.8244
G01 X4.2951 Y-3.8707
G01 X4.3181 Y-3.9195
G01 X4.3363 Y-3.9703
G01 X4.3494 Y-4.0227
G01 X4.3574 Y-4.0761
G01 X4.3600 Y-4.1300
G00 Z2.0000
M05
G00 Z2.0000
G00 Z25.00

