(G-CODE GENERATED BY FLATCAM v8.993 - www.flatcam.org - Version Date: 2020/06/05)

(Name: ion_Ф1_верх.gbr_cutout_cnc)
(Type: G-code from Geometry)
(Units: MM)

(Created on Thursday, 23 September 2021 at 12:05)

(This preprocessor is the default preprocessor used by FlatCAM.)
(It is made to work with MACH3 compatible motion controllers.)

(TOOL DIAMETER: 2.0 mm)
(Feedrate_XY: 120.0 mm/min)
(Feedrate_Z: 70.0 mm/min)
(Feedrate rapids 1500.0 mm/min)

(Z_Cut: -1.8 mm)
(DepthPerCut: 0.1 mm <=>18 passes)
(Z_Move: 2.0 mm)
(Z Start: None mm)
(Z End: 25.0 mm)
(Steps per circle: 128)
(Preprocessor Geometry: default)

(X range:   -1.1000 ...   19.1000  mm)
(Y range:   -9.4000 ...    1.1000  mm)

(Spindle Speed: 10000 RPM)
G21
G90
G94



G01 F120.00
G00 Z2.0000

M03 S10000
G00 X18.0000 Y-9.4000
G01 F70.00
G01 Z-0.1000
G01 F120.00
G01 X0.0000 Y-9.4000
G01 X-0.1078 Y-9.3947
G01 X-0.2146 Y-9.3789
G01 X-0.3193 Y-9.3526
G01 X-0.4210 Y-9.3163
G01 X-0.5185 Y-9.2701
G01 X-0.6111 Y-9.2146
G01 X-0.6978 Y-9.1503
G01 X-0.7778 Y-9.0778
G01 X-0.8503 Y-8.9978
G01 X-0.9146 Y-8.9111
G01 X-0.9701 Y-8.8185
G01 X-1.0163 Y-8.7210
G01 X-1.0526 Y-8.6193
G01 X-1.0789 Y-8.5146
G01 X-1.0947 Y-8.4078
G01 X-1.1000 Y-8.3000
G01 X-1.1000 Y-0.0000
G01 X-1.0947 Y0.1078
G01 X-1.0789 Y0.2146
G01 X-1.0526 Y0.3193
G01 X-1.0163 Y0.4210
G01 X-0.9701 Y0.5185
G01 X-0.9146 Y0.6111
G01 X-0.8503 Y0.6978
G01 X-0.7778 Y0.7778
G01 X-0.6978 Y0.8503
G01 X-0.6111 Y0.9146
G01 X-0.5185 Y0.9701
G01 X-0.4210 Y1.0163
G01 X-0.3193 Y1.0526
G01 X-0.2146 Y1.0789
G01 X-0.1078 Y1.0947
G01 X0.0000 Y1.1000
G01 X18.0000 Y1.1000
G01 X18.1078 Y1.0947
G01 X18.2146 Y1.0789
G01 X18.3193 Y1.0526
G01 X18.4210 Y1.0163
G01 X18.5185 Y0.9701
G01 X18.6111 Y0.9146
G01 X18.6978 Y0.8503
G01 X18.7778 Y0.7778
G01 X18.8503 Y0.6978
G01 X18.9146 Y0.6111
G01 X18.9701 Y0.5185
G01 X19.0163 Y0.4210
G01 X19.0526 Y0.3193
G01 X19.0789 Y0.2146
G01 X19.0947 Y0.1078
G01 X19.1000 Y-0.0000
G01 X19.1000 Y-8.3000
G01 X19.0947 Y-8.4078
G01 X19.0789 Y-8.5146
G01 X19.0526 Y-8.6193
G01 X19.0163 Y-8.7210
G01 X18.9701 Y-8.8185
G01 X18.9146 Y-8.9111
G01 X18.8503 Y-8.9978
G01 X18.7778 Y-9.0778
G01 X18.6978 Y-9.1503
G01 X18.6111 Y-9.2146
G01 X18.5185 Y-9.2701
G01 X18.4210 Y-9.3163
G01 X18.3193 Y-9.3526
G01 X18.2146 Y-9.3789
G01 X18.1078 Y-9.3947
G01 X18.0000 Y-9.4000
G00 X18.0000 Y-9.4000
G01 F70.00
G01 Z-0.2000
G01 F120.00
G01 X18.1078 Y-9.3947
G01 X18.2146 Y-9.3789
G01 X18.3193 Y-9.3526
G01 X18.4210 Y-9.3163
G01 X18.5185 Y-9.2701
G01 X18.6111 Y-9.2146
G01 X18.6978 Y-9.1503
G01 X18.7778 Y-9.0778
G01 X18.8503 Y-8.9978
G01 X18.9146 Y-8.9111
G01 X18.9701 Y-8.8185
G01 X19.0163 Y-8.7210
G01 X19.0526 Y-8.6193
G01 X19.0789 Y-8.5146
G01 X19.0947 Y-8.4078
G01 X19.1000 Y-8.3000
G01 X19.1000 Y-0.0000
G01 X19.0947 Y0.1078
G01 X19.0789 Y0.2146
G01 X19.0526 Y0.3193
G01 X19.0163 Y0.4210
G01 X18.9701 Y0.5185
G01 X18.9146 Y0.6111
G01 X18.8503 Y0.6978
G01 X18.7778 Y0.7778
G01 X18.6978 Y0.8503
G01 X18.6111 Y0.9146
G01 X18.5185 Y0.9701
G01 X18.4210 Y1.0163
G01 X18.3193 Y1.0526
G01 X18.2146 Y1.0789
G01 X18.1078 Y1.0947
G01 X18.0000 Y1.1000
G01 X0.0000 Y1.1000
G01 X-0.1078 Y1.0947
G01 X-0.2146 Y1.0789
G01 X-0.3193 Y1.0526
G01 X-0.4210 Y1.0163
G01 X-0.5185 Y0.9701
G01 X-0.6111 Y0.9146
G01 X-0.6978 Y0.8503
G01 X-0.7778 Y0.7778
G01 X-0.8503 Y0.6978
G01 X-0.9146 Y0.6111
G01 X-0.9701 Y0.5185
G01 X-1.0163 Y0.4210
G01 X-1.0526 Y0.3193
G01 X-1.0789 Y0.2146
G01 X-1.0947 Y0.1078
G01 X-1.1000 Y-0.0000
G01 X-1.1000 Y-8.3000
G01 X-1.0947 Y-8.4078
G01 X-1.0789 Y-8.5146
G01 X-1.0526 Y-8.6193
G01 X-1.0163 Y-8.7210
G01 X-0.9701 Y-8.8185
G01 X-0.9146 Y-8.9111
G01 X-0.8503 Y-8.9978
G01 X-0.7778 Y-9.0778
G01 X-0.6978 Y-9.1503
G01 X-0.6111 Y-9.2146
G01 X-0.5185 Y-9.2701
G01 X-0.4210 Y-9.3163
G01 X-0.3193 Y-9.3526
G01 X-0.2146 Y-9.3789
G01 X-0.1078 Y-9.3947
G01 X0.0000 Y-9.4000
G01 X18.0000 Y-9.4000
G00 X18.0000 Y-9.4000
G01 F70.00
G01 Z-0.3000
G01 F120.00
G01 X0.0000 Y-9.4000
G01 X-0.1078 Y-9.3947
G01 X-0.2146 Y-9.3789
G01 X-0.3193 Y-9.3526
G01 X-0.4210 Y-9.3163
G01 X-0.5185 Y-9.2701
G01 X-0.6111 Y-9.2146
G01 X-0.6978 Y-9.1503
G01 X-0.7778 Y-9.0778
G01 X-0.8503 Y-8.9978
G01 X-0.9146 Y-8.9111
G01 X-0.9701 Y-8.8185
G01 X-1.0163 Y-8.7210
G01 X-1.0526 Y-8.6193
G01 X-1.0789 Y-8.5146
G01 X-1.0947 Y-8.4078
G01 X-1.1000 Y-8.3000
G01 X-1.1000 Y-0.0000
G01 X-1.0947 Y0.1078
G01 X-1.0789 Y0.2146
G01 X-1.0526 Y0.3193
G01 X-1.0163 Y0.4210
G01 X-0.9701 Y0.5185
G01 X-0.9146 Y0.6111
G01 X-0.8503 Y0.6978
G01 X-0.7778 Y0.7778
G01 X-0.6978 Y0.8503
G01 X-0.6111 Y0.9146
G01 X-0.5185 Y0.9701
G01 X-0.4210 Y1.0163
G01 X-0.3193 Y1.0526
G01 X-0.2146 Y1.0789
G01 X-0.1078 Y1.0947
G01 X0.0000 Y1.1000
G01 X18.0000 Y1.1000
G01 X18.1078 Y1.0947
G01 X18.2146 Y1.0789
G01 X18.3193 Y1.0526
G01 X18.4210 Y1.0163
G01 X18.5185 Y0.9701
G01 X18.6111 Y0.9146
G01 X18.6978 Y0.8503
G01 X18.7778 Y0.7778
G01 X18.8503 Y0.6978
G01 X18.9146 Y0.6111
G01 X18.9701 Y0.5185
G01 X19.0163 Y0.4210
G01 X19.0526 Y0.3193
G01 X19.0789 Y0.2146
G01 X19.0947 Y0.1078
G01 X19.1000 Y-0.0000
G01 X19.1000 Y-8.3000
G01 X19.0947 Y-8.4078
G01 X19.0789 Y-8.5146
G01 X19.0526 Y-8.6193
G01 X19.0163 Y-8.7210
G01 X18.9701 Y-8.8185
G01 X18.9146 Y-8.9111
G01 X18.8503 Y-8.9978
G01 X18.7778 Y-9.0778
G01 X18.6978 Y-9.1503
G01 X18.6111 Y-9.2146
G01 X18.5185 Y-9.2701
G01 X18.4210 Y-9.3163
G01 X18.3193 Y-9.3526
G01 X18.2146 Y-9.3789
G01 X18.1078 Y-9.3947
G01 X18.0000 Y-9.4000
G00 X18.0000 Y-9.4000
G01 F70.00
G01 Z-0.4000
G01 F120.00
G01 X18.1078 Y-9.3947
G01 X18.2146 Y-9.3789
G01 X18.3193 Y-9.3526
G01 X18.4210 Y-9.3163
G01 X18.5185 Y-9.2701
G01 X18.6111 Y-9.2146
G01 X18.6978 Y-9.1503
G01 X18.7778 Y-9.0778
G01 X18.8503 Y-8.9978
G01 X18.9146 Y-8.9111
G01 X18.9701 Y-8.8185
G01 X19.0163 Y-8.7210
G01 X19.0526 Y-8.6193
G01 X19.0789 Y-8.5146
G01 X19.0947 Y-8.4078
G01 X19.1000 Y-8.3000
G01 X19.1000 Y-0.0000
G01 X19.0947 Y0.1078
G01 X19.0789 Y0.2146
G01 X19.0526 Y0.3193
G01 X19.0163 Y0.4210
G01 X18.9701 Y0.5185
G01 X18.9146 Y0.6111
G01 X18.8503 Y0.6978
G01 X18.7778 Y0.7778
G01 X18.6978 Y0.8503
G01 X18.6111 Y0.9146
G01 X18.5185 Y0.9701
G01 X18.4210 Y1.0163
G01 X18.3193 Y1.0526
G01 X18.2146 Y1.0789
G01 X18.1078 Y1.0947
G01 X18.0000 Y1.1000
G01 X0.0000 Y1.1000
G01 X-0.1078 Y1.0947
G01 X-0.2146 Y1.0789
G01 X-0.3193 Y1.0526
G01 X-0.4210 Y1.0163
G01 X-0.5185 Y0.9701
G01 X-0.6111 Y0.9146
G01 X-0.6978 Y0.8503
G01 X-0.7778 Y0.7778
G01 X-0.8503 Y0.6978
G01 X-0.9146 Y0.6111
G01 X-0.9701 Y0.5185
G01 X-1.0163 Y0.4210
G01 X-1.0526 Y0.3193
G01 X-1.0789 Y0.2146
G01 X-1.0947 Y0.1078
G01 X-1.1000 Y-0.0000
G01 X-1.1000 Y-8.3000
G01 X-1.0947 Y-8.4078
G01 X-1.0789 Y-8.5146
G01 X-1.0526 Y-8.6193
G01 X-1.0163 Y-8.7210
G01 X-0.9701 Y-8.8185
G01 X-0.9146 Y-8.9111
G01 X-0.8503 Y-8.9978
G01 X-0.7778 Y-9.0778
G01 X-0.6978 Y-9.1503
G01 X-0.6111 Y-9.2146
G01 X-0.5185 Y-9.2701
G01 X-0.4210 Y-9.3163
G01 X-0.3193 Y-9.3526
G01 X-0.2146 Y-9.3789
G01 X-0.1078 Y-9.3947
G01 X0.0000 Y-9.4000
G01 X18.0000 Y-9.4000
G00 X18.0000 Y-9.4000
G01 F70.00
G01 Z-0.5000
G01 F120.00
G01 X0.0000 Y-9.4000
G01 X-0.1078 Y-9.3947
G01 X-0.2146 Y-9.3789
G01 X-0.3193 Y-9.3526
G01 X-0.4210 Y-9.3163
G01 X-0.5185 Y-9.2701
G01 X-0.6111 Y-9.2146
G01 X-0.6978 Y-9.1503
G01 X-0.7778 Y-9.0778
G01 X-0.8503 Y-8.9978
G01 X-0.9146 Y-8.9111
G01 X-0.9701 Y-8.8185
G01 X-1.0163 Y-8.7210
G01 X-1.0526 Y-8.6193
G01 X-1.0789 Y-8.5146
G01 X-1.0947 Y-8.4078
G01 X-1.1000 Y-8.3000
G01 X-1.1000 Y-0.0000
G01 X-1.0947 Y0.1078
G01 X-1.0789 Y0.2146
G01 X-1.0526 Y0.3193
G01 X-1.0163 Y0.4210
G01 X-0.9701 Y0.5185
G01 X-0.9146 Y0.6111
G01 X-0.8503 Y0.6978
G01 X-0.7778 Y0.7778
G01 X-0.6978 Y0.8503
G01 X-0.6111 Y0.9146
G01 X-0.5185 Y0.9701
G01 X-0.4210 Y1.0163
G01 X-0.3193 Y1.0526
G01 X-0.2146 Y1.0789
G01 X-0.1078 Y1.0947
G01 X0.0000 Y1.1000
G01 X18.0000 Y1.1000
G01 X18.1078 Y1.0947
G01 X18.2146 Y1.0789
G01 X18.3193 Y1.0526
G01 X18.4210 Y1.0163
G01 X18.5185 Y0.9701
G01 X18.6111 Y0.9146
G01 X18.6978 Y0.8503
G01 X18.7778 Y0.7778
G01 X18.8503 Y0.6978
G01 X18.9146 Y0.6111
G01 X18.9701 Y0.5185
G01 X19.0163 Y0.4210
G01 X19.0526 Y0.3193
G01 X19.0789 Y0.2146
G01 X19.0947 Y0.1078
G01 X19.1000 Y-0.0000
G01 X19.1000 Y-8.3000
G01 X19.0947 Y-8.4078
G01 X19.0789 Y-8.5146
G01 X19.0526 Y-8.6193
G01 X19.0163 Y-8.7210
G01 X18.9701 Y-8.8185
G01 X18.9146 Y-8.9111
G01 X18.8503 Y-8.9978
G01 X18.7778 Y-9.0778
G01 X18.6978 Y-9.1503
G01 X18.6111 Y-9.2146
G01 X18.5185 Y-9.2701
G01 X18.4210 Y-9.3163
G01 X18.3193 Y-9.3526
G01 X18.2146 Y-9.3789
G01 X18.1078 Y-9.3947
G01 X18.0000 Y-9.4000
G00 X18.0000 Y-9.4000
G01 F70.00
G01 Z-0.6000
G01 F120.00
G01 X18.1078 Y-9.3947
G01 X18.2146 Y-9.3789
G01 X18.3193 Y-9.3526
G01 X18.4210 Y-9.3163
G01 X18.5185 Y-9.2701
G01 X18.6111 Y-9.2146
G01 X18.6978 Y-9.1503
G01 X18.7778 Y-9.0778
G01 X18.8503 Y-8.9978
G01 X18.9146 Y-8.9111
G01 X18.9701 Y-8.8185
G01 X19.0163 Y-8.7210
G01 X19.0526 Y-8.6193
G01 X19.0789 Y-8.5146
G01 X19.0947 Y-8.4078
G01 X19.1000 Y-8.3000
G01 X19.1000 Y-0.0000
G01 X19.0947 Y0.1078
G01 X19.0789 Y0.2146
G01 X19.0526 Y0.3193
G01 X19.0163 Y0.4210
G01 X18.9701 Y0.5185
G01 X18.9146 Y0.6111
G01 X18.8503 Y0.6978
G01 X18.7778 Y0.7778
G01 X18.6978 Y0.8503
G01 X18.6111 Y0.9146
G01 X18.5185 Y0.9701
G01 X18.4210 Y1.0163
G01 X18.3193 Y1.0526
G01 X18.2146 Y1.0789
G01 X18.1078 Y1.0947
G01 X18.0000 Y1.1000
G01 X0.0000 Y1.1000
G01 X-0.1078 Y1.0947
G01 X-0.2146 Y1.0789
G01 X-0.3193 Y1.0526
G01 X-0.4210 Y1.0163
G01 X-0.5185 Y0.9701
G01 X-0.6111 Y0.9146
G01 X-0.6978 Y0.8503
G01 X-0.7778 Y0.7778
G01 X-0.8503 Y0.6978
G01 X-0.9146 Y0.6111
G01 X-0.9701 Y0.5185
G01 X-1.0163 Y0.4210
G01 X-1.0526 Y0.3193
G01 X-1.0789 Y0.2146
G01 X-1.0947 Y0.1078
G01 X-1.1000 Y-0.0000
G01 X-1.1000 Y-8.3000
G01 X-1.0947 Y-8.4078
G01 X-1.0789 Y-8.5146
G01 X-1.0526 Y-8.6193
G01 X-1.0163 Y-8.7210
G01 X-0.9701 Y-8.8185
G01 X-0.9146 Y-8.9111
G01 X-0.8503 Y-8.9978
G01 X-0.7778 Y-9.0778
G01 X-0.6978 Y-9.1503
G01 X-0.6111 Y-9.2146
G01 X-0.5185 Y-9.2701
G01 X-0.4210 Y-9.3163
G01 X-0.3193 Y-9.3526
G01 X-0.2146 Y-9.3789
G01 X-0.1078 Y-9.3947
G01 X0.0000 Y-9.4000
G01 X18.0000 Y-9.4000
G00 X18.0000 Y-9.4000
G01 F70.00
G01 Z-0.7000
G01 F120.00
G01 X0.0000 Y-9.4000
G01 X-0.1078 Y-9.3947
G01 X-0.2146 Y-9.3789
G01 X-0.3193 Y-9.3526
G01 X-0.4210 Y-9.3163
G01 X-0.5185 Y-9.2701
G01 X-0.6111 Y-9.2146
G01 X-0.6978 Y-9.1503
G01 X-0.7778 Y-9.0778
G01 X-0.8503 Y-8.9978
G01 X-0.9146 Y-8.9111
G01 X-0.9701 Y-8.8185
G01 X-1.0163 Y-8.7210
G01 X-1.0526 Y-8.6193
G01 X-1.0789 Y-8.5146
G01 X-1.0947 Y-8.4078
G01 X-1.1000 Y-8.3000
G01 X-1.1000 Y-0.0000
G01 X-1.0947 Y0.1078
G01 X-1.0789 Y0.2146
G01 X-1.0526 Y0.3193
G01 X-1.0163 Y0.4210
G01 X-0.9701 Y0.5185
G01 X-0.9146 Y0.6111
G01 X-0.8503 Y0.6978
G01 X-0.7778 Y0.7778
G01 X-0.6978 Y0.8503
G01 X-0.6111 Y0.9146
G01 X-0.5185 Y0.9701
G01 X-0.4210 Y1.0163
G01 X-0.3193 Y1.0526
G01 X-0.2146 Y1.0789
G01 X-0.1078 Y1.0947
G01 X0.0000 Y1.1000
G01 X18.0000 Y1.1000
G01 X18.1078 Y1.0947
G01 X18.2146 Y1.0789
G01 X18.3193 Y1.0526
G01 X18.4210 Y1.0163
G01 X18.5185 Y0.9701
G01 X18.6111 Y0.9146
G01 X18.6978 Y0.8503
G01 X18.7778 Y0.7778
G01 X18.8503 Y0.6978
G01 X18.9146 Y0.6111
G01 X18.9701 Y0.5185
G01 X19.0163 Y0.4210
G01 X19.0526 Y0.3193
G01 X19.0789 Y0.2146
G01 X19.0947 Y0.1078
G01 X19.1000 Y-0.0000
G01 X19.1000 Y-8.3000
G01 X19.0947 Y-8.4078
G01 X19.0789 Y-8.5146
G01 X19.0526 Y-8.6193
G01 X19.0163 Y-8.7210
G01 X18.9701 Y-8.8185
G01 X18.9146 Y-8.9111
G01 X18.8503 Y-8.9978
G01 X18.7778 Y-9.0778
G01 X18.6978 Y-9.1503
G01 X18.6111 Y-9.2146
G01 X18.5185 Y-9.2701
G01 X18.4210 Y-9.3163
G01 X18.3193 Y-9.3526
G01 X18.2146 Y-9.3789
G01 X18.1078 Y-9.3947
G01 X18.0000 Y-9.4000
G00 X18.0000 Y-9.4000
G01 F70.00
G01 Z-0.8000
G01 F120.00
G01 X18.1078 Y-9.3947
G01 X18.2146 Y-9.3789
G01 X18.3193 Y-9.3526
G01 X18.4210 Y-9.3163
G01 X18.5185 Y-9.2701
G01 X18.6111 Y-9.2146
G01 X18.6978 Y-9.1503
G01 X18.7778 Y-9.0778
G01 X18.8503 Y-8.9978
G01 X18.9146 Y-8.9111
G01 X18.9701 Y-8.8185
G01 X19.0163 Y-8.7210
G01 X19.0526 Y-8.6193
G01 X19.0789 Y-8.5146
G01 X19.0947 Y-8.4078
G01 X19.1000 Y-8.3000
G01 X19.1000 Y-0.0000
G01 X19.0947 Y0.1078
G01 X19.0789 Y0.2146
G01 X19.0526 Y0.3193
G01 X19.0163 Y0.4210
G01 X18.9701 Y0.5185
G01 X18.9146 Y0.6111
G01 X18.8503 Y0.6978
G01 X18.7778 Y0.7778
G01 X18.6978 Y0.8503
G01 X18.6111 Y0.9146
G01 X18.5185 Y0.9701
G01 X18.4210 Y1.0163
G01 X18.3193 Y1.0526
G01 X18.2146 Y1.0789
G01 X18.1078 Y1.0947
G01 X18.0000 Y1.1000
G01 X0.0000 Y1.1000
G01 X-0.1078 Y1.0947
G01 X-0.2146 Y1.0789
G01 X-0.3193 Y1.0526
G01 X-0.4210 Y1.0163
G01 X-0.5185 Y0.9701
G01 X-0.6111 Y0.9146
G01 X-0.6978 Y0.8503
G01 X-0.7778 Y0.7778
G01 X-0.8503 Y0.6978
G01 X-0.9146 Y0.6111
G01 X-0.9701 Y0.5185
G01 X-1.0163 Y0.4210
G01 X-1.0526 Y0.3193
G01 X-1.0789 Y0.2146
G01 X-1.0947 Y0.1078
G01 X-1.1000 Y-0.0000
G01 X-1.1000 Y-8.3000
G01 X-1.0947 Y-8.4078
G01 X-1.0789 Y-8.5146
G01 X-1.0526 Y-8.6193
G01 X-1.0163 Y-8.7210
G01 X-0.9701 Y-8.8185
G01 X-0.9146 Y-8.9111
G01 X-0.8503 Y-8.9978
G01 X-0.7778 Y-9.0778
G01 X-0.6978 Y-9.1503
G01 X-0.6111 Y-9.2146
G01 X-0.5185 Y-9.2701
G01 X-0.4210 Y-9.3163
G01 X-0.3193 Y-9.3526
G01 X-0.2146 Y-9.3789
G01 X-0.1078 Y-9.3947
G01 X0.0000 Y-9.4000
G01 X18.0000 Y-9.4000
G00 X18.0000 Y-9.4000
G01 F70.00
G01 Z-0.9000
G01 F120.00
G01 X0.0000 Y-9.4000
G01 X-0.1078 Y-9.3947
G01 X-0.2146 Y-9.3789
G01 X-0.3193 Y-9.3526
G01 X-0.4210 Y-9.3163
G01 X-0.5185 Y-9.2701
G01 X-0.6111 Y-9.2146
G01 X-0.6978 Y-9.1503
G01 X-0.7778 Y-9.0778
G01 X-0.8503 Y-8.9978
G01 X-0.9146 Y-8.9111
G01 X-0.9701 Y-8.8185
G01 X-1.0163 Y-8.7210
G01 X-1.0526 Y-8.6193
G01 X-1.0789 Y-8.5146
G01 X-1.0947 Y-8.4078
G01 X-1.1000 Y-8.3000
G01 X-1.1000 Y-0.0000
G01 X-1.0947 Y0.1078
G01 X-1.0789 Y0.2146
G01 X-1.0526 Y0.3193
G01 X-1.0163 Y0.4210
G01 X-0.9701 Y0.5185
G01 X-0.9146 Y0.6111
G01 X-0.8503 Y0.6978
G01 X-0.7778 Y0.7778
G01 X-0.6978 Y0.8503
G01 X-0.6111 Y0.9146
G01 X-0.5185 Y0.9701
G01 X-0.4210 Y1.0163
G01 X-0.3193 Y1.0526
G01 X-0.2146 Y1.0789
G01 X-0.1078 Y1.0947
G01 X0.0000 Y1.1000
G01 X18.0000 Y1.1000
G01 X18.1078 Y1.0947
G01 X18.2146 Y1.0789
G01 X18.3193 Y1.0526
G01 X18.4210 Y1.0163
G01 X18.5185 Y0.9701
G01 X18.6111 Y0.9146
G01 X18.6978 Y0.8503
G01 X18.7778 Y0.7778
G01 X18.8503 Y0.6978
G01 X18.9146 Y0.6111
G01 X18.9701 Y0.5185
G01 X19.0163 Y0.4210
G01 X19.0526 Y0.3193
G01 X19.0789 Y0.2146
G01 X19.0947 Y0.1078
G01 X19.1000 Y-0.0000
G01 X19.1000 Y-8.3000
G01 X19.0947 Y-8.4078
G01 X19.0789 Y-8.5146
G01 X19.0526 Y-8.6193
G01 X19.0163 Y-8.7210
G01 X18.9701 Y-8.8185
G01 X18.9146 Y-8.9111
G01 X18.8503 Y-8.9978
G01 X18.7778 Y-9.0778
G01 X18.6978 Y-9.1503
G01 X18.6111 Y-9.2146
G01 X18.5185 Y-9.2701
G01 X18.4210 Y-9.3163
G01 X18.3193 Y-9.3526
G01 X18.2146 Y-9.3789
G01 X18.1078 Y-9.3947
G01 X18.0000 Y-9.4000
G00 X18.0000 Y-9.4000
G01 F70.00
G01 Z-1.0000
G01 F120.00
G01 X18.1078 Y-9.3947
G01 X18.2146 Y-9.3789
G01 X18.3193 Y-9.3526
G01 X18.4210 Y-9.3163
G01 X18.5185 Y-9.2701
G01 X18.6111 Y-9.2146
G01 X18.6978 Y-9.1503
G01 X18.7778 Y-9.0778
G01 X18.8503 Y-8.9978
G01 X18.9146 Y-8.9111
G01 X18.9701 Y-8.8185
G01 X19.0163 Y-8.7210
G01 X19.0526 Y-8.6193
G01 X19.0789 Y-8.5146
G01 X19.0947 Y-8.4078
G01 X19.1000 Y-8.3000
G01 X19.1000 Y-0.0000
G01 X19.0947 Y0.1078
G01 X19.0789 Y0.2146
G01 X19.0526 Y0.3193
G01 X19.0163 Y0.4210
G01 X18.9701 Y0.5185
G01 X18.9146 Y0.6111
G01 X18.8503 Y0.6978
G01 X18.7778 Y0.7778
G01 X18.6978 Y0.8503
G01 X18.6111 Y0.9146
G01 X18.5185 Y0.9701
G01 X18.4210 Y1.0163
G01 X18.3193 Y1.0526
G01 X18.2146 Y1.0789
G01 X18.1078 Y1.0947
G01 X18.0000 Y1.1000
G01 X0.0000 Y1.1000
G01 X-0.1078 Y1.0947
G01 X-0.2146 Y1.0789
G01 X-0.3193 Y1.0526
G01 X-0.4210 Y1.0163
G01 X-0.5185 Y0.9701
G01 X-0.6111 Y0.9146
G01 X-0.6978 Y0.8503
G01 X-0.7778 Y0.7778
G01 X-0.8503 Y0.6978
G01 X-0.9146 Y0.6111
G01 X-0.9701 Y0.5185
G01 X-1.0163 Y0.4210
G01 X-1.0526 Y0.3193
G01 X-1.0789 Y0.2146
G01 X-1.0947 Y0.1078
G01 X-1.1000 Y-0.0000
G01 X-1.1000 Y-8.3000
G01 X-1.0947 Y-8.4078
G01 X-1.0789 Y-8.5146
G01 X-1.0526 Y-8.6193
G01 X-1.0163 Y-8.7210
G01 X-0.9701 Y-8.8185
G01 X-0.9146 Y-8.9111
G01 X-0.8503 Y-8.9978
G01 X-0.7778 Y-9.0778
G01 X-0.6978 Y-9.1503
G01 X-0.6111 Y-9.2146
G01 X-0.5185 Y-9.2701
G01 X-0.4210 Y-9.3163
G01 X-0.3193 Y-9.3526
G01 X-0.2146 Y-9.3789
G01 X-0.1078 Y-9.3947
G01 X0.0000 Y-9.4000
G01 X18.0000 Y-9.4000
G00 X18.0000 Y-9.4000
G01 F70.00
G01 Z-1.1000
G01 F120.00
G01 X0.0000 Y-9.4000
G01 X-0.1078 Y-9.3947
G01 X-0.2146 Y-9.3789
G01 X-0.3193 Y-9.3526
G01 X-0.4210 Y-9.3163
G01 X-0.5185 Y-9.2701
G01 X-0.6111 Y-9.2146
G01 X-0.6978 Y-9.1503
G01 X-0.7778 Y-9.0778
G01 X-0.8503 Y-8.9978
G01 X-0.9146 Y-8.9111
G01 X-0.9701 Y-8.8185
G01 X-1.0163 Y-8.7210
G01 X-1.0526 Y-8.6193
G01 X-1.0789 Y-8.5146
G01 X-1.0947 Y-8.4078
G01 X-1.1000 Y-8.3000
G01 X-1.1000 Y-0.0000
G01 X-1.0947 Y0.1078
G01 X-1.0789 Y0.2146
G01 X-1.0526 Y0.3193
G01 X-1.0163 Y0.4210
G01 X-0.9701 Y0.5185
G01 X-0.9146 Y0.6111
G01 X-0.8503 Y0.6978
G01 X-0.7778 Y0.7778
G01 X-0.6978 Y0.8503
G01 X-0.6111 Y0.9146
G01 X-0.5185 Y0.9701
G01 X-0.4210 Y1.0163
G01 X-0.3193 Y1.0526
G01 X-0.2146 Y1.0789
G01 X-0.1078 Y1.0947
G01 X0.0000 Y1.1000
G01 X18.0000 Y1.1000
G01 X18.1078 Y1.0947
G01 X18.2146 Y1.0789
G01 X18.3193 Y1.0526
G01 X18.4210 Y1.0163
G01 X18.5185 Y0.9701
G01 X18.6111 Y0.9146
G01 X18.6978 Y0.8503
G01 X18.7778 Y0.7778
G01 X18.8503 Y0.6978
G01 X18.9146 Y0.6111
G01 X18.9701 Y0.5185
G01 X19.0163 Y0.4210
G01 X19.0526 Y0.3193
G01 X19.0789 Y0.2146
G01 X19.0947 Y0.1078
G01 X19.1000 Y-0.0000
G01 X19.1000 Y-8.3000
G01 X19.0947 Y-8.4078
G01 X19.0789 Y-8.5146
G01 X19.0526 Y-8.6193
G01 X19.0163 Y-8.7210
G01 X18.9701 Y-8.8185
G01 X18.9146 Y-8.9111
G01 X18.8503 Y-8.9978
G01 X18.7778 Y-9.0778
G01 X18.6978 Y-9.1503
G01 X18.6111 Y-9.2146
G01 X18.5185 Y-9.2701
G01 X18.4210 Y-9.3163
G01 X18.3193 Y-9.3526
G01 X18.2146 Y-9.3789
G01 X18.1078 Y-9.3947
G01 X18.0000 Y-9.4000
G00 X18.0000 Y-9.4000
G01 F70.00
G01 Z-1.2000
G01 F120.00
G01 X18.1078 Y-9.3947
G01 X18.2146 Y-9.3789
G01 X18.3193 Y-9.3526
G01 X18.4210 Y-9.3163
G01 X18.5185 Y-9.2701
G01 X18.6111 Y-9.2146
G01 X18.6978 Y-9.1503
G01 X18.7778 Y-9.0778
G01 X18.8503 Y-8.9978
G01 X18.9146 Y-8.9111
G01 X18.9701 Y-8.8185
G01 X19.0163 Y-8.7210
G01 X19.0526 Y-8.6193
G01 X19.0789 Y-8.5146
G01 X19.0947 Y-8.4078
G01 X19.1000 Y-8.3000
G01 X19.1000 Y-0.0000
G01 X19.0947 Y0.1078
G01 X19.0789 Y0.2146
G01 X19.0526 Y0.3193
G01 X19.0163 Y0.4210
G01 X18.9701 Y0.5185
G01 X18.9146 Y0.6111
G01 X18.8503 Y0.6978
G01 X18.7778 Y0.7778
G01 X18.6978 Y0.8503
G01 X18.6111 Y0.9146
G01 X18.5185 Y0.9701
G01 X18.4210 Y1.0163
G01 X18.3193 Y1.0526
G01 X18.2146 Y1.0789
G01 X18.1078 Y1.0947
G01 X18.0000 Y1.1000
G01 X0.0000 Y1.1000
G01 X-0.1078 Y1.0947
G01 X-0.2146 Y1.0789
G01 X-0.3193 Y1.0526
G01 X-0.4210 Y1.0163
G01 X-0.5185 Y0.9701
G01 X-0.6111 Y0.9146
G01 X-0.6978 Y0.8503
G01 X-0.7778 Y0.7778
G01 X-0.8503 Y0.6978
G01 X-0.9146 Y0.6111
G01 X-0.9701 Y0.5185
G01 X-1.0163 Y0.4210
G01 X-1.0526 Y0.3193
G01 X-1.0789 Y0.2146
G01 X-1.0947 Y0.1078
G01 X-1.1000 Y-0.0000
G01 X-1.1000 Y-8.3000
G01 X-1.0947 Y-8.4078
G01 X-1.0789 Y-8.5146
G01 X-1.0526 Y-8.6193
G01 X-1.0163 Y-8.7210
G01 X-0.9701 Y-8.8185
G01 X-0.9146 Y-8.9111
G01 X-0.8503 Y-8.9978
G01 X-0.7778 Y-9.0778
G01 X-0.6978 Y-9.1503
G01 X-0.6111 Y-9.2146
G01 X-0.5185 Y-9.2701
G01 X-0.4210 Y-9.3163
G01 X-0.3193 Y-9.3526
G01 X-0.2146 Y-9.3789
G01 X-0.1078 Y-9.3947
G01 X0.0000 Y-9.4000
G01 X18.0000 Y-9.4000
G00 X18.0000 Y-9.4000
G01 F70.00
G01 Z-1.3000
G01 F120.00
G01 X0.0000 Y-9.4000
G01 X-0.1078 Y-9.3947
G01 X-0.2146 Y-9.3789
G01 X-0.3193 Y-9.3526
G01 X-0.4210 Y-9.3163
G01 X-0.5185 Y-9.2701
G01 X-0.6111 Y-9.2146
G01 X-0.6978 Y-9.1503
G01 X-0.7778 Y-9.0778
G01 X-0.8503 Y-8.9978
G01 X-0.9146 Y-8.9111
G01 X-0.9701 Y-8.8185
G01 X-1.0163 Y-8.7210
G01 X-1.0526 Y-8.6193
G01 X-1.0789 Y-8.5146
G01 X-1.0947 Y-8.4078
G01 X-1.1000 Y-8.3000
G01 X-1.1000 Y-0.0000
G01 X-1.0947 Y0.1078
G01 X-1.0789 Y0.2146
G01 X-1.0526 Y0.3193
G01 X-1.0163 Y0.4210
G01 X-0.9701 Y0.5185
G01 X-0.9146 Y0.6111
G01 X-0.8503 Y0.6978
G01 X-0.7778 Y0.7778
G01 X-0.6978 Y0.8503
G01 X-0.6111 Y0.9146
G01 X-0.5185 Y0.9701
G01 X-0.4210 Y1.0163
G01 X-0.3193 Y1.0526
G01 X-0.2146 Y1.0789
G01 X-0.1078 Y1.0947
G01 X0.0000 Y1.1000
G01 X18.0000 Y1.1000
G01 X18.1078 Y1.0947
G01 X18.2146 Y1.0789
G01 X18.3193 Y1.0526
G01 X18.4210 Y1.0163
G01 X18.5185 Y0.9701
G01 X18.6111 Y0.9146
G01 X18.6978 Y0.8503
G01 X18.7778 Y0.7778
G01 X18.8503 Y0.6978
G01 X18.9146 Y0.6111
G01 X18.9701 Y0.5185
G01 X19.0163 Y0.4210
G01 X19.0526 Y0.3193
G01 X19.0789 Y0.2146
G01 X19.0947 Y0.1078
G01 X19.1000 Y-0.0000
G01 X19.1000 Y-8.3000
G01 X19.0947 Y-8.4078
G01 X19.0789 Y-8.5146
G01 X19.0526 Y-8.6193
G01 X19.0163 Y-8.7210
G01 X18.9701 Y-8.8185
G01 X18.9146 Y-8.9111
G01 X18.8503 Y-8.9978
G01 X18.7778 Y-9.0778
G01 X18.6978 Y-9.1503
G01 X18.6111 Y-9.2146
G01 X18.5185 Y-9.2701
G01 X18.4210 Y-9.3163
G01 X18.3193 Y-9.3526
G01 X18.2146 Y-9.3789
G01 X18.1078 Y-9.3947
G01 X18.0000 Y-9.4000
G00 X18.0000 Y-9.4000
G01 F70.00
G01 Z-1.4000
G01 F120.00
G01 X18.1078 Y-9.3947
G01 X18.2146 Y-9.3789
G01 X18.3193 Y-9.3526
G01 X18.4210 Y-9.3163
G01 X18.5185 Y-9.2701
G01 X18.6111 Y-9.2146
G01 X18.6978 Y-9.1503
G01 X18.7778 Y-9.0778
G01 X18.8503 Y-8.9978
G01 X18.9146 Y-8.9111
G01 X18.9701 Y-8.8185
G01 X19.0163 Y-8.7210
G01 X19.0526 Y-8.6193
G01 X19.0789 Y-8.5146
G01 X19.0947 Y-8.4078
G01 X19.1000 Y-8.3000
G01 X19.1000 Y-0.0000
G01 X19.0947 Y0.1078
G01 X19.0789 Y0.2146
G01 X19.0526 Y0.3193
G01 X19.0163 Y0.4210
G01 X18.9701 Y0.5185
G01 X18.9146 Y0.6111
G01 X18.8503 Y0.6978
G01 X18.7778 Y0.7778
G01 X18.6978 Y0.8503
G01 X18.6111 Y0.9146
G01 X18.5185 Y0.9701
G01 X18.4210 Y1.0163
G01 X18.3193 Y1.0526
G01 X18.2146 Y1.0789
G01 X18.1078 Y1.0947
G01 X18.0000 Y1.1000
G01 X0.0000 Y1.1000
G01 X-0.1078 Y1.0947
G01 X-0.2146 Y1.0789
G01 X-0.3193 Y1.0526
G01 X-0.4210 Y1.0163
G01 X-0.5185 Y0.9701
G01 X-0.6111 Y0.9146
G01 X-0.6978 Y0.8503
G01 X-0.7778 Y0.7778
G01 X-0.8503 Y0.6978
G01 X-0.9146 Y0.6111
G01 X-0.9701 Y0.5185
G01 X-1.0163 Y0.4210
G01 X-1.0526 Y0.3193
G01 X-1.0789 Y0.2146
G01 X-1.0947 Y0.1078
G01 X-1.1000 Y-0.0000
G01 X-1.1000 Y-8.3000
G01 X-1.0947 Y-8.4078
G01 X-1.0789 Y-8.5146
G01 X-1.0526 Y-8.6193
G01 X-1.0163 Y-8.7210
G01 X-0.9701 Y-8.8185
G01 X-0.9146 Y-8.9111
G01 X-0.8503 Y-8.9978
G01 X-0.7778 Y-9.0778
G01 X-0.6978 Y-9.1503
G01 X-0.6111 Y-9.2146
G01 X-0.5185 Y-9.2701
G01 X-0.4210 Y-9.3163
G01 X-0.3193 Y-9.3526
G01 X-0.2146 Y-9.3789
G01 X-0.1078 Y-9.3947
G01 X0.0000 Y-9.4000
G01 X18.0000 Y-9.4000
G00 X18.0000 Y-9.4000
G01 F70.00
G01 Z-1.5000
G01 F120.00
G01 X0.0000 Y-9.4000
G01 X-0.1078 Y-9.3947
G01 X-0.2146 Y-9.3789
G01 X-0.3193 Y-9.3526
G01 X-0.4210 Y-9.3163
G01 X-0.5185 Y-9.2701
G01 X-0.6111 Y-9.2146
G01 X-0.6978 Y-9.1503
G01 X-0.7778 Y-9.0778
G01 X-0.8503 Y-8.9978
G01 X-0.9146 Y-8.9111
G01 X-0.9701 Y-8.8185
G01 X-1.0163 Y-8.7210
G01 X-1.0526 Y-8.6193
G01 X-1.0789 Y-8.5146
G01 X-1.0947 Y-8.4078
G01 X-1.1000 Y-8.3000
G01 X-1.1000 Y-0.0000
G01 X-1.0947 Y0.1078
G01 X-1.0789 Y0.2146
G01 X-1.0526 Y0.3193
G01 X-1.0163 Y0.4210
G01 X-0.9701 Y0.5185
G01 X-0.9146 Y0.6111
G01 X-0.8503 Y0.6978
G01 X-0.7778 Y0.7778
G01 X-0.6978 Y0.8503
G01 X-0.6111 Y0.9146
G01 X-0.5185 Y0.9701
G01 X-0.4210 Y1.0163
G01 X-0.3193 Y1.0526
G01 X-0.2146 Y1.0789
G01 X-0.1078 Y1.0947
G01 X0.0000 Y1.1000
G01 X18.0000 Y1.1000
G01 X18.1078 Y1.0947
G01 X18.2146 Y1.0789
G01 X18.3193 Y1.0526
G01 X18.4210 Y1.0163
G01 X18.5185 Y0.9701
G01 X18.6111 Y0.9146
G01 X18.6978 Y0.8503
G01 X18.7778 Y0.7778
G01 X18.8503 Y0.6978
G01 X18.9146 Y0.6111
G01 X18.9701 Y0.5185
G01 X19.0163 Y0.4210
G01 X19.0526 Y0.3193
G01 X19.0789 Y0.2146
G01 X19.0947 Y0.1078
G01 X19.1000 Y-0.0000
G01 X19.1000 Y-8.3000
G01 X19.0947 Y-8.4078
G01 X19.0789 Y-8.5146
G01 X19.0526 Y-8.6193
G01 X19.0163 Y-8.7210
G01 X18.9701 Y-8.8185
G01 X18.9146 Y-8.9111
G01 X18.8503 Y-8.9978
G01 X18.7778 Y-9.0778
G01 X18.6978 Y-9.1503
G01 X18.6111 Y-9.2146
G01 X18.5185 Y-9.2701
G01 X18.4210 Y-9.3163
G01 X18.3193 Y-9.3526
G01 X18.2146 Y-9.3789
G01 X18.1078 Y-9.3947
G01 X18.0000 Y-9.4000
G00 X18.0000 Y-9.4000
G01 F70.00
G01 Z-1.6000
G01 F120.00
G01 X18.1078 Y-9.3947
G01 X18.2146 Y-9.3789
G01 X18.3193 Y-9.3526
G01 X18.4210 Y-9.3163
G01 X18.5185 Y-9.2701
G01 X18.6111 Y-9.2146
G01 X18.6978 Y-9.1503
G01 X18.7778 Y-9.0778
G01 X18.8503 Y-8.9978
G01 X18.9146 Y-8.9111
G01 X18.9701 Y-8.8185
G01 X19.0163 Y-8.7210
G01 X19.0526 Y-8.6193
G01 X19.0789 Y-8.5146
G01 X19.0947 Y-8.4078
G01 X19.1000 Y-8.3000
G01 X19.1000 Y-0.0000
G01 X19.0947 Y0.1078
G01 X19.0789 Y0.2146
G01 X19.0526 Y0.3193
G01 X19.0163 Y0.4210
G01 X18.9701 Y0.5185
G01 X18.9146 Y0.6111
G01 X18.8503 Y0.6978
G01 X18.7778 Y0.7778
G01 X18.6978 Y0.8503
G01 X18.6111 Y0.9146
G01 X18.5185 Y0.9701
G01 X18.4210 Y1.0163
G01 X18.3193 Y1.0526
G01 X18.2146 Y1.0789
G01 X18.1078 Y1.0947
G01 X18.0000 Y1.1000
G01 X0.0000 Y1.1000
G01 X-0.1078 Y1.0947
G01 X-0.2146 Y1.0789
G01 X-0.3193 Y1.0526
G01 X-0.4210 Y1.0163
G01 X-0.5185 Y0.9701
G01 X-0.6111 Y0.9146
G01 X-0.6978 Y0.8503
G01 X-0.7778 Y0.7778
G01 X-0.8503 Y0.6978
G01 X-0.9146 Y0.6111
G01 X-0.9701 Y0.5185
G01 X-1.0163 Y0.4210
G01 X-1.0526 Y0.3193
G01 X-1.0789 Y0.2146
G01 X-1.0947 Y0.1078
G01 X-1.1000 Y-0.0000
G01 X-1.1000 Y-8.3000
G01 X-1.0947 Y-8.4078
G01 X-1.0789 Y-8.5146
G01 X-1.0526 Y-8.6193
G01 X-1.0163 Y-8.7210
G01 X-0.9701 Y-8.8185
G01 X-0.9146 Y-8.9111
G01 X-0.8503 Y-8.9978
G01 X-0.7778 Y-9.0778
G01 X-0.6978 Y-9.1503
G01 X-0.6111 Y-9.2146
G01 X-0.5185 Y-9.2701
G01 X-0.4210 Y-9.3163
G01 X-0.3193 Y-9.3526
G01 X-0.2146 Y-9.3789
G01 X-0.1078 Y-9.3947
G01 X0.0000 Y-9.4000
G01 X18.0000 Y-9.4000
G00 X18.0000 Y-9.4000
G01 F70.00
G01 Z-1.7000
G01 F120.00
G01 X0.0000 Y-9.4000
G01 X-0.1078 Y-9.3947
G01 X-0.2146 Y-9.3789
G01 X-0.3193 Y-9.3526
G01 X-0.4210 Y-9.3163
G01 X-0.5185 Y-9.2701
G01 X-0.6111 Y-9.2146
G01 X-0.6978 Y-9.1503
G01 X-0.7778 Y-9.0778
G01 X-0.8503 Y-8.9978
G01 X-0.9146 Y-8.9111
G01 X-0.9701 Y-8.8185
G01 X-1.0163 Y-8.7210
G01 X-1.0526 Y-8.6193
G01 X-1.0789 Y-8.5146
G01 X-1.0947 Y-8.4078
G01 X-1.1000 Y-8.3000
G01 X-1.1000 Y-0.0000
G01 X-1.0947 Y0.1078
G01 X-1.0789 Y0.2146
G01 X-1.0526 Y0.3193
G01 X-1.0163 Y0.4210
G01 X-0.9701 Y0.5185
G01 X-0.9146 Y0.6111
G01 X-0.8503 Y0.6978
G01 X-0.7778 Y0.7778
G01 X-0.6978 Y0.8503
G01 X-0.6111 Y0.9146
G01 X-0.5185 Y0.9701
G01 X-0.4210 Y1.0163
G01 X-0.3193 Y1.0526
G01 X-0.2146 Y1.0789
G01 X-0.1078 Y1.0947
G01 X0.0000 Y1.1000
G01 X18.0000 Y1.1000
G01 X18.1078 Y1.0947
G01 X18.2146 Y1.0789
G01 X18.3193 Y1.0526
G01 X18.4210 Y1.0163
G01 X18.5185 Y0.9701
G01 X18.6111 Y0.9146
G01 X18.6978 Y0.8503
G01 X18.7778 Y0.7778
G01 X18.8503 Y0.6978
G01 X18.9146 Y0.6111
G01 X18.9701 Y0.5185
G01 X19.0163 Y0.4210
G01 X19.0526 Y0.3193
G01 X19.0789 Y0.2146
G01 X19.0947 Y0.1078
G01 X19.1000 Y-0.0000
G01 X19.1000 Y-8.3000
G01 X19.0947 Y-8.4078
G01 X19.0789 Y-8.5146
G01 X19.0526 Y-8.6193
G01 X19.0163 Y-8.7210
G01 X18.9701 Y-8.8185
G01 X18.9146 Y-8.9111
G01 X18.8503 Y-8.9978
G01 X18.7778 Y-9.0778
G01 X18.6978 Y-9.1503
G01 X18.6111 Y-9.2146
G01 X18.5185 Y-9.2701
G01 X18.4210 Y-9.3163
G01 X18.3193 Y-9.3526
G01 X18.2146 Y-9.3789
G01 X18.1078 Y-9.3947
G01 X18.0000 Y-9.4000
G00 X18.0000 Y-9.4000
G01 F70.00
G01 Z-1.8000
G01 F120.00
G01 X18.1078 Y-9.3947
G01 X18.2146 Y-9.3789
G01 X18.3193 Y-9.3526
G01 X18.4210 Y-9.3163
G01 X18.5185 Y-9.2701
G01 X18.6111 Y-9.2146
G01 X18.6978 Y-9.1503
G01 X18.7778 Y-9.0778
G01 X18.8503 Y-8.9978
G01 X18.9146 Y-8.9111
G01 X18.9701 Y-8.8185
G01 X19.0163 Y-8.7210
G01 X19.0526 Y-8.6193
G01 X19.0789 Y-8.5146
G01 X19.0947 Y-8.4078
G01 X19.1000 Y-8.3000
G01 X19.1000 Y-0.0000
G01 X19.0947 Y0.1078
G01 X19.0789 Y0.2146
G01 X19.0526 Y0.3193
G01 X19.0163 Y0.4210
G01 X18.9701 Y0.5185
G01 X18.9146 Y0.6111
G01 X18.8503 Y0.6978
G01 X18.7778 Y0.7778
G01 X18.6978 Y0.8503
G01 X18.6111 Y0.9146
G01 X18.5185 Y0.9701
G01 X18.4210 Y1.0163
G01 X18.3193 Y1.0526
G01 X18.2146 Y1.0789
G01 X18.1078 Y1.0947
G01 X18.0000 Y1.1000
G01 X0.0000 Y1.1000
G01 X-0.1078 Y1.0947
G01 X-0.2146 Y1.0789
G01 X-0.3193 Y1.0526
G01 X-0.4210 Y1.0163
G01 X-0.5185 Y0.9701
G01 X-0.6111 Y0.9146
G01 X-0.6978 Y0.8503
G01 X-0.7778 Y0.7778
G01 X-0.8503 Y0.6978
G01 X-0.9146 Y0.6111
G01 X-0.9701 Y0.5185
G01 X-1.0163 Y0.4210
G01 X-1.0526 Y0.3193
G01 X-1.0789 Y0.2146
G01 X-1.0947 Y0.1078
G01 X-1.1000 Y-0.0000
G01 X-1.1000 Y-8.3000
G01 X-1.0947 Y-8.4078
G01 X-1.0789 Y-8.5146
G01 X-1.0526 Y-8.6193
G01 X-1.0163 Y-8.7210
G01 X-0.9701 Y-8.8185
G01 X-0.9146 Y-8.9111
G01 X-0.8503 Y-8.9978
G01 X-0.7778 Y-9.0778
G01 X-0.6978 Y-9.1503
G01 X-0.6111 Y-9.2146
G01 X-0.5185 Y-9.2701
G01 X-0.4210 Y-9.3163
G01 X-0.3193 Y-9.3526
G01 X-0.2146 Y-9.3789
G01 X-0.1078 Y-9.3947
G01 X0.0000 Y-9.4000
G01 X18.0000 Y-9.4000
G00 Z2.0000
M05
G00 Z2.0000
G00 Z25.00

