(G-CODE GENERATED BY FLATCAM v8.993 - www.flatcam.org - Version Date: 2020/06/05)

(Name: ion_Ф1_верх.gbr_iso_combined_cnc)
(Type: G-code from Geometry)
(Units: MM)

(Created on Thursday, 23 September 2021 at 11:39)

(This preprocessor is the default preprocessor used by FlatCAM.)
(It is made to work with MACH3 compatible motion controllers.)

(TOOL DIAMETER: 0.14 mm)
(Feedrate_XY: 120.0 mm/min)
(Feedrate_Z: 70.0 mm/min)
(Feedrate rapids 1500.0 mm/min)

(Z_Cut: -0.06 mm)
(Z_Move: 2.0 mm)
(Z Start: None mm)
(Z End: 25.0 mm)
(Steps per circle: 128)
(Preprocessor Geometry: default)

(X range:   -0.2800 ...   18.2800  mm)
(Y range:   -8.5800 ...    0.2800  mm)

(Spindle Speed: 10000 RPM)
G21
G90
G94



G01 F120.00
G00 Z2.0000

M03 S10000
G00 X-0.0700 Y-0.0000
G01 F70.00
G01 Z-0.0600
G01 F120.00
G01 X-0.0700 Y-8.3000
G01 X-0.0692 Y-8.3103
G01 X-0.0672 Y-8.3195
G01 X-0.0640 Y-8.3284
G01 X-0.0591 Y-8.3374
G01 X-0.0530 Y-8.3457
G01 X-0.0457 Y-8.3530
G01 X-0.0374 Y-8.3591
G01 X-0.0291 Y-8.3636
G01 X-0.0145 Y-8.3685
G01 X0.0000 Y-8.3700
G01 X18.0000 Y-8.3700
G01 X18.0094 Y-8.3694
G01 X18.0195 Y-8.3672
G01 X18.0284 Y-8.3640
G01 X18.0374 Y-8.3591
G01 X18.0451 Y-8.3536
G01 X18.0524 Y-8.3464
G01 X18.0587 Y-8.3382
G01 X18.0636 Y-8.3291
G01 X18.0685 Y-8.3145
G01 X18.0700 Y-8.3000
G01 X18.0700 Y-0.0000
G01 X18.0692 Y0.0103
G01 X18.0672 Y0.0195
G01 X18.0636 Y0.0291
G01 X18.0587 Y0.0382
G01 X18.0524 Y0.0464
G01 X18.0457 Y0.0530
G01 X18.0382 Y0.0587
G01 X18.0291 Y0.0636
G01 X18.0145 Y0.0685
G01 X18.0000 Y0.0700
G01 X0.0000 Y0.0700
G01 X-0.0137 Y0.0687
G01 X-0.0268 Y0.0647
G01 X-0.0389 Y0.0582
G01 X-0.0495 Y0.0495
G01 X-0.0582 Y0.0389
G01 X-0.0647 Y0.0268
G01 X-0.0687 Y0.0137
G01 X-0.0700 Y-0.0000
G00 Z2.0000
G00 X-0.1400 Y-0.0000
G01 F70.00
G01 Z-0.0600
G01 F120.00
G01 X-0.1400 Y-8.3017
G01 X-0.1382 Y-8.3222
G01 X-0.1340 Y-8.3406
G01 X-0.1273 Y-8.3583
G01 X-0.1174 Y-8.3763
G01 X-0.1060 Y-8.3914
G01 X-0.0914 Y-8.4060
G01 X-0.0763 Y-8.4174
G01 X-0.0583 Y-8.4273
G01 X-0.0439 Y-8.4329
G01 X-0.0290 Y-8.4370
G01 X-0.0154 Y-8.4391
G01 X0.0000 Y-8.4400
G01 X18.0000 Y-8.4400
G01 X18.0205 Y-8.4385
G01 X18.0390 Y-8.4345
G01 X18.0583 Y-8.4273
G01 X18.0763 Y-8.4174
G01 X18.0927 Y-8.4049
G01 X18.1060 Y-8.3914
G01 X18.1174 Y-8.3763
G01 X18.1273 Y-8.3583
G01 X18.1329 Y-8.3439
G01 X18.1370 Y-8.3290
G01 X18.1391 Y-8.3154
G01 X18.1400 Y-8.3000
G01 X18.1400 Y0.0017
G01 X18.1385 Y0.0205
G01 X18.1340 Y0.0406
G01 X18.1273 Y0.0583
G01 X18.1174 Y0.0763
G01 X18.1060 Y0.0914
G01 X18.0914 Y0.1060
G01 X18.0763 Y0.1174
G01 X18.0583 Y0.1273
G01 X18.0439 Y0.1329
G01 X18.0290 Y0.1370
G01 X18.0154 Y0.1391
G01 X18.0000 Y0.1400
G01 X-0.0017 Y0.1400
G01 X-0.0154 Y0.1391
G01 X-0.0290 Y0.1370
G01 X-0.0423 Y0.1335
G01 X-0.0552 Y0.1287
G01 X-0.0675 Y0.1226
G01 X-0.0792 Y0.1154
G01 X-0.0901 Y0.1071
G01 X-0.1002 Y0.0978
G01 X-0.1093 Y0.0875
G01 X-0.1174 Y0.0763
G01 X-0.1243 Y0.0645
G01 X-0.1300 Y0.0520
G01 X-0.1345 Y0.0390
G01 X-0.1373 Y0.0273
G01 X-0.1393 Y0.0137
G01 X-0.1400 Y-0.0000
G00 Z2.0000
G00 X-0.2100 Y-0.0000
G01 F70.00
G01 Z-0.0600
G01 F120.00
G01 X-0.2100 Y-8.3026
G01 X-0.2092 Y-8.3180
G01 X-0.2073 Y-8.3334
G01 X-0.2010 Y-8.3610
G01 X-0.1909 Y-8.3875
G01 X-0.1840 Y-8.4013
G01 X-0.1760 Y-8.4145
G01 X-0.1590 Y-8.4372
G01 X-0.1485 Y-8.4485
G01 X-0.1372 Y-8.4590
G01 X-0.1145 Y-8.4760
G01 X-0.1013 Y-8.4840
G01 X-0.0875 Y-8.4909
G01 X-0.0659 Y-8.4994
G01 X-0.0435 Y-8.5054
G01 X-0.0206 Y-8.5090
G01 X0.0000 Y-8.5100
G01 X18.0000 Y-8.5100
G01 X18.0283 Y-8.5081
G01 X18.0435 Y-8.5054
G01 X18.0585 Y-8.5017
G01 X18.0732 Y-8.4968
G01 X18.0875 Y-8.4909
G01 X18.1123 Y-8.4774
G01 X18.1251 Y-8.4687
G01 X18.1372 Y-8.4590
G01 X18.1485 Y-8.4485
G01 X18.1590 Y-8.4372
G01 X18.1760 Y-8.4145
G01 X18.1840 Y-8.4013
G01 X18.1909 Y-8.3875
G01 X18.1994 Y-8.3659
G01 X18.2054 Y-8.3435
G01 X18.2090 Y-8.3206
G01 X18.2100 Y-8.3000
G01 X18.2100 Y0.0026
G01 X18.2092 Y0.0180
G01 X18.2073 Y0.0334
G01 X18.2010 Y0.0610
G01 X18.1959 Y0.0756
G01 X18.1898 Y0.0898
G01 X18.1760 Y0.1145
G01 X18.1590 Y0.1372
G01 X18.1485 Y0.1485
G01 X18.1372 Y0.1590
G01 X18.1251 Y0.1687
G01 X18.1123 Y0.1774
G01 X18.0875 Y0.1909
G01 X18.0659 Y0.1994
G01 X18.0435 Y0.2054
G01 X18.0206 Y0.2090
G01 X18.0000 Y0.2100
G01 X-0.0026 Y0.2100
G01 X-0.0231 Y0.2087
G01 X-0.0435 Y0.2054
G01 X-0.0634 Y0.2002
G01 X-0.0827 Y0.1930
G01 X-0.1013 Y0.1840
G01 X-0.1188 Y0.1732
G01 X-0.1352 Y0.1607
G01 X-0.1503 Y0.1467
G01 X-0.1640 Y0.1312
G01 X-0.1760 Y0.1145
G01 X-0.1852 Y0.0990
G01 X-0.1940 Y0.0804
G01 X-0.2010 Y0.0610
G01 X-0.2060 Y0.0410
G01 X-0.2090 Y0.0206
G01 X-0.2100 Y-0.0000
G00 Z2.0000
G00 X-0.2800 Y-0.0000
G01 F70.00
G01 Z-0.0600
G01 F120.00
G01 X-0.2799 Y-8.3069
G01 X-0.2787 Y-8.3274
G01 X-0.2764 Y-8.3445
G01 X-0.2732 Y-8.3613
G01 X-0.2679 Y-8.3813
G01 X-0.2625 Y-8.3976
G01 X-0.2546 Y-8.4166
G01 X-0.2453 Y-8.4350
G01 X-0.2347 Y-8.4527
G01 X-0.2249 Y-8.4668
G01 X-0.2120 Y-8.4829
G01 X-0.1980 Y-8.4980
G01 X-0.1829 Y-8.5120
G01 X-0.1695 Y-8.5228
G01 X-0.1527 Y-8.5347
G01 X-0.1350 Y-8.5453
G01 X-0.1166 Y-8.5546
G01 X-0.0911 Y-8.5648
G01 X-0.0613 Y-8.5732
G01 X-0.0309 Y-8.5783
G01 X0.0000 Y-8.5800
G01 X18.0034 Y-8.5800
G01 X18.0206 Y-8.5792
G01 X18.0411 Y-8.5770
G01 X18.0613 Y-8.5732
G01 X18.0813 Y-8.5679
G01 X18.1008 Y-8.5612
G01 X18.1197 Y-8.5531
G01 X18.1350 Y-8.5453
G01 X18.1527 Y-8.5347
G01 X18.1695 Y-8.5228
G01 X18.1855 Y-8.5098
G01 X18.1980 Y-8.4980
G01 X18.2120 Y-8.4829
G01 X18.2249 Y-8.4668
G01 X18.2366 Y-8.4498
G01 X18.2453 Y-8.4350
G01 X18.2546 Y-8.4166
G01 X18.2648 Y-8.3911
G01 X18.2732 Y-8.3613
G01 X18.2783 Y-8.3309
G01 X18.2800 Y-8.3000
G01 X18.2800 Y0.0034
G01 X18.2790 Y0.0240
G01 X18.2770 Y0.0411
G01 X18.2732 Y0.0613
G01 X18.2679 Y0.0813
G01 X18.2612 Y0.1008
G01 X18.2531 Y0.1197
G01 X18.2436 Y0.1380
G01 X18.2347 Y0.1527
G01 X18.2249 Y0.1668
G01 X18.2120 Y0.1829
G01 X18.1980 Y0.1980
G01 X18.1829 Y0.2120
G01 X18.1668 Y0.2249
G01 X18.1498 Y0.2366
G01 X18.1350 Y0.2453
G01 X18.1166 Y0.2546
G01 X18.0911 Y0.2648
G01 X18.0613 Y0.2732
G01 X18.0309 Y0.2783
G01 X18.0000 Y0.2800
G01 X-0.0034 Y0.2800
G01 X-0.0309 Y0.2783
G01 X-0.0580 Y0.2739
G01 X-0.0846 Y0.2669
G01 X-0.1103 Y0.2574
G01 X-0.1350 Y0.2453
G01 X-0.1584 Y0.2309
G01 X-0.1803 Y0.2142
G01 X-0.2004 Y0.1955
G01 X-0.2186 Y0.1750
G01 X-0.2347 Y0.1527
G01 X-0.2485 Y0.1290
G01 X-0.2600 Y0.1040
G01 X-0.2679 Y0.0813
G01 X-0.2746 Y0.0546
G01 X-0.2787 Y0.0274
G01 X-0.2800 Y-0.0000
G00 Z2.0000
G00 X5.4799 Y-4.1275
G01 F70.00
G01 Z-0.0600
G01 F120.00
G01 X5.4779 Y-4.0456
G01 X5.4719 Y-3.9638
G01 X5.4618 Y-3.8825
G01 X5.4478 Y-3.8017
G01 X5.4299 Y-3.7217
G01 X5.4080 Y-3.6427
G01 X5.3823 Y-3.5649
G01 X5.3528 Y-3.4885
G01 X5.3196 Y-3.4135
G01 X5.2827 Y-3.3403
G01 X5.2423 Y-3.2690
G01 X5.1985 Y-3.1997
G01 X5.1513 Y-3.1327
G01 X5.1009 Y-3.0681
G01 X5.0473 Y-3.0061
G01 X4.9908 Y-2.9467
G01 X4.9314 Y-2.8902
G01 X4.8694 Y-2.8366
G01 X4.8048 Y-2.7862
G01 X4.7378 Y-2.7390
G01 X4.6685 Y-2.6952
G01 X4.5972 Y-2.6548
G01 X4.5240 Y-2.6179
G01 X4.4490 Y-2.5847
G01 X4.3726 Y-2.5552
G01 X4.2948 Y-2.5295
G01 X4.2158 Y-2.5076
G01 X4.1358 Y-2.4897
G01 X4.0550 Y-2.4757
G01 X3.9737 Y-2.4656
G01 X3.8919 Y-2.4596
G01 X3.8100 Y-2.4576
G01 X3.7281 Y-2.4596
G01 X3.6463 Y-2.4656
G01 X3.5650 Y-2.4757
G01 X3.4842 Y-2.4897
G01 X3.4042 Y-2.5076
G01 X3.3252 Y-2.5295
G01 X3.2474 Y-2.5552
G01 X3.1710 Y-2.5847
G01 X3.0960 Y-2.6179
G01 X3.0228 Y-2.6548
G01 X2.9515 Y-2.6952
G01 X2.8822 Y-2.7390
G01 X2.8152 Y-2.7862
G01 X2.7506 Y-2.8366
G01 X2.6886 Y-2.8902
G01 X2.6292 Y-2.9467
G01 X2.5727 Y-3.0061
G01 X2.5191 Y-3.0681
G01 X2.4687 Y-3.1327
G01 X2.4215 Y-3.1997
G01 X2.3777 Y-3.2690
G01 X2.3373 Y-3.3403
G01 X2.3004 Y-3.4135
G01 X2.2672 Y-3.4885
G01 X2.2377 Y-3.5649
G01 X2.2120 Y-3.6427
G01 X2.1901 Y-3.7217
G01 X2.1722 Y-3.8017
G01 X2.1582 Y-3.8825
G01 X2.1481 Y-3.9638
G01 X2.1421 Y-4.0456
G01 X2.1401 Y-4.1275
G01 X2.1421 Y-4.2094
G01 X2.1481 Y-4.2912
G01 X2.1582 Y-4.3725
G01 X2.1722 Y-4.4533
G01 X2.1901 Y-4.5333
G01 X2.2120 Y-4.6123
G01 X2.2377 Y-4.6901
G01 X2.2672 Y-4.7665
G01 X2.3004 Y-4.8415
G01 X2.3373 Y-4.9147
G01 X2.3777 Y-4.9860
G01 X2.4215 Y-5.0553
G01 X2.4687 Y-5.1223
G01 X2.5191 Y-5.1869
G01 X2.5727 Y-5.2489
G01 X2.6292 Y-5.3083
G01 X2.6886 Y-5.3648
G01 X2.7506 Y-5.4184
G01 X2.8152 Y-5.4688
G01 X2.8822 Y-5.5160
G01 X2.9515 Y-5.5598
G01 X3.0228 Y-5.6002
G01 X3.0960 Y-5.6371
G01 X3.1710 Y-5.6703
G01 X3.2474 Y-5.6998
G01 X3.3252 Y-5.7255
G01 X3.4042 Y-5.7474
G01 X3.4842 Y-5.7653
G01 X3.5650 Y-5.7793
G01 X3.6463 Y-5.7894
G01 X3.7281 Y-5.7954
G01 X3.8100 Y-5.7974
G01 X3.8919 Y-5.7954
G01 X3.9737 Y-5.7894
G01 X4.0550 Y-5.7793
G01 X4.1358 Y-5.7653
G01 X4.2158 Y-5.7474
G01 X4.2948 Y-5.7255
G01 X4.3726 Y-5.6998
G01 X4.4490 Y-5.6703
G01 X4.5240 Y-5.6371
G01 X4.5972 Y-5.6002
G01 X4.6685 Y-5.5598
G01 X4.7378 Y-5.5160
G01 X4.8048 Y-5.4688
G01 X4.8694 Y-5.4184
G01 X4.9314 Y-5.3648
G01 X4.9908 Y-5.3083
G01 X5.0473 Y-5.2489
G01 X5.1009 Y-5.1869
G01 X5.1513 Y-5.1223
G01 X5.1985 Y-5.0553
G01 X5.2423 Y-4.9860
G01 X5.2827 Y-4.9147
G01 X5.3196 Y-4.8415
G01 X5.3528 Y-4.7665
G01 X5.3823 Y-4.6901
G01 X5.4080 Y-4.6123
G01 X5.4299 Y-4.5333
G01 X5.4478 Y-4.4533
G01 X5.4618 Y-4.3725
G01 X5.4719 Y-4.2912
G01 X5.4779 Y-4.2094
G01 X5.4799 Y-4.1275
G00 Z2.0000
G00 X5.5499 Y-4.1275
G01 F70.00
G01 Z-0.0600
G01 F120.00
G01 X5.5478 Y-4.0421
G01 X5.5416 Y-3.9570
G01 X5.5311 Y-3.8722
G01 X5.5165 Y-3.7881
G01 X5.4978 Y-3.7047
G01 X5.4750 Y-3.6224
G01 X5.4482 Y-3.5413
G01 X5.4175 Y-3.4617
G01 X5.3829 Y-3.3836
G01 X5.3445 Y-3.3073
G01 X5.3024 Y-3.2330
G01 X5.2567 Y-3.1608
G01 X5.2075 Y-3.0910
G01 X5.1550 Y-3.0237
G01 X5.0992 Y-2.9590
G01 X5.0403 Y-2.8972
G01 X4.9785 Y-2.8383
G01 X4.9138 Y-2.7825
G01 X4.8465 Y-2.7300
G01 X4.7767 Y-2.6808
G01 X4.7045 Y-2.6351
G01 X4.6302 Y-2.5930
G01 X4.5539 Y-2.5546
G01 X4.4758 Y-2.5200
G01 X4.3962 Y-2.4893
G01 X4.3151 Y-2.4625
G01 X4.2328 Y-2.4397
G01 X4.1494 Y-2.4210
G01 X4.0653 Y-2.4064
G01 X3.9805 Y-2.3959
G01 X3.8954 Y-2.3897
G01 X3.8100 Y-2.3876
G01 X3.7246 Y-2.3897
G01 X3.6395 Y-2.3959
G01 X3.5547 Y-2.4064
G01 X3.4706 Y-2.4210
G01 X3.3872 Y-2.4397
G01 X3.3049 Y-2.4625
G01 X3.2238 Y-2.4893
G01 X3.1442 Y-2.5200
G01 X3.0661 Y-2.5546
G01 X2.9898 Y-2.5930
G01 X2.9155 Y-2.6351
G01 X2.8433 Y-2.6808
G01 X2.7735 Y-2.7300
G01 X2.7062 Y-2.7825
G01 X2.6415 Y-2.8383
G01 X2.5797 Y-2.8972
G01 X2.5208 Y-2.9590
G01 X2.4650 Y-3.0237
G01 X2.4125 Y-3.0910
G01 X2.3633 Y-3.1608
G01 X2.3176 Y-3.2330
G01 X2.2755 Y-3.3073
G01 X2.2371 Y-3.3836
G01 X2.2025 Y-3.4617
G01 X2.1718 Y-3.5413
G01 X2.1450 Y-3.6224
G01 X2.1222 Y-3.7047
G01 X2.1035 Y-3.7881
G01 X2.0889 Y-3.8722
G01 X2.0784 Y-3.9570
G01 X2.0722 Y-4.0421
G01 X2.0701 Y-4.1275
G01 X2.0722 Y-4.2129
G01 X2.0784 Y-4.2980
G01 X2.0889 Y-4.3828
G01 X2.1035 Y-4.4669
G01 X2.1222 Y-4.5503
G01 X2.1450 Y-4.6326
G01 X2.1718 Y-4.7137
G01 X2.2025 Y-4.7933
G01 X2.2371 Y-4.8714
G01 X2.2755 Y-4.9477
G01 X2.3176 Y-5.0220
G01 X2.3633 Y-5.0942
G01 X2.4125 Y-5.1640
G01 X2.4650 Y-5.2313
G01 X2.5208 Y-5.2960
G01 X2.5797 Y-5.3578
G01 X2.6415 Y-5.4167
G01 X2.7062 Y-5.4725
G01 X2.7735 Y-5.5250
G01 X2.8433 Y-5.5742
G01 X2.9155 Y-5.6199
G01 X2.9898 Y-5.6620
G01 X3.0661 Y-5.7004
G01 X3.1442 Y-5.7350
G01 X3.2238 Y-5.7657
G01 X3.3049 Y-5.7925
G01 X3.3872 Y-5.8153
G01 X3.4706 Y-5.8340
G01 X3.5547 Y-5.8486
G01 X3.6395 Y-5.8591
G01 X3.7246 Y-5.8653
G01 X3.8100 Y-5.8674
G01 X3.8954 Y-5.8653
G01 X3.9805 Y-5.8591
G01 X4.0653 Y-5.8486
G01 X4.1494 Y-5.8340
G01 X4.2328 Y-5.8153
G01 X4.3151 Y-5.7925
G01 X4.3962 Y-5.7657
G01 X4.4758 Y-5.7350
G01 X4.5539 Y-5.7004
G01 X4.6302 Y-5.6620
G01 X4.7045 Y-5.6199
G01 X4.7767 Y-5.5742
G01 X4.8465 Y-5.5250
G01 X4.9138 Y-5.4725
G01 X4.9785 Y-5.4167
G01 X5.0403 Y-5.3578
G01 X5.0992 Y-5.2960
G01 X5.1550 Y-5.2313
G01 X5.2075 Y-5.1640
G01 X5.2567 Y-5.0942
G01 X5.3024 Y-5.0220
G01 X5.3445 Y-4.9477
G01 X5.3829 Y-4.8714
G01 X5.4175 Y-4.7933
G01 X5.4482 Y-4.7137
G01 X5.4750 Y-4.6326
G01 X5.4978 Y-4.5503
G01 X5.5165 Y-4.4669
G01 X5.5311 Y-4.3828
G01 X5.5416 Y-4.2980
G01 X5.5478 Y-4.2129
G01 X5.5499 Y-4.1275
G00 Z2.0000
G00 X5.6200 Y-4.1275
G01 F70.00
G01 Z-0.0600
G01 F120.00
G01 X5.6178 Y-4.0387
G01 X5.6112 Y-3.9501
G01 X5.6004 Y-3.8619
G01 X5.5852 Y-3.7744
G01 X5.5657 Y-3.6877
G01 X5.5420 Y-3.6021
G01 X5.5142 Y-3.5177
G01 X5.4822 Y-3.4349
G01 X5.4462 Y-3.3536
G01 X5.4062 Y-3.2743
G01 X5.3625 Y-3.1970
G01 X5.3149 Y-3.1219
G01 X5.2638 Y-3.0493
G01 X5.2091 Y-2.9793
G01 X5.1511 Y-2.9120
G01 X5.0898 Y-2.8477
G01 X5.0255 Y-2.7864
G01 X4.9582 Y-2.7284
G01 X4.8882 Y-2.6737
G01 X4.8156 Y-2.6226
G01 X4.7405 Y-2.5750
G01 X4.6632 Y-2.5313
G01 X4.5839 Y-2.4913
G01 X4.5026 Y-2.4553
G01 X4.4198 Y-2.4233
G01 X4.3354 Y-2.3955
G01 X4.2498 Y-2.3718
G01 X4.1631 Y-2.3523
G01 X4.0756 Y-2.3371
G01 X3.9874 Y-2.3263
G01 X3.8988 Y-2.3197
G01 X3.8100 Y-2.3175
G01 X3.7212 Y-2.3197
G01 X3.6326 Y-2.3263
G01 X3.5444 Y-2.3371
G01 X3.4569 Y-2.3523
G01 X3.3702 Y-2.3718
G01 X3.2846 Y-2.3955
G01 X3.2002 Y-2.4233
G01 X3.1174 Y-2.4553
G01 X3.0361 Y-2.4913
G01 X2.9568 Y-2.5313
G01 X2.8795 Y-2.5750
G01 X2.8044 Y-2.6226
G01 X2.7318 Y-2.6737
G01 X2.6618 Y-2.7284
G01 X2.5945 Y-2.7864
G01 X2.5302 Y-2.8477
G01 X2.4689 Y-2.9120
G01 X2.4109 Y-2.9793
G01 X2.3562 Y-3.0493
G01 X2.3051 Y-3.1219
G01 X2.2575 Y-3.1970
G01 X2.2138 Y-3.2743
G01 X2.1738 Y-3.3536
G01 X2.1378 Y-3.4349
G01 X2.1058 Y-3.5177
G01 X2.0780 Y-3.6021
G01 X2.0543 Y-3.6877
G01 X2.0348 Y-3.7744
G01 X2.0196 Y-3.8619
G01 X2.0088 Y-3.9501
G01 X2.0022 Y-4.0387
G01 X2.0000 Y-4.1275
G01 X2.0022 Y-4.2163
G01 X2.0088 Y-4.3049
G01 X2.0196 Y-4.3931
G01 X2.0348 Y-4.4806
G01 X2.0543 Y-4.5673
G01 X2.0780 Y-4.6529
G01 X2.1058 Y-4.7373
G01 X2.1378 Y-4.8201
G01 X2.1738 Y-4.9014
G01 X2.2138 Y-4.9807
G01 X2.2575 Y-5.0580
G01 X2.3051 Y-5.1331
G01 X2.3562 Y-5.2057
G01 X2.4109 Y-5.2757
G01 X2.4689 Y-5.3430
G01 X2.5302 Y-5.4073
G01 X2.5945 Y-5.4686
G01 X2.6618 Y-5.5266
G01 X2.7318 Y-5.5813
G01 X2.8044 Y-5.6324
G01 X2.8795 Y-5.6800
G01 X2.9568 Y-5.7237
G01 X3.0361 Y-5.7637
G01 X3.1174 Y-5.7997
G01 X3.2002 Y-5.8317
G01 X3.2846 Y-5.8595
G01 X3.3702 Y-5.8832
G01 X3.4569 Y-5.9027
G01 X3.5444 Y-5.9179
G01 X3.6326 Y-5.9287
G01 X3.7212 Y-5.9353
G01 X3.8100 Y-5.9375
G01 X3.8988 Y-5.9353
G01 X3.9874 Y-5.9287
G01 X4.0756 Y-5.9179
G01 X4.1631 Y-5.9027
G01 X4.2498 Y-5.8832
G01 X4.3354 Y-5.8595
G01 X4.4198 Y-5.8317
G01 X4.5026 Y-5.7997
G01 X4.5839 Y-5.7637
G01 X4.6632 Y-5.7237
G01 X4.7405 Y-5.6800
G01 X4.8156 Y-5.6324
G01 X4.8882 Y-5.5813
G01 X4.9582 Y-5.5266
G01 X5.0255 Y-5.4686
G01 X5.0898 Y-5.4073
G01 X5.1511 Y-5.3430
G01 X5.2091 Y-5.2757
G01 X5.2638 Y-5.2057
G01 X5.3149 Y-5.1331
G01 X5.3625 Y-5.0580
G01 X5.4062 Y-4.9807
G01 X5.4462 Y-4.9014
G01 X5.4822 Y-4.8201
G01 X5.5142 Y-4.7373
G01 X5.5420 Y-4.6529
G01 X5.5657 Y-4.5673
G01 X5.5852 Y-4.4806
G01 X5.6004 Y-4.3931
G01 X5.6112 Y-4.3049
G01 X5.6178 Y-4.2163
G01 X5.6200 Y-4.1275
G00 Z2.0000
G00 X5.6900 Y-4.1275
G01 F70.00
G01 Z-0.0600
G01 F120.00
G01 X5.6877 Y-4.0353
G01 X5.6809 Y-3.9432
G01 X5.6696 Y-3.8516
G01 X5.6539 Y-3.7607
G01 X5.6336 Y-3.6707
G01 X5.6090 Y-3.5818
G01 X5.5801 Y-3.4942
G01 X5.5469 Y-3.4081
G01 X5.5095 Y-3.3237
G01 X5.4680 Y-3.2413
G01 X5.4225 Y-3.1610
G01 X5.3731 Y-3.0830
G01 X5.3200 Y-3.0076
G01 X5.2632 Y-2.9349
G01 X5.2030 Y-2.8650
G01 X5.1393 Y-2.7982
G01 X5.0725 Y-2.7345
G01 X5.0026 Y-2.6743
G01 X4.9299 Y-2.6175
G01 X4.8545 Y-2.5644
G01 X4.7765 Y-2.5150
G01 X4.6962 Y-2.4695
G01 X4.6138 Y-2.4280
G01 X4.5294 Y-2.3906
G01 X4.4433 Y-2.3574
G01 X4.3557 Y-2.3285
G01 X4.2668 Y-2.3039
G01 X4.1768 Y-2.2836
G01 X4.0859 Y-2.2679
G01 X3.9943 Y-2.2566
G01 X3.9022 Y-2.2498
G01 X3.8100 Y-2.2475
G01 X3.7178 Y-2.2498
G01 X3.6257 Y-2.2566
G01 X3.5341 Y-2.2679
G01 X3.4432 Y-2.2836
G01 X3.3532 Y-2.3039
G01 X3.2643 Y-2.3285
G01 X3.1767 Y-2.3574
G01 X3.0906 Y-2.3906
G01 X3.0062 Y-2.4280
G01 X2.9238 Y-2.4695
G01 X2.8435 Y-2.5150
G01 X2.7655 Y-2.5644
G01 X2.6901 Y-2.6175
G01 X2.6174 Y-2.6743
G01 X2.5475 Y-2.7345
G01 X2.4807 Y-2.7982
G01 X2.4170 Y-2.8650
G01 X2.3568 Y-2.9349
G01 X2.3000 Y-3.0076
G01 X2.2469 Y-3.0830
G01 X2.1975 Y-3.1610
G01 X2.1520 Y-3.2413
G01 X2.1105 Y-3.3237
G01 X2.0731 Y-3.4081
G01 X2.0399 Y-3.4942
G01 X2.0110 Y-3.5818
G01 X1.9864 Y-3.6707
G01 X1.9661 Y-3.7607
G01 X1.9504 Y-3.8516
G01 X1.9391 Y-3.9432
G01 X1.9323 Y-4.0353
G01 X1.9300 Y-4.1275
G01 X1.9323 Y-4.2197
G01 X1.9391 Y-4.3118
G01 X1.9504 Y-4.4034
G01 X1.9661 Y-4.4943
G01 X1.9864 Y-4.5843
G01 X2.0110 Y-4.6732
G01 X2.0399 Y-4.7608
G01 X2.0731 Y-4.8469
G01 X2.1105 Y-4.9313
G01 X2.1520 Y-5.0137
G01 X2.1975 Y-5.0940
G01 X2.2469 Y-5.1720
G01 X2.3000 Y-5.2474
G01 X2.3568 Y-5.3201
G01 X2.4170 Y-5.3900
G01 X2.4807 Y-5.4568
G01 X2.5475 Y-5.5205
G01 X2.6174 Y-5.5807
G01 X2.6901 Y-5.6375
G01 X2.7655 Y-5.6906
G01 X2.8435 Y-5.7400
G01 X2.9238 Y-5.7855
G01 X3.0062 Y-5.8270
G01 X3.0906 Y-5.8644
G01 X3.1767 Y-5.8976
G01 X3.2643 Y-5.9265
G01 X3.3532 Y-5.9511
G01 X3.4432 Y-5.9714
G01 X3.5341 Y-5.9871
G01 X3.6257 Y-5.9984
G01 X3.7178 Y-6.0052
G01 X3.8100 Y-6.0075
G01 X3.9022 Y-6.0052
G01 X3.9943 Y-5.9984
G01 X4.0859 Y-5.9871
G01 X4.1768 Y-5.9714
G01 X4.2668 Y-5.9511
G01 X4.3557 Y-5.9265
G01 X4.4433 Y-5.8976
G01 X4.5294 Y-5.8644
G01 X4.6138 Y-5.8270
G01 X4.6962 Y-5.7855
G01 X4.7765 Y-5.7400
G01 X4.8545 Y-5.6906
G01 X4.9299 Y-5.6375
G01 X5.0026 Y-5.5807
G01 X5.0725 Y-5.5205
G01 X5.1393 Y-5.4568
G01 X5.2030 Y-5.3900
G01 X5.2632 Y-5.3201
G01 X5.3200 Y-5.2474
G01 X5.3731 Y-5.1720
G01 X5.4225 Y-5.0940
G01 X5.4680 Y-5.0137
G01 X5.5095 Y-4.9313
G01 X5.5469 Y-4.8469
G01 X5.5801 Y-4.7608
G01 X5.6090 Y-4.6732
G01 X5.6336 Y-4.5843
G01 X5.6539 Y-4.4943
G01 X5.6696 Y-4.4034
G01 X5.6809 Y-4.3118
G01 X5.6877 Y-4.2197
G01 X5.6900 Y-4.1275
G00 Z2.0000
G00 X8.1650 Y-4.0133
G01 F70.00
G01 Z-0.0600
G01 F120.00
G01 X8.1650 Y-4.4900
G01 X8.5916 Y-4.4900
G01 X8.5916 Y-4.3300
G01 X8.3950 Y-4.3300
G01 X8.3856 Y-4.3294
G01 X8.3698 Y-4.3253
G01 X8.3554 Y-4.3177
G01 X8.3431 Y-4.3070
G01 X8.3341 Y-4.2945
G01 X8.3303 Y-4.2868
G01 X8.3275 Y-4.2787
G01 X8.3250 Y-4.2626
G01 X8.3250 Y-4.0133
G01 X8.1650 Y-4.0133
G00 Z2.0000
G00 X8.2350 Y-4.0833
G01 F70.00
G01 Z-0.0600
G01 F120.00
G01 X8.2350 Y-4.4200
G01 X8.5216 Y-4.4200
G01 X8.5216 Y-4.4000
G01 X8.3898 Y-4.3999
G01 X8.3711 Y-4.3979
G01 X8.3544 Y-4.3940
G01 X8.3351 Y-4.3866
G01 X8.3187 Y-4.3774
G01 X8.3023 Y-4.3649
G01 X8.2879 Y-4.3501
G01 X8.2758 Y-4.3334
G01 X8.2670 Y-4.3167
G01 X8.2601 Y-4.2973
G01 X8.2561 Y-4.2771
G01 X8.2550 Y-4.2600
G01 X8.2550 Y-4.0833
G01 X8.2350 Y-4.0833
G00 Z2.0000
G00 X8.5217 Y-3.2000
G01 F70.00
G01 Z-0.0600
G01 F120.00
G01 X8.2350 Y-3.2000
G01 X8.2350 Y-3.5366
G01 X8.2550 Y-3.5366
G01 X8.2550 Y-3.3600
G01 X8.2561 Y-3.3429
G01 X8.2601 Y-3.3227
G01 X8.2670 Y-3.3033
G01 X8.2767 Y-3.2851
G01 X8.2879 Y-3.2699
G01 X8.3023 Y-3.2551
G01 X8.3187 Y-3.2426
G01 X8.3367 Y-3.2327
G01 X8.3544 Y-3.2260
G01 X8.3711 Y-3.2221
G01 X8.3898 Y-3.2201
G01 X8.5217 Y-3.2200
G01 X8.5217 Y-3.2000
G00 Z2.0000
G00 X8.5917 Y-3.1300
G01 F70.00
G01 Z-0.0600
G01 F120.00
G01 X8.1650 Y-3.1300
G01 X8.1650 Y-3.6066
G01 X8.3250 Y-3.6066
G01 X8.3250 Y-3.3574
G01 X8.3259 Y-3.3489
G01 X8.3278 Y-3.3405
G01 X8.3341 Y-3.3255
G01 X8.3437 Y-3.3124
G01 X8.3561 Y-3.3018
G01 X8.3706 Y-3.2944
G01 X8.3856 Y-3.2906
G01 X8.3950 Y-3.2900
G01 X8.5917 Y-3.2900
G01 X8.5917 Y-3.1300
G00 Z2.0000
G00 X9.3550 Y-3.5367
G01 F70.00
G01 Z-0.0600
G01 F120.00
G01 X9.3550 Y-3.2000
G01 X9.0684 Y-3.2000
G01 X9.0684 Y-3.2200
G01 X9.2002 Y-3.2201
G01 X9.2189 Y-3.2221
G01 X9.2356 Y-3.2260
G01 X9.2549 Y-3.2334
G01 X9.2713 Y-3.2426
G01 X9.2877 Y-3.2551
G01 X9.3021 Y-3.2699
G01 X9.3142 Y-3.2866
G01 X9.3230 Y-3.3033
G01 X9.3299 Y-3.3227
G01 X9.3339 Y-3.3429
G01 X9.3350 Y-3.3600
G01 X9.3350 Y-3.5367
G01 X9.3550 Y-3.5367
G00 Z2.0000
G00 X9.4250 Y-3.6067
G01 F70.00
G01 Z-0.0600
G01 F120.00
G01 X9.4250 Y-3.1300
G01 X8.9984 Y-3.1300
G01 X8.9984 Y-3.2900
G01 X9.1950 Y-3.2900
G01 X9.2044 Y-3.2906
G01 X9.2202 Y-3.2947
G01 X9.2339 Y-3.3018
G01 X9.2463 Y-3.3124
G01 X9.2559 Y-3.3255
G01 X9.2597 Y-3.3332
G01 X9.2625 Y-3.3413
G01 X9.2650 Y-3.3574
G01 X9.2650 Y-3.6067
G01 X9.4250 Y-3.6067
G00 Z2.0000
G00 X9.3550 Y-4.4200
G01 F70.00
G01 Z-0.0600
G01 F120.00
G01 X9.3550 Y-4.0834
G01 X9.3350 Y-4.0834
G01 X9.3350 Y-4.2600
G01 X9.3341 Y-4.2754
G01 X9.3304 Y-4.2957
G01 X9.3243 Y-4.3136
G01 X9.3151 Y-4.3320
G01 X9.3043 Y-4.3475
G01 X9.2903 Y-4.3626
G01 X9.2742 Y-4.3754
G01 X9.2564 Y-4.3858
G01 X9.2356 Y-4.3940
G01 X9.2189 Y-4.3979
G01 X9.2002 Y-4.3999
G01 X9.0683 Y-4.4000
G01 X9.0683 Y-4.4200
G01 X9.3550 Y-4.4200
G00 Z2.0000
G00 X9.4250 Y-4.4900
G01 F70.00
G01 Z-0.0600
G01 F120.00
G01 X9.4250 Y-4.0134
G01 X9.2650 Y-4.0134
G01 X9.2650 Y-4.2626
G01 X9.2625 Y-4.2787
G01 X9.2597 Y-4.2868
G01 X9.2559 Y-4.2945
G01 X9.2469 Y-4.3070
G01 X9.2346 Y-4.3177
G01 X9.2202 Y-4.3253
G01 X9.2044 Y-4.3294
G01 X9.1950 Y-4.3300
G01 X8.9983 Y-4.3300
G01 X8.9983 Y-4.4900
G01 X9.4250 Y-4.4900
G00 Z2.0000
G00 X10.3950 Y-4.4000
G01 F70.00
G01 Z-0.0600
G01 F120.00
G01 X11.1950 Y-4.4000
G01 X11.2070 Y-4.3995
G01 X11.2240 Y-4.3970
G01 X11.2405 Y-4.3924
G01 X11.2564 Y-4.3858
G01 X11.2713 Y-4.3774
G01 X11.2851 Y-4.3671
G01 X11.2976 Y-4.3553
G01 X11.3085 Y-4.3420
G01 X11.3185 Y-4.3260
G01 X11.3256 Y-4.3104
G01 X11.3308 Y-4.2940
G01 X11.3337 Y-4.2788
G01 X11.3350 Y-4.2617
G01 X11.3347 Y-3.3514
G01 X11.3332 Y-3.3378
G01 X11.3304 Y-3.3243
G01 X11.3262 Y-3.3112
G01 X11.3208 Y-3.2986
G01 X11.3142 Y-3.2866
G01 X11.3064 Y-3.2752
G01 X11.2976 Y-3.2647
G01 X11.2877 Y-3.2551
G01 X11.2770 Y-3.2465
G01 X11.2655 Y-3.2390
G01 X11.2533 Y-3.2327
G01 X11.2405 Y-3.2276
G01 X11.2273 Y-3.2238
G01 X11.2138 Y-3.2213
G01 X11.2019 Y-3.2202
G01 X11.1851 Y-3.2200
G01 X11.1851 Y-2.1600
G01 X11.7244 Y-2.1598
G01 X11.7448 Y-2.1573
G01 X11.7647 Y-2.1518
G01 X11.7835 Y-2.1435
G01 X11.8009 Y-2.1324
G01 X11.8115 Y-2.1237
G01 X11.8224 Y-2.1127
G01 X11.8310 Y-2.1020
G01 X11.8385 Y-2.0905
G01 X11.8448 Y-2.0783
G01 X11.8504 Y-2.0639
G01 X11.8541 Y-2.0507
G01 X11.8564 Y-2.0371
G01 X11.8575 Y-2.0200
G01 X11.8575 Y-1.6601
G01 X12.1775 Y-1.6601
G01 X12.1775 Y-1.9234
G01 X12.1793 Y-1.9422
G01 X12.1830 Y-1.9590
G01 X12.1895 Y-1.9767
G01 X12.1992 Y-1.9949
G01 X12.2115 Y-2.0114
G01 X12.2248 Y-2.0249
G01 X12.2397 Y-2.0364
G01 X12.2561 Y-2.0458
G01 X12.2736 Y-2.0529
G01 X12.2936 Y-2.0579
G01 X12.3055 Y-2.0595
G01 X12.3175 Y-2.0600
G01 X13.7209 Y-2.0600
G01 X13.7363 Y-2.0587
G01 X13.7498 Y-2.0562
G01 X13.7630 Y-2.0524
G01 X13.7774 Y-2.0466
G01 X13.7895 Y-2.0401
G01 X13.8009 Y-2.0324
G01 X13.8115 Y-2.0237
G01 X13.8224 Y-2.0127
G01 X13.8299 Y-2.0034
G01 X13.8376 Y-1.9920
G01 X13.8433 Y-1.9814
G01 X13.8481 Y-1.9704
G01 X13.8520 Y-1.9590
G01 X13.8548 Y-1.9473
G01 X13.8566 Y-1.9354
G01 X13.8575 Y-1.9234
G01 X13.8575 Y-0.6183
G01 X13.8566 Y-0.6046
G01 X13.8541 Y-0.5893
G01 X13.8504 Y-0.5761
G01 X13.8448 Y-0.5617
G01 X13.8385 Y-0.5495
G01 X13.8299 Y-0.5366
G01 X13.8212 Y-0.5260
G01 X13.8102 Y-0.5151
G01 X13.8009 Y-0.5076
G01 X13.7909 Y-0.5008
G01 X13.7804 Y-0.4949
G01 X13.7695 Y-0.4900
G01 X13.7581 Y-0.4860
G01 X13.7465 Y-0.4830
G01 X13.7346 Y-0.4811
G01 X13.7209 Y-0.4800
G01 X12.3175 Y-0.4800
G01 X12.3021 Y-0.4809
G01 X12.2868 Y-0.4834
G01 X12.2687 Y-0.4888
G01 X12.2515 Y-0.4965
G01 X12.2355 Y-0.5065
G01 X12.2210 Y-0.5186
G01 X12.2082 Y-0.5325
G01 X12.1974 Y-0.5480
G01 X12.1888 Y-0.5648
G01 X12.1826 Y-0.5827
G01 X12.1788 Y-0.6012
G01 X12.1775 Y-0.6183
G01 X12.1775 Y-0.8799
G01 X11.8575 Y-0.8799
G01 X11.8575 Y-0.6166
G01 X11.8560 Y-0.5995
G01 X11.8520 Y-0.5810
G01 X11.8455 Y-0.5633
G01 X11.8367 Y-0.5466
G01 X11.8257 Y-0.5312
G01 X11.8115 Y-0.5163
G01 X11.7953 Y-0.5036
G01 X11.7789 Y-0.4942
G01 X11.7614 Y-0.4871
G01 X11.7431 Y-0.4824
G01 X11.7312 Y-0.4807
G01 X11.7175 Y-0.4800
G01 X10.4123 Y-0.4801
G01 X10.3970 Y-0.4815
G01 X10.3835 Y-0.4842
G01 X10.3703 Y-0.4882
G01 X10.3576 Y-0.4934
G01 X10.3455 Y-0.4999
G01 X10.3327 Y-0.5086
G01 X10.3222 Y-0.5174
G01 X10.3126 Y-0.5273
G01 X10.3040 Y-0.5380
G01 X10.2974 Y-0.5480
G01 X10.2917 Y-0.5586
G01 X10.2869 Y-0.5696
G01 X10.2830 Y-0.5810
G01 X10.2802 Y-0.5927
G01 X10.2784 Y-0.6046
G01 X10.2775 Y-0.6166
G01 X10.2776 Y-2.0252
G01 X10.2788 Y-2.0388
G01 X10.2809 Y-2.0507
G01 X10.2840 Y-2.0623
G01 X10.2888 Y-2.0752
G01 X10.2940 Y-2.0860
G01 X10.3001 Y-2.0963
G01 X10.3082 Y-2.1075
G01 X10.3161 Y-2.1165
G01 X10.3261 Y-2.1260
G01 X10.3355 Y-2.1335
G01 X10.3455 Y-2.1401
G01 X10.3561 Y-2.1458
G01 X10.3671 Y-2.1506
G01 X10.3802 Y-2.1549
G01 X10.3919 Y-2.1576
G01 X10.4049 Y-2.1594
G01 X10.4049 Y-3.2200
G01 X10.3779 Y-3.2211
G01 X10.3660 Y-3.2230
G01 X10.3527 Y-3.2265
G01 X10.3414 Y-3.2307
G01 X10.3290 Y-3.2365
G01 X10.3187 Y-3.2426
G01 X10.3075 Y-3.2507
G01 X10.2972 Y-3.2598
G01 X10.2879 Y-3.2699
G01 X10.2805 Y-3.2794
G01 X10.2732 Y-3.2910
G01 X10.2670 Y-3.3033
G01 X10.2626 Y-3.3145
G01 X10.2588 Y-3.3277
G01 X10.2565 Y-3.3395
G01 X10.2550 Y-3.3600
G01 X10.2550 Y-4.2634
G01 X10.2561 Y-4.2771
G01 X10.2580 Y-4.2890
G01 X10.2615 Y-4.3023
G01 X10.2663 Y-4.3152
G01 X10.2724 Y-4.3275
G01 X10.2796 Y-4.3392
G01 X10.2879 Y-4.3501
G01 X10.2972 Y-4.3602
G01 X10.3075 Y-4.3693
G01 X10.3187 Y-4.3774
G01 X10.3290 Y-4.3835
G01 X10.3414 Y-4.3893
G01 X10.3544 Y-4.3940
G01 X10.3677 Y-4.3973
G01 X10.3813 Y-4.3993
G01 X10.3950 Y-4.4000
G00 Z2.0000
G00 X10.3950 Y-4.3300
G01 F70.00
G01 Z-0.0600
G01 F120.00
G01 X11.1993 Y-4.3299
G01 X11.2095 Y-4.3285
G01 X11.2194 Y-4.3256
G01 X11.2295 Y-4.3209
G01 X11.2381 Y-4.3152
G01 X11.2463 Y-4.3076
G01 X11.2527 Y-4.2996
G01 X11.2579 Y-4.2907
G01 X11.2617 Y-4.2811
G01 X11.2642 Y-4.2703
G01 X11.2650 Y-4.2600
G01 X11.2650 Y-3.3600
G01 X11.2642 Y-3.3497
G01 X11.2622 Y-3.3405
G01 X11.2593 Y-3.3324
G01 X11.2550 Y-3.3240
G01 X11.2497 Y-3.3163
G01 X11.2433 Y-3.3093
G01 X11.2367 Y-3.3038
G01 X11.2295 Y-3.2991
G01 X11.2210 Y-3.2950
G01 X11.2103 Y-3.2917
G01 X11.1984 Y-3.2901
G01 X11.1151 Y-3.2900
G01 X11.1151 Y-2.0900
G01 X11.7192 Y-2.0900
G01 X11.7303 Y-2.0888
G01 X11.7403 Y-2.0862
G01 X11.7497 Y-2.0821
G01 X11.7592 Y-2.0762
G01 X11.7705 Y-2.0657
G01 X11.7792 Y-2.0530
G01 X11.7847 Y-2.0395
G01 X11.7874 Y-2.0243
G01 X11.7875 Y-1.5901
G01 X12.2475 Y-1.5901
G01 X12.2475 Y-1.9200
G01 X12.2481 Y-1.9294
G01 X12.2503 Y-1.9395
G01 X12.2542 Y-1.9499
G01 X12.2593 Y-1.9589
G01 X12.2662 Y-1.9676
G01 X12.2744 Y-1.9752
G01 X12.2830 Y-1.9809
G01 X12.2931 Y-1.9856
G01 X12.3038 Y-1.9887
G01 X12.3175 Y-1.9900
G01 X13.7175 Y-1.9900
G01 X13.7269 Y-1.9894
G01 X13.7353 Y-1.9877
G01 X13.7435 Y-1.9850
G01 X13.7520 Y-1.9809
G01 X13.7592 Y-1.9762
G01 X13.7664 Y-1.9701
G01 X13.7727 Y-1.9631
G01 X13.7780 Y-1.9552
G01 X13.7818 Y-1.9476
G01 X13.7850 Y-1.9387
G01 X13.7867 Y-1.9303
G01 X13.7875 Y-1.9209
G01 X13.7875 Y-0.6191
G01 X13.7860 Y-0.6055
G01 X13.7815 Y-0.5916
G01 X13.7742 Y-0.5790
G01 X13.7645 Y-0.5681
G01 X13.7542 Y-0.5604
G01 X13.7427 Y-0.5547
G01 X13.7303 Y-0.5512
G01 X13.7184 Y-0.5500
G01 X12.3175 Y-0.5500
G01 X12.3089 Y-0.5505
G01 X12.3005 Y-0.5521
G01 X12.2907 Y-0.5553
G01 X12.2815 Y-0.5600
G01 X12.2731 Y-0.5659
G01 X12.2656 Y-0.5730
G01 X12.2588 Y-0.5818
G01 X12.2539 Y-0.5909
G01 X12.2503 Y-0.6005
G01 X12.2481 Y-0.6106
G01 X12.2475 Y-0.6200
G01 X12.2475 Y-0.9499
G01 X11.7875 Y-0.9499
G01 X11.7875 Y-0.6200
G01 X11.7869 Y-0.6106
G01 X11.7845 Y-0.5997
G01 X11.7804 Y-0.5893
G01 X11.7752 Y-0.5804
G01 X11.7682 Y-0.5717
G01 X11.7606 Y-0.5648
G01 X11.7513 Y-0.5587
G01 X11.7411 Y-0.5541
G01 X11.7312 Y-0.5513
G01 X11.7175 Y-0.5500
G01 X10.4166 Y-0.5500
G01 X10.4022 Y-0.5517
G01 X10.3891 Y-0.5560
G01 X10.3765 Y-0.5633
G01 X10.3656 Y-0.5730
G01 X10.3584 Y-0.5826
G01 X10.3525 Y-0.5940
G01 X10.3488 Y-0.6063
G01 X10.3475 Y-0.6191
G01 X10.3477 Y-2.0251
G01 X10.3488 Y-2.0337
G01 X10.3513 Y-2.0428
G01 X10.3546 Y-2.0507
G01 X10.3593 Y-2.0589
G01 X10.3645 Y-2.0657
G01 X10.3711 Y-2.0724
G01 X10.3786 Y-2.0782
G01 X10.3860 Y-2.0825
G01 X10.3980 Y-2.0872
G01 X10.4115 Y-2.0897
G01 X10.4749 Y-2.0900
G01 X10.4749 Y-3.2900
G01 X10.3907 Y-3.2901
G01 X10.3780 Y-3.2921
G01 X10.3666 Y-3.2960
G01 X10.3576 Y-3.3009
G01 X10.3499 Y-3.3064
G01 X10.3426 Y-3.3136
G01 X10.3368 Y-3.3211
G01 X10.3321 Y-3.3293
G01 X10.3283 Y-3.3389
G01 X10.3260 Y-3.3480
G01 X10.3250 Y-3.3574
G01 X10.3252 Y-4.2651
G01 X10.3273 Y-4.2778
G01 X10.3321 Y-4.2907
G01 X10.3388 Y-4.3017
G01 X10.3474 Y-4.3113
G01 X10.3576 Y-4.3191
G01 X10.3698 Y-4.3253
G01 X10.3822 Y-4.3288
G01 X10.3950 Y-4.3300
G00 Z2.0000
G00 X10.3349 Y-3.1490
G01 F70.00
G01 Z-0.0600
G01 F120.00
G01 X10.3323 Y-3.1544
G01 X10.3290 Y-3.1606
G01 X10.3349 Y-3.1588
G01 X10.3349 Y-3.1490
G00 Z2.0000
G00 X10.1650 Y-3.1270
G01 F70.00
G01 Z-0.0600
G01 F120.00
G01 X10.1650 Y-4.4900
G01 X11.4250 Y-4.4900
G01 X11.4250 Y-3.1270
G01 X11.4146 Y-3.1229
G01 X11.4057 Y-3.1177
G01 X11.3977 Y-3.1113
G01 X11.3901 Y-3.1031
G01 X11.3844 Y-3.0945
G01 X11.3800 Y-3.0852
G01 X11.3768 Y-3.0745
G01 X11.3755 Y-3.0643
G01 X11.3753 Y-2.4200
G01 X11.3760 Y-2.4106
G01 X11.3776 Y-2.4022
G01 X11.3813 Y-2.3916
G01 X11.3871 Y-2.3811
G01 X11.3940 Y-2.3724
G01 X11.4023 Y-2.3648
G01 X11.4116 Y-2.3587
G01 X11.4217 Y-2.3541
G01 X11.4325 Y-2.3512
G01 X11.4436 Y-2.3500
G01 X11.9218 Y-2.3501
G01 X11.9303 Y-2.3512
G01 X11.9386 Y-2.3533
G01 X11.9474 Y-2.3567
G01 X11.9549 Y-2.3609
G01 X11.9619 Y-2.3659
G01 X11.9682 Y-2.3717
G01 X11.9737 Y-2.3783
G01 X11.9784 Y-2.3855
G01 X11.9822 Y-2.3932
G01 X11.9852 Y-2.4022
G01 X11.9869 Y-2.4106
G01 X11.9875 Y-2.4200
G01 X11.9875 Y-6.3347
G01 X11.9870 Y-6.3432
G01 X11.9842 Y-6.3558
G01 X11.9796 Y-6.3669
G01 X11.9732 Y-6.3771
G01 X11.9651 Y-6.3860
G01 X11.9557 Y-6.3934
G01 X11.9443 Y-6.3993
G01 X11.9320 Y-6.4032
G01 X11.9201 Y-6.4046
G01 X10.4950 Y-6.4047
G01 X10.4805 Y-6.4032
G01 X10.4674 Y-6.3990
G01 X10.4583 Y-6.3943
G01 X10.4506 Y-6.3888
G01 X10.4431 Y-6.3817
G01 X10.4373 Y-6.3743
G01 X10.4321 Y-6.3654
G01 X10.4285 Y-6.3566
G01 X10.4262 Y-6.3475
G01 X10.4250 Y-6.3373
G01 X10.4250 Y-5.1300
G01 X9.1650 Y-5.1300
G01 X9.1650 Y-6.4900
G01 X9.1939 Y-6.4900
G01 X9.2033 Y-6.4909
G01 X9.2158 Y-6.4941
G01 X9.2282 Y-6.5000
G01 X9.2398 Y-6.5087
G01 X9.2499 Y-6.5204
G01 X9.2572 Y-6.5340
G01 X9.2611 Y-6.5480
G01 X9.2622 Y-6.5600
G01 X9.2622 Y-6.9841
G01 X9.2629 Y-7.0135
G01 X9.2650 Y-7.0419
G01 X9.2685 Y-7.0701
G01 X9.2733 Y-7.0982
G01 X9.2796 Y-7.1260
G01 X9.2872 Y-7.1535
G01 X9.2961 Y-7.1805
G01 X9.3064 Y-7.2071
G01 X9.3179 Y-7.2331
G01 X9.3307 Y-7.2586
G01 X9.3448 Y-7.2833
G01 X9.3600 Y-7.3074
G01 X9.3764 Y-7.3307
G01 X9.3939 Y-7.3531
G01 X9.4125 Y-7.3747
G01 X9.4322 Y-7.3953
G01 X9.4528 Y-7.4150
G01 X9.4744 Y-7.4336
G01 X9.4968 Y-7.4511
G01 X9.5201 Y-7.4675
G01 X9.5442 Y-7.4827
G01 X9.5689 Y-7.4968
G01 X9.5944 Y-7.5096
G01 X9.6204 Y-7.5211
G01 X9.6470 Y-7.5314
G01 X9.6740 Y-7.5403
G01 X9.7015 Y-7.5479
G01 X9.7293 Y-7.5542
G01 X9.7574 Y-7.5590
G01 X9.7856 Y-7.5625
G01 X9.8140 Y-7.5646
G01 X9.8434 Y-7.5653
G01 X11.9175 Y-7.5653
G01 X11.9303 Y-7.5665
G01 X11.9403 Y-7.5691
G01 X11.9505 Y-7.5736
G01 X11.9599 Y-7.5796
G01 X11.9682 Y-7.5871
G01 X11.9752 Y-7.5957
G01 X11.9804 Y-7.6046
G01 X11.9842 Y-7.6142
G01 X11.9867 Y-7.6251
G01 X11.9875 Y-7.6353
G01 X11.9875 Y-7.9600
G01 X14.0475 Y-7.9600
G01 X14.0476 Y-7.6140
G01 X14.0498 Y-7.6005
G01 X14.0545 Y-7.5877
G01 X14.0617 Y-7.5760
G01 X14.0703 Y-7.5666
G01 X14.0805 Y-7.5588
G01 X14.0928 Y-7.5528
G01 X14.1339 Y-7.5417
G01 X14.1602 Y-7.5332
G01 X14.1862 Y-7.5235
G01 X14.2116 Y-7.5126
G01 X14.2365 Y-7.5005
G01 X14.2608 Y-7.4872
G01 X14.2844 Y-7.4728
G01 X14.3080 Y-7.4567
G01 X15.6170 Y-6.5219
G01 X15.6291 Y-6.5156
G01 X15.6431 Y-6.5117
G01 X15.6576 Y-6.5108
G01 X15.6711 Y-6.5126
G01 X15.6816 Y-6.5161
G01 X15.7218 Y-6.5339
G01 X15.7781 Y-6.5556
G01 X15.8355 Y-6.5745
G01 X15.8936 Y-6.5906
G01 X15.9525 Y-6.6038
G01 X16.0120 Y-6.6142
G01 X16.0719 Y-6.6216
G01 X16.1321 Y-6.6260
G01 X16.1925 Y-6.6275
G01 X16.2529 Y-6.6260
G01 X16.3131 Y-6.6216
G01 X16.3730 Y-6.6142
G01 X16.4325 Y-6.6038
G01 X16.4914 Y-6.5906
G01 X16.5495 Y-6.5745
G01 X16.6069 Y-6.5556
G01 X16.6632 Y-6.5339
G01 X16.7184 Y-6.5094
G01 X16.7723 Y-6.4822
G01 X16.8248 Y-6.4525
G01 X16.8758 Y-6.4202
G01 X16.9252 Y-6.3854
G01 X16.9728 Y-6.3483
G01 X17.0185 Y-6.3089
G01 X17.0622 Y-6.2672
G01 X17.1039 Y-6.2235
G01 X17.1433 Y-6.1778
G01 X17.1804 Y-6.1302
G01 X17.2152 Y-6.0808
G01 X17.2475 Y-6.0298
G01 X17.2772 Y-5.9773
G01 X17.3044 Y-5.9234
G01 X17.3289 Y-5.8682
G01 X17.3506 Y-5.8119
G01 X17.3695 Y-5.7545
G01 X17.3856 Y-5.6964
G01 X17.3988 Y-5.6375
G01 X17.4092 Y-5.5780
G01 X17.4166 Y-5.5181
G01 X17.4210 Y-5.4579
G01 X17.4225 Y-5.3975
G01 X17.4210 Y-5.3371
G01 X17.4166 Y-5.2769
G01 X17.4092 Y-5.2170
G01 X17.3988 Y-5.1575
G01 X17.3856 Y-5.0986
G01 X17.3695 Y-5.0405
G01 X17.3506 Y-4.9831
G01 X17.3289 Y-4.9268
G01 X17.3044 Y-4.8716
G01 X17.2772 Y-4.8177
G01 X17.2475 Y-4.7652
G01 X17.2152 Y-4.7142
G01 X17.1804 Y-4.6648
G01 X17.1433 Y-4.6172
G01 X17.1039 Y-4.5715
G01 X17.0622 Y-4.5278
G01 X17.0185 Y-4.4861
G01 X16.9728 Y-4.4467
G01 X16.9252 Y-4.4096
G01 X16.8758 Y-4.3748
G01 X16.8248 Y-4.3425
G01 X16.7723 Y-4.3128
G01 X16.7184 Y-4.2856
G01 X16.6632 Y-4.2611
G01 X16.6069 Y-4.2394
G01 X16.5495 Y-4.2205
G01 X16.4914 Y-4.2044
G01 X16.4498 Y-4.1950
G01 X16.4370 Y-4.1900
G01 X16.4254 Y-4.1827
G01 X16.4149 Y-4.1726
G01 X16.4072 Y-4.1613
G01 X16.4017 Y-4.1486
G01 X16.3991 Y-4.1369
G01 X16.3985 Y-4.1249
G01 X16.4000 Y-4.1130
G01 X16.4035 Y-4.1015
G01 X16.4084 Y-4.0915
G01 X16.4155 Y-4.0818
G01 X16.4241 Y-4.0734
G01 X16.4340 Y-4.0666
G01 X16.4417 Y-4.0628
G01 X16.4498 Y-4.0600
G01 X16.4914 Y-4.0506
G01 X16.5495 Y-4.0345
G01 X16.6069 Y-4.0156
G01 X16.6632 Y-3.9939
G01 X16.7184 Y-3.9694
G01 X16.7602 Y-3.9484
G01 X16.5649 Y-3.7531
G01 X16.5193 Y-3.7708
G01 X16.4741 Y-3.7857
G01 X16.4282 Y-3.7984
G01 X16.3817 Y-3.8089
G01 X16.3348 Y-3.8170
G01 X16.2876 Y-3.8228
G01 X16.2401 Y-3.8263
G01 X16.1925 Y-3.8275
G01 X16.1449 Y-3.8263
G01 X16.0974 Y-3.8228
G01 X16.0502 Y-3.8170
G01 X16.0033 Y-3.8089
G01 X15.9568 Y-3.7984
G01 X15.9109 Y-3.7857
G01 X15.8657 Y-3.7708
G01 X15.8201 Y-3.7531
G01 X15.6248 Y-3.9484
G01 X15.6666 Y-3.9694
G01 X15.7218 Y-3.9939
G01 X15.7781 Y-4.0156
G01 X15.8355 Y-4.0345
G01 X15.8936 Y-4.0506
G01 X15.9360 Y-4.0603
G01 X15.9441 Y-4.0632
G01 X15.9518 Y-4.0670
G01 X15.9629 Y-4.0751
G01 X15.9717 Y-4.0844
G01 X15.9787 Y-4.0953
G01 X15.9835 Y-4.1072
G01 X15.9861 Y-4.1198
G01 X15.9863 Y-4.1326
G01 X15.9842 Y-4.1453
G01 X15.9798 Y-4.1574
G01 X15.9738 Y-4.1678
G01 X15.9660 Y-4.1770
G01 X15.9561 Y-4.1852
G01 X15.9457 Y-4.1911
G01 X15.9344 Y-4.1952
G01 X15.8936 Y-4.2044
G01 X15.8355 Y-4.2205
G01 X15.7781 Y-4.2394
G01 X15.7218 Y-4.2611
G01 X15.6666 Y-4.2856
G01 X15.6127 Y-4.3128
G01 X15.5602 Y-4.3425
G01 X15.5092 Y-4.3748
G01 X15.4598 Y-4.4096
G01 X15.4122 Y-4.4467
G01 X15.3665 Y-4.4861
G01 X15.3228 Y-4.5278
G01 X15.2811 Y-4.5715
G01 X15.2417 Y-4.6172
G01 X15.2046 Y-4.6648
G01 X15.1698 Y-4.7142
G01 X15.1375 Y-4.7652
G01 X15.1078 Y-4.8177
G01 X15.0806 Y-4.8716
G01 X15.0561 Y-4.9268
G01 X15.0344 Y-4.9831
G01 X15.0155 Y-5.0405
G01 X14.9994 Y-5.0986
G01 X14.9862 Y-5.1575
G01 X14.9758 Y-5.2170
G01 X14.9684 Y-5.2769
G01 X14.9640 Y-5.3371
G01 X14.9625 Y-5.3975
G01 X14.9640 Y-5.4579
G01 X14.9685 Y-5.5260
G01 X14.9672 Y-5.5363
G01 X14.9644 Y-5.5463
G01 X14.9602 Y-5.5557
G01 X14.9546 Y-5.5645
G01 X14.9472 Y-5.5729
G01 X14.9393 Y-5.5795
G01 X14.1539 Y-6.1402
G01 X14.1416 Y-6.1462
G01 X14.1283 Y-6.1496
G01 X14.1138 Y-6.1504
G01 X14.1003 Y-6.1483
G01 X14.0874 Y-6.1436
G01 X14.0757 Y-6.1366
G01 X14.0655 Y-6.1274
G01 X14.0574 Y-6.1164
G01 X14.0531 Y-6.1080
G01 X14.0500 Y-6.0991
G01 X14.0481 Y-6.0899
G01 X14.0475 Y-6.0805
G01 X14.0475 Y-0.2900
G01 X9.4542 Y-0.2900
G01 X9.4542 Y-0.5500
G01 X9.8175 Y-0.5500
G01 X9.8261 Y-0.5505
G01 X9.8362 Y-0.5525
G01 X9.8459 Y-0.5560
G01 X9.8549 Y-0.5609
G01 X9.8639 Y-0.5676
G01 X9.8711 Y-0.5749
G01 X9.8775 Y-0.5840
G01 X9.8822 Y-0.5932
G01 X9.8854 Y-0.6030
G01 X9.8870 Y-0.6114
G01 X9.8875 Y-0.6200
G01 X9.8875 Y-2.0200
G01 X9.8865 Y-2.0320
G01 X9.8831 Y-2.0444
G01 X9.8780 Y-2.0552
G01 X9.8711 Y-2.0651
G01 X9.8619 Y-2.0741
G01 X9.8520 Y-2.0809
G01 X9.8403 Y-2.0862
G01 X9.8286 Y-2.0891
G01 X9.8175 Y-2.0900
G01 X9.4541 Y-2.0900
G01 X9.4541 Y-2.3500
G01 X10.1473 Y-2.3500
G01 X10.1608 Y-2.3519
G01 X10.1746 Y-2.3567
G01 X10.1864 Y-2.3638
G01 X10.1965 Y-2.3730
G01 X10.2038 Y-2.3826
G01 X10.2097 Y-2.3940
G01 X10.2133 Y-2.4063
G01 X10.2147 Y-2.4183
G01 X10.2146 Y-3.0626
G01 X10.2135 Y-3.0728
G01 X10.2106 Y-3.0836
G01 X10.2064 Y-3.0930
G01 X10.2004 Y-3.1024
G01 X10.1929 Y-3.1107
G01 X10.1850 Y-3.1172
G01 X10.1754 Y-3.1229
G01 X10.1650 Y-3.1270
G00 Z2.0000
G00 X11.2610 Y-3.1606
G01 F70.00
G01 Z-0.0600
G01 F120.00
G01 X11.2577 Y-3.1544
G01 X11.2551 Y-3.1490
G01 X11.2551 Y-3.1588
G01 X11.2610 Y-3.1606
G00 Z2.0000
G00 X11.2551 Y-2.3310
G01 F70.00
G01 Z-0.0600
G01 F120.00
G01 X11.2639 Y-2.3143
G01 X11.2736 Y-2.2991
G01 X11.2846 Y-2.2848
G01 X11.2968 Y-2.2715
G01 X11.3101 Y-2.2593
G01 X11.3244 Y-2.2483
G01 X11.3396 Y-2.2386
G01 X11.3559 Y-2.2300
G01 X11.2551 Y-2.2300
G01 X11.2551 Y-2.3310
G00 Z2.0000
G00 X12.1275 Y-3.9096
G01 F70.00
G01 Z-0.0600
G01 F120.00
G01 X12.1275 Y-4.3406
G01 X12.1374 Y-4.3220
G01 X12.1504 Y-4.3028
G01 X12.1654 Y-4.2852
G01 X12.1823 Y-4.2693
G01 X12.2008 Y-4.2554
G01 X12.2208 Y-4.2436
G01 X12.2395 Y-4.2350
G01 X12.2615 Y-4.2276
G01 X12.2867 Y-4.2223
G01 X12.3123 Y-4.2201
G01 X12.5574 Y-4.2200
G01 X12.5574 Y-4.0302
G01 X12.3123 Y-4.0301
G01 X12.2867 Y-4.0279
G01 X12.2615 Y-4.0226
G01 X12.2395 Y-4.0152
G01 X12.2185 Y-4.0054
G01 X12.2008 Y-3.9948
G01 X12.1823 Y-3.9809
G01 X12.1654 Y-3.9650
G01 X12.1504 Y-3.9474
G01 X12.1374 Y-3.9282
G01 X12.1275 Y-3.9096
G00 Z2.0000
G00 X12.1975 Y-4.0732
G01 F70.00
G01 Z-0.0600
G01 F120.00
G01 X12.1975 Y-4.1770
G01 X12.2199 Y-4.1675
G01 X12.2428 Y-4.1601
G01 X12.2662 Y-4.1547
G01 X12.2901 Y-4.1513
G01 X12.3141 Y-4.1500
G01 X12.4874 Y-4.1500
G01 X12.4874 Y-4.1002
G01 X12.3141 Y-4.1002
G01 X12.2901 Y-4.0989
G01 X12.2662 Y-4.0955
G01 X12.2428 Y-4.0901
G01 X12.2199 Y-4.0827
G01 X12.1975 Y-4.0732
G00 Z2.0000
G00 X13.8375 Y-4.1770
G01 F70.00
G01 Z-0.0600
G01 F120.00
G01 X13.8375 Y-4.0732
G01 X13.8151 Y-4.0827
G01 X13.7922 Y-4.0901
G01 X13.7688 Y-4.0955
G01 X13.7449 Y-4.0989
G01 X13.7209 Y-4.1002
G01 X13.5476 Y-4.1002
G01 X13.5476 Y-4.1500
G01 X13.7209 Y-4.1500
G01 X13.7449 Y-4.1513
G01 X13.7688 Y-4.1547
G01 X13.7922 Y-4.1601
G01 X13.8151 Y-4.1675
G01 X13.8375 Y-4.1770
G00 Z2.0000
G00 X13.9075 Y-4.3406
G01 F70.00
G01 Z-0.0600
G01 F120.00
G01 X13.9075 Y-3.9096
G01 X13.8976 Y-3.9282
G01 X13.8846 Y-3.9474
G01 X13.8696 Y-3.9650
G01 X13.8527 Y-3.9809
G01 X13.8342 Y-3.9948
G01 X13.8142 Y-4.0066
G01 X13.7955 Y-4.0152
G01 X13.7735 Y-4.0226
G01 X13.7483 Y-4.0279
G01 X13.7227 Y-4.0301
G01 X13.4776 Y-4.0302
G01 X13.4776 Y-4.2200
G01 X13.7227 Y-4.2201
G01 X13.7483 Y-4.2223
G01 X13.7735 Y-4.2276
G01 X13.7955 Y-4.2350
G01 X13.8165 Y-4.2448
G01 X13.8342 Y-4.2554
G01 X13.8527 Y-4.2693
G01 X13.8696 Y-4.2852
G01 X13.8846 Y-4.3028
G01 X13.8976 Y-4.3220
G01 X13.9075 Y-4.3406
G00 Z2.0000
G00 X15.0816 Y-5.6256
G01 F70.00
G01 Z-0.0600
G01 F120.00
G01 X15.1031 Y-5.6102
G01 X15.0988 Y-5.5857
G01 X15.0914 Y-5.6058
G01 X15.0816 Y-5.6256
G00 Z2.0000
G00 X15.6591 Y-6.3708
G01 F70.00
G01 Z-0.0600
G01 F120.00
G01 X15.6382 Y-6.3589
G01 X15.6167 Y-6.3742
G01 X15.6374 Y-6.3715
G01 X15.6591 Y-6.3708
G00 Z2.0000
G00 X14.0002 Y-7.4441
G01 F70.00
G01 Z-0.0600
G01 F120.00
G01 X13.9725 Y-7.4451
G01 X13.9275 Y-7.4451
G01 X13.9275 Y-7.5288
G01 X13.9412 Y-7.5042
G01 X13.9581 Y-7.4816
G01 X13.9778 Y-7.4615
G01 X14.0002 Y-7.4441
G00 Z2.0000
G00 X13.9075 Y-7.7194
G01 F70.00
G01 Z-0.0600
G01 F120.00
G01 X13.8989 Y-7.7357
G01 X13.8892 Y-7.7509
G01 X13.8782 Y-7.7652
G01 X13.8660 Y-7.7785
G01 X13.8527 Y-7.7907
G01 X13.8384 Y-7.8017
G01 X13.8232 Y-7.8114
G01 X13.8069 Y-7.8200
G01 X13.9075 Y-7.8200
G01 X13.9075 Y-7.7194
G00 Z2.0000
G00 X12.2281 Y-7.8200
G01 F70.00
G01 Z-0.0600
G01 F120.00
G01 X12.2118 Y-7.8114
G01 X12.1966 Y-7.8017
G01 X12.1823 Y-7.7907
G01 X12.1690 Y-7.7785
G01 X12.1568 Y-7.7652
G01 X12.1458 Y-7.7509
G01 X12.1361 Y-7.7357
G01 X12.1275 Y-7.7194
G01 X12.1275 Y-7.8200
G01 X12.2281 Y-7.8200
G00 Z2.0000
G00 X12.1075 Y-7.5459
G01 F70.00
G01 Z-0.0600
G01 F120.00
G01 X12.1075 Y-7.4451
G01 X12.0065 Y-7.4451
G01 X12.0232 Y-7.4539
G01 X12.0384 Y-7.4636
G01 X12.0527 Y-7.4746
G01 X12.0660 Y-7.4868
G01 X12.0782 Y-7.5001
G01 X12.0892 Y-7.5144
G01 X12.0989 Y-7.5296
G01 X12.1075 Y-7.5459
G00 Z2.0000
G00 X12.0065 Y-6.5249
G01 F70.00
G01 Z-0.0600
G01 F120.00
G01 X12.1075 Y-6.5249
G01 X12.1075 Y-6.4241
G01 X12.0989 Y-6.4404
G01 X12.0892 Y-6.4556
G01 X12.0782 Y-6.4699
G01 X12.0660 Y-6.4832
G01 X12.0527 Y-6.4954
G01 X12.0384 Y-6.5064
G01 X12.0232 Y-6.5161
G01 X12.0065 Y-6.5249
G00 Z2.0000
G00 X12.1275 Y-6.2406
G01 F70.00
G01 Z-0.0600
G01 F120.00
G01 X12.1401 Y-6.2177
G01 X12.1568 Y-6.1948
G01 X12.1765 Y-6.1744
G01 X12.1987 Y-6.1568
G01 X12.2231 Y-6.1424
G01 X12.2468 Y-6.1323
G01 X12.2740 Y-6.1246
G01 X12.3021 Y-6.1206
G01 X12.3175 Y-6.1200
G01 X13.7175 Y-6.1200
G01 X13.7406 Y-6.1213
G01 X13.7635 Y-6.1251
G01 X13.7882 Y-6.1323
G01 X13.8119 Y-6.1424
G01 X13.8320 Y-6.1540
G01 X13.8527 Y-6.1693
G01 X13.8696 Y-6.1852
G01 X13.8862 Y-6.2049
G01 X13.9002 Y-6.2265
G01 X13.9095 Y-6.2449
G01 X13.9169 Y-6.2641
G01 X13.9224 Y-6.2840
G01 X13.9259 Y-6.3043
G01 X13.9275 Y-6.3274
G01 X13.9275 Y-6.4499
G01 X14.1556 Y-6.2870
G01 X14.1397 Y-6.2893
G01 X14.1244 Y-6.2903
G01 X14.1089 Y-6.2903
G01 X14.0910 Y-6.2888
G01 X14.0733 Y-6.2857
G01 X14.0583 Y-6.2820
G01 X14.0413 Y-6.2762
G01 X14.0272 Y-6.2700
G01 X14.0135 Y-6.2629
G01 X13.9983 Y-6.2533
G01 X13.9839 Y-6.2425
G01 X13.9724 Y-6.2322
G01 X13.9616 Y-6.2212
G01 X13.9502 Y-6.2073
G01 X13.9399 Y-6.1925
G01 X13.9322 Y-6.1792
G01 X13.9224 Y-6.1582
G01 X13.9158 Y-6.1388
G01 X13.9110 Y-6.1188
G01 X13.9081 Y-6.0959
G01 X13.9075 Y-6.0805
G01 X13.9075 Y-5.8194
G01 X13.8949 Y-5.8423
G01 X13.8782 Y-5.8652
G01 X13.8585 Y-5.8856
G01 X13.8363 Y-5.9032
G01 X13.8142 Y-5.9164
G01 X13.7882 Y-5.9277
G01 X13.7610 Y-5.9354
G01 X13.7329 Y-5.9394
G01 X13.7175 Y-5.9400
G01 X12.3175 Y-5.9400
G01 X12.2892 Y-5.9381
G01 X12.2740 Y-5.9354
G01 X12.2590 Y-5.9317
G01 X12.2443 Y-5.9268
G01 X12.2300 Y-5.9209
G01 X12.2052 Y-5.9074
G01 X12.1823 Y-5.8907
G01 X12.1708 Y-5.8803
G01 X12.1602 Y-5.8691
G01 X12.1504 Y-5.8572
G01 X12.1415 Y-5.8445
G01 X12.1275 Y-5.8194
G01 X12.1275 Y-6.2406
G00 Z2.0000
G00 X12.1975 Y-6.0770
G01 F70.00
G01 Z-0.0600
G01 F120.00
G01 X12.2232 Y-6.0664
G01 X12.2528 Y-6.0576
G01 X12.2832 Y-6.0521
G01 X12.3141 Y-6.0500
G01 X13.7175 Y-6.0500
G01 X13.7484 Y-6.0517
G01 X13.7788 Y-6.0568
G01 X13.8086 Y-6.0652
G01 X13.8375 Y-6.0770
G01 X13.8375 Y-5.9830
G01 X13.8118 Y-5.9936
G01 X13.7822 Y-6.0024
G01 X13.7518 Y-6.0079
G01 X13.7209 Y-6.0100
G01 X12.3175 Y-6.0100
G01 X12.2866 Y-6.0083
G01 X12.2562 Y-6.0032
G01 X12.2264 Y-5.9948
G01 X12.1975 Y-5.9830
G01 X12.1975 Y-6.0770
G00 Z2.0000
G00 X12.3175 Y-5.8700
G01 F70.00
G01 Z-0.0600
G01 F120.00
G01 X13.7261 Y-5.8697
G01 X13.7448 Y-5.8673
G01 X13.7630 Y-5.8624
G01 X13.7804 Y-5.8551
G01 X13.7981 Y-5.8445
G01 X13.8140 Y-5.8314
G01 X13.8268 Y-5.8175
G01 X13.8385 Y-5.8005
G01 X13.8468 Y-5.7836
G01 X13.8515 Y-5.7706
G01 X13.8548 Y-5.7573
G01 X13.8568 Y-5.7437
G01 X13.8575 Y-5.7300
G01 X13.8575 Y-4.4300
G01 X13.8562 Y-4.4112
G01 X13.8520 Y-4.3910
G01 X13.8455 Y-4.3733
G01 X13.8376 Y-4.3580
G01 X13.8268 Y-4.3425
G01 X13.8140 Y-4.3286
G01 X13.7995 Y-4.3165
G01 X13.7835 Y-4.3065
G01 X13.7663 Y-4.2988
G01 X13.7482 Y-4.2934
G01 X13.7329 Y-4.2909
G01 X13.7192 Y-4.2900
G01 X13.4076 Y-4.2900
G01 X13.4076 Y-3.9602
G01 X13.7192 Y-3.9602
G01 X13.7346 Y-3.9591
G01 X13.7515 Y-3.9560
G01 X13.7695 Y-3.9502
G01 X13.7880 Y-3.9412
G01 X13.8050 Y-3.9295
G01 X13.8189 Y-3.9167
G01 X13.8320 Y-3.9008
G01 X13.8426 Y-3.8831
G01 X13.8504 Y-3.8641
G01 X13.8551 Y-3.8458
G01 X13.8568 Y-3.8339
G01 X13.8575 Y-3.8202
G01 X13.8572 Y-2.5116
G01 X13.8545 Y-2.4912
G01 X13.8493 Y-2.4730
G01 X13.8418 Y-2.4557
G01 X13.8310 Y-2.4382
G01 X13.8189 Y-2.4237
G01 X13.8036 Y-2.4098
G01 X13.7880 Y-2.3992
G01 X13.7711 Y-2.3909
G01 X13.7581 Y-2.3862
G01 X13.7465 Y-2.3832
G01 X13.7329 Y-2.3811
G01 X13.7192 Y-2.3802
G01 X12.3106 Y-2.3804
G01 X12.2919 Y-2.3826
G01 X12.2720 Y-2.3878
G01 X12.2546 Y-2.3951
G01 X12.2369 Y-2.4057
G01 X12.2210 Y-2.4188
G01 X12.2082 Y-2.4327
G01 X12.1965 Y-2.4497
G01 X12.1882 Y-2.4666
G01 X12.1835 Y-2.4796
G01 X12.1802 Y-2.4929
G01 X12.1782 Y-2.5065
G01 X12.1775 Y-2.5202
G01 X12.1775 Y-3.8202
G01 X12.1788 Y-3.8390
G01 X12.1830 Y-3.8592
G01 X12.1895 Y-3.8769
G01 X12.1974 Y-3.8922
G01 X12.2082 Y-3.9077
G01 X12.2210 Y-3.9216
G01 X12.2355 Y-3.9337
G01 X12.2515 Y-3.9437
G01 X12.2687 Y-3.9514
G01 X12.2868 Y-3.9568
G01 X12.3004 Y-3.9591
G01 X12.3158 Y-3.9602
G01 X12.6274 Y-3.9602
G01 X12.6274 Y-4.2900
G01 X12.3158 Y-4.2900
G01 X12.2987 Y-4.2913
G01 X12.2818 Y-4.2946
G01 X12.2623 Y-4.3013
G01 X12.2455 Y-4.3099
G01 X12.2287 Y-4.3218
G01 X12.2138 Y-4.3360
G01 X12.2011 Y-4.3522
G01 X12.1909 Y-4.3701
G01 X12.1835 Y-4.3894
G01 X12.1793 Y-4.4078
G01 X12.1775 Y-4.4300
G01 X12.1775 Y-5.7300
G01 X12.1782 Y-5.7437
G01 X12.1802 Y-5.7573
G01 X12.1830 Y-5.7690
G01 X12.1869 Y-5.7804
G01 X12.1924 Y-5.7929
G01 X12.1992 Y-5.8049
G01 X12.2061 Y-5.8148
G01 X12.2149 Y-5.8253
G01 X12.2235 Y-5.8337
G01 X12.2341 Y-5.8424
G01 X12.2441 Y-5.8492
G01 X12.2546 Y-5.8551
G01 X12.2671 Y-5.8606
G01 X12.2785 Y-5.8645
G01 X12.2919 Y-5.8676
G01 X12.3038 Y-5.8693
G01 X12.3175 Y-5.8700
G00 Z2.0000
G00 X12.3175 Y-5.8000
G01 F70.00
G01 Z-0.0600
G01 F120.00
G01 X13.7192 Y-5.8000
G01 X13.7286 Y-5.7991
G01 X13.7386 Y-5.7967
G01 X13.7482 Y-5.7929
G01 X13.7564 Y-5.7882
G01 X13.7639 Y-5.7824
G01 X13.7711 Y-5.7751
G01 X13.7771 Y-5.7667
G01 X13.7818 Y-5.7576
G01 X13.7862 Y-5.7437
G01 X13.7875 Y-5.7300
G01 X13.7875 Y-4.4300
G01 X13.7867 Y-4.4197
G01 X13.7842 Y-4.4089
G01 X13.7804 Y-4.3993
G01 X13.7752 Y-4.3904
G01 X13.7688 Y-4.3824
G01 X13.7619 Y-4.3759
G01 X13.7535 Y-4.3700
G01 X13.7443 Y-4.3653
G01 X13.7345 Y-4.3621
G01 X13.7252 Y-4.3604
G01 X13.3376 Y-4.3600
G01 X13.3376 Y-3.8902
G01 X13.7175 Y-3.8902
G01 X13.7261 Y-3.8897
G01 X13.7362 Y-3.8877
G01 X13.7466 Y-3.8838
G01 X13.7557 Y-3.8789
G01 X13.7645 Y-3.8721
G01 X13.7716 Y-3.8646
G01 X13.7780 Y-3.8554
G01 X13.7828 Y-3.8454
G01 X13.7860 Y-3.8347
G01 X13.7875 Y-3.8202
G01 X13.7875 Y-2.5185
G01 X13.7865 Y-2.5082
G01 X13.7840 Y-2.4982
G01 X13.7800 Y-2.4887
G01 X13.7752 Y-2.4806
G01 X13.7688 Y-2.4726
G01 X13.7619 Y-2.4661
G01 X13.7535 Y-2.4602
G01 X13.7451 Y-2.4559
G01 X13.7320 Y-2.4517
G01 X13.7175 Y-2.4502
G01 X12.3158 Y-2.4502
G01 X12.3064 Y-2.4511
G01 X12.2964 Y-2.4535
G01 X12.2868 Y-2.4573
G01 X12.2779 Y-2.4625
G01 X12.2699 Y-2.4689
G01 X12.2634 Y-2.4758
G01 X12.2575 Y-2.4842
G01 X12.2532 Y-2.4926
G01 X12.2488 Y-2.5065
G01 X12.2475 Y-2.5202
G01 X12.2475 Y-3.8202
G01 X12.2483 Y-3.8305
G01 X12.2508 Y-3.8413
G01 X12.2546 Y-3.8509
G01 X12.2593 Y-3.8591
G01 X12.2656 Y-3.8672
G01 X12.2731 Y-3.8743
G01 X12.2815 Y-3.8802
G01 X12.2907 Y-3.8849
G01 X12.2997 Y-3.8879
G01 X12.3098 Y-3.8898
G01 X12.6974 Y-3.8902
G01 X12.6974 Y-4.3600
G01 X12.3175 Y-4.3600
G01 X12.3089 Y-4.3605
G01 X12.2980 Y-4.3628
G01 X12.2884 Y-4.3664
G01 X12.2786 Y-4.3718
G01 X12.2699 Y-4.3787
G01 X12.2623 Y-4.3869
G01 X12.2562 Y-4.3962
G01 X12.2516 Y-4.4064
G01 X12.2488 Y-4.4163
G01 X12.2475 Y-4.4300
G01 X12.2476 Y-5.7334
G01 X12.2496 Y-5.7470
G01 X12.2539 Y-5.7591
G01 X12.2608 Y-5.7710
G01 X12.2692 Y-5.7807
G01 X12.2793 Y-5.7887
G01 X12.2915 Y-5.7950
G01 X12.3038 Y-5.7987
G01 X12.3175 Y-5.8000
G00 Z2.0000
G00 X10.3107 Y-6.4353
G01 F70.00
G01 Z-0.0600
G01 F120.00
G01 X10.3026 Y-6.4403
G01 X10.3026 Y-6.5249
G01 X10.4060 Y-6.5249
G01 X10.3915 Y-6.5174
G01 X10.3783 Y-6.5093
G01 X10.3658 Y-6.5002
G01 X10.3521 Y-6.4885
G01 X10.3394 Y-6.4757
G01 X10.3294 Y-6.4639
G01 X10.3190 Y-6.4492
G01 X10.3107 Y-6.4353
G00 Z2.0000
G00 X9.3950 Y-6.4000
G01 F70.00
G01 Z-0.0600
G01 F120.00
G01 X9.4524 Y-6.4000
G01 X9.4528 Y-7.0024
G01 X9.4546 Y-7.0267
G01 X9.4599 Y-7.0611
G01 X9.4649 Y-7.0831
G01 X9.4746 Y-7.1148
G01 X9.4821 Y-7.1343
G01 X9.4906 Y-7.1533
G01 X9.5001 Y-7.1719
G01 X9.5162 Y-7.1989
G01 X9.5291 Y-7.2174
G01 X9.5409 Y-7.2325
G01 X9.5534 Y-7.2470
G01 X9.5691 Y-7.2633
G01 X9.5924 Y-7.2844
G01 X9.6074 Y-7.2963
G01 X9.6258 Y-7.3094
G01 X9.6419 Y-7.3196
G01 X9.6586 Y-7.3291
G01 X9.6788 Y-7.3391
G01 X9.7079 Y-7.3511
G01 X9.7276 Y-7.3578
G01 X9.7511 Y-7.3642
G01 X9.7853 Y-7.3709
G01 X9.8077 Y-7.3735
G01 X9.8408 Y-7.3751
G01 X12.1775 Y-7.3751
G01 X12.1775 Y-7.6317
G01 X12.1790 Y-7.6505
G01 X12.1826 Y-7.6673
G01 X12.1888 Y-7.6852
G01 X12.1974 Y-7.7020
G01 X12.2071 Y-7.7161
G01 X12.2197 Y-7.7302
G01 X12.2341 Y-7.7424
G01 X12.2500 Y-7.7526
G01 X12.2671 Y-7.7606
G01 X12.2835 Y-7.7658
G01 X12.3004 Y-7.7689
G01 X12.3175 Y-7.7700
G01 X13.7175 Y-7.7700
G01 X13.7380 Y-7.7685
G01 X13.7565 Y-7.7645
G01 X13.7758 Y-7.7573
G01 X13.7924 Y-7.7483
G01 X13.8089 Y-7.7360
G01 X13.8224 Y-7.7227
G01 X13.8349 Y-7.7063
G01 X13.8441 Y-7.6899
G01 X13.8515 Y-7.6706
G01 X13.8557 Y-7.6522
G01 X13.8575 Y-7.6334
G01 X13.8575 Y-7.3751
G01 X13.9869 Y-7.3748
G01 X14.0105 Y-7.3730
G01 X14.0440 Y-7.3680
G01 X14.0802 Y-7.3592
G01 X14.1153 Y-7.3470
G01 X14.1492 Y-7.3316
G01 X14.1785 Y-7.3147
G01 X14.1968 Y-7.3025
G01 X15.6350 Y-6.2751
G01 X15.6593 Y-6.2904
G01 X15.7038 Y-6.3155
G01 X15.7478 Y-6.3376
G01 X15.7929 Y-6.3577
G01 X15.8454 Y-6.3778
G01 X15.8906 Y-6.3927
G01 X15.9381 Y-6.4059
G01 X15.9930 Y-6.4181
G01 X16.0399 Y-6.4262
G01 X16.0906 Y-6.4325
G01 X16.1449 Y-6.4364
G01 X16.1925 Y-6.4375
G01 X16.2418 Y-6.4363
G01 X16.2979 Y-6.4321
G01 X16.3451 Y-6.4262
G01 X16.3954 Y-6.4175
G01 X16.4452 Y-6.4063
G01 X16.4911 Y-6.3937
G01 X16.5429 Y-6.3767
G01 X16.5936 Y-6.3570
G01 X16.6372 Y-6.3376
G01 X16.6828 Y-6.3147
G01 X16.7301 Y-6.2877
G01 X16.7703 Y-6.2622
G01 X16.8106 Y-6.2339
G01 X16.8549 Y-6.1992
G01 X16.8909 Y-6.1681
G01 X16.9254 Y-6.1353
G01 X16.9631 Y-6.0959
G01 X16.9986 Y-6.0546
G01 X17.0278 Y-6.0170
G01 X17.0553 Y-5.9781
G01 X17.0845 Y-5.9322
G01 X17.1113 Y-5.8847
G01 X17.1326 Y-5.8422
G01 X17.1533 Y-5.7955
G01 X17.1717 Y-5.7479
G01 X17.1867 Y-5.7027
G01 X17.2013 Y-5.6502
G01 X17.2131 Y-5.5970
G01 X17.2212 Y-5.5501
G01 X17.2271 Y-5.5029
G01 X17.2312 Y-5.4485
G01 X17.2325 Y-5.3941
G01 X17.2312 Y-5.3465
G01 X17.2278 Y-5.2990
G01 X17.2212 Y-5.2449
G01 X17.2125 Y-5.1946
G01 X17.2013 Y-5.1448
G01 X17.1877 Y-5.0956
G01 X17.1717 Y-5.0471
G01 X17.1533 Y-4.9995
G01 X17.1326 Y-4.9528
G01 X17.1097 Y-4.9072
G01 X17.0845 Y-4.8628
G01 X17.0572 Y-4.8197
G01 X17.0278 Y-4.7780
G01 X16.9964 Y-4.7377
G01 X16.9631 Y-4.6991
G01 X16.9279 Y-4.6621
G01 X16.8909 Y-4.6269
G01 X16.8523 Y-4.5936
G01 X16.8092 Y-4.5602
G01 X16.7703 Y-4.5328
G01 X16.7272 Y-4.5055
G01 X16.6828 Y-4.4803
G01 X16.6340 Y-4.4559
G01 X16.5873 Y-4.4354
G01 X16.5429 Y-4.4183
G01 X16.4977 Y-4.4033
G01 X16.4452 Y-4.3887
G01 X16.3988 Y-4.3782
G01 X16.3451 Y-4.3688
G01 X16.2944 Y-4.3625
G01 X16.2435 Y-4.3588
G01 X16.1925 Y-4.3575
G01 X16.1415 Y-4.3588
G01 X16.0906 Y-4.3625
G01 X16.0399 Y-4.3688
G01 X15.9896 Y-4.3775
G01 X15.9398 Y-4.3887
G01 X15.8906 Y-4.4023
G01 X15.8421 Y-4.4183
G01 X15.7945 Y-4.4367
G01 X15.7478 Y-4.4574
G01 X15.7022 Y-4.4803
G01 X15.6578 Y-4.5055
G01 X15.6147 Y-4.5328
G01 X15.5730 Y-4.5622
G01 X15.5327 Y-4.5936
G01 X15.4941 Y-4.6269
G01 X15.4571 Y-4.6621
G01 X15.4219 Y-4.6991
G01 X15.3886 Y-4.7377
G01 X15.3572 Y-4.7780
G01 X15.3259 Y-4.8226
G01 X15.3005 Y-4.8628
G01 X15.2753 Y-4.9072
G01 X15.2524 Y-4.9528
G01 X15.2317 Y-4.9995
G01 X15.2133 Y-5.0471
G01 X15.1973 Y-5.0956
G01 X15.1837 Y-5.1448
G01 X15.1719 Y-5.1980
G01 X15.1638 Y-5.2449
G01 X15.1575 Y-5.2956
G01 X15.1538 Y-5.3465
G01 X15.1525 Y-5.4009
G01 X15.1538 Y-5.4485
G01 X15.1579 Y-5.5029
G01 X15.1643 Y-5.5535
G01 X15.1725 Y-5.6004
G01 X15.1814 Y-5.6403
G01 X13.8575 Y-6.5859
G01 X13.8575 Y-6.3283
G01 X13.8562 Y-6.3112
G01 X13.8529 Y-6.2943
G01 X13.8475 Y-6.2780
G01 X13.8393 Y-6.2610
G01 X13.8289 Y-6.2452
G01 X13.8165 Y-6.2310
G01 X13.8023 Y-6.2186
G01 X13.7865 Y-6.2082
G01 X13.7695 Y-6.2000
G01 X13.7532 Y-6.1946
G01 X13.7346 Y-6.1911
G01 X13.7175 Y-6.1900
G01 X12.3175 Y-6.1900
G01 X12.2953 Y-6.1918
G01 X12.2736 Y-6.1971
G01 X12.2546 Y-6.2049
G01 X12.2355 Y-6.2165
G01 X12.2197 Y-6.2298
G01 X12.2051 Y-6.2466
G01 X12.1940 Y-6.2640
G01 X12.1851 Y-6.2845
G01 X12.1796 Y-6.3061
G01 X12.1775 Y-6.3266
G01 X12.1775 Y-6.5949
G01 X10.2326 Y-6.5949
G01 X10.2326 Y-6.3948
G01 X10.2533 Y-6.3873
G01 X10.2728 Y-6.3764
G01 X10.2890 Y-6.3637
G01 X10.3043 Y-6.3475
G01 X10.3168 Y-6.3290
G01 X10.3256 Y-6.3104
G01 X10.3320 Y-6.2890
G01 X10.3347 Y-6.2686
G01 X10.3350 Y-5.3566
G01 X10.3332 Y-5.3378
G01 X10.3290 Y-5.3194
G01 X10.3223 Y-5.3017
G01 X10.3133 Y-5.2851
G01 X10.3032 Y-5.2712
G01 X10.2928 Y-5.2598
G01 X10.2811 Y-5.2496
G01 X10.2670 Y-5.2399
G01 X10.2517 Y-5.2320
G01 X10.2373 Y-5.2265
G01 X10.2206 Y-5.2224
G01 X10.2053 Y-5.2204
G01 X9.3950 Y-5.2200
G01 X9.3745 Y-5.2215
G01 X9.3627 Y-5.2238
G01 X9.3511 Y-5.2271
G01 X9.3305 Y-5.2357
G01 X9.3116 Y-5.2476
G01 X9.3023 Y-5.2551
G01 X9.2936 Y-5.2635
G01 X9.2796 Y-5.2808
G01 X9.2732 Y-5.2910
G01 X9.2677 Y-5.3017
G01 X9.2601 Y-5.3227
G01 X9.2559 Y-5.3446
G01 X9.2550 Y-5.3600
G01 X9.2550 Y-6.2617
G01 X9.2559 Y-6.2754
G01 X9.2580 Y-6.2890
G01 X9.2615 Y-6.3023
G01 X9.2663 Y-6.3152
G01 X9.2724 Y-6.3275
G01 X9.2796 Y-6.3392
G01 X9.2879 Y-6.3501
G01 X9.2972 Y-6.3602
G01 X9.3075 Y-6.3693
G01 X9.3187 Y-6.3774
G01 X9.3305 Y-6.3843
G01 X9.3430 Y-6.3900
G01 X9.3560 Y-6.3945
G01 X9.3694 Y-6.3976
G01 X9.3813 Y-6.3993
G01 X9.3950 Y-6.4000
G00 Z2.0000
G00 X9.3950 Y-6.3300
G01 F70.00
G01 Z-0.0600
G01 F120.00
G01 X9.5224 Y-6.3300
G01 X9.5227 Y-6.9990
G01 X9.5241 Y-7.0181
G01 X9.5285 Y-7.0475
G01 X9.5357 Y-7.0763
G01 X9.5414 Y-7.0937
G01 X9.5539 Y-7.1234
G01 X9.5671 Y-7.1481
G01 X9.5754 Y-7.1614
G01 X9.5950 Y-7.1881
G01 X9.6174 Y-7.2126
G01 X9.6381 Y-7.2314
G01 X9.6504 Y-7.2411
G01 X9.6779 Y-7.2596
G01 X9.7072 Y-7.2751
G01 X9.7330 Y-7.2858
G01 X9.7488 Y-7.2911
G01 X9.7664 Y-7.2959
G01 X9.7955 Y-7.3017
G01 X9.8128 Y-7.3037
G01 X9.8425 Y-7.3051
G01 X12.2475 Y-7.3051
G01 X12.2475 Y-7.6300
G01 X12.2481 Y-7.6394
G01 X12.2503 Y-7.6495
G01 X12.2539 Y-7.6591
G01 X12.2588 Y-7.6682
G01 X12.2651 Y-7.6764
G01 X12.2724 Y-7.6836
G01 X12.2808 Y-7.6896
G01 X12.2899 Y-7.6943
G01 X12.2997 Y-7.6977
G01 X12.3089 Y-7.6995
G01 X12.3175 Y-7.7000
G01 X13.7175 Y-7.7000
G01 X13.7269 Y-7.6994
G01 X13.7378 Y-7.6970
G01 X13.7482 Y-7.6929
G01 X13.7585 Y-7.6867
G01 X13.7670 Y-7.6795
G01 X13.7742 Y-7.6710
G01 X13.7800 Y-7.6615
G01 X13.7842 Y-7.6511
G01 X13.7867 Y-7.6403
G01 X13.7875 Y-7.6300
G01 X13.7875 Y-7.3051
G01 X13.9708 Y-7.3051
G01 X13.9869 Y-7.3047
G01 X14.0148 Y-7.3020
G01 X14.0456 Y-7.2961
G01 X14.0749 Y-7.2874
G01 X14.1033 Y-7.2761
G01 X14.1318 Y-7.2612
G01 X14.1561 Y-7.2455
G01 X15.6337 Y-6.1900
G01 X15.6543 Y-6.2045
G01 X15.6946 Y-6.2299
G01 X15.7352 Y-6.2530
G01 X15.7770 Y-6.2740
G01 X15.8229 Y-6.2943
G01 X15.8657 Y-6.3108
G01 X15.9101 Y-6.3255
G01 X15.9585 Y-6.3388
G01 X16.0033 Y-6.3489
G01 X16.0502 Y-6.3570
G01 X16.0974 Y-6.3628
G01 X16.1432 Y-6.3662
G01 X16.1934 Y-6.3675
G01 X16.2401 Y-6.3663
G01 X16.2859 Y-6.3630
G01 X16.3348 Y-6.3570
G01 X16.3817 Y-6.3489
G01 X16.4265 Y-6.3388
G01 X16.4757 Y-6.3252
G01 X16.5193 Y-6.3108
G01 X16.5621 Y-6.2943
G01 X16.6088 Y-6.2736
G01 X16.6498 Y-6.2530
G01 X16.6912 Y-6.2295
G01 X16.7314 Y-6.2040
G01 X16.7689 Y-6.1776
G01 X16.8079 Y-6.1473
G01 X16.8452 Y-6.1151
G01 X16.8784 Y-6.0834
G01 X16.9101 Y-6.0502
G01 X16.9434 Y-6.0115
G01 X16.9716 Y-5.9753
G01 X16.9981 Y-5.9378
G01 X17.0245 Y-5.8962
G01 X17.0488 Y-5.8532
G01 X17.0694 Y-5.8122
G01 X17.0887 Y-5.7687
G01 X17.1064 Y-5.7227
G01 X17.1207 Y-5.6791
G01 X17.1330 Y-5.6349
G01 X17.1439 Y-5.5867
G01 X17.1522 Y-5.5381
G01 X17.1578 Y-5.4926
G01 X17.1612 Y-5.4468
G01 X17.1625 Y-5.3975
G01 X17.1612 Y-5.3482
G01 X17.1578 Y-5.3024
G01 X17.1521 Y-5.2560
G01 X17.1439 Y-5.2083
G01 X17.1334 Y-5.1618
G01 X17.1207 Y-5.1159
G01 X17.1052 Y-5.0691
G01 X17.0887 Y-5.0263
G01 X17.0701 Y-4.9843
G01 X17.0488 Y-4.9418
G01 X17.0245 Y-4.8988
G01 X16.9990 Y-4.8586
G01 X16.9716 Y-4.8197
G01 X16.9412 Y-4.7808
G01 X16.9112 Y-4.7461
G01 X16.8796 Y-4.7128
G01 X16.8452 Y-4.6799
G01 X16.8079 Y-4.6477
G01 X16.7703 Y-4.6184
G01 X16.7314 Y-4.5910
G01 X16.6897 Y-4.5646
G01 X16.6498 Y-4.5420
G01 X16.6088 Y-4.5214
G01 X16.5653 Y-4.5020
G01 X16.5193 Y-4.4842
G01 X16.4741 Y-4.4693
G01 X16.4282 Y-4.4566
G01 X16.3800 Y-4.4458
G01 X16.3331 Y-4.4378
G01 X16.2876 Y-4.4322
G01 X16.2418 Y-4.4288
G01 X16.1925 Y-4.4275
G01 X16.1449 Y-4.4287
G01 X16.0974 Y-4.4322
G01 X16.0485 Y-4.4383
G01 X16.0016 Y-4.4465
G01 X15.9568 Y-4.4566
G01 X15.9126 Y-4.4688
G01 X15.8657 Y-4.4842
G01 X15.8205 Y-4.5017
G01 X15.7778 Y-4.5206
G01 X15.7352 Y-4.5420
G01 X15.6938 Y-4.5655
G01 X15.6536 Y-4.5910
G01 X15.6147 Y-4.6184
G01 X15.5771 Y-4.6477
G01 X15.5411 Y-4.6788
G01 X15.5078 Y-4.7104
G01 X15.4726 Y-4.7474
G01 X15.4427 Y-4.7821
G01 X15.4124 Y-4.8211
G01 X15.3860 Y-4.8586
G01 X15.3605 Y-4.8988
G01 X15.3370 Y-4.9402
G01 X15.3156 Y-4.9828
G01 X15.2963 Y-5.0263
G01 X15.2792 Y-5.0707
G01 X15.2643 Y-5.1159
G01 X15.2520 Y-5.1601
G01 X15.2408 Y-5.2100
G01 X15.2330 Y-5.2552
G01 X15.2270 Y-5.3041
G01 X15.2237 Y-5.3499
G01 X15.2225 Y-5.3975
G01 X15.2237 Y-5.4451
G01 X15.2272 Y-5.4926
G01 X15.2330 Y-5.5398
G01 X15.2411 Y-5.5867
G01 X15.2516 Y-5.6332
G01 X15.2615 Y-5.6691
G01 X13.8674 Y-6.6649
G01 X13.7875 Y-6.6649
G01 X13.7875 Y-6.3300
G01 X13.7865 Y-6.3180
G01 X13.7831 Y-6.3056
G01 X13.7780 Y-6.2948
G01 X13.7711 Y-6.2849
G01 X13.7626 Y-6.2764
G01 X13.7527 Y-6.2695
G01 X13.7419 Y-6.2644
G01 X13.7295 Y-6.2610
G01 X13.7175 Y-6.2600
G01 X12.3175 Y-6.2600
G01 X12.3081 Y-6.2606
G01 X12.2988 Y-6.2625
G01 X12.2891 Y-6.2660
G01 X12.2801 Y-6.2709
G01 X12.2718 Y-6.2770
G01 X12.2645 Y-6.2843
G01 X12.2584 Y-6.2926
G01 X12.2535 Y-6.3016
G01 X12.2500 Y-6.3113
G01 X12.2480 Y-6.3214
G01 X12.2475 Y-6.3300
G01 X12.2475 Y-6.6649
G01 X10.1626 Y-6.6649
G01 X10.1626 Y-6.3300
G01 X10.1967 Y-6.3300
G01 X10.2061 Y-6.3291
G01 X10.2202 Y-6.3253
G01 X10.2324 Y-6.3191
G01 X10.2451 Y-6.3089
G01 X10.2550 Y-6.2960
G01 X10.2617 Y-6.2811
G01 X10.2648 Y-6.2651
G01 X10.2650 Y-5.3591
G01 X10.2644 Y-5.3506
G01 X10.2627 Y-5.3422
G01 X10.2600 Y-5.3340
G01 X10.2559 Y-5.3255
G01 X10.2512 Y-5.3183
G01 X10.2451 Y-5.3111
G01 X10.2387 Y-5.3053
G01 X10.2310 Y-5.3000
G01 X10.2234 Y-5.2960
G01 X10.2145 Y-5.2928
G01 X10.2061 Y-5.2909
G01 X10.1976 Y-5.2900
G01 X9.3950 Y-5.2900
G01 X9.3856 Y-5.2906
G01 X9.3739 Y-5.2933
G01 X9.3628 Y-5.2979
G01 X9.3526 Y-5.3043
G01 X9.3437 Y-5.3124
G01 X9.3363 Y-5.3218
G01 X9.3307 Y-5.3324
G01 X9.3269 Y-5.3438
G01 X9.3251 Y-5.3557
G01 X9.3250 Y-6.2609
G01 X9.3265 Y-6.2745
G01 X9.3307 Y-6.2876
G01 X9.3373 Y-6.2996
G01 X9.3461 Y-6.3101
G01 X9.3568 Y-6.3187
G01 X9.3690 Y-6.3250
G01 X9.3813 Y-6.3287
G01 X9.3950 Y-6.3300
G00 Z2.0000
G00 X9.3824 Y-6.4696
G01 F70.00
G01 Z-0.0600
G01 F120.00
G01 X9.3817 Y-6.4696
G01 X9.3824 Y-6.4710
G01 X9.3824 Y-6.4696
G00 Z2.0000
G00 X9.2350 Y-6.4267
G01 F70.00
G01 Z-0.0600
G01 F120.00
G01 X9.2520 Y-6.4334
G01 X9.2685 Y-6.4426
G01 X9.2836 Y-6.4540
G01 X9.2971 Y-6.4673
G01 X9.3086 Y-6.4822
G01 X9.3180 Y-6.4986
G01 X9.3251 Y-6.5161
G01 X9.3298 Y-6.5344
G01 X9.3315 Y-6.5463
G01 X9.3322 Y-6.5583
G01 X9.3322 Y-6.9833
G01 X9.3328 Y-7.0100
G01 X9.3347 Y-7.0350
G01 X9.3377 Y-7.0599
G01 X9.3420 Y-7.0846
G01 X9.3475 Y-7.1090
G01 X9.3542 Y-7.1331
G01 X9.3620 Y-7.1569
G01 X9.3711 Y-7.1803
G01 X9.3812 Y-7.2032
G01 X9.3925 Y-7.2255
G01 X9.4048 Y-7.2473
G01 X9.4182 Y-7.2685
G01 X9.4326 Y-7.2890
G01 X9.4480 Y-7.3087
G01 X9.4644 Y-7.3277
G01 X9.4817 Y-7.3458
G01 X9.4998 Y-7.3631
G01 X9.5188 Y-7.3795
G01 X9.5385 Y-7.3949
G01 X9.5590 Y-7.4093
G01 X9.5802 Y-7.4227
G01 X9.6020 Y-7.4350
G01 X9.6243 Y-7.4463
G01 X9.6472 Y-7.4564
G01 X9.6706 Y-7.4655
G01 X9.6944 Y-7.4733
G01 X9.7185 Y-7.4800
G01 X9.7429 Y-7.4855
G01 X9.7676 Y-7.4898
G01 X9.7925 Y-7.4928
G01 X9.8175 Y-7.4947
G01 X9.8442 Y-7.4953
G01 X11.9175 Y-7.4953
G01 X11.9312 Y-7.4960
G01 X11.9515 Y-7.4995
G01 X11.9711 Y-7.5060
G01 X11.9895 Y-7.5152
G01 X12.0063 Y-7.5271
G01 X12.0212 Y-7.5413
G01 X12.0339 Y-7.5575
G01 X12.0433 Y-7.5739
G01 X12.0510 Y-7.5930
G01 X12.0554 Y-7.6114
G01 X12.0575 Y-7.6319
G01 X12.0575 Y-7.8900
G01 X13.9775 Y-7.8900
G01 X13.9775 Y-7.6183
G01 X13.9785 Y-7.6012
G01 X13.9809 Y-7.5877
G01 X13.9840 Y-7.5762
G01 X13.9881 Y-7.5649
G01 X13.9939 Y-7.5525
G01 X14.0000 Y-7.5422
G01 X14.0069 Y-7.5324
G01 X14.0158 Y-7.5221
G01 X14.0244 Y-7.5137
G01 X14.0406 Y-7.5012
G01 X14.0601 Y-7.4906
G01 X14.0777 Y-7.4840
G01 X14.1141 Y-7.4745
G01 X14.1373 Y-7.4671
G01 X14.1601 Y-7.4586
G01 X14.1824 Y-7.4490
G01 X14.2043 Y-7.4383
G01 X14.2257 Y-7.4266
G01 X14.2465 Y-7.4139
G01 X14.2680 Y-7.3993
G01 X15.5735 Y-6.4668
G01 X15.5879 Y-6.4578
G01 X15.5987 Y-6.4525
G01 X15.6098 Y-6.4482
G01 X15.6213 Y-6.4448
G01 X15.6330 Y-6.4424
G01 X15.6449 Y-6.4411
G01 X15.6569 Y-6.4407
G01 X15.6705 Y-6.4416
G01 X15.6823 Y-6.4435
G01 X15.6939 Y-6.4463
G01 X15.7053 Y-6.4501
G01 X15.7486 Y-6.4692
G01 X15.8017 Y-6.4897
G01 X15.8558 Y-6.5075
G01 X15.9107 Y-6.5227
G01 X15.9662 Y-6.5352
G01 X16.0223 Y-6.5449
G01 X16.0788 Y-6.5519
G01 X16.1356 Y-6.5561
G01 X16.1925 Y-6.5575
G01 X16.2494 Y-6.5561
G01 X16.3062 Y-6.5519
G01 X16.3627 Y-6.5449
G01 X16.4188 Y-6.5352
G01 X16.4743 Y-6.5227
G01 X16.5292 Y-6.5075
G01 X16.5833 Y-6.4897
G01 X16.6364 Y-6.4692
G01 X16.6884 Y-6.4461
G01 X16.7393 Y-6.4205
G01 X16.7888 Y-6.3924
G01 X16.8369 Y-6.3620
G01 X16.8835 Y-6.3292
G01 X16.9284 Y-6.2942
G01 X16.9715 Y-6.2570
G01 X17.0127 Y-6.2177
G01 X17.0520 Y-6.1765
G01 X17.0892 Y-6.1334
G01 X17.1242 Y-6.0885
G01 X17.1570 Y-6.0419
G01 X17.1874 Y-5.9938
G01 X17.2155 Y-5.9443
G01 X17.2411 Y-5.8934
G01 X17.2642 Y-5.8414
G01 X17.2847 Y-5.7883
G01 X17.3025 Y-5.7342
G01 X17.3177 Y-5.6793
G01 X17.3302 Y-5.6238
G01 X17.3399 Y-5.5677
G01 X17.3469 Y-5.5112
G01 X17.3511 Y-5.4544
G01 X17.3525 Y-5.3975
G01 X17.3511 Y-5.3406
G01 X17.3469 Y-5.2838
G01 X17.3399 Y-5.2273
G01 X17.3302 Y-5.1712
G01 X17.3177 Y-5.1157
G01 X17.3025 Y-5.0608
G01 X17.2847 Y-5.0067
G01 X17.2642 Y-4.9536
G01 X17.2411 Y-4.9016
G01 X17.2155 Y-4.8507
G01 X17.1874 Y-4.8012
G01 X17.1570 Y-4.7531
G01 X17.1242 Y-4.7065
G01 X17.0892 Y-4.6616
G01 X17.0520 Y-4.6185
G01 X17.0127 Y-4.5773
G01 X16.9715 Y-4.5380
G01 X16.9284 Y-4.5008
G01 X16.8835 Y-4.4658
G01 X16.8369 Y-4.4330
G01 X16.7888 Y-4.4026
G01 X16.7393 Y-4.3745
G01 X16.6884 Y-4.3489
G01 X16.6364 Y-4.3258
G01 X16.5833 Y-4.3053
G01 X16.5292 Y-4.2875
G01 X16.4743 Y-4.2723
G01 X16.4311 Y-4.2624
G01 X16.4197 Y-4.2587
G01 X16.4086 Y-4.2541
G01 X16.3907 Y-4.2439
G01 X16.3732 Y-4.2301
G01 X16.3592 Y-4.2150
G01 X16.3467 Y-4.1965
G01 X16.3412 Y-4.1858
G01 X16.3367 Y-4.1747
G01 X16.3308 Y-4.1531
G01 X16.3292 Y-4.1412
G01 X16.3285 Y-4.1292
G01 X16.3289 Y-4.1172
G01 X16.3303 Y-4.1053
G01 X16.3327 Y-4.0935
G01 X16.3361 Y-4.0820
G01 X16.3405 Y-4.0708
G01 X16.3458 Y-4.0600
G01 X16.3581 Y-4.0414
G01 X16.3659 Y-4.0322
G01 X16.3745 Y-4.0238
G01 X16.3851 Y-4.0151
G01 X16.3965 Y-4.0074
G01 X16.4086 Y-4.0009
G01 X16.4213 Y-3.9957
G01 X16.4345 Y-3.9917
G01 X16.4743 Y-3.9827
G01 X16.5292 Y-3.9675
G01 X16.5833 Y-3.9497
G01 X16.6403 Y-3.9274
G01 X16.5477 Y-3.8349
G01 X16.4911 Y-3.8537
G01 X16.4452 Y-3.8663
G01 X16.3920 Y-3.8781
G01 X16.3451 Y-3.8862
G01 X16.2944 Y-3.8925
G01 X16.2435 Y-3.8962
G01 X16.1925 Y-3.8975
G01 X16.1415 Y-3.8962
G01 X16.0906 Y-3.8925
G01 X16.0399 Y-3.8862
G01 X15.9930 Y-3.8781
G01 X15.9398 Y-3.8663
G01 X15.8939 Y-3.8537
G01 X15.8373 Y-3.8349
G01 X15.7447 Y-3.9274
G01 X15.8017 Y-3.9497
G01 X15.8558 Y-3.9675
G01 X15.9107 Y-3.9827
G01 X15.9505 Y-3.9917
G01 X15.9637 Y-3.9957
G01 X15.9764 Y-4.0009
G01 X15.9870 Y-4.0065
G01 X15.9971 Y-4.0130
G01 X16.0080 Y-4.0215
G01 X16.0236 Y-4.0374
G01 X16.0366 Y-4.0555
G01 X16.0423 Y-4.0661
G01 X16.0471 Y-4.0771
G01 X16.0535 Y-4.0985
G01 X16.0564 Y-4.1206
G01 X16.0557 Y-4.1429
G01 X16.0515 Y-4.1648
G01 X16.0478 Y-4.1763
G01 X16.0431 Y-4.1874
G01 X16.0375 Y-4.1980
G01 X16.0310 Y-4.2081
G01 X16.0167 Y-4.2253
G01 X16.0080 Y-4.2335
G01 X15.9985 Y-4.2410
G01 X15.9795 Y-4.2526
G01 X15.9669 Y-4.2581
G01 X15.9539 Y-4.2624
G01 X15.9107 Y-4.2723
G01 X15.8558 Y-4.2875
G01 X15.8017 Y-4.3053
G01 X15.7486 Y-4.3258
G01 X15.6966 Y-4.3489
G01 X15.6457 Y-4.3745
G01 X15.5962 Y-4.4026
G01 X15.5481 Y-4.4330
G01 X15.5015 Y-4.4658
G01 X15.4566 Y-4.5008
G01 X15.4135 Y-4.5380
G01 X15.3723 Y-4.5773
G01 X15.3330 Y-4.6185
G01 X15.2958 Y-4.6616
G01 X15.2608 Y-4.7065
G01 X15.2280 Y-4.7531
G01 X15.1976 Y-4.8012
G01 X15.1695 Y-4.8507
G01 X15.1439 Y-4.9016
G01 X15.1208 Y-4.9536
G01 X15.1003 Y-5.0067
G01 X15.0825 Y-5.0608
G01 X15.0673 Y-5.1157
G01 X15.0548 Y-5.1712
G01 X15.0451 Y-5.2273
G01 X15.0381 Y-5.2838
G01 X15.0339 Y-5.3406
G01 X15.0325 Y-5.3975
G01 X15.0339 Y-5.4544
G01 X15.0385 Y-5.5174
G01 X15.0384 Y-5.5295
G01 X15.0373 Y-5.5415
G01 X15.0334 Y-5.5601
G01 X15.0278 Y-5.5764
G01 X15.0202 Y-5.5919
G01 X15.0097 Y-5.6078
G01 X14.9959 Y-5.6232
G01 X14.9800 Y-5.6365
G01 X14.1903 Y-6.2000
G01 X14.1736 Y-6.2087
G01 X14.1542 Y-6.2156
G01 X14.1357 Y-6.2193
G01 X14.1169 Y-6.2205
G01 X14.0981 Y-6.2191
G01 X14.0797 Y-6.2153
G01 X14.0604 Y-6.2083
G01 X14.0437 Y-6.1995
G01 X14.0298 Y-6.1896
G01 X14.0171 Y-6.1780
G01 X14.0049 Y-6.1637
G01 X13.9956 Y-6.1493
G01 X13.9875 Y-6.1323
G01 X13.9821 Y-6.1160
G01 X13.9788 Y-6.0992
G01 X13.9775 Y-6.0822
G01 X13.9775 Y-0.3600
G01 X9.5242 Y-0.3600
G01 X9.5242 Y-0.4800
G01 X9.8192 Y-0.4800
G01 X9.8346 Y-0.4811
G01 X9.8498 Y-0.4838
G01 X9.8679 Y-0.4894
G01 X9.8850 Y-0.4974
G01 X9.9009 Y-0.5076
G01 X9.9153 Y-0.5198
G01 X9.9279 Y-0.5339
G01 X9.9385 Y-0.5495
G01 X9.9468 Y-0.5664
G01 X9.9529 Y-0.5843
G01 X9.9562 Y-0.6012
G01 X9.9575 Y-0.6200
G01 X9.9575 Y-2.0200
G01 X9.9557 Y-2.0422
G01 X9.9504 Y-2.0639
G01 X9.9418 Y-2.0845
G01 X9.9299 Y-2.1034
G01 X9.9165 Y-2.1190
G01 X9.8995 Y-2.1335
G01 X9.8804 Y-2.1451
G01 X9.8598 Y-2.1535
G01 X9.8397 Y-2.1582
G01 X9.8209 Y-2.1600
G01 X9.5241 Y-2.1600
G01 X9.5241 Y-2.2800
G01 X10.1447 Y-2.2800
G01 X10.1652 Y-2.2815
G01 X10.1870 Y-2.2865
G01 X10.2061 Y-2.2942
G01 X10.2253 Y-2.3055
G01 X10.2424 Y-2.3198
G01 X10.2571 Y-2.3366
G01 X10.2689 Y-2.3555
G01 X10.2771 Y-2.3745
G01 X10.2826 Y-2.3961
G01 X10.2842 Y-2.4080
G01 X10.2847 Y-2.4200
G01 X10.2844 Y-3.0686
G01 X10.2829 Y-3.0822
G01 X10.2801 Y-3.0957
G01 X10.2753 Y-3.1104
G01 X10.2697 Y-3.1229
G01 X10.2630 Y-3.1349
G01 X10.2550 Y-3.1461
G01 X10.2461 Y-3.1565
G01 X10.2350 Y-3.1670
G01 X10.2350 Y-4.4200
G01 X11.3550 Y-4.4200
G01 X11.3550 Y-3.1670
G01 X11.3439 Y-3.1565
G01 X11.3350 Y-3.1461
G01 X11.3261 Y-3.1334
G01 X11.3195 Y-3.1214
G01 X11.3141 Y-3.1088
G01 X11.3099 Y-3.0957
G01 X11.3071 Y-3.0822
G01 X11.3055 Y-3.0669
G01 X11.3053 Y-2.4183
G01 X11.3074 Y-2.3961
G01 X11.3124 Y-2.3761
G01 X11.3211 Y-2.3555
G01 X11.3319 Y-2.3380
G01 X11.3463 Y-2.3210
G01 X11.3633 Y-2.3065
G01 X11.3824 Y-2.2949
G01 X11.4014 Y-2.2871
G01 X11.4214 Y-2.2821
G01 X11.4436 Y-2.2800
G01 X11.9175 Y-2.2800
G01 X11.9363 Y-2.2813
G01 X11.9548 Y-2.2851
G01 X11.9711 Y-2.2907
G01 X11.9880 Y-2.2990
G01 X12.0023 Y-2.3086
G01 X12.0165 Y-2.3210
G01 X12.0279 Y-2.3339
G01 X12.0385 Y-2.3495
G01 X12.0462 Y-2.3648
G01 X12.0510 Y-2.3777
G01 X12.0545 Y-2.3910
G01 X12.0566 Y-2.4046
G01 X12.0575 Y-2.4200
G01 X12.0573 Y-6.3415
G01 X12.0560 Y-6.3552
G01 X12.0537 Y-6.3670
G01 X12.0504 Y-6.3786
G01 X12.0462 Y-6.3898
G01 X12.0410 Y-6.4007
G01 X12.0339 Y-6.4125
G01 X12.0268 Y-6.4222
G01 X12.0177 Y-6.4324
G01 X12.0076 Y-6.4418
G01 X11.9981 Y-6.4491
G01 X11.9880 Y-6.4556
G01 X11.9758 Y-6.4620
G01 X11.9647 Y-6.4665
G01 X11.9532 Y-6.4701
G01 X11.9414 Y-6.4726
G01 X11.9278 Y-6.4743
G01 X10.4933 Y-6.4747
G01 X10.4796 Y-6.4738
G01 X10.4677 Y-6.4720
G01 X10.4544 Y-6.4686
G01 X10.4430 Y-6.4647
G01 X10.4260 Y-6.4565
G01 X10.4102 Y-6.4461
G01 X10.3960 Y-6.4337
G01 X10.3826 Y-6.4181
G01 X10.3724 Y-6.4022
G01 X10.3638 Y-6.3835
G01 X10.3580 Y-6.3637
G01 X10.3554 Y-6.3450
G01 X10.3550 Y-5.2000
G01 X9.2350 Y-5.2000
G01 X9.2350 Y-6.4267
G00 Z2.0000
G00 X8.3275 Y-2.1094
G01 F70.00
G01 Z-0.0600
G01 F120.00
G01 X8.3275 Y-2.2100
G01 X8.4281 Y-2.2100
G01 X8.4118 Y-2.2014
G01 X8.3966 Y-2.1917
G01 X8.3823 Y-2.1807
G01 X8.3690 Y-2.1685
G01 X8.3568 Y-2.1552
G01 X8.3458 Y-2.1409
G01 X8.3361 Y-2.1257
G01 X8.3275 Y-2.1094
G00 Z2.0000
G00 X8.2575 Y-1.6766
G01 F70.00
G01 Z-0.0600
G01 F120.00
G01 X8.2575 Y-2.2800
G01 X8.8108 Y-2.2800
G01 X8.8108 Y-2.1600
G01 X8.5175 Y-2.1600
G01 X8.5021 Y-2.1591
G01 X8.4885 Y-2.1570
G01 X8.4769 Y-2.1540
G01 X8.4655 Y-2.1500
G01 X8.4530 Y-2.1443
G01 X8.4426 Y-2.1383
G01 X8.4327 Y-2.1314
G01 X8.4235 Y-2.1237
G01 X8.4138 Y-2.1140
G01 X8.4001 Y-2.0963
G01 X8.3895 Y-2.0767
G01 X8.3851 Y-2.0655
G01 X8.3817 Y-2.0540
G01 X8.3780 Y-2.0320
G01 X8.3775 Y-1.6766
G01 X8.2575 Y-1.6766
G00 Z2.0000
G00 X8.1875 Y-1.6066
G01 F70.00
G01 Z-0.0600
G01 F120.00
G01 X8.1875 Y-2.3500
G01 X8.8808 Y-2.3500
G01 X8.8808 Y-2.0900
G01 X8.5115 Y-2.0897
G01 X8.5030 Y-2.0885
G01 X8.4947 Y-2.0862
G01 X8.4801 Y-2.0791
G01 X8.4731 Y-2.0741
G01 X8.4668 Y-2.0683
G01 X8.4570 Y-2.0552
G01 X8.4532 Y-2.0476
G01 X8.4503 Y-2.0395
G01 X8.4484 Y-2.0311
G01 X8.4475 Y-2.0217
G01 X8.4475 Y-1.6066
G01 X8.1875 Y-1.6066
G00 Z2.0000
G00 X8.3275 Y-0.5306
G01 F70.00
G01 Z-0.0600
G01 F120.00
G01 X8.3361 Y-0.5143
G01 X8.3458 Y-0.4991
G01 X8.3568 Y-0.4848
G01 X8.3690 Y-0.4715
G01 X8.3823 Y-0.4593
G01 X8.3966 Y-0.4483
G01 X8.4118 Y-0.4386
G01 X8.4281 Y-0.4300
G01 X8.3275 Y-0.4300
G01 X8.3275 Y-0.5306
G00 Z2.0000
G00 X8.8109 Y-0.3600
G01 F70.00
G01 Z-0.0600
G01 F120.00
G01 X8.2575 Y-0.3600
G01 X8.2575 Y-0.9633
G01 X8.3775 Y-0.9633
G01 X8.3780 Y-0.6080
G01 X8.3817 Y-0.5860
G01 X8.3851 Y-0.5745
G01 X8.3895 Y-0.5633
G01 X8.4001 Y-0.5437
G01 X8.4138 Y-0.5260
G01 X8.4222 Y-0.5174
G01 X8.4327 Y-0.5086
G01 X8.4441 Y-0.5008
G01 X8.4546 Y-0.4949
G01 X8.4655 Y-0.4900
G01 X8.4769 Y-0.4860
G01 X8.4885 Y-0.4830
G01 X8.5021 Y-0.4809
G01 X8.5175 Y-0.4800
G01 X8.8109 Y-0.4800
G01 X8.8109 Y-0.3600
G00 Z2.0000
G00 X8.8809 Y-0.2900
G01 F70.00
G01 Z-0.0600
G01 F120.00
G01 X8.1875 Y-0.2900
G01 X8.1875 Y-1.0333
G01 X8.4475 Y-1.0333
G01 X8.4475 Y-0.6183
G01 X8.4483 Y-0.6097
G01 X8.4500 Y-0.6013
G01 X8.4532 Y-0.5924
G01 X8.4570 Y-0.5848
G01 X8.4618 Y-0.5776
G01 X8.4674 Y-0.5711
G01 X8.4801 Y-0.5609
G01 X8.4876 Y-0.5567
G01 X8.4955 Y-0.5535
G01 X8.5115 Y-0.5503
G01 X8.8809 Y-0.5500
G01 X8.8809 Y-0.2900
G00 Z2.0000
G00 X10.1645 Y-0.5000
G01 F70.00
G01 Z-0.0600
G01 F120.00
G01 X10.0705 Y-0.5000
G01 X10.0811 Y-0.5257
G01 X10.0899 Y-0.5553
G01 X10.0954 Y-0.5857
G01 X10.0975 Y-0.6166
G01 X10.0975 Y-2.0200
G01 X10.0958 Y-2.0509
G01 X10.0907 Y-2.0813
G01 X10.0823 Y-2.1111
G01 X10.0705 Y-2.1400
G01 X10.1481 Y-2.1400
G01 X10.1649 Y-2.1407
G01 X10.1527 Y-2.1111
G01 X10.1443 Y-2.0813
G01 X10.1392 Y-2.0509
G01 X10.1375 Y-2.0200
G01 X10.1375 Y-0.6166
G01 X10.1396 Y-0.5857
G01 X10.1451 Y-0.5553
G01 X10.1539 Y-0.5257
G01 X10.1645 Y-0.5000
G00 Z2.0000
G00 X10.3281 Y-0.4300
G01 F70.00
G01 Z-0.0600
G01 F120.00
G01 X9.9069 Y-0.4300
G01 X9.9320 Y-0.4440
G01 X9.9447 Y-0.4529
G01 X9.9566 Y-0.4627
G01 X9.9765 Y-0.4828
G01 X9.9862 Y-0.4949
G01 X9.9949 Y-0.5077
G01 X10.0084 Y-0.5325
G01 X10.0143 Y-0.5468
G01 X10.0192 Y-0.5615
G01 X10.0229 Y-0.5765
G01 X10.0256 Y-0.5917
G01 X10.0275 Y-0.6200
G01 X10.0275 Y-2.0200
G01 X10.0269 Y-2.0354
G01 X10.0229 Y-2.0635
G01 X10.0152 Y-2.0907
G01 X10.0051 Y-2.1144
G01 X9.9907 Y-2.1388
G01 X9.9731 Y-2.1610
G01 X9.9527 Y-2.1807
G01 X9.9298 Y-2.1974
G01 X9.9069 Y-2.2100
G01 X10.1498 Y-2.2101
G01 X10.1755 Y-2.2123
G01 X10.2007 Y-2.2176
G01 X10.2227 Y-2.2250
G01 X10.2437 Y-2.2348
G01 X10.2635 Y-2.2468
G01 X10.2799 Y-2.2593
G01 X10.2968 Y-2.2752
G01 X10.3118 Y-2.2928
G01 X10.3248 Y-2.3120
G01 X10.3349 Y-2.3310
G01 X10.3349 Y-2.2131
G01 X10.3095 Y-2.2001
G01 X10.2966 Y-2.1917
G01 X10.2843 Y-2.1823
G01 X10.2727 Y-2.1721
G01 X10.2619 Y-2.1610
G01 X10.2519 Y-2.1492
G01 X10.2429 Y-2.1367
G01 X10.2348 Y-2.1235
G01 X10.2277 Y-2.1098
G01 X10.2216 Y-2.0956
G01 X10.2165 Y-2.0810
G01 X10.2126 Y-2.0660
G01 X10.2098 Y-2.0508
G01 X10.2081 Y-2.0354
G01 X10.2075 Y-2.0200
G01 X10.2075 Y-0.6200
G01 X10.2081 Y-0.6046
G01 X10.2121 Y-0.5765
G01 X10.2198 Y-0.5493
G01 X10.2299 Y-0.5256
G01 X10.2443 Y-0.5012
G01 X10.2619 Y-0.4790
G01 X10.2823 Y-0.4593
G01 X10.3052 Y-0.4426
G01 X10.3281 Y-0.4300
G00 Z2.0000
G00 X12.0645 Y-0.5000
G01 F70.00
G01 Z-0.0600
G01 F120.00
G01 X11.9705 Y-0.5000
G01 X11.9787 Y-0.5192
G01 X11.9864 Y-0.5420
G01 X11.9921 Y-0.5654
G01 X11.9958 Y-0.5891
G01 X11.9975 Y-0.6166
G01 X11.9975 Y-0.7399
G01 X12.0375 Y-0.7399
G01 X12.0375 Y-0.6166
G01 X12.0392 Y-0.5891
G01 X12.0429 Y-0.5654
G01 X12.0486 Y-0.5420
G01 X12.0563 Y-0.5192
G01 X12.0645 Y-0.5000
G00 Z2.0000
G00 X12.2281 Y-0.4300
G01 F70.00
G01 Z-0.0600
G01 F120.00
G01 X11.8069 Y-0.4300
G01 X11.8255 Y-0.4399
G01 X11.8426 Y-0.4513
G01 X11.8604 Y-0.4661
G01 X11.8748 Y-0.4809
G01 X11.8892 Y-0.4991
G01 X11.9002 Y-0.5165
G01 X11.9105 Y-0.5373
G01 X11.9177 Y-0.5566
G01 X11.9244 Y-0.5841
G01 X11.9274 Y-0.6123
G01 X11.9275 Y-0.8099
G01 X12.1075 Y-0.8099
G01 X12.1076 Y-0.6123
G01 X12.1106 Y-0.5841
G01 X12.1173 Y-0.5566
G01 X12.1245 Y-0.5373
G01 X12.1348 Y-0.5165
G01 X12.1473 Y-0.4970
G01 X12.1602 Y-0.4809
G01 X12.1746 Y-0.4661
G01 X12.1924 Y-0.4513
G01 X12.2095 Y-0.4399
G01 X12.2281 Y-0.4300
G00 Z2.0000
G00 X13.9075 Y-0.5306
G01 F70.00
G01 Z-0.0600
G01 F120.00
G01 X13.9075 Y-0.4300
G01 X13.8069 Y-0.4300
G01 X13.8232 Y-0.4386
G01 X13.8384 Y-0.4483
G01 X13.8527 Y-0.4593
G01 X13.8660 Y-0.4715
G01 X13.8782 Y-0.4848
G01 X13.8892 Y-0.4991
G01 X13.8989 Y-0.5143
G01 X13.9075 Y-0.5306
G00 Z2.0000
G00 X13.8375 Y-2.2672
G01 F70.00
G01 Z-0.0600
G01 F120.00
G01 X13.8375 Y-2.1730
G01 X13.8118 Y-2.1836
G01 X13.7822 Y-2.1924
G01 X13.7518 Y-2.1979
G01 X13.7209 Y-2.2000
G01 X12.3175 Y-2.2000
G01 X12.3003 Y-2.1995
G01 X12.2832 Y-2.1979
G01 X12.2662 Y-2.1953
G01 X12.2495 Y-2.1916
G01 X12.2264 Y-2.1848
G01 X12.2009 Y-2.1746
G01 X12.1765 Y-2.1619
G01 X12.1563 Y-2.1489
G01 X12.1346 Y-2.1320
G01 X12.1171 Y-2.1155
G01 X12.0989 Y-2.0950
G01 X12.0828 Y-2.0727
G01 X12.0674 Y-2.0459
G01 X12.0563 Y-2.0208
G01 X12.0476 Y-1.9947
G01 X12.0411 Y-1.9645
G01 X12.0388 Y-1.9474
G01 X12.0376 Y-1.9269
G01 X12.0375 Y-1.8001
G01 X11.9975 Y-1.8001
G01 X11.9975 Y-2.0200
G01 X11.9965 Y-2.0440
G01 X11.9928 Y-2.0713
G01 X11.9874 Y-2.0947
G01 X11.9787 Y-2.1208
G01 X11.9682 Y-2.1446
G01 X11.9988 Y-2.1521
G01 X12.0278 Y-2.1626
G01 X12.0555 Y-2.1764
G01 X12.0815 Y-2.1931
G01 X12.1055 Y-2.2125
G01 X12.1273 Y-2.2345
G01 X12.1464 Y-2.2588
G01 X12.1635 Y-2.2863
G01 X12.1795 Y-2.2766
G01 X12.1978 Y-2.2671
G01 X12.2167 Y-2.2590
G01 X12.2362 Y-2.2523
G01 X12.2562 Y-2.2470
G01 X12.2764 Y-2.2432
G01 X12.2935 Y-2.2412
G01 X12.3141 Y-2.2402
G01 X13.7209 Y-2.2402
G01 X13.7518 Y-2.2423
G01 X13.7822 Y-2.2478
G01 X13.8118 Y-2.2566
G01 X13.8375 Y-2.2672
G00 Z2.0000
G00 X13.9075 Y-2.4308
G01 F70.00
G01 Z-0.0600
G01 F120.00
G01 X13.9075 Y-2.0094
G01 X13.8949 Y-2.0323
G01 X13.8782 Y-2.0552
G01 X13.8585 Y-2.0756
G01 X13.8363 Y-2.0932
G01 X13.8142 Y-2.1064
G01 X13.7882 Y-2.1177
G01 X13.7610 Y-2.1254
G01 X13.7329 Y-2.1294
G01 X13.7175 Y-2.1300
G01 X12.3175 Y-2.1300
G01 X12.2995 Y-2.1292
G01 X12.2841 Y-2.1273
G01 X12.2590 Y-2.1217
G01 X12.2348 Y-2.1130
G01 X12.2118 Y-2.1014
G01 X12.1903 Y-2.0871
G01 X12.1708 Y-2.0703
G01 X12.1519 Y-2.0492
G01 X12.1374 Y-2.0280
G01 X12.1255 Y-2.0051
G01 X12.1181 Y-1.9859
G01 X12.1132 Y-1.9685
G01 X12.1098 Y-1.9508
G01 X12.1079 Y-1.9329
G01 X12.1075 Y-1.7301
G01 X11.9275 Y-1.7301
G01 X11.9274 Y-2.0252
G01 X11.9256 Y-2.0483
G01 X11.9212 Y-2.0710
G01 X11.9143 Y-2.0932
G01 X11.9051 Y-2.1144
G01 X11.8935 Y-2.1345
G01 X11.8798 Y-2.1532
G01 X11.8642 Y-2.1703
G01 X11.8467 Y-2.1856
G01 X11.8277 Y-2.1988
G01 X11.8069 Y-2.2100
G01 X11.9227 Y-2.2101
G01 X11.9509 Y-2.2127
G01 X11.9735 Y-2.2176
G01 X11.9955 Y-2.2250
G01 X12.0165 Y-2.2348
G01 X12.0363 Y-2.2468
G01 X12.0585 Y-2.2644
G01 X12.0765 Y-2.2828
G01 X12.0921 Y-2.3033
G01 X12.1051 Y-2.3256
G01 X12.1161 Y-2.3517
G01 X12.1229 Y-2.3765
G01 X12.1267 Y-2.4020
G01 X12.1275 Y-2.4308
G01 X12.1401 Y-2.4079
G01 X12.1568 Y-2.3850
G01 X12.1765 Y-2.3646
G01 X12.1987 Y-2.3470
G01 X12.2231 Y-2.3326
G01 X12.2492 Y-2.3216
G01 X12.2740 Y-2.3148
G01 X12.3021 Y-2.3108
G01 X12.3175 Y-2.3102
G01 X13.7175 Y-2.3102
G01 X13.7458 Y-2.3121
G01 X13.7610 Y-2.3148
G01 X13.7760 Y-2.3185
G01 X13.8026 Y-2.3282
G01 X13.8165 Y-2.3350
G01 X13.8298 Y-2.3428
G01 X13.8527 Y-2.3595
G01 X13.8642 Y-2.3699
G01 X13.8748 Y-2.3811
G01 X13.8846 Y-2.3930
G01 X13.8935 Y-2.4057
G01 X13.9075 Y-2.4308
G00 Z2.0000
G00 X15.1016 Y-2.2898
G01 F70.00
G01 Z-0.0600
G01 F120.00
G01 X15.0806 Y-2.3316
G01 X15.0561 Y-2.3868
G01 X15.0344 Y-2.4431
G01 X15.0155 Y-2.5005
G01 X14.9994 Y-2.5586
G01 X14.9862 Y-2.6175
G01 X14.9758 Y-2.6770
G01 X14.9684 Y-2.7369
G01 X14.9640 Y-2.7971
G01 X14.9625 Y-2.8575
G01 X14.9640 Y-2.9179
G01 X14.9684 Y-2.9781
G01 X14.9758 Y-3.0380
G01 X14.9862 Y-3.0975
G01 X14.9994 Y-3.1564
G01 X15.0155 Y-3.2145
G01 X15.0344 Y-3.2719
G01 X15.0561 Y-3.3282
G01 X15.0806 Y-3.3834
G01 X15.1016 Y-3.4252
G01 X15.2969 Y-3.2299
G01 X15.2792 Y-3.1843
G01 X15.2643 Y-3.1391
G01 X15.2516 Y-3.0932
G01 X15.2411 Y-3.0467
G01 X15.2330 Y-2.9998
G01 X15.2272 Y-2.9526
G01 X15.2237 Y-2.9051
G01 X15.2225 Y-2.8575
G01 X15.2237 Y-2.8099
G01 X15.2272 Y-2.7624
G01 X15.2330 Y-2.7152
G01 X15.2411 Y-2.6683
G01 X15.2516 Y-2.6218
G01 X15.2643 Y-2.5759
G01 X15.2792 Y-2.5307
G01 X15.2969 Y-2.4851
G01 X15.1016 Y-2.2898
G00 Z2.0000
G00 X15.1226 Y-2.4097
G01 F70.00
G01 Z-0.0600
G01 F120.00
G01 X15.1003 Y-2.4667
G01 X15.0825 Y-2.5208
G01 X15.0673 Y-2.5757
G01 X15.0548 Y-2.6312
G01 X15.0451 Y-2.6873
G01 X15.0381 Y-2.7438
G01 X15.0339 Y-2.8006
G01 X15.0325 Y-2.8575
G01 X15.0339 Y-2.9144
G01 X15.0381 Y-2.9712
G01 X15.0451 Y-3.0277
G01 X15.0548 Y-3.0838
G01 X15.0673 Y-3.1393
G01 X15.0825 Y-3.1942
G01 X15.1003 Y-3.2483
G01 X15.1226 Y-3.3053
G01 X15.2151 Y-3.2127
G01 X15.1963 Y-3.1561
G01 X15.1837 Y-3.1102
G01 X15.1719 Y-3.0570
G01 X15.1638 Y-3.0101
G01 X15.1575 Y-2.9594
G01 X15.1538 Y-2.9085
G01 X15.1525 Y-2.8575
G01 X15.1538 Y-2.8065
G01 X15.1575 Y-2.7556
G01 X15.1638 Y-2.7049
G01 X15.1719 Y-2.6580
G01 X15.1837 Y-2.6048
G01 X15.1963 Y-2.5589
G01 X15.2151 Y-2.5023
G01 X15.1226 Y-2.4097
G00 Z2.0000
G00 X15.6248 Y-1.7666
G01 F70.00
G01 Z-0.0600
G01 F120.00
G01 X15.8201 Y-1.9619
G01 X15.8657 Y-1.9442
G01 X15.9109 Y-1.9293
G01 X15.9568 Y-1.9166
G01 X16.0033 Y-1.9061
G01 X16.0502 Y-1.8980
G01 X16.0974 Y-1.8922
G01 X16.1449 Y-1.8887
G01 X16.1925 Y-1.8875
G01 X16.2401 Y-1.8887
G01 X16.2876 Y-1.8922
G01 X16.3348 Y-1.8980
G01 X16.3817 Y-1.9061
G01 X16.4282 Y-1.9166
G01 X16.4741 Y-1.9293
G01 X16.5193 Y-1.9442
G01 X16.5649 Y-1.9619
G01 X16.7602 Y-1.7666
G01 X16.7184 Y-1.7456
G01 X16.6632 Y-1.7211
G01 X16.6069 Y-1.6994
G01 X16.5495 Y-1.6805
G01 X16.4914 Y-1.6644
G01 X16.4325 Y-1.6512
G01 X16.3730 Y-1.6408
G01 X16.3131 Y-1.6334
G01 X16.2529 Y-1.6290
G01 X16.1925 Y-1.6275
G01 X16.1321 Y-1.6290
G01 X16.0719 Y-1.6334
G01 X16.0120 Y-1.6408
G01 X15.9525 Y-1.6512
G01 X15.8936 Y-1.6644
G01 X15.8355 Y-1.6805
G01 X15.7781 Y-1.6994
G01 X15.7218 Y-1.7211
G01 X15.6666 Y-1.7456
G01 X15.6248 Y-1.7666
G00 Z2.0000
G00 X15.7447 Y-1.7876
G01 F70.00
G01 Z-0.0600
G01 F120.00
G01 X15.8373 Y-1.8801
G01 X15.8939 Y-1.8613
G01 X15.9398 Y-1.8487
G01 X15.9930 Y-1.8369
G01 X16.0399 Y-1.8288
G01 X16.0906 Y-1.8225
G01 X16.1415 Y-1.8188
G01 X16.1925 Y-1.8175
G01 X16.2435 Y-1.8188
G01 X16.2944 Y-1.8225
G01 X16.3451 Y-1.8288
G01 X16.3920 Y-1.8369
G01 X16.4452 Y-1.8487
G01 X16.4911 Y-1.8613
G01 X16.5477 Y-1.8801
G01 X16.6403 Y-1.7876
G01 X16.5833 Y-1.7653
G01 X16.5292 Y-1.7475
G01 X16.4743 Y-1.7323
G01 X16.4188 Y-1.7198
G01 X16.3627 Y-1.7101
G01 X16.3062 Y-1.7031
G01 X16.2494 Y-1.6989
G01 X16.1925 Y-1.6975
G01 X16.1356 Y-1.6989
G01 X16.0788 Y-1.7031
G01 X16.0223 Y-1.7101
G01 X15.9662 Y-1.7198
G01 X15.9107 Y-1.7323
G01 X15.8558 Y-1.7475
G01 X15.8017 Y-1.7653
G01 X15.7447 Y-1.7876
G00 Z2.0000
G00 X17.0881 Y-2.4851
G01 F70.00
G01 Z-0.0600
G01 F120.00
G01 X17.1058 Y-2.5307
G01 X17.1207 Y-2.5759
G01 X17.1334 Y-2.6218
G01 X17.1439 Y-2.6683
G01 X17.1520 Y-2.7152
G01 X17.1578 Y-2.7624
G01 X17.1613 Y-2.8099
G01 X17.1625 Y-2.8575
G01 X17.1613 Y-2.9051
G01 X17.1578 Y-2.9526
G01 X17.1520 Y-2.9998
G01 X17.1439 Y-3.0467
G01 X17.1334 Y-3.0932
G01 X17.1207 Y-3.1391
G01 X17.1058 Y-3.1843
G01 X17.0881 Y-3.2299
G01 X17.2834 Y-3.4252
G01 X17.3044 Y-3.3834
G01 X17.3289 Y-3.3282
G01 X17.3506 Y-3.2719
G01 X17.3695 Y-3.2145
G01 X17.3856 Y-3.1564
G01 X17.3988 Y-3.0975
G01 X17.4092 Y-3.0380
G01 X17.4166 Y-2.9781
G01 X17.4210 Y-2.9179
G01 X17.4225 Y-2.8575
G01 X17.4210 Y-2.7971
G01 X17.4166 Y-2.7369
G01 X17.4092 Y-2.6770
G01 X17.3988 Y-2.6175
G01 X17.3856 Y-2.5586
G01 X17.3695 Y-2.5005
G01 X17.3506 Y-2.4431
G01 X17.3289 Y-2.3868
G01 X17.3044 Y-2.3316
G01 X17.2834 Y-2.2898
G01 X17.0881 Y-2.4851
G00 Z2.0000
G00 X17.1699 Y-2.5023
G01 F70.00
G01 Z-0.0600
G01 F120.00
G01 X17.1887 Y-2.5589
G01 X17.2013 Y-2.6048
G01 X17.2131 Y-2.6580
G01 X17.2212 Y-2.7049
G01 X17.2275 Y-2.7556
G01 X17.2312 Y-2.8065
G01 X17.2325 Y-2.8575
G01 X17.2312 Y-2.9085
G01 X17.2275 Y-2.9594
G01 X17.2212 Y-3.0101
G01 X17.2131 Y-3.0570
G01 X17.2013 Y-3.1102
G01 X17.1887 Y-3.1561
G01 X17.1699 Y-3.2127
G01 X17.2624 Y-3.3053
G01 X17.2847 Y-3.2483
G01 X17.3025 Y-3.1942
G01 X17.3177 Y-3.1393
G01 X17.3302 Y-3.0838
G01 X17.3399 Y-3.0277
G01 X17.3469 Y-2.9712
G01 X17.3511 Y-2.9144
G01 X17.3525 Y-2.8575
G01 X17.3511 Y-2.8006
G01 X17.3469 Y-2.7438
G01 X17.3399 Y-2.6873
G01 X17.3302 Y-2.6312
G01 X17.3177 Y-2.5757
G01 X17.3025 Y-2.5208
G01 X17.2847 Y-2.4667
G01 X17.2624 Y-2.4097
G01 X17.1699 Y-2.5023
G00 Z2.0000
G00 X16.1925 Y-4.0802
G01 F70.00
G01 Z-0.0600
G01 F120.00
G01 X16.1969 Y-4.0595
G01 X16.2034 Y-4.0373
G01 X16.1816 Y-4.0373
G01 X16.1881 Y-4.0595
G01 X16.1925 Y-4.0802
G00 Z2.0000
G00 X16.1816 Y-4.2177
G01 F70.00
G01 Z-0.0600
G01 F120.00
G01 X16.2034 Y-4.2177
G01 X16.1969 Y-4.1955
G01 X16.1925 Y-4.1748
G01 X16.1881 Y-4.1955
G01 X16.1816 Y-4.2177
G00 Z2.0000
G00 X16.0386 Y-4.2983
G01 F70.00
G01 Z-0.0600
G01 F120.00
G01 X16.0837 Y-4.2928
G01 X16.1329 Y-4.2892
G01 X16.1925 Y-4.2875
G01 X16.2521 Y-4.2892
G01 X16.3013 Y-4.2928
G01 X16.3464 Y-4.2983
G01 X16.3274 Y-4.2831
G01 X16.3095 Y-4.2647
G01 X16.2939 Y-4.2442
G01 X16.2821 Y-4.2242
G01 X16.2725 Y-4.2031
G01 X16.2648 Y-4.1785
G01 X16.2601 Y-4.1532
G01 X16.2585 Y-4.1275
G01 X16.2601 Y-4.1018
G01 X16.2648 Y-4.0765
G01 X16.2716 Y-4.0543
G01 X16.2821 Y-4.0308
G01 X16.2939 Y-4.0108
G01 X16.3095 Y-3.9903
G01 X16.3274 Y-3.9719
G01 X16.3464 Y-3.9567
G01 X16.3013 Y-3.9622
G01 X16.2521 Y-3.9658
G01 X16.1925 Y-3.9675
G01 X16.1329 Y-3.9658
G01 X16.0837 Y-3.9622
G01 X16.0386 Y-3.9567
G01 X16.0576 Y-3.9719
G01 X16.0755 Y-3.9903
G01 X16.0911 Y-4.0108
G01 X16.1029 Y-4.0308
G01 X16.1125 Y-4.0519
G01 X16.1202 Y-4.0765
G01 X16.1249 Y-4.1018
G01 X16.1265 Y-4.1275
G01 X16.1249 Y-4.1532
G01 X16.1202 Y-4.1785
G01 X16.1125 Y-4.2031
G01 X16.1029 Y-4.2242
G01 X16.0911 Y-4.2442
G01 X16.0755 Y-4.2647
G01 X16.0576 Y-4.2831
G01 X16.0386 Y-4.2983
G00 Z2.0000
M05
G00 Z2.0000
G00 Z25.00

