(G-CODE GENERATED BY FLATCAM v8.95 - www.flatcam.org - Version Date: 2019/08/17)

(Name: new_geo_cnc)
(Type: G-code from Geometry)
(Units: MM)

(Created on Sunday, 26 July 2020 at 01:46)

(TOOL DIAMETER: 0.8 mm)
(Feedrate: 40.0 mm/min)
(Feedrate_Z: 79.9998 mm/min)
(Feedrate rapids 79.9998 mm/min)

(Z_Cut: -1.5 mm)
(DepthPerCut: 0.1 mm <=>15 passes)
(Z_Move: 5.0 mm)
(Z Toolchange: 12.7 mm)
(X,Y Toolchange: 0.0000, 0.0000 mm)
(Z Start: None mm)
(Z End: 12.7 mm)
(Steps per circle: 128)
(Postprocessor Geometry: default)

(X range:    0.0000 ...    0.0000  mm)
(Y range:  -72.0576 ...    0.0000  mm)

(Spindle Speed: None RPM)

G21
G90
G94

G01 F40.00
G00 Z5.0000

M03
G00 X-0.0000 Y-0.0000
G01 F80.00
G01 Z-0.1000
G01 F40.00
G01 X-0.0000 Y-72.0576
G00 X-0.0000 Y-72.0576
G01 F80.00
G01 Z-0.2000
G01 F40.00
G01 X-0.0000 Y-0.0000
G00 X-0.0000 Y-0.0000
G01 F80.00
G01 Z-0.3000
G01 F40.00
G01 X-0.0000 Y-72.0576
G00 X-0.0000 Y-72.0576
G01 F80.00
G01 Z-0.4000
G01 F40.00
G01 X-0.0000 Y-0.0000
G00 X-0.0000 Y-0.0000
G01 F80.00
G01 Z-0.5000
G01 F40.00
G01 X-0.0000 Y-72.0576
G00 X-0.0000 Y-72.0576
G01 F80.00
G01 Z-0.6000
G01 F40.00
G01 X-0.0000 Y-0.0000
G00 X-0.0000 Y-0.0000
G01 F80.00
G01 Z-0.7000
G01 F40.00
G01 X-0.0000 Y-72.0576
G00 X-0.0000 Y-72.0576
G01 F80.00
G01 Z-0.8000
G01 F40.00
G01 X-0.0000 Y-0.0000
G00 X-0.0000 Y-0.0000
G01 F80.00
G01 Z-0.9000
G01 F40.00
G01 X-0.0000 Y-72.0576
G00 X-0.0000 Y-72.0576
G01 F80.00
G01 Z-1.0000
G01 F40.00
G01 X-0.0000 Y-0.0000
G00 X-0.0000 Y-0.0000
G01 F80.00
G01 Z-1.1000
G01 F40.00
G01 X-0.0000 Y-72.0576
G00 X-0.0000 Y-72.0576
G01 F80.00
G01 Z-1.2000
G01 F40.00
G01 X-0.0000 Y-0.0000
G00 X-0.0000 Y-0.0000
G01 F80.00
G01 Z-1.3000
G01 F40.00
G01 X-0.0000 Y-72.0576
G00 X-0.0000 Y-72.0576
G01 F80.00
G01 Z-1.4000
G01 F40.00
G01 X-0.0000 Y-0.0000
G00 X-0.0000 Y-0.0000
G01 F80.00
G01 Z-1.5000
G01 F40.00
G01 X-0.0000 Y-72.0576
G00 Z5.0000
M05
G00 Z5.0000
G00 Z12.70
G00 X0.0 Y0.0

M02