(G-CODE GENERATED BY FLATCAM v8.95 - www.flatcam.org - Version Date: 2019/08/17)

(Name: si5351_Ф1_верх.gbr_cutout_cnc)
(Type: G-code from Geometry)
(Units: MM)

(Created on Saturday, 29 August 2020 at 12:56)

(TOOL DIAMETER: 0.8 mm)
(Feedrate: 50.0 mm/min)
(Feedrate_Z: 79.9998 mm/min)
(Feedrate rapids 79.9998 mm/min)

(Z_Cut: -1.51 mm)
(DepthPerCut: 0.1 mm <=>16 passes)
(Z_Move: 3.0 mm)
(Z Toolchange: 12.7 mm)
(X,Y Toolchange: 0.0000, 0.0000 mm)
(Z Start: None mm)
(Z End: 12.7 mm)
(Steps per circle: 128)
(Postprocessor Geometry: default)

(X range:   -0.4991 ...   17.4991  mm)
(Y range:  -19.5116 ...    0.4866  mm)

(Spindle Speed: None RPM)

G21
G90
G94

G01 F50.00
G00 Z3.0000

M03
G00 X8.0991 Y0.4866
G01 F80.00
G01 Z-0.1000
G01 F50.00
G01 X0.0000 Y0.4866
G01 X-0.0489 Y0.4842
G01 X-0.0974 Y0.4770
G01 X-0.1449 Y0.4651
G01 X-0.1910 Y0.4486
G01 X-0.2353 Y0.4277
G01 X-0.2773 Y0.4025
G01 X-0.3166 Y0.3733
G01 X-0.3529 Y0.3404
G01 X-0.3858 Y0.3041
G01 X-0.4150 Y0.2648
G01 X-0.4402 Y0.2228
G01 X-0.4611 Y0.1785
G01 X-0.4776 Y0.1324
G01 X-0.4895 Y0.0849
G01 X-0.4967 Y0.0364
G01 X-0.4991 Y-0.0125
G01 X-0.4991 Y-19.0125
G01 X-0.4967 Y-19.0614
G01 X-0.4895 Y-19.1099
G01 X-0.4776 Y-19.1574
G01 X-0.4611 Y-19.2035
G01 X-0.4402 Y-19.2478
G01 X-0.4150 Y-19.2898
G01 X-0.3858 Y-19.3291
G01 X-0.3529 Y-19.3654
G01 X-0.3166 Y-19.3983
G01 X-0.2773 Y-19.4275
G01 X-0.2353 Y-19.4527
G01 X-0.1910 Y-19.4736
G01 X-0.1449 Y-19.4901
G01 X-0.0974 Y-19.5020
G01 X-0.0489 Y-19.5092
G01 X0.0000 Y-19.5116
G01 X8.0991 Y-19.5116
G00 X8.0991 Y-19.5116
G01 F80.00
G01 Z-0.2000
G01 F50.00
G01 X0.0000 Y-19.5116
G01 X-0.0489 Y-19.5092
G01 X-0.0974 Y-19.5020
G01 X-0.1449 Y-19.4901
G01 X-0.1910 Y-19.4736
G01 X-0.2353 Y-19.4527
G01 X-0.2773 Y-19.4275
G01 X-0.3166 Y-19.3983
G01 X-0.3529 Y-19.3654
G01 X-0.3858 Y-19.3291
G01 X-0.4150 Y-19.2898
G01 X-0.4402 Y-19.2478
G01 X-0.4611 Y-19.2035
G01 X-0.4776 Y-19.1574
G01 X-0.4895 Y-19.1099
G01 X-0.4967 Y-19.0614
G01 X-0.4991 Y-19.0125
G01 X-0.4991 Y-0.0125
G01 X-0.4967 Y0.0364
G01 X-0.4895 Y0.0849
G01 X-0.4776 Y0.1324
G01 X-0.4611 Y0.1785
G01 X-0.4402 Y0.2228
G01 X-0.4150 Y0.2648
G01 X-0.3858 Y0.3041
G01 X-0.3529 Y0.3404
G01 X-0.3166 Y0.3733
G01 X-0.2773 Y0.4025
G01 X-0.2353 Y0.4277
G01 X-0.1910 Y0.4486
G01 X-0.1449 Y0.4651
G01 X-0.0974 Y0.4770
G01 X-0.0489 Y0.4842
G01 X0.0000 Y0.4866
G01 X8.0991 Y0.4866
G00 X8.0991 Y0.4866
G01 F80.00
G01 Z-0.3000
G01 F50.00
G01 X0.0000 Y0.4866
G01 X-0.0489 Y0.4842
G01 X-0.0974 Y0.4770
G01 X-0.1449 Y0.4651
G01 X-0.1910 Y0.4486
G01 X-0.2353 Y0.4277
G01 X-0.2773 Y0.4025
G01 X-0.3166 Y0.3733
G01 X-0.3529 Y0.3404
G01 X-0.3858 Y0.3041
G01 X-0.4150 Y0.2648
G01 X-0.4402 Y0.2228
G01 X-0.4611 Y0.1785
G01 X-0.4776 Y0.1324
G01 X-0.4895 Y0.0849
G01 X-0.4967 Y0.0364
G01 X-0.4991 Y-0.0125
G01 X-0.4991 Y-19.0125
G01 X-0.4967 Y-19.0614
G01 X-0.4895 Y-19.1099
G01 X-0.4776 Y-19.1574
G01 X-0.4611 Y-19.2035
G01 X-0.4402 Y-19.2478
G01 X-0.4150 Y-19.2898
G01 X-0.3858 Y-19.3291
G01 X-0.3529 Y-19.3654
G01 X-0.3166 Y-19.3983
G01 X-0.2773 Y-19.4275
G01 X-0.2353 Y-19.4527
G01 X-0.1910 Y-19.4736
G01 X-0.1449 Y-19.4901
G01 X-0.0974 Y-19.5020
G01 X-0.0489 Y-19.5092
G01 X0.0000 Y-19.5116
G01 X8.0991 Y-19.5116
G00 X8.0991 Y-19.5116
G01 F80.00
G01 Z-0.4000
G01 F50.00
G01 X0.0000 Y-19.5116
G01 X-0.0489 Y-19.5092
G01 X-0.0974 Y-19.5020
G01 X-0.1449 Y-19.4901
G01 X-0.1910 Y-19.4736
G01 X-0.2353 Y-19.4527
G01 X-0.2773 Y-19.4275
G01 X-0.3166 Y-19.3983
G01 X-0.3529 Y-19.3654
G01 X-0.3858 Y-19.3291
G01 X-0.4150 Y-19.2898
G01 X-0.4402 Y-19.2478
G01 X-0.4611 Y-19.2035
G01 X-0.4776 Y-19.1574
G01 X-0.4895 Y-19.1099
G01 X-0.4967 Y-19.0614
G01 X-0.4991 Y-19.0125
G01 X-0.4991 Y-0.0125
G01 X-0.4967 Y0.0364
G01 X-0.4895 Y0.0849
G01 X-0.4776 Y0.1324
G01 X-0.4611 Y0.1785
G01 X-0.4402 Y0.2228
G01 X-0.4150 Y0.2648
G01 X-0.3858 Y0.3041
G01 X-0.3529 Y0.3404
G01 X-0.3166 Y0.3733
G01 X-0.2773 Y0.4025
G01 X-0.2353 Y0.4277
G01 X-0.1910 Y0.4486
G01 X-0.1449 Y0.4651
G01 X-0.0974 Y0.4770
G01 X-0.0489 Y0.4842
G01 X0.0000 Y0.4866
G01 X8.0991 Y0.4866
G00 X8.0991 Y0.4866
G01 F80.00
G01 Z-0.5000
G01 F50.00
G01 X0.0000 Y0.4866
G01 X-0.0489 Y0.4842
G01 X-0.0974 Y0.4770
G01 X-0.1449 Y0.4651
G01 X-0.1910 Y0.4486
G01 X-0.2353 Y0.4277
G01 X-0.2773 Y0.4025
G01 X-0.3166 Y0.3733
G01 X-0.3529 Y0.3404
G01 X-0.3858 Y0.3041
G01 X-0.4150 Y0.2648
G01 X-0.4402 Y0.2228
G01 X-0.4611 Y0.1785
G01 X-0.4776 Y0.1324
G01 X-0.4895 Y0.0849
G01 X-0.4967 Y0.0364
G01 X-0.4991 Y-0.0125
G01 X-0.4991 Y-19.0125
G01 X-0.4967 Y-19.0614
G01 X-0.4895 Y-19.1099
G01 X-0.4776 Y-19.1574
G01 X-0.4611 Y-19.2035
G01 X-0.4402 Y-19.2478
G01 X-0.4150 Y-19.2898
G01 X-0.3858 Y-19.3291
G01 X-0.3529 Y-19.3654
G01 X-0.3166 Y-19.3983
G01 X-0.2773 Y-19.4275
G01 X-0.2353 Y-19.4527
G01 X-0.1910 Y-19.4736
G01 X-0.1449 Y-19.4901
G01 X-0.0974 Y-19.5020
G01 X-0.0489 Y-19.5092
G01 X0.0000 Y-19.5116
G01 X8.0991 Y-19.5116
G00 X8.0991 Y-19.5116
G01 F80.00
G01 Z-0.6000
G01 F50.00
G01 X0.0000 Y-19.5116
G01 X-0.0489 Y-19.5092
G01 X-0.0974 Y-19.5020
G01 X-0.1449 Y-19.4901
G01 X-0.1910 Y-19.4736
G01 X-0.2353 Y-19.4527
G01 X-0.2773 Y-19.4275
G01 X-0.3166 Y-19.3983
G01 X-0.3529 Y-19.3654
G01 X-0.3858 Y-19.3291
G01 X-0.4150 Y-19.2898
G01 X-0.4402 Y-19.2478
G01 X-0.4611 Y-19.2035
G01 X-0.4776 Y-19.1574
G01 X-0.4895 Y-19.1099
G01 X-0.4967 Y-19.0614
G01 X-0.4991 Y-19.0125
G01 X-0.4991 Y-0.0125
G01 X-0.4967 Y0.0364
G01 X-0.4895 Y0.0849
G01 X-0.4776 Y0.1324
G01 X-0.4611 Y0.1785
G01 X-0.4402 Y0.2228
G01 X-0.4150 Y0.2648
G01 X-0.3858 Y0.3041
G01 X-0.3529 Y0.3404
G01 X-0.3166 Y0.3733
G01 X-0.2773 Y0.4025
G01 X-0.2353 Y0.4277
G01 X-0.1910 Y0.4486
G01 X-0.1449 Y0.4651
G01 X-0.0974 Y0.4770
G01 X-0.0489 Y0.4842
G01 X0.0000 Y0.4866
G01 X8.0991 Y0.4866
G00 X8.0991 Y0.4866
G01 F80.00
G01 Z-0.7000
G01 F50.00
G01 X0.0000 Y0.4866
G01 X-0.0489 Y0.4842
G01 X-0.0974 Y0.4770
G01 X-0.1449 Y0.4651
G01 X-0.1910 Y0.4486
G01 X-0.2353 Y0.4277
G01 X-0.2773 Y0.4025
G01 X-0.3166 Y0.3733
G01 X-0.3529 Y0.3404
G01 X-0.3858 Y0.3041
G01 X-0.4150 Y0.2648
G01 X-0.4402 Y0.2228
G01 X-0.4611 Y0.1785
G01 X-0.4776 Y0.1324
G01 X-0.4895 Y0.0849
G01 X-0.4967 Y0.0364
G01 X-0.4991 Y-0.0125
G01 X-0.4991 Y-19.0125
G01 X-0.4967 Y-19.0614
G01 X-0.4895 Y-19.1099
G01 X-0.4776 Y-19.1574
G01 X-0.4611 Y-19.2035
G01 X-0.4402 Y-19.2478
G01 X-0.4150 Y-19.2898
G01 X-0.3858 Y-19.3291
G01 X-0.3529 Y-19.3654
G01 X-0.3166 Y-19.3983
G01 X-0.2773 Y-19.4275
G01 X-0.2353 Y-19.4527
G01 X-0.1910 Y-19.4736
G01 X-0.1449 Y-19.4901
G01 X-0.0974 Y-19.5020
G01 X-0.0489 Y-19.5092
G01 X0.0000 Y-19.5116
G01 X8.0991 Y-19.5116
G00 X8.0991 Y-19.5116
G01 F80.00
G01 Z-0.8000
G01 F50.00
G01 X0.0000 Y-19.5116
G01 X-0.0489 Y-19.5092
G01 X-0.0974 Y-19.5020
G01 X-0.1449 Y-19.4901
G01 X-0.1910 Y-19.4736
G01 X-0.2353 Y-19.4527
G01 X-0.2773 Y-19.4275
G01 X-0.3166 Y-19.3983
G01 X-0.3529 Y-19.3654
G01 X-0.3858 Y-19.3291
G01 X-0.4150 Y-19.2898
G01 X-0.4402 Y-19.2478
G01 X-0.4611 Y-19.2035
G01 X-0.4776 Y-19.1574
G01 X-0.4895 Y-19.1099
G01 X-0.4967 Y-19.0614
G01 X-0.4991 Y-19.0125
G01 X-0.4991 Y-0.0125
G01 X-0.4967 Y0.0364
G01 X-0.4895 Y0.0849
G01 X-0.4776 Y0.1324
G01 X-0.4611 Y0.1785
G01 X-0.4402 Y0.2228
G01 X-0.4150 Y0.2648
G01 X-0.3858 Y0.3041
G01 X-0.3529 Y0.3404
G01 X-0.3166 Y0.3733
G01 X-0.2773 Y0.4025
G01 X-0.2353 Y0.4277
G01 X-0.1910 Y0.4486
G01 X-0.1449 Y0.4651
G01 X-0.0974 Y0.4770
G01 X-0.0489 Y0.4842
G01 X0.0000 Y0.4866
G01 X8.0991 Y0.4866
G00 X8.0991 Y0.4866
G01 F80.00
G01 Z-0.9000
G01 F50.00
G01 X0.0000 Y0.4866
G01 X-0.0489 Y0.4842
G01 X-0.0974 Y0.4770
G01 X-0.1449 Y0.4651
G01 X-0.1910 Y0.4486
G01 X-0.2353 Y0.4277
G01 X-0.2773 Y0.4025
G01 X-0.3166 Y0.3733
G01 X-0.3529 Y0.3404
G01 X-0.3858 Y0.3041
G01 X-0.4150 Y0.2648
G01 X-0.4402 Y0.2228
G01 X-0.4611 Y0.1785
G01 X-0.4776 Y0.1324
G01 X-0.4895 Y0.0849
G01 X-0.4967 Y0.0364
G01 X-0.4991 Y-0.0125
G01 X-0.4991 Y-19.0125
G01 X-0.4967 Y-19.0614
G01 X-0.4895 Y-19.1099
G01 X-0.4776 Y-19.1574
G01 X-0.4611 Y-19.2035
G01 X-0.4402 Y-19.2478
G01 X-0.4150 Y-19.2898
G01 X-0.3858 Y-19.3291
G01 X-0.3529 Y-19.3654
G01 X-0.3166 Y-19.3983
G01 X-0.2773 Y-19.4275
G01 X-0.2353 Y-19.4527
G01 X-0.1910 Y-19.4736
G01 X-0.1449 Y-19.4901
G01 X-0.0974 Y-19.5020
G01 X-0.0489 Y-19.5092
G01 X0.0000 Y-19.5116
G01 X8.0991 Y-19.5116
G00 X8.0991 Y-19.5116
G01 F80.00
G01 Z-1.0000
G01 F50.00
G01 X0.0000 Y-19.5116
G01 X-0.0489 Y-19.5092
G01 X-0.0974 Y-19.5020
G01 X-0.1449 Y-19.4901
G01 X-0.1910 Y-19.4736
G01 X-0.2353 Y-19.4527
G01 X-0.2773 Y-19.4275
G01 X-0.3166 Y-19.3983
G01 X-0.3529 Y-19.3654
G01 X-0.3858 Y-19.3291
G01 X-0.4150 Y-19.2898
G01 X-0.4402 Y-19.2478
G01 X-0.4611 Y-19.2035
G01 X-0.4776 Y-19.1574
G01 X-0.4895 Y-19.1099
G01 X-0.4967 Y-19.0614
G01 X-0.4991 Y-19.0125
G01 X-0.4991 Y-0.0125
G01 X-0.4967 Y0.0364
G01 X-0.4895 Y0.0849
G01 X-0.4776 Y0.1324
G01 X-0.4611 Y0.1785
G01 X-0.4402 Y0.2228
G01 X-0.4150 Y0.2648
G01 X-0.3858 Y0.3041
G01 X-0.3529 Y0.3404
G01 X-0.3166 Y0.3733
G01 X-0.2773 Y0.4025
G01 X-0.2353 Y0.4277
G01 X-0.1910 Y0.4486
G01 X-0.1449 Y0.4651
G01 X-0.0974 Y0.4770
G01 X-0.0489 Y0.4842
G01 X0.0000 Y0.4866
G01 X8.0991 Y0.4866
G00 X8.0991 Y0.4866
G01 F80.00
G01 Z-1.1000
G01 F50.00
G01 X0.0000 Y0.4866
G01 X-0.0489 Y0.4842
G01 X-0.0974 Y0.4770
G01 X-0.1449 Y0.4651
G01 X-0.1910 Y0.4486
G01 X-0.2353 Y0.4277
G01 X-0.2773 Y0.4025
G01 X-0.3166 Y0.3733
G01 X-0.3529 Y0.3404
G01 X-0.3858 Y0.3041
G01 X-0.4150 Y0.2648
G01 X-0.4402 Y0.2228
G01 X-0.4611 Y0.1785
G01 X-0.4776 Y0.1324
G01 X-0.4895 Y0.0849
G01 X-0.4967 Y0.0364
G01 X-0.4991 Y-0.0125
G01 X-0.4991 Y-19.0125
G01 X-0.4967 Y-19.0614
G01 X-0.4895 Y-19.1099
G01 X-0.4776 Y-19.1574
G01 X-0.4611 Y-19.2035
G01 X-0.4402 Y-19.2478
G01 X-0.4150 Y-19.2898
G01 X-0.3858 Y-19.3291
G01 X-0.3529 Y-19.3654
G01 X-0.3166 Y-19.3983
G01 X-0.2773 Y-19.4275
G01 X-0.2353 Y-19.4527
G01 X-0.1910 Y-19.4736
G01 X-0.1449 Y-19.4901
G01 X-0.0974 Y-19.5020
G01 X-0.0489 Y-19.5092
G01 X0.0000 Y-19.5116
G01 X8.0991 Y-19.5116
G00 X8.0991 Y-19.5116
G01 F80.00
G01 Z-1.2000
G01 F50.00
G01 X0.0000 Y-19.5116
G01 X-0.0489 Y-19.5092
G01 X-0.0974 Y-19.5020
G01 X-0.1449 Y-19.4901
G01 X-0.1910 Y-19.4736
G01 X-0.2353 Y-19.4527
G01 X-0.2773 Y-19.4275
G01 X-0.3166 Y-19.3983
G01 X-0.3529 Y-19.3654
G01 X-0.3858 Y-19.3291
G01 X-0.4150 Y-19.2898
G01 X-0.4402 Y-19.2478
G01 X-0.4611 Y-19.2035
G01 X-0.4776 Y-19.1574
G01 X-0.4895 Y-19.1099
G01 X-0.4967 Y-19.0614
G01 X-0.4991 Y-19.0125
G01 X-0.4991 Y-0.0125
G01 X-0.4967 Y0.0364
G01 X-0.4895 Y0.0849
G01 X-0.4776 Y0.1324
G01 X-0.4611 Y0.1785
G01 X-0.4402 Y0.2228
G01 X-0.4150 Y0.2648
G01 X-0.3858 Y0.3041
G01 X-0.3529 Y0.3404
G01 X-0.3166 Y0.3733
G01 X-0.2773 Y0.4025
G01 X-0.2353 Y0.4277
G01 X-0.1910 Y0.4486
G01 X-0.1449 Y0.4651
G01 X-0.0974 Y0.4770
G01 X-0.0489 Y0.4842
G01 X0.0000 Y0.4866
G01 X8.0991 Y0.4866
G00 X8.0991 Y0.4866
G01 F80.00
G01 Z-1.3000
G01 F50.00
G01 X0.0000 Y0.4866
G01 X-0.0489 Y0.4842
G01 X-0.0974 Y0.4770
G01 X-0.1449 Y0.4651
G01 X-0.1910 Y0.4486
G01 X-0.2353 Y0.4277
G01 X-0.2773 Y0.4025
G01 X-0.3166 Y0.3733
G01 X-0.3529 Y0.3404
G01 X-0.3858 Y0.3041
G01 X-0.4150 Y0.2648
G01 X-0.4402 Y0.2228
G01 X-0.4611 Y0.1785
G01 X-0.4776 Y0.1324
G01 X-0.4895 Y0.0849
G01 X-0.4967 Y0.0364
G01 X-0.4991 Y-0.0125
G01 X-0.4991 Y-19.0125
G01 X-0.4967 Y-19.0614
G01 X-0.4895 Y-19.1099
G01 X-0.4776 Y-19.1574
G01 X-0.4611 Y-19.2035
G01 X-0.4402 Y-19.2478
G01 X-0.4150 Y-19.2898
G01 X-0.3858 Y-19.3291
G01 X-0.3529 Y-19.3654
G01 X-0.3166 Y-19.3983
G01 X-0.2773 Y-19.4275
G01 X-0.2353 Y-19.4527
G01 X-0.1910 Y-19.4736
G01 X-0.1449 Y-19.4901
G01 X-0.0974 Y-19.5020
G01 X-0.0489 Y-19.5092
G01 X0.0000 Y-19.5116
G01 X8.0991 Y-19.5116
G00 X8.0991 Y-19.5116
G01 F80.00
G01 Z-1.4000
G01 F50.00
G01 X0.0000 Y-19.5116
G01 X-0.0489 Y-19.5092
G01 X-0.0974 Y-19.5020
G01 X-0.1449 Y-19.4901
G01 X-0.1910 Y-19.4736
G01 X-0.2353 Y-19.4527
G01 X-0.2773 Y-19.4275
G01 X-0.3166 Y-19.3983
G01 X-0.3529 Y-19.3654
G01 X-0.3858 Y-19.3291
G01 X-0.4150 Y-19.2898
G01 X-0.4402 Y-19.2478
G01 X-0.4611 Y-19.2035
G01 X-0.4776 Y-19.1574
G01 X-0.4895 Y-19.1099
G01 X-0.4967 Y-19.0614
G01 X-0.4991 Y-19.0125
G01 X-0.4991 Y-0.0125
G01 X-0.4967 Y0.0364
G01 X-0.4895 Y0.0849
G01 X-0.4776 Y0.1324
G01 X-0.4611 Y0.1785
G01 X-0.4402 Y0.2228
G01 X-0.4150 Y0.2648
G01 X-0.3858 Y0.3041
G01 X-0.3529 Y0.3404
G01 X-0.3166 Y0.3733
G01 X-0.2773 Y0.4025
G01 X-0.2353 Y0.4277
G01 X-0.1910 Y0.4486
G01 X-0.1449 Y0.4651
G01 X-0.0974 Y0.4770
G01 X-0.0489 Y0.4842
G01 X0.0000 Y0.4866
G01 X8.0991 Y0.4866
G00 X8.0991 Y0.4866
G01 F80.00
G01 Z-1.5000
G01 F50.00
G01 X0.0000 Y0.4866
G01 X-0.0489 Y0.4842
G01 X-0.0974 Y0.4770
G01 X-0.1449 Y0.4651
G01 X-0.1910 Y0.4486
G01 X-0.2353 Y0.4277
G01 X-0.2773 Y0.4025
G01 X-0.3166 Y0.3733
G01 X-0.3529 Y0.3404
G01 X-0.3858 Y0.3041
G01 X-0.4150 Y0.2648
G01 X-0.4402 Y0.2228
G01 X-0.4611 Y0.1785
G01 X-0.4776 Y0.1324
G01 X-0.4895 Y0.0849
G01 X-0.4967 Y0.0364
G01 X-0.4991 Y-0.0125
G01 X-0.4991 Y-19.0125
G01 X-0.4967 Y-19.0614
G01 X-0.4895 Y-19.1099
G01 X-0.4776 Y-19.1574
G01 X-0.4611 Y-19.2035
G01 X-0.4402 Y-19.2478
G01 X-0.4150 Y-19.2898
G01 X-0.3858 Y-19.3291
G01 X-0.3529 Y-19.3654
G01 X-0.3166 Y-19.3983
G01 X-0.2773 Y-19.4275
G01 X-0.2353 Y-19.4527
G01 X-0.1910 Y-19.4736
G01 X-0.1449 Y-19.4901
G01 X-0.0974 Y-19.5020
G01 X-0.0489 Y-19.5092
G01 X0.0000 Y-19.5116
G01 X8.0991 Y-19.5116
G00 X8.0991 Y-19.5116
G01 F80.00
G01 Z-1.5100
G01 F50.00
G01 X0.0000 Y-19.5116
G01 X-0.0489 Y-19.5092
G01 X-0.0974 Y-19.5020
G01 X-0.1449 Y-19.4901
G01 X-0.1910 Y-19.4736
G01 X-0.2353 Y-19.4527
G01 X-0.2773 Y-19.4275
G01 X-0.3166 Y-19.3983
G01 X-0.3529 Y-19.3654
G01 X-0.3858 Y-19.3291
G01 X-0.4150 Y-19.2898
G01 X-0.4402 Y-19.2478
G01 X-0.4611 Y-19.2035
G01 X-0.4776 Y-19.1574
G01 X-0.4895 Y-19.1099
G01 X-0.4967 Y-19.0614
G01 X-0.4991 Y-19.0125
G01 X-0.4991 Y-0.0125
G01 X-0.4967 Y0.0364
G01 X-0.4895 Y0.0849
G01 X-0.4776 Y0.1324
G01 X-0.4611 Y0.1785
G01 X-0.4402 Y0.2228
G01 X-0.4150 Y0.2648
G01 X-0.3858 Y0.3041
G01 X-0.3529 Y0.3404
G01 X-0.3166 Y0.3733
G01 X-0.2773 Y0.4025
G01 X-0.2353 Y0.4277
G01 X-0.1910 Y0.4486
G01 X-0.1449 Y0.4651
G01 X-0.0974 Y0.4770
G01 X-0.0489 Y0.4842
G01 X0.0000 Y0.4866
G01 X8.0991 Y0.4866
G00 Z3.0000
G00 X9.0991 Y0.4866
G01 F80.00
G01 Z-0.1000
G01 F50.00
G01 X17.0000 Y0.4866
G01 X17.0489 Y0.4842
G01 X17.0974 Y0.4770
G01 X17.1449 Y0.4651
G01 X17.1910 Y0.4486
G01 X17.2353 Y0.4277
G01 X17.2773 Y0.4025
G01 X17.3166 Y0.3733
G01 X17.3529 Y0.3404
G01 X17.3858 Y0.3041
G01 X17.4150 Y0.2648
G01 X17.4402 Y0.2228
G01 X17.4611 Y0.1785
G01 X17.4776 Y0.1324
G01 X17.4895 Y0.0849
G01 X17.4967 Y0.0364
G01 X17.4991 Y-0.0125
G01 X17.4991 Y-19.0125
G01 X17.4967 Y-19.0614
G01 X17.4895 Y-19.1099
G01 X17.4776 Y-19.1574
G01 X17.4611 Y-19.2035
G01 X17.4402 Y-19.2478
G01 X17.4150 Y-19.2898
G01 X17.3858 Y-19.3291
G01 X17.3529 Y-19.3654
G01 X17.3166 Y-19.3983
G01 X17.2773 Y-19.4275
G01 X17.2353 Y-19.4527
G01 X17.1910 Y-19.4736
G01 X17.1449 Y-19.4901
G01 X17.0974 Y-19.5020
G01 X17.0489 Y-19.5092
G01 X17.0000 Y-19.5116
G00 X17.0000 Y-19.5116
G01 F80.00
G01 Z-0.2000
G01 F50.00
G01 X17.0489 Y-19.5092
G01 X17.0974 Y-19.5020
G01 X17.1449 Y-19.4901
G01 X17.1910 Y-19.4736
G01 X17.2353 Y-19.4527
G01 X17.2773 Y-19.4275
G01 X17.3166 Y-19.3983
G01 X17.3529 Y-19.3654
G01 X17.3858 Y-19.3291
G01 X17.4150 Y-19.2898
G01 X17.4402 Y-19.2478
G01 X17.4611 Y-19.2035
G01 X17.4776 Y-19.1574
G01 X17.4895 Y-19.1099
G01 X17.4967 Y-19.0614
G01 X17.4991 Y-19.0125
G01 X17.4991 Y-0.0125
G01 X17.4967 Y0.0364
G01 X17.4895 Y0.0849
G01 X17.4776 Y0.1324
G01 X17.4611 Y0.1785
G01 X17.4402 Y0.2228
G01 X17.4150 Y0.2648
G01 X17.3858 Y0.3041
G01 X17.3529 Y0.3404
G01 X17.3166 Y0.3733
G01 X17.2773 Y0.4025
G01 X17.2353 Y0.4277
G01 X17.1910 Y0.4486
G01 X17.1449 Y0.4651
G01 X17.0974 Y0.4770
G01 X17.0489 Y0.4842
G01 X17.0000 Y0.4866
G01 X9.0991 Y0.4866
G00 X9.0991 Y0.4866
G01 F80.00
G01 Z-0.3000
G01 F50.00
G01 X17.0000 Y0.4866
G01 X17.0489 Y0.4842
G01 X17.0974 Y0.4770
G01 X17.1449 Y0.4651
G01 X17.1910 Y0.4486
G01 X17.2353 Y0.4277
G01 X17.2773 Y0.4025
G01 X17.3166 Y0.3733
G01 X17.3529 Y0.3404
G01 X17.3858 Y0.3041
G01 X17.4150 Y0.2648
G01 X17.4402 Y0.2228
G01 X17.4611 Y0.1785
G01 X17.4776 Y0.1324
G01 X17.4895 Y0.0849
G01 X17.4967 Y0.0364
G01 X17.4991 Y-0.0125
G01 X17.4991 Y-19.0125
G01 X17.4967 Y-19.0614
G01 X17.4895 Y-19.1099
G01 X17.4776 Y-19.1574
G01 X17.4611 Y-19.2035
G01 X17.4402 Y-19.2478
G01 X17.4150 Y-19.2898
G01 X17.3858 Y-19.3291
G01 X17.3529 Y-19.3654
G01 X17.3166 Y-19.3983
G01 X17.2773 Y-19.4275
G01 X17.2353 Y-19.4527
G01 X17.1910 Y-19.4736
G01 X17.1449 Y-19.4901
G01 X17.0974 Y-19.5020
G01 X17.0489 Y-19.5092
G01 X17.0000 Y-19.5116
G00 X17.0000 Y-19.5116
G01 F80.00
G01 Z-0.4000
G01 F50.00
G01 X17.0489 Y-19.5092
G01 X17.0974 Y-19.5020
G01 X17.1449 Y-19.4901
G01 X17.1910 Y-19.4736
G01 X17.2353 Y-19.4527
G01 X17.2773 Y-19.4275
G01 X17.3166 Y-19.3983
G01 X17.3529 Y-19.3654
G01 X17.3858 Y-19.3291
G01 X17.4150 Y-19.2898
G01 X17.4402 Y-19.2478
G01 X17.4611 Y-19.2035
G01 X17.4776 Y-19.1574
G01 X17.4895 Y-19.1099
G01 X17.4967 Y-19.0614
G01 X17.4991 Y-19.0125
G01 X17.4991 Y-0.0125
G01 X17.4967 Y0.0364
G01 X17.4895 Y0.0849
G01 X17.4776 Y0.1324
G01 X17.4611 Y0.1785
G01 X17.4402 Y0.2228
G01 X17.4150 Y0.2648
G01 X17.3858 Y0.3041
G01 X17.3529 Y0.3404
G01 X17.3166 Y0.3733
G01 X17.2773 Y0.4025
G01 X17.2353 Y0.4277
G01 X17.1910 Y0.4486
G01 X17.1449 Y0.4651
G01 X17.0974 Y0.4770
G01 X17.0489 Y0.4842
G01 X17.0000 Y0.4866
G01 X9.0991 Y0.4866
G00 X9.0991 Y0.4866
G01 F80.00
G01 Z-0.5000
G01 F50.00
G01 X17.0000 Y0.4866
G01 X17.0489 Y0.4842
G01 X17.0974 Y0.4770
G01 X17.1449 Y0.4651
G01 X17.1910 Y0.4486
G01 X17.2353 Y0.4277
G01 X17.2773 Y0.4025
G01 X17.3166 Y0.3733
G01 X17.3529 Y0.3404
G01 X17.3858 Y0.3041
G01 X17.4150 Y0.2648
G01 X17.4402 Y0.2228
G01 X17.4611 Y0.1785
G01 X17.4776 Y0.1324
G01 X17.4895 Y0.0849
G01 X17.4967 Y0.0364
G01 X17.4991 Y-0.0125
G01 X17.4991 Y-19.0125
G01 X17.4967 Y-19.0614
G01 X17.4895 Y-19.1099
G01 X17.4776 Y-19.1574
G01 X17.4611 Y-19.2035
G01 X17.4402 Y-19.2478
G01 X17.4150 Y-19.2898
G01 X17.3858 Y-19.3291
G01 X17.3529 Y-19.3654
G01 X17.3166 Y-19.3983
G01 X17.2773 Y-19.4275
G01 X17.2353 Y-19.4527
G01 X17.1910 Y-19.4736
G01 X17.1449 Y-19.4901
G01 X17.0974 Y-19.5020
G01 X17.0489 Y-19.5092
G01 X17.0000 Y-19.5116
G00 X17.0000 Y-19.5116
G01 F80.00
G01 Z-0.6000
G01 F50.00
G01 X17.0489 Y-19.5092
G01 X17.0974 Y-19.5020
G01 X17.1449 Y-19.4901
G01 X17.1910 Y-19.4736
G01 X17.2353 Y-19.4527
G01 X17.2773 Y-19.4275
G01 X17.3166 Y-19.3983
G01 X17.3529 Y-19.3654
G01 X17.3858 Y-19.3291
G01 X17.4150 Y-19.2898
G01 X17.4402 Y-19.2478
G01 X17.4611 Y-19.2035
G01 X17.4776 Y-19.1574
G01 X17.4895 Y-19.1099
G01 X17.4967 Y-19.0614
G01 X17.4991 Y-19.0125
G01 X17.4991 Y-0.0125
G01 X17.4967 Y0.0364
G01 X17.4895 Y0.0849
G01 X17.4776 Y0.1324
G01 X17.4611 Y0.1785
G01 X17.4402 Y0.2228
G01 X17.4150 Y0.2648
G01 X17.3858 Y0.3041
G01 X17.3529 Y0.3404
G01 X17.3166 Y0.3733
G01 X17.2773 Y0.4025
G01 X17.2353 Y0.4277
G01 X17.1910 Y0.4486
G01 X17.1449 Y0.4651
G01 X17.0974 Y0.4770
G01 X17.0489 Y0.4842
G01 X17.0000 Y0.4866
G01 X9.0991 Y0.4866
G00 X9.0991 Y0.4866
G01 F80.00
G01 Z-0.7000
G01 F50.00
G01 X17.0000 Y0.4866
G01 X17.0489 Y0.4842
G01 X17.0974 Y0.4770
G01 X17.1449 Y0.4651
G01 X17.1910 Y0.4486
G01 X17.2353 Y0.4277
G01 X17.2773 Y0.4025
G01 X17.3166 Y0.3733
G01 X17.3529 Y0.3404
G01 X17.3858 Y0.3041
G01 X17.4150 Y0.2648
G01 X17.4402 Y0.2228
G01 X17.4611 Y0.1785
G01 X17.4776 Y0.1324
G01 X17.4895 Y0.0849
G01 X17.4967 Y0.0364
G01 X17.4991 Y-0.0125
G01 X17.4991 Y-19.0125
G01 X17.4967 Y-19.0614
G01 X17.4895 Y-19.1099
G01 X17.4776 Y-19.1574
G01 X17.4611 Y-19.2035
G01 X17.4402 Y-19.2478
G01 X17.4150 Y-19.2898
G01 X17.3858 Y-19.3291
G01 X17.3529 Y-19.3654
G01 X17.3166 Y-19.3983
G01 X17.2773 Y-19.4275
G01 X17.2353 Y-19.4527
G01 X17.1910 Y-19.4736
G01 X17.1449 Y-19.4901
G01 X17.0974 Y-19.5020
G01 X17.0489 Y-19.5092
G01 X17.0000 Y-19.5116
G00 X17.0000 Y-19.5116
G01 F80.00
G01 Z-0.8000
G01 F50.00
G01 X17.0489 Y-19.5092
G01 X17.0974 Y-19.5020
G01 X17.1449 Y-19.4901
G01 X17.1910 Y-19.4736
G01 X17.2353 Y-19.4527
G01 X17.2773 Y-19.4275
G01 X17.3166 Y-19.3983
G01 X17.3529 Y-19.3654
G01 X17.3858 Y-19.3291
G01 X17.4150 Y-19.2898
G01 X17.4402 Y-19.2478
G01 X17.4611 Y-19.2035
G01 X17.4776 Y-19.1574
G01 X17.4895 Y-19.1099
G01 X17.4967 Y-19.0614
G01 X17.4991 Y-19.0125
G01 X17.4991 Y-0.0125
G01 X17.4967 Y0.0364
G01 X17.4895 Y0.0849
G01 X17.4776 Y0.1324
G01 X17.4611 Y0.1785
G01 X17.4402 Y0.2228
G01 X17.4150 Y0.2648
G01 X17.3858 Y0.3041
G01 X17.3529 Y0.3404
G01 X17.3166 Y0.3733
G01 X17.2773 Y0.4025
G01 X17.2353 Y0.4277
G01 X17.1910 Y0.4486
G01 X17.1449 Y0.4651
G01 X17.0974 Y0.4770
G01 X17.0489 Y0.4842
G01 X17.0000 Y0.4866
G01 X9.0991 Y0.4866
G00 X9.0991 Y0.4866
G01 F80.00
G01 Z-0.9000
G01 F50.00
G01 X17.0000 Y0.4866
G01 X17.0489 Y0.4842
G01 X17.0974 Y0.4770
G01 X17.1449 Y0.4651
G01 X17.1910 Y0.4486
G01 X17.2353 Y0.4277
G01 X17.2773 Y0.4025
G01 X17.3166 Y0.3733
G01 X17.3529 Y0.3404
G01 X17.3858 Y0.3041
G01 X17.4150 Y0.2648
G01 X17.4402 Y0.2228
G01 X17.4611 Y0.1785
G01 X17.4776 Y0.1324
G01 X17.4895 Y0.0849
G01 X17.4967 Y0.0364
G01 X17.4991 Y-0.0125
G01 X17.4991 Y-19.0125
G01 X17.4967 Y-19.0614
G01 X17.4895 Y-19.1099
G01 X17.4776 Y-19.1574
G01 X17.4611 Y-19.2035
G01 X17.4402 Y-19.2478
G01 X17.4150 Y-19.2898
G01 X17.3858 Y-19.3291
G01 X17.3529 Y-19.3654
G01 X17.3166 Y-19.3983
G01 X17.2773 Y-19.4275
G01 X17.2353 Y-19.4527
G01 X17.1910 Y-19.4736
G01 X17.1449 Y-19.4901
G01 X17.0974 Y-19.5020
G01 X17.0489 Y-19.5092
G01 X17.0000 Y-19.5116
G00 X17.0000 Y-19.5116
G01 F80.00
G01 Z-1.0000
G01 F50.00
G01 X17.0489 Y-19.5092
G01 X17.0974 Y-19.5020
G01 X17.1449 Y-19.4901
G01 X17.1910 Y-19.4736
G01 X17.2353 Y-19.4527
G01 X17.2773 Y-19.4275
G01 X17.3166 Y-19.3983
G01 X17.3529 Y-19.3654
G01 X17.3858 Y-19.3291
G01 X17.4150 Y-19.2898
G01 X17.4402 Y-19.2478
G01 X17.4611 Y-19.2035
G01 X17.4776 Y-19.1574
G01 X17.4895 Y-19.1099
G01 X17.4967 Y-19.0614
G01 X17.4991 Y-19.0125
G01 X17.4991 Y-0.0125
G01 X17.4967 Y0.0364
G01 X17.4895 Y0.0849
G01 X17.4776 Y0.1324
G01 X17.4611 Y0.1785
G01 X17.4402 Y0.2228
G01 X17.4150 Y0.2648
G01 X17.3858 Y0.3041
G01 X17.3529 Y0.3404
G01 X17.3166 Y0.3733
G01 X17.2773 Y0.4025
G01 X17.2353 Y0.4277
G01 X17.1910 Y0.4486
G01 X17.1449 Y0.4651
G01 X17.0974 Y0.4770
G01 X17.0489 Y0.4842
G01 X17.0000 Y0.4866
G01 X9.0991 Y0.4866
G00 X9.0991 Y0.4866
G01 F80.00
G01 Z-1.1000
G01 F50.00
G01 X17.0000 Y0.4866
G01 X17.0489 Y0.4842
G01 X17.0974 Y0.4770
G01 X17.1449 Y0.4651
G01 X17.1910 Y0.4486
G01 X17.2353 Y0.4277
G01 X17.2773 Y0.4025
G01 X17.3166 Y0.3733
G01 X17.3529 Y0.3404
G01 X17.3858 Y0.3041
G01 X17.4150 Y0.2648
G01 X17.4402 Y0.2228
G01 X17.4611 Y0.1785
G01 X17.4776 Y0.1324
G01 X17.4895 Y0.0849
G01 X17.4967 Y0.0364
G01 X17.4991 Y-0.0125
G01 X17.4991 Y-19.0125
G01 X17.4967 Y-19.0614
G01 X17.4895 Y-19.1099
G01 X17.4776 Y-19.1574
G01 X17.4611 Y-19.2035
G01 X17.4402 Y-19.2478
G01 X17.4150 Y-19.2898
G01 X17.3858 Y-19.3291
G01 X17.3529 Y-19.3654
G01 X17.3166 Y-19.3983
G01 X17.2773 Y-19.4275
G01 X17.2353 Y-19.4527
G01 X17.1910 Y-19.4736
G01 X17.1449 Y-19.4901
G01 X17.0974 Y-19.5020
G01 X17.0489 Y-19.5092
G01 X17.0000 Y-19.5116
G00 X17.0000 Y-19.5116
G01 F80.00
G01 Z-1.2000
G01 F50.00
G01 X17.0489 Y-19.5092
G01 X17.0974 Y-19.5020
G01 X17.1449 Y-19.4901
G01 X17.1910 Y-19.4736
G01 X17.2353 Y-19.4527
G01 X17.2773 Y-19.4275
G01 X17.3166 Y-19.3983
G01 X17.3529 Y-19.3654
G01 X17.3858 Y-19.3291
G01 X17.4150 Y-19.2898
G01 X17.4402 Y-19.2478
G01 X17.4611 Y-19.2035
G01 X17.4776 Y-19.1574
G01 X17.4895 Y-19.1099
G01 X17.4967 Y-19.0614
G01 X17.4991 Y-19.0125
G01 X17.4991 Y-0.0125
G01 X17.4967 Y0.0364
G01 X17.4895 Y0.0849
G01 X17.4776 Y0.1324
G01 X17.4611 Y0.1785
G01 X17.4402 Y0.2228
G01 X17.4150 Y0.2648
G01 X17.3858 Y0.3041
G01 X17.3529 Y0.3404
G01 X17.3166 Y0.3733
G01 X17.2773 Y0.4025
G01 X17.2353 Y0.4277
G01 X17.1910 Y0.4486
G01 X17.1449 Y0.4651
G01 X17.0974 Y0.4770
G01 X17.0489 Y0.4842
G01 X17.0000 Y0.4866
G01 X9.0991 Y0.4866
G00 X9.0991 Y0.4866
G01 F80.00
G01 Z-1.3000
G01 F50.00
G01 X17.0000 Y0.4866
G01 X17.0489 Y0.4842
G01 X17.0974 Y0.4770
G01 X17.1449 Y0.4651
G01 X17.1910 Y0.4486
G01 X17.2353 Y0.4277
G01 X17.2773 Y0.4025
G01 X17.3166 Y0.3733
G01 X17.3529 Y0.3404
G01 X17.3858 Y0.3041
G01 X17.4150 Y0.2648
G01 X17.4402 Y0.2228
G01 X17.4611 Y0.1785
G01 X17.4776 Y0.1324
G01 X17.4895 Y0.0849
G01 X17.4967 Y0.0364
G01 X17.4991 Y-0.0125
G01 X17.4991 Y-19.0125
G01 X17.4967 Y-19.0614
G01 X17.4895 Y-19.1099
G01 X17.4776 Y-19.1574
G01 X17.4611 Y-19.2035
G01 X17.4402 Y-19.2478
G01 X17.4150 Y-19.2898
G01 X17.3858 Y-19.3291
G01 X17.3529 Y-19.3654
G01 X17.3166 Y-19.3983
G01 X17.2773 Y-19.4275
G01 X17.2353 Y-19.4527
G01 X17.1910 Y-19.4736
G01 X17.1449 Y-19.4901
G01 X17.0974 Y-19.5020
G01 X17.0489 Y-19.5092
G01 X17.0000 Y-19.5116
G00 X17.0000 Y-19.5116
G01 F80.00
G01 Z-1.4000
G01 F50.00
G01 X17.0489 Y-19.5092
G01 X17.0974 Y-19.5020
G01 X17.1449 Y-19.4901
G01 X17.1910 Y-19.4736
G01 X17.2353 Y-19.4527
G01 X17.2773 Y-19.4275
G01 X17.3166 Y-19.3983
G01 X17.3529 Y-19.3654
G01 X17.3858 Y-19.3291
G01 X17.4150 Y-19.2898
G01 X17.4402 Y-19.2478
G01 X17.4611 Y-19.2035
G01 X17.4776 Y-19.1574
G01 X17.4895 Y-19.1099
G01 X17.4967 Y-19.0614
G01 X17.4991 Y-19.0125
G01 X17.4991 Y-0.0125
G01 X17.4967 Y0.0364
G01 X17.4895 Y0.0849
G01 X17.4776 Y0.1324
G01 X17.4611 Y0.1785
G01 X17.4402 Y0.2228
G01 X17.4150 Y0.2648
G01 X17.3858 Y0.3041
G01 X17.3529 Y0.3404
G01 X17.3166 Y0.3733
G01 X17.2773 Y0.4025
G01 X17.2353 Y0.4277
G01 X17.1910 Y0.4486
G01 X17.1449 Y0.4651
G01 X17.0974 Y0.4770
G01 X17.0489 Y0.4842
G01 X17.0000 Y0.4866
G01 X9.0991 Y0.4866
G00 X9.0991 Y0.4866
G01 F80.00
G01 Z-1.5000
G01 F50.00
G01 X17.0000 Y0.4866
G01 X17.0489 Y0.4842
G01 X17.0974 Y0.4770
G01 X17.1449 Y0.4651
G01 X17.1910 Y0.4486
G01 X17.2353 Y0.4277
G01 X17.2773 Y0.4025
G01 X17.3166 Y0.3733
G01 X17.3529 Y0.3404
G01 X17.3858 Y0.3041
G01 X17.4150 Y0.2648
G01 X17.4402 Y0.2228
G01 X17.4611 Y0.1785
G01 X17.4776 Y0.1324
G01 X17.4895 Y0.0849
G01 X17.4967 Y0.0364
G01 X17.4991 Y-0.0125
G01 X17.4991 Y-19.0125
G01 X17.4967 Y-19.0614
G01 X17.4895 Y-19.1099
G01 X17.4776 Y-19.1574
G01 X17.4611 Y-19.2035
G01 X17.4402 Y-19.2478
G01 X17.4150 Y-19.2898
G01 X17.3858 Y-19.3291
G01 X17.3529 Y-19.3654
G01 X17.3166 Y-19.3983
G01 X17.2773 Y-19.4275
G01 X17.2353 Y-19.4527
G01 X17.1910 Y-19.4736
G01 X17.1449 Y-19.4901
G01 X17.0974 Y-19.5020
G01 X17.0489 Y-19.5092
G01 X17.0000 Y-19.5116
G00 X17.0000 Y-19.5116
G01 F80.00
G01 Z-1.5100
G01 F50.00
G01 X17.0489 Y-19.5092
G01 X17.0974 Y-19.5020
G01 X17.1449 Y-19.4901
G01 X17.1910 Y-19.4736
G01 X17.2353 Y-19.4527
G01 X17.2773 Y-19.4275
G01 X17.3166 Y-19.3983
G01 X17.3529 Y-19.3654
G01 X17.3858 Y-19.3291
G01 X17.4150 Y-19.2898
G01 X17.4402 Y-19.2478
G01 X17.4611 Y-19.2035
G01 X17.4776 Y-19.1574
G01 X17.4895 Y-19.1099
G01 X17.4967 Y-19.0614
G01 X17.4991 Y-19.0125
G01 X17.4991 Y-0.0125
G01 X17.4967 Y0.0364
G01 X17.4895 Y0.0849
G01 X17.4776 Y0.1324
G01 X17.4611 Y0.1785
G01 X17.4402 Y0.2228
G01 X17.4150 Y0.2648
G01 X17.3858 Y0.3041
G01 X17.3529 Y0.3404
G01 X17.3166 Y0.3733
G01 X17.2773 Y0.4025
G01 X17.2353 Y0.4277
G01 X17.1910 Y0.4486
G01 X17.1449 Y0.4651
G01 X17.0974 Y0.4770
G01 X17.0489 Y0.4842
G01 X17.0000 Y0.4866
G01 X9.0991 Y0.4866
G00 Z3.0000
G00 X9.0991 Y-19.5116
G01 F80.00
G01 Z-0.1000
G01 F50.00
G01 X17.0000 Y-19.5116
G00 X17.0000 Y-19.5116
G01 F80.00
G01 Z-0.2000
G01 F50.00
G01 X9.0991 Y-19.5116
G00 X9.0991 Y-19.5116
G01 F80.00
G01 Z-0.3000
G01 F50.00
G01 X17.0000 Y-19.5116
G00 X17.0000 Y-19.5116
G01 F80.00
G01 Z-0.4000
G01 F50.00
G01 X9.0991 Y-19.5116
G00 X9.0991 Y-19.5116
G01 F80.00
G01 Z-0.5000
G01 F50.00
G01 X17.0000 Y-19.5116
G00 X17.0000 Y-19.5116
G01 F80.00
G01 Z-0.6000
G01 F50.00
G01 X9.0991 Y-19.5116
G00 X9.0991 Y-19.5116
G01 F80.00
G01 Z-0.7000
G01 F50.00
G01 X17.0000 Y-19.5116
G00 X17.0000 Y-19.5116
G01 F80.00
G01 Z-0.8000
G01 F50.00
G01 X9.0991 Y-19.5116
G00 X9.0991 Y-19.5116
G01 F80.00
G01 Z-0.9000
G01 F50.00
G01 X17.0000 Y-19.5116
G00 X17.0000 Y-19.5116
G01 F80.00
G01 Z-1.0000
G01 F50.00
G01 X9.0991 Y-19.5116
G00 X9.0991 Y-19.5116
G01 F80.00
G01 Z-1.1000
G01 F50.00
G01 X17.0000 Y-19.5116
G00 X17.0000 Y-19.5116
G01 F80.00
G01 Z-1.2000
G01 F50.00
G01 X9.0991 Y-19.5116
G00 X9.0991 Y-19.5116
G01 F80.00
G01 Z-1.3000
G01 F50.00
G01 X17.0000 Y-19.5116
G00 X17.0000 Y-19.5116
G01 F80.00
G01 Z-1.4000
G01 F50.00
G01 X9.0991 Y-19.5116
G00 X9.0991 Y-19.5116
G01 F80.00
G01 Z-1.5000
G01 F50.00
G01 X17.0000 Y-19.5116
G00 X17.0000 Y-19.5116
G01 F80.00
G01 Z-1.5100
G01 F50.00
G01 X9.0991 Y-19.5116
G00 Z3.0000
M05
G00 Z3.0000
G00 Z12.70
G00 X0.0 Y0.0

M02