(G-CODE GENERATED BY FLATCAM v8.993 - www.flatcam.org - Version Date: 2020/06/05)

(Name: si5351_Ф1_верх.gbr_cutout_cnc)
(Type: G-code from Geometry)
(Units: MM)

(Created on Monday, 09 November 2020 at 22:15)

(This preprocessor is the default preprocessor used by FlatCAM.)
(It is made to work with MACH3 compatible motion controllers.)

(TOOL DIAMETER: 2.0 mm)
(Feedrate_XY: 120.0 mm/min)
(Feedrate_Z: 70.0 mm/min)
(Feedrate rapids 1500.0 mm/min)

(Z_Cut: -1.7 mm)
(DepthPerCut: 0.1 mm <=>17 passes)
(Z_Move: 2.0 mm)
(Z Start: None mm)
(Z End: 25.0 mm)
(Steps per circle: 128)
(Preprocessor Geometry: default)

(X range:   -1.1000 ...   19.1000  mm)
(Y range:  -20.6125 ...    1.0875  mm)

(Spindle Speed: 10000 RPM)
G21
G90
G94



G01 F120.00
G00 Z2.0000

M03 S10000
G00 X18.0000 Y-20.6125
G01 F70.00
G01 Z-0.1000
G01 F120.00
G01 X0.0000 Y-20.6125
G01 X-0.1078 Y-20.6072
G01 X-0.2146 Y-20.5914
G01 X-0.3193 Y-20.5651
G01 X-0.4210 Y-20.5288
G01 X-0.5185 Y-20.4826
G01 X-0.6111 Y-20.4271
G01 X-0.6978 Y-20.3628
G01 X-0.7778 Y-20.2903
G01 X-0.8503 Y-20.2103
G01 X-0.9146 Y-20.1236
G01 X-0.9701 Y-20.0310
G01 X-1.0163 Y-19.9335
G01 X-1.0526 Y-19.8318
G01 X-1.0789 Y-19.7271
G01 X-1.0947 Y-19.6203
G01 X-1.1000 Y-19.5125
G01 X-1.1000 Y-0.0125
G01 X-1.0947 Y0.0953
G01 X-1.0789 Y0.2021
G01 X-1.0526 Y0.3068
G01 X-1.0163 Y0.4085
G01 X-0.9701 Y0.5060
G01 X-0.9146 Y0.5986
G01 X-0.8503 Y0.6853
G01 X-0.7778 Y0.7653
G01 X-0.6978 Y0.8378
G01 X-0.6111 Y0.9021
G01 X-0.5185 Y0.9576
G01 X-0.4210 Y1.0038
G01 X-0.3193 Y1.0401
G01 X-0.2146 Y1.0664
G01 X-0.1078 Y1.0822
G01 X0.0000 Y1.0875
G01 X18.0000 Y1.0875
G01 X18.1078 Y1.0822
G01 X18.2146 Y1.0664
G01 X18.3193 Y1.0401
G01 X18.4210 Y1.0038
G01 X18.5185 Y0.9576
G01 X18.6111 Y0.9021
G01 X18.6978 Y0.8378
G01 X18.7778 Y0.7653
G01 X18.8503 Y0.6853
G01 X18.9146 Y0.5986
G01 X18.9701 Y0.5060
G01 X19.0163 Y0.4085
G01 X19.0526 Y0.3068
G01 X19.0789 Y0.2021
G01 X19.0947 Y0.0953
G01 X19.1000 Y-0.0125
G01 X19.1000 Y-19.5125
G01 X19.0947 Y-19.6203
G01 X19.0789 Y-19.7271
G01 X19.0526 Y-19.8318
G01 X19.0163 Y-19.9335
G01 X18.9701 Y-20.0310
G01 X18.9146 Y-20.1236
G01 X18.8503 Y-20.2103
G01 X18.7778 Y-20.2903
G01 X18.6978 Y-20.3628
G01 X18.6111 Y-20.4271
G01 X18.5185 Y-20.4826
G01 X18.4210 Y-20.5288
G01 X18.3193 Y-20.5651
G01 X18.2146 Y-20.5914
G01 X18.1078 Y-20.6072
G01 X18.0000 Y-20.6125
G00 X18.0000 Y-20.6125
G01 F70.00
G01 Z-0.2000
G01 F120.00
G01 X18.1078 Y-20.6072
G01 X18.2146 Y-20.5914
G01 X18.3193 Y-20.5651
G01 X18.4210 Y-20.5288
G01 X18.5185 Y-20.4826
G01 X18.6111 Y-20.4271
G01 X18.6978 Y-20.3628
G01 X18.7778 Y-20.2903
G01 X18.8503 Y-20.2103
G01 X18.9146 Y-20.1236
G01 X18.9701 Y-20.0310
G01 X19.0163 Y-19.9335
G01 X19.0526 Y-19.8318
G01 X19.0789 Y-19.7271
G01 X19.0947 Y-19.6203
G01 X19.1000 Y-19.5125
G01 X19.1000 Y-0.0125
G01 X19.0947 Y0.0953
G01 X19.0789 Y0.2021
G01 X19.0526 Y0.3068
G01 X19.0163 Y0.4085
G01 X18.9701 Y0.5060
G01 X18.9146 Y0.5986
G01 X18.8503 Y0.6853
G01 X18.7778 Y0.7653
G01 X18.6978 Y0.8378
G01 X18.6111 Y0.9021
G01 X18.5185 Y0.9576
G01 X18.4210 Y1.0038
G01 X18.3193 Y1.0401
G01 X18.2146 Y1.0664
G01 X18.1078 Y1.0822
G01 X18.0000 Y1.0875
G01 X0.0000 Y1.0875
G01 X-0.1078 Y1.0822
G01 X-0.2146 Y1.0664
G01 X-0.3193 Y1.0401
G01 X-0.4210 Y1.0038
G01 X-0.5185 Y0.9576
G01 X-0.6111 Y0.9021
G01 X-0.6978 Y0.8378
G01 X-0.7778 Y0.7653
G01 X-0.8503 Y0.6853
G01 X-0.9146 Y0.5986
G01 X-0.9701 Y0.5060
G01 X-1.0163 Y0.4085
G01 X-1.0526 Y0.3068
G01 X-1.0789 Y0.2021
G01 X-1.0947 Y0.0953
G01 X-1.1000 Y-0.0125
G01 X-1.1000 Y-19.5125
G01 X-1.0947 Y-19.6203
G01 X-1.0789 Y-19.7271
G01 X-1.0526 Y-19.8318
G01 X-1.0163 Y-19.9335
G01 X-0.9701 Y-20.0310
G01 X-0.9146 Y-20.1236
G01 X-0.8503 Y-20.2103
G01 X-0.7778 Y-20.2903
G01 X-0.6978 Y-20.3628
G01 X-0.6111 Y-20.4271
G01 X-0.5185 Y-20.4826
G01 X-0.4210 Y-20.5288
G01 X-0.3193 Y-20.5651
G01 X-0.2146 Y-20.5914
G01 X-0.1078 Y-20.6072
G01 X0.0000 Y-20.6125
G01 X18.0000 Y-20.6125
G00 X18.0000 Y-20.6125
G01 F70.00
G01 Z-0.3000
G01 F120.00
G01 X0.0000 Y-20.6125
G01 X-0.1078 Y-20.6072
G01 X-0.2146 Y-20.5914
G01 X-0.3193 Y-20.5651
G01 X-0.4210 Y-20.5288
G01 X-0.5185 Y-20.4826
G01 X-0.6111 Y-20.4271
G01 X-0.6978 Y-20.3628
G01 X-0.7778 Y-20.2903
G01 X-0.8503 Y-20.2103
G01 X-0.9146 Y-20.1236
G01 X-0.9701 Y-20.0310
G01 X-1.0163 Y-19.9335
G01 X-1.0526 Y-19.8318
G01 X-1.0789 Y-19.7271
G01 X-1.0947 Y-19.6203
G01 X-1.1000 Y-19.5125
G01 X-1.1000 Y-0.0125
G01 X-1.0947 Y0.0953
G01 X-1.0789 Y0.2021
G01 X-1.0526 Y0.3068
G01 X-1.0163 Y0.4085
G01 X-0.9701 Y0.5060
G01 X-0.9146 Y0.5986
G01 X-0.8503 Y0.6853
G01 X-0.7778 Y0.7653
G01 X-0.6978 Y0.8378
G01 X-0.6111 Y0.9021
G01 X-0.5185 Y0.9576
G01 X-0.4210 Y1.0038
G01 X-0.3193 Y1.0401
G01 X-0.2146 Y1.0664
G01 X-0.1078 Y1.0822
G01 X0.0000 Y1.0875
G01 X18.0000 Y1.0875
G01 X18.1078 Y1.0822
G01 X18.2146 Y1.0664
G01 X18.3193 Y1.0401
G01 X18.4210 Y1.0038
G01 X18.5185 Y0.9576
G01 X18.6111 Y0.9021
G01 X18.6978 Y0.8378
G01 X18.7778 Y0.7653
G01 X18.8503 Y0.6853
G01 X18.9146 Y0.5986
G01 X18.9701 Y0.5060
G01 X19.0163 Y0.4085
G01 X19.0526 Y0.3068
G01 X19.0789 Y0.2021
G01 X19.0947 Y0.0953
G01 X19.1000 Y-0.0125
G01 X19.1000 Y-19.5125
G01 X19.0947 Y-19.6203
G01 X19.0789 Y-19.7271
G01 X19.0526 Y-19.8318
G01 X19.0163 Y-19.9335
G01 X18.9701 Y-20.0310
G01 X18.9146 Y-20.1236
G01 X18.8503 Y-20.2103
G01 X18.7778 Y-20.2903
G01 X18.6978 Y-20.3628
G01 X18.6111 Y-20.4271
G01 X18.5185 Y-20.4826
G01 X18.4210 Y-20.5288
G01 X18.3193 Y-20.5651
G01 X18.2146 Y-20.5914
G01 X18.1078 Y-20.6072
G01 X18.0000 Y-20.6125
G00 X18.0000 Y-20.6125
G01 F70.00
G01 Z-0.4000
G01 F120.00
G01 X18.1078 Y-20.6072
G01 X18.2146 Y-20.5914
G01 X18.3193 Y-20.5651
G01 X18.4210 Y-20.5288
G01 X18.5185 Y-20.4826
G01 X18.6111 Y-20.4271
G01 X18.6978 Y-20.3628
G01 X18.7778 Y-20.2903
G01 X18.8503 Y-20.2103
G01 X18.9146 Y-20.1236
G01 X18.9701 Y-20.0310
G01 X19.0163 Y-19.9335
G01 X19.0526 Y-19.8318
G01 X19.0789 Y-19.7271
G01 X19.0947 Y-19.6203
G01 X19.1000 Y-19.5125
G01 X19.1000 Y-0.0125
G01 X19.0947 Y0.0953
G01 X19.0789 Y0.2021
G01 X19.0526 Y0.3068
G01 X19.0163 Y0.4085
G01 X18.9701 Y0.5060
G01 X18.9146 Y0.5986
G01 X18.8503 Y0.6853
G01 X18.7778 Y0.7653
G01 X18.6978 Y0.8378
G01 X18.6111 Y0.9021
G01 X18.5185 Y0.9576
G01 X18.4210 Y1.0038
G01 X18.3193 Y1.0401
G01 X18.2146 Y1.0664
G01 X18.1078 Y1.0822
G01 X18.0000 Y1.0875
G01 X0.0000 Y1.0875
G01 X-0.1078 Y1.0822
G01 X-0.2146 Y1.0664
G01 X-0.3193 Y1.0401
G01 X-0.4210 Y1.0038
G01 X-0.5185 Y0.9576
G01 X-0.6111 Y0.9021
G01 X-0.6978 Y0.8378
G01 X-0.7778 Y0.7653
G01 X-0.8503 Y0.6853
G01 X-0.9146 Y0.5986
G01 X-0.9701 Y0.5060
G01 X-1.0163 Y0.4085
G01 X-1.0526 Y0.3068
G01 X-1.0789 Y0.2021
G01 X-1.0947 Y0.0953
G01 X-1.1000 Y-0.0125
G01 X-1.1000 Y-19.5125
G01 X-1.0947 Y-19.6203
G01 X-1.0789 Y-19.7271
G01 X-1.0526 Y-19.8318
G01 X-1.0163 Y-19.9335
G01 X-0.9701 Y-20.0310
G01 X-0.9146 Y-20.1236
G01 X-0.8503 Y-20.2103
G01 X-0.7778 Y-20.2903
G01 X-0.6978 Y-20.3628
G01 X-0.6111 Y-20.4271
G01 X-0.5185 Y-20.4826
G01 X-0.4210 Y-20.5288
G01 X-0.3193 Y-20.5651
G01 X-0.2146 Y-20.5914
G01 X-0.1078 Y-20.6072
G01 X0.0000 Y-20.6125
G01 X18.0000 Y-20.6125
G00 X18.0000 Y-20.6125
G01 F70.00
G01 Z-0.5000
G01 F120.00
G01 X0.0000 Y-20.6125
G01 X-0.1078 Y-20.6072
G01 X-0.2146 Y-20.5914
G01 X-0.3193 Y-20.5651
G01 X-0.4210 Y-20.5288
G01 X-0.5185 Y-20.4826
G01 X-0.6111 Y-20.4271
G01 X-0.6978 Y-20.3628
G01 X-0.7778 Y-20.2903
G01 X-0.8503 Y-20.2103
G01 X-0.9146 Y-20.1236
G01 X-0.9701 Y-20.0310
G01 X-1.0163 Y-19.9335
G01 X-1.0526 Y-19.8318
G01 X-1.0789 Y-19.7271
G01 X-1.0947 Y-19.6203
G01 X-1.1000 Y-19.5125
G01 X-1.1000 Y-0.0125
G01 X-1.0947 Y0.0953
G01 X-1.0789 Y0.2021
G01 X-1.0526 Y0.3068
G01 X-1.0163 Y0.4085
G01 X-0.9701 Y0.5060
G01 X-0.9146 Y0.5986
G01 X-0.8503 Y0.6853
G01 X-0.7778 Y0.7653
G01 X-0.6978 Y0.8378
G01 X-0.6111 Y0.9021
G01 X-0.5185 Y0.9576
G01 X-0.4210 Y1.0038
G01 X-0.3193 Y1.0401
G01 X-0.2146 Y1.0664
G01 X-0.1078 Y1.0822
G01 X0.0000 Y1.0875
G01 X18.0000 Y1.0875
G01 X18.1078 Y1.0822
G01 X18.2146 Y1.0664
G01 X18.3193 Y1.0401
G01 X18.4210 Y1.0038
G01 X18.5185 Y0.9576
G01 X18.6111 Y0.9021
G01 X18.6978 Y0.8378
G01 X18.7778 Y0.7653
G01 X18.8503 Y0.6853
G01 X18.9146 Y0.5986
G01 X18.9701 Y0.5060
G01 X19.0163 Y0.4085
G01 X19.0526 Y0.3068
G01 X19.0789 Y0.2021
G01 X19.0947 Y0.0953
G01 X19.1000 Y-0.0125
G01 X19.1000 Y-19.5125
G01 X19.0947 Y-19.6203
G01 X19.0789 Y-19.7271
G01 X19.0526 Y-19.8318
G01 X19.0163 Y-19.9335
G01 X18.9701 Y-20.0310
G01 X18.9146 Y-20.1236
G01 X18.8503 Y-20.2103
G01 X18.7778 Y-20.2903
G01 X18.6978 Y-20.3628
G01 X18.6111 Y-20.4271
G01 X18.5185 Y-20.4826
G01 X18.4210 Y-20.5288
G01 X18.3193 Y-20.5651
G01 X18.2146 Y-20.5914
G01 X18.1078 Y-20.6072
G01 X18.0000 Y-20.6125
G00 X18.0000 Y-20.6125
G01 F70.00
G01 Z-0.6000
G01 F120.00
G01 X18.1078 Y-20.6072
G01 X18.2146 Y-20.5914
G01 X18.3193 Y-20.5651
G01 X18.4210 Y-20.5288
G01 X18.5185 Y-20.4826
G01 X18.6111 Y-20.4271
G01 X18.6978 Y-20.3628
G01 X18.7778 Y-20.2903
G01 X18.8503 Y-20.2103
G01 X18.9146 Y-20.1236
G01 X18.9701 Y-20.0310
G01 X19.0163 Y-19.9335
G01 X19.0526 Y-19.8318
G01 X19.0789 Y-19.7271
G01 X19.0947 Y-19.6203
G01 X19.1000 Y-19.5125
G01 X19.1000 Y-0.0125
G01 X19.0947 Y0.0953
G01 X19.0789 Y0.2021
G01 X19.0526 Y0.3068
G01 X19.0163 Y0.4085
G01 X18.9701 Y0.5060
G01 X18.9146 Y0.5986
G01 X18.8503 Y0.6853
G01 X18.7778 Y0.7653
G01 X18.6978 Y0.8378
G01 X18.6111 Y0.9021
G01 X18.5185 Y0.9576
G01 X18.4210 Y1.0038
G01 X18.3193 Y1.0401
G01 X18.2146 Y1.0664
G01 X18.1078 Y1.0822
G01 X18.0000 Y1.0875
G01 X0.0000 Y1.0875
G01 X-0.1078 Y1.0822
G01 X-0.2146 Y1.0664
G01 X-0.3193 Y1.0401
G01 X-0.4210 Y1.0038
G01 X-0.5185 Y0.9576
G01 X-0.6111 Y0.9021
G01 X-0.6978 Y0.8378
G01 X-0.7778 Y0.7653
G01 X-0.8503 Y0.6853
G01 X-0.9146 Y0.5986
G01 X-0.9701 Y0.5060
G01 X-1.0163 Y0.4085
G01 X-1.0526 Y0.3068
G01 X-1.0789 Y0.2021
G01 X-1.0947 Y0.0953
G01 X-1.1000 Y-0.0125
G01 X-1.1000 Y-19.5125
G01 X-1.0947 Y-19.6203
G01 X-1.0789 Y-19.7271
G01 X-1.0526 Y-19.8318
G01 X-1.0163 Y-19.9335
G01 X-0.9701 Y-20.0310
G01 X-0.9146 Y-20.1236
G01 X-0.8503 Y-20.2103
G01 X-0.7778 Y-20.2903
G01 X-0.6978 Y-20.3628
G01 X-0.6111 Y-20.4271
G01 X-0.5185 Y-20.4826
G01 X-0.4210 Y-20.5288
G01 X-0.3193 Y-20.5651
G01 X-0.2146 Y-20.5914
G01 X-0.1078 Y-20.6072
G01 X0.0000 Y-20.6125
G01 X18.0000 Y-20.6125
G00 X18.0000 Y-20.6125
G01 F70.00
G01 Z-0.7000
G01 F120.00
G01 X0.0000 Y-20.6125
G01 X-0.1078 Y-20.6072
G01 X-0.2146 Y-20.5914
G01 X-0.3193 Y-20.5651
G01 X-0.4210 Y-20.5288
G01 X-0.5185 Y-20.4826
G01 X-0.6111 Y-20.4271
G01 X-0.6978 Y-20.3628
G01 X-0.7778 Y-20.2903
G01 X-0.8503 Y-20.2103
G01 X-0.9146 Y-20.1236
G01 X-0.9701 Y-20.0310
G01 X-1.0163 Y-19.9335
G01 X-1.0526 Y-19.8318
G01 X-1.0789 Y-19.7271
G01 X-1.0947 Y-19.6203
G01 X-1.1000 Y-19.5125
G01 X-1.1000 Y-0.0125
G01 X-1.0947 Y0.0953
G01 X-1.0789 Y0.2021
G01 X-1.0526 Y0.3068
G01 X-1.0163 Y0.4085
G01 X-0.9701 Y0.5060
G01 X-0.9146 Y0.5986
G01 X-0.8503 Y0.6853
G01 X-0.7778 Y0.7653
G01 X-0.6978 Y0.8378
G01 X-0.6111 Y0.9021
G01 X-0.5185 Y0.9576
G01 X-0.4210 Y1.0038
G01 X-0.3193 Y1.0401
G01 X-0.2146 Y1.0664
G01 X-0.1078 Y1.0822
G01 X0.0000 Y1.0875
G01 X18.0000 Y1.0875
G01 X18.1078 Y1.0822
G01 X18.2146 Y1.0664
G01 X18.3193 Y1.0401
G01 X18.4210 Y1.0038
G01 X18.5185 Y0.9576
G01 X18.6111 Y0.9021
G01 X18.6978 Y0.8378
G01 X18.7778 Y0.7653
G01 X18.8503 Y0.6853
G01 X18.9146 Y0.5986
G01 X18.9701 Y0.5060
G01 X19.0163 Y0.4085
G01 X19.0526 Y0.3068
G01 X19.0789 Y0.2021
G01 X19.0947 Y0.0953
G01 X19.1000 Y-0.0125
G01 X19.1000 Y-19.5125
G01 X19.0947 Y-19.6203
G01 X19.0789 Y-19.7271
G01 X19.0526 Y-19.8318
G01 X19.0163 Y-19.9335
G01 X18.9701 Y-20.0310
G01 X18.9146 Y-20.1236
G01 X18.8503 Y-20.2103
G01 X18.7778 Y-20.2903
G01 X18.6978 Y-20.3628
G01 X18.6111 Y-20.4271
G01 X18.5185 Y-20.4826
G01 X18.4210 Y-20.5288
G01 X18.3193 Y-20.5651
G01 X18.2146 Y-20.5914
G01 X18.1078 Y-20.6072
G01 X18.0000 Y-20.6125
G00 X18.0000 Y-20.6125
G01 F70.00
G01 Z-0.8000
G01 F120.00
G01 X18.1078 Y-20.6072
G01 X18.2146 Y-20.5914
G01 X18.3193 Y-20.5651
G01 X18.4210 Y-20.5288
G01 X18.5185 Y-20.4826
G01 X18.6111 Y-20.4271
G01 X18.6978 Y-20.3628
G01 X18.7778 Y-20.2903
G01 X18.8503 Y-20.2103
G01 X18.9146 Y-20.1236
G01 X18.9701 Y-20.0310
G01 X19.0163 Y-19.9335
G01 X19.0526 Y-19.8318
G01 X19.0789 Y-19.7271
G01 X19.0947 Y-19.6203
G01 X19.1000 Y-19.5125
G01 X19.1000 Y-0.0125
G01 X19.0947 Y0.0953
G01 X19.0789 Y0.2021
G01 X19.0526 Y0.3068
G01 X19.0163 Y0.4085
G01 X18.9701 Y0.5060
G01 X18.9146 Y0.5986
G01 X18.8503 Y0.6853
G01 X18.7778 Y0.7653
G01 X18.6978 Y0.8378
G01 X18.6111 Y0.9021
G01 X18.5185 Y0.9576
G01 X18.4210 Y1.0038
G01 X18.3193 Y1.0401
G01 X18.2146 Y1.0664
G01 X18.1078 Y1.0822
G01 X18.0000 Y1.0875
G01 X0.0000 Y1.0875
G01 X-0.1078 Y1.0822
G01 X-0.2146 Y1.0664
G01 X-0.3193 Y1.0401
G01 X-0.4210 Y1.0038
G01 X-0.5185 Y0.9576
G01 X-0.6111 Y0.9021
G01 X-0.6978 Y0.8378
G01 X-0.7778 Y0.7653
G01 X-0.8503 Y0.6853
G01 X-0.9146 Y0.5986
G01 X-0.9701 Y0.5060
G01 X-1.0163 Y0.4085
G01 X-1.0526 Y0.3068
G01 X-1.0789 Y0.2021
G01 X-1.0947 Y0.0953
G01 X-1.1000 Y-0.0125
G01 X-1.1000 Y-19.5125
G01 X-1.0947 Y-19.6203
G01 X-1.0789 Y-19.7271
G01 X-1.0526 Y-19.8318
G01 X-1.0163 Y-19.9335
G01 X-0.9701 Y-20.0310
G01 X-0.9146 Y-20.1236
G01 X-0.8503 Y-20.2103
G01 X-0.7778 Y-20.2903
G01 X-0.6978 Y-20.3628
G01 X-0.6111 Y-20.4271
G01 X-0.5185 Y-20.4826
G01 X-0.4210 Y-20.5288
G01 X-0.3193 Y-20.5651
G01 X-0.2146 Y-20.5914
G01 X-0.1078 Y-20.6072
G01 X0.0000 Y-20.6125
G01 X18.0000 Y-20.6125
G00 X18.0000 Y-20.6125
G01 F70.00
G01 Z-0.9000
G01 F120.00
G01 X0.0000 Y-20.6125
G01 X-0.1078 Y-20.6072
G01 X-0.2146 Y-20.5914
G01 X-0.3193 Y-20.5651
G01 X-0.4210 Y-20.5288
G01 X-0.5185 Y-20.4826
G01 X-0.6111 Y-20.4271
G01 X-0.6978 Y-20.3628
G01 X-0.7778 Y-20.2903
G01 X-0.8503 Y-20.2103
G01 X-0.9146 Y-20.1236
G01 X-0.9701 Y-20.0310
G01 X-1.0163 Y-19.9335
G01 X-1.0526 Y-19.8318
G01 X-1.0789 Y-19.7271
G01 X-1.0947 Y-19.6203
G01 X-1.1000 Y-19.5125
G01 X-1.1000 Y-0.0125
G01 X-1.0947 Y0.0953
G01 X-1.0789 Y0.2021
G01 X-1.0526 Y0.3068
G01 X-1.0163 Y0.4085
G01 X-0.9701 Y0.5060
G01 X-0.9146 Y0.5986
G01 X-0.8503 Y0.6853
G01 X-0.7778 Y0.7653
G01 X-0.6978 Y0.8378
G01 X-0.6111 Y0.9021
G01 X-0.5185 Y0.9576
G01 X-0.4210 Y1.0038
G01 X-0.3193 Y1.0401
G01 X-0.2146 Y1.0664
G01 X-0.1078 Y1.0822
G01 X0.0000 Y1.0875
G01 X18.0000 Y1.0875
G01 X18.1078 Y1.0822
G01 X18.2146 Y1.0664
G01 X18.3193 Y1.0401
G01 X18.4210 Y1.0038
G01 X18.5185 Y0.9576
G01 X18.6111 Y0.9021
G01 X18.6978 Y0.8378
G01 X18.7778 Y0.7653
G01 X18.8503 Y0.6853
G01 X18.9146 Y0.5986
G01 X18.9701 Y0.5060
G01 X19.0163 Y0.4085
G01 X19.0526 Y0.3068
G01 X19.0789 Y0.2021
G01 X19.0947 Y0.0953
G01 X19.1000 Y-0.0125
G01 X19.1000 Y-19.5125
G01 X19.0947 Y-19.6203
G01 X19.0789 Y-19.7271
G01 X19.0526 Y-19.8318
G01 X19.0163 Y-19.9335
G01 X18.9701 Y-20.0310
G01 X18.9146 Y-20.1236
G01 X18.8503 Y-20.2103
G01 X18.7778 Y-20.2903
G01 X18.6978 Y-20.3628
G01 X18.6111 Y-20.4271
G01 X18.5185 Y-20.4826
G01 X18.4210 Y-20.5288
G01 X18.3193 Y-20.5651
G01 X18.2146 Y-20.5914
G01 X18.1078 Y-20.6072
G01 X18.0000 Y-20.6125
G00 X18.0000 Y-20.6125
G01 F70.00
G01 Z-1.0000
G01 F120.00
G01 X18.1078 Y-20.6072
G01 X18.2146 Y-20.5914
G01 X18.3193 Y-20.5651
G01 X18.4210 Y-20.5288
G01 X18.5185 Y-20.4826
G01 X18.6111 Y-20.4271
G01 X18.6978 Y-20.3628
G01 X18.7778 Y-20.2903
G01 X18.8503 Y-20.2103
G01 X18.9146 Y-20.1236
G01 X18.9701 Y-20.0310
G01 X19.0163 Y-19.9335
G01 X19.0526 Y-19.8318
G01 X19.0789 Y-19.7271
G01 X19.0947 Y-19.6203
G01 X19.1000 Y-19.5125
G01 X19.1000 Y-0.0125
G01 X19.0947 Y0.0953
G01 X19.0789 Y0.2021
G01 X19.0526 Y0.3068
G01 X19.0163 Y0.4085
G01 X18.9701 Y0.5060
G01 X18.9146 Y0.5986
G01 X18.8503 Y0.6853
G01 X18.7778 Y0.7653
G01 X18.6978 Y0.8378
G01 X18.6111 Y0.9021
G01 X18.5185 Y0.9576
G01 X18.4210 Y1.0038
G01 X18.3193 Y1.0401
G01 X18.2146 Y1.0664
G01 X18.1078 Y1.0822
G01 X18.0000 Y1.0875
G01 X0.0000 Y1.0875
G01 X-0.1078 Y1.0822
G01 X-0.2146 Y1.0664
G01 X-0.3193 Y1.0401
G01 X-0.4210 Y1.0038
G01 X-0.5185 Y0.9576
G01 X-0.6111 Y0.9021
G01 X-0.6978 Y0.8378
G01 X-0.7778 Y0.7653
G01 X-0.8503 Y0.6853
G01 X-0.9146 Y0.5986
G01 X-0.9701 Y0.5060
G01 X-1.0163 Y0.4085
G01 X-1.0526 Y0.3068
G01 X-1.0789 Y0.2021
G01 X-1.0947 Y0.0953
G01 X-1.1000 Y-0.0125
G01 X-1.1000 Y-19.5125
G01 X-1.0947 Y-19.6203
G01 X-1.0789 Y-19.7271
G01 X-1.0526 Y-19.8318
G01 X-1.0163 Y-19.9335
G01 X-0.9701 Y-20.0310
G01 X-0.9146 Y-20.1236
G01 X-0.8503 Y-20.2103
G01 X-0.7778 Y-20.2903
G01 X-0.6978 Y-20.3628
G01 X-0.6111 Y-20.4271
G01 X-0.5185 Y-20.4826
G01 X-0.4210 Y-20.5288
G01 X-0.3193 Y-20.5651
G01 X-0.2146 Y-20.5914
G01 X-0.1078 Y-20.6072
G01 X0.0000 Y-20.6125
G01 X18.0000 Y-20.6125
G00 X18.0000 Y-20.6125
G01 F70.00
G01 Z-1.1000
G01 F120.00
G01 X0.0000 Y-20.6125
G01 X-0.1078 Y-20.6072
G01 X-0.2146 Y-20.5914
G01 X-0.3193 Y-20.5651
G01 X-0.4210 Y-20.5288
G01 X-0.5185 Y-20.4826
G01 X-0.6111 Y-20.4271
G01 X-0.6978 Y-20.3628
G01 X-0.7778 Y-20.2903
G01 X-0.8503 Y-20.2103
G01 X-0.9146 Y-20.1236
G01 X-0.9701 Y-20.0310
G01 X-1.0163 Y-19.9335
G01 X-1.0526 Y-19.8318
G01 X-1.0789 Y-19.7271
G01 X-1.0947 Y-19.6203
G01 X-1.1000 Y-19.5125
G01 X-1.1000 Y-0.0125
G01 X-1.0947 Y0.0953
G01 X-1.0789 Y0.2021
G01 X-1.0526 Y0.3068
G01 X-1.0163 Y0.4085
G01 X-0.9701 Y0.5060
G01 X-0.9146 Y0.5986
G01 X-0.8503 Y0.6853
G01 X-0.7778 Y0.7653
G01 X-0.6978 Y0.8378
G01 X-0.6111 Y0.9021
G01 X-0.5185 Y0.9576
G01 X-0.4210 Y1.0038
G01 X-0.3193 Y1.0401
G01 X-0.2146 Y1.0664
G01 X-0.1078 Y1.0822
G01 X0.0000 Y1.0875
G01 X18.0000 Y1.0875
G01 X18.1078 Y1.0822
G01 X18.2146 Y1.0664
G01 X18.3193 Y1.0401
G01 X18.4210 Y1.0038
G01 X18.5185 Y0.9576
G01 X18.6111 Y0.9021
G01 X18.6978 Y0.8378
G01 X18.7778 Y0.7653
G01 X18.8503 Y0.6853
G01 X18.9146 Y0.5986
G01 X18.9701 Y0.5060
G01 X19.0163 Y0.4085
G01 X19.0526 Y0.3068
G01 X19.0789 Y0.2021
G01 X19.0947 Y0.0953
G01 X19.1000 Y-0.0125
G01 X19.1000 Y-19.5125
G01 X19.0947 Y-19.6203
G01 X19.0789 Y-19.7271
G01 X19.0526 Y-19.8318
G01 X19.0163 Y-19.9335
G01 X18.9701 Y-20.0310
G01 X18.9146 Y-20.1236
G01 X18.8503 Y-20.2103
G01 X18.7778 Y-20.2903
G01 X18.6978 Y-20.3628
G01 X18.6111 Y-20.4271
G01 X18.5185 Y-20.4826
G01 X18.4210 Y-20.5288
G01 X18.3193 Y-20.5651
G01 X18.2146 Y-20.5914
G01 X18.1078 Y-20.6072
G01 X18.0000 Y-20.6125
G00 X18.0000 Y-20.6125
G01 F70.00
G01 Z-1.2000
G01 F120.00
G01 X18.1078 Y-20.6072
G01 X18.2146 Y-20.5914
G01 X18.3193 Y-20.5651
G01 X18.4210 Y-20.5288
G01 X18.5185 Y-20.4826
G01 X18.6111 Y-20.4271
G01 X18.6978 Y-20.3628
G01 X18.7778 Y-20.2903
G01 X18.8503 Y-20.2103
G01 X18.9146 Y-20.1236
G01 X18.9701 Y-20.0310
G01 X19.0163 Y-19.9335
G01 X19.0526 Y-19.8318
G01 X19.0789 Y-19.7271
G01 X19.0947 Y-19.6203
G01 X19.1000 Y-19.5125
G01 X19.1000 Y-0.0125
G01 X19.0947 Y0.0953
G01 X19.0789 Y0.2021
G01 X19.0526 Y0.3068
G01 X19.0163 Y0.4085
G01 X18.9701 Y0.5060
G01 X18.9146 Y0.5986
G01 X18.8503 Y0.6853
G01 X18.7778 Y0.7653
G01 X18.6978 Y0.8378
G01 X18.6111 Y0.9021
G01 X18.5185 Y0.9576
G01 X18.4210 Y1.0038
G01 X18.3193 Y1.0401
G01 X18.2146 Y1.0664
G01 X18.1078 Y1.0822
G01 X18.0000 Y1.0875
G01 X0.0000 Y1.0875
G01 X-0.1078 Y1.0822
G01 X-0.2146 Y1.0664
G01 X-0.3193 Y1.0401
G01 X-0.4210 Y1.0038
G01 X-0.5185 Y0.9576
G01 X-0.6111 Y0.9021
G01 X-0.6978 Y0.8378
G01 X-0.7778 Y0.7653
G01 X-0.8503 Y0.6853
G01 X-0.9146 Y0.5986
G01 X-0.9701 Y0.5060
G01 X-1.0163 Y0.4085
G01 X-1.0526 Y0.3068
G01 X-1.0789 Y0.2021
G01 X-1.0947 Y0.0953
G01 X-1.1000 Y-0.0125
G01 X-1.1000 Y-19.5125
G01 X-1.0947 Y-19.6203
G01 X-1.0789 Y-19.7271
G01 X-1.0526 Y-19.8318
G01 X-1.0163 Y-19.9335
G01 X-0.9701 Y-20.0310
G01 X-0.9146 Y-20.1236
G01 X-0.8503 Y-20.2103
G01 X-0.7778 Y-20.2903
G01 X-0.6978 Y-20.3628
G01 X-0.6111 Y-20.4271
G01 X-0.5185 Y-20.4826
G01 X-0.4210 Y-20.5288
G01 X-0.3193 Y-20.5651
G01 X-0.2146 Y-20.5914
G01 X-0.1078 Y-20.6072
G01 X0.0000 Y-20.6125
G01 X18.0000 Y-20.6125
G00 X18.0000 Y-20.6125
G01 F70.00
G01 Z-1.3000
G01 F120.00
G01 X0.0000 Y-20.6125
G01 X-0.1078 Y-20.6072
G01 X-0.2146 Y-20.5914
G01 X-0.3193 Y-20.5651
G01 X-0.4210 Y-20.5288
G01 X-0.5185 Y-20.4826
G01 X-0.6111 Y-20.4271
G01 X-0.6978 Y-20.3628
G01 X-0.7778 Y-20.2903
G01 X-0.8503 Y-20.2103
G01 X-0.9146 Y-20.1236
G01 X-0.9701 Y-20.0310
G01 X-1.0163 Y-19.9335
G01 X-1.0526 Y-19.8318
G01 X-1.0789 Y-19.7271
G01 X-1.0947 Y-19.6203
G01 X-1.1000 Y-19.5125
G01 X-1.1000 Y-0.0125
G01 X-1.0947 Y0.0953
G01 X-1.0789 Y0.2021
G01 X-1.0526 Y0.3068
G01 X-1.0163 Y0.4085
G01 X-0.9701 Y0.5060
G01 X-0.9146 Y0.5986
G01 X-0.8503 Y0.6853
G01 X-0.7778 Y0.7653
G01 X-0.6978 Y0.8378
G01 X-0.6111 Y0.9021
G01 X-0.5185 Y0.9576
G01 X-0.4210 Y1.0038
G01 X-0.3193 Y1.0401
G01 X-0.2146 Y1.0664
G01 X-0.1078 Y1.0822
G01 X0.0000 Y1.0875
G01 X18.0000 Y1.0875
G01 X18.1078 Y1.0822
G01 X18.2146 Y1.0664
G01 X18.3193 Y1.0401
G01 X18.4210 Y1.0038
G01 X18.5185 Y0.9576
G01 X18.6111 Y0.9021
G01 X18.6978 Y0.8378
G01 X18.7778 Y0.7653
G01 X18.8503 Y0.6853
G01 X18.9146 Y0.5986
G01 X18.9701 Y0.5060
G01 X19.0163 Y0.4085
G01 X19.0526 Y0.3068
G01 X19.0789 Y0.2021
G01 X19.0947 Y0.0953
G01 X19.1000 Y-0.0125
G01 X19.1000 Y-19.5125
G01 X19.0947 Y-19.6203
G01 X19.0789 Y-19.7271
G01 X19.0526 Y-19.8318
G01 X19.0163 Y-19.9335
G01 X18.9701 Y-20.0310
G01 X18.9146 Y-20.1236
G01 X18.8503 Y-20.2103
G01 X18.7778 Y-20.2903
G01 X18.6978 Y-20.3628
G01 X18.6111 Y-20.4271
G01 X18.5185 Y-20.4826
G01 X18.4210 Y-20.5288
G01 X18.3193 Y-20.5651
G01 X18.2146 Y-20.5914
G01 X18.1078 Y-20.6072
G01 X18.0000 Y-20.6125
G00 X18.0000 Y-20.6125
G01 F70.00
G01 Z-1.4000
G01 F120.00
G01 X18.1078 Y-20.6072
G01 X18.2146 Y-20.5914
G01 X18.3193 Y-20.5651
G01 X18.4210 Y-20.5288
G01 X18.5185 Y-20.4826
G01 X18.6111 Y-20.4271
G01 X18.6978 Y-20.3628
G01 X18.7778 Y-20.2903
G01 X18.8503 Y-20.2103
G01 X18.9146 Y-20.1236
G01 X18.9701 Y-20.0310
G01 X19.0163 Y-19.9335
G01 X19.0526 Y-19.8318
G01 X19.0789 Y-19.7271
G01 X19.0947 Y-19.6203
G01 X19.1000 Y-19.5125
G01 X19.1000 Y-0.0125
G01 X19.0947 Y0.0953
G01 X19.0789 Y0.2021
G01 X19.0526 Y0.3068
G01 X19.0163 Y0.4085
G01 X18.9701 Y0.5060
G01 X18.9146 Y0.5986
G01 X18.8503 Y0.6853
G01 X18.7778 Y0.7653
G01 X18.6978 Y0.8378
G01 X18.6111 Y0.9021
G01 X18.5185 Y0.9576
G01 X18.4210 Y1.0038
G01 X18.3193 Y1.0401
G01 X18.2146 Y1.0664
G01 X18.1078 Y1.0822
G01 X18.0000 Y1.0875
G01 X0.0000 Y1.0875
G01 X-0.1078 Y1.0822
G01 X-0.2146 Y1.0664
G01 X-0.3193 Y1.0401
G01 X-0.4210 Y1.0038
G01 X-0.5185 Y0.9576
G01 X-0.6111 Y0.9021
G01 X-0.6978 Y0.8378
G01 X-0.7778 Y0.7653
G01 X-0.8503 Y0.6853
G01 X-0.9146 Y0.5986
G01 X-0.9701 Y0.5060
G01 X-1.0163 Y0.4085
G01 X-1.0526 Y0.3068
G01 X-1.0789 Y0.2021
G01 X-1.0947 Y0.0953
G01 X-1.1000 Y-0.0125
G01 X-1.1000 Y-19.5125
G01 X-1.0947 Y-19.6203
G01 X-1.0789 Y-19.7271
G01 X-1.0526 Y-19.8318
G01 X-1.0163 Y-19.9335
G01 X-0.9701 Y-20.0310
G01 X-0.9146 Y-20.1236
G01 X-0.8503 Y-20.2103
G01 X-0.7778 Y-20.2903
G01 X-0.6978 Y-20.3628
G01 X-0.6111 Y-20.4271
G01 X-0.5185 Y-20.4826
G01 X-0.4210 Y-20.5288
G01 X-0.3193 Y-20.5651
G01 X-0.2146 Y-20.5914
G01 X-0.1078 Y-20.6072
G01 X0.0000 Y-20.6125
G01 X18.0000 Y-20.6125
G00 X18.0000 Y-20.6125
G01 F70.00
G01 Z-1.5000
G01 F120.00
G01 X0.0000 Y-20.6125
G01 X-0.1078 Y-20.6072
G01 X-0.2146 Y-20.5914
G01 X-0.3193 Y-20.5651
G01 X-0.4210 Y-20.5288
G01 X-0.5185 Y-20.4826
G01 X-0.6111 Y-20.4271
G01 X-0.6978 Y-20.3628
G01 X-0.7778 Y-20.2903
G01 X-0.8503 Y-20.2103
G01 X-0.9146 Y-20.1236
G01 X-0.9701 Y-20.0310
G01 X-1.0163 Y-19.9335
G01 X-1.0526 Y-19.8318
G01 X-1.0789 Y-19.7271
G01 X-1.0947 Y-19.6203
G01 X-1.1000 Y-19.5125
G01 X-1.1000 Y-0.0125
G01 X-1.0947 Y0.0953
G01 X-1.0789 Y0.2021
G01 X-1.0526 Y0.3068
G01 X-1.0163 Y0.4085
G01 X-0.9701 Y0.5060
G01 X-0.9146 Y0.5986
G01 X-0.8503 Y0.6853
G01 X-0.7778 Y0.7653
G01 X-0.6978 Y0.8378
G01 X-0.6111 Y0.9021
G01 X-0.5185 Y0.9576
G01 X-0.4210 Y1.0038
G01 X-0.3193 Y1.0401
G01 X-0.2146 Y1.0664
G01 X-0.1078 Y1.0822
G01 X0.0000 Y1.0875
G01 X18.0000 Y1.0875
G01 X18.1078 Y1.0822
G01 X18.2146 Y1.0664
G01 X18.3193 Y1.0401
G01 X18.4210 Y1.0038
G01 X18.5185 Y0.9576
G01 X18.6111 Y0.9021
G01 X18.6978 Y0.8378
G01 X18.7778 Y0.7653
G01 X18.8503 Y0.6853
G01 X18.9146 Y0.5986
G01 X18.9701 Y0.5060
G01 X19.0163 Y0.4085
G01 X19.0526 Y0.3068
G01 X19.0789 Y0.2021
G01 X19.0947 Y0.0953
G01 X19.1000 Y-0.0125
G01 X19.1000 Y-19.5125
G01 X19.0947 Y-19.6203
G01 X19.0789 Y-19.7271
G01 X19.0526 Y-19.8318
G01 X19.0163 Y-19.9335
G01 X18.9701 Y-20.0310
G01 X18.9146 Y-20.1236
G01 X18.8503 Y-20.2103
G01 X18.7778 Y-20.2903
G01 X18.6978 Y-20.3628
G01 X18.6111 Y-20.4271
G01 X18.5185 Y-20.4826
G01 X18.4210 Y-20.5288
G01 X18.3193 Y-20.5651
G01 X18.2146 Y-20.5914
G01 X18.1078 Y-20.6072
G01 X18.0000 Y-20.6125
G00 X18.0000 Y-20.6125
G01 F70.00
G01 Z-1.6000
G01 F120.00
G01 X18.1078 Y-20.6072
G01 X18.2146 Y-20.5914
G01 X18.3193 Y-20.5651
G01 X18.4210 Y-20.5288
G01 X18.5185 Y-20.4826
G01 X18.6111 Y-20.4271
G01 X18.6978 Y-20.3628
G01 X18.7778 Y-20.2903
G01 X18.8503 Y-20.2103
G01 X18.9146 Y-20.1236
G01 X18.9701 Y-20.0310
G01 X19.0163 Y-19.9335
G01 X19.0526 Y-19.8318
G01 X19.0789 Y-19.7271
G01 X19.0947 Y-19.6203
G01 X19.1000 Y-19.5125
G01 X19.1000 Y-0.0125
G01 X19.0947 Y0.0953
G01 X19.0789 Y0.2021
G01 X19.0526 Y0.3068
G01 X19.0163 Y0.4085
G01 X18.9701 Y0.5060
G01 X18.9146 Y0.5986
G01 X18.8503 Y0.6853
G01 X18.7778 Y0.7653
G01 X18.6978 Y0.8378
G01 X18.6111 Y0.9021
G01 X18.5185 Y0.9576
G01 X18.4210 Y1.0038
G01 X18.3193 Y1.0401
G01 X18.2146 Y1.0664
G01 X18.1078 Y1.0822
G01 X18.0000 Y1.0875
G01 X0.0000 Y1.0875
G01 X-0.1078 Y1.0822
G01 X-0.2146 Y1.0664
G01 X-0.3193 Y1.0401
G01 X-0.4210 Y1.0038
G01 X-0.5185 Y0.9576
G01 X-0.6111 Y0.9021
G01 X-0.6978 Y0.8378
G01 X-0.7778 Y0.7653
G01 X-0.8503 Y0.6853
G01 X-0.9146 Y0.5986
G01 X-0.9701 Y0.5060
G01 X-1.0163 Y0.4085
G01 X-1.0526 Y0.3068
G01 X-1.0789 Y0.2021
G01 X-1.0947 Y0.0953
G01 X-1.1000 Y-0.0125
G01 X-1.1000 Y-19.5125
G01 X-1.0947 Y-19.6203
G01 X-1.0789 Y-19.7271
G01 X-1.0526 Y-19.8318
G01 X-1.0163 Y-19.9335
G01 X-0.9701 Y-20.0310
G01 X-0.9146 Y-20.1236
G01 X-0.8503 Y-20.2103
G01 X-0.7778 Y-20.2903
G01 X-0.6978 Y-20.3628
G01 X-0.6111 Y-20.4271
G01 X-0.5185 Y-20.4826
G01 X-0.4210 Y-20.5288
G01 X-0.3193 Y-20.5651
G01 X-0.2146 Y-20.5914
G01 X-0.1078 Y-20.6072
G01 X0.0000 Y-20.6125
G01 X18.0000 Y-20.6125
G00 X18.0000 Y-20.6125
G01 F70.00
G01 Z-1.7000
G01 F120.00
G01 X0.0000 Y-20.6125
G01 X-0.1078 Y-20.6072
G01 X-0.2146 Y-20.5914
G01 X-0.3193 Y-20.5651
G01 X-0.4210 Y-20.5288
G01 X-0.5185 Y-20.4826
G01 X-0.6111 Y-20.4271
G01 X-0.6978 Y-20.3628
G01 X-0.7778 Y-20.2903
G01 X-0.8503 Y-20.2103
G01 X-0.9146 Y-20.1236
G01 X-0.9701 Y-20.0310
G01 X-1.0163 Y-19.9335
G01 X-1.0526 Y-19.8318
G01 X-1.0789 Y-19.7271
G01 X-1.0947 Y-19.6203
G01 X-1.1000 Y-19.5125
G01 X-1.1000 Y-0.0125
G01 X-1.0947 Y0.0953
G01 X-1.0789 Y0.2021
G01 X-1.0526 Y0.3068
G01 X-1.0163 Y0.4085
G01 X-0.9701 Y0.5060
G01 X-0.9146 Y0.5986
G01 X-0.8503 Y0.6853
G01 X-0.7778 Y0.7653
G01 X-0.6978 Y0.8378
G01 X-0.6111 Y0.9021
G01 X-0.5185 Y0.9576
G01 X-0.4210 Y1.0038
G01 X-0.3193 Y1.0401
G01 X-0.2146 Y1.0664
G01 X-0.1078 Y1.0822
G01 X0.0000 Y1.0875
G01 X18.0000 Y1.0875
G01 X18.1078 Y1.0822
G01 X18.2146 Y1.0664
G01 X18.3193 Y1.0401
G01 X18.4210 Y1.0038
G01 X18.5185 Y0.9576
G01 X18.6111 Y0.9021
G01 X18.6978 Y0.8378
G01 X18.7778 Y0.7653
G01 X18.8503 Y0.6853
G01 X18.9146 Y0.5986
G01 X18.9701 Y0.5060
G01 X19.0163 Y0.4085
G01 X19.0526 Y0.3068
G01 X19.0789 Y0.2021
G01 X19.0947 Y0.0953
G01 X19.1000 Y-0.0125
G01 X19.1000 Y-19.5125
G01 X19.0947 Y-19.6203
G01 X19.0789 Y-19.7271
G01 X19.0526 Y-19.8318
G01 X19.0163 Y-19.9335
G01 X18.9701 Y-20.0310
G01 X18.9146 Y-20.1236
G01 X18.8503 Y-20.2103
G01 X18.7778 Y-20.2903
G01 X18.6978 Y-20.3628
G01 X18.6111 Y-20.4271
G01 X18.5185 Y-20.4826
G01 X18.4210 Y-20.5288
G01 X18.3193 Y-20.5651
G01 X18.2146 Y-20.5914
G01 X18.1078 Y-20.6072
G01 X18.0000 Y-20.6125
G00 Z2.0000
M05
G00 Z2.0000
G00 Z25.00

