(G-CODE GENERATED BY FLATCAM v8.95 - www.flatcam.org - Version Date: 2019/08/17)

(Name: si5351_Ф1_верх.gbr_cutout_1_cnc)
(Type: G-code from Geometry)
(Units: MM)

(Created on Wednesday, 29 July 2020 at 01:11)

(TOOL DIAMETER: 0.16 mm)
(Feedrate: 50.0 mm/min)
(Feedrate_Z: 79.9998 mm/min)
(Feedrate rapids 79.9998 mm/min)

(Z_Cut: -0.112 mm)
(Z_Move: 3.0 mm)
(Z Toolchange: 12.7 mm)
(X,Y Toolchange: 0.0000, 0.0000 mm)
(Z Start: None mm)
(Z End: 12.7 mm)
(Steps per circle: 128)
(Postprocessor Geometry: default)

(X range:   -0.1691 ...   17.1691  mm)
(Y range:  -19.1816 ...    0.1566  mm)

(Spindle Speed: None RPM)

G21
G90
G94

G01 F50.00
G00 Z3.0000

M03
G00 X8.4291 Y0.1566
G01 F80.00
G01 Z-0.1120
G01 F50.00
G01 X0.0000 Y0.1566
G01 X-0.0166 Y0.1558
G01 X-0.0330 Y0.1534
G01 X-0.0491 Y0.1493
G01 X-0.0647 Y0.1437
G01 X-0.0797 Y0.1366
G01 X-0.0939 Y0.1281
G01 X-0.1073 Y0.1182
G01 X-0.1196 Y0.1071
G01 X-0.1307 Y0.0948
G01 X-0.1406 Y0.0814
G01 X-0.1491 Y0.0672
G01 X-0.1562 Y0.0522
G01 X-0.1618 Y0.0366
G01 X-0.1659 Y0.0205
G01 X-0.1683 Y0.0041
G01 X-0.1691 Y-0.0125
G01 X-0.1691 Y-19.0125
G01 X-0.1683 Y-19.0291
G01 X-0.1659 Y-19.0455
G01 X-0.1618 Y-19.0616
G01 X-0.1562 Y-19.0772
G01 X-0.1491 Y-19.0922
G01 X-0.1406 Y-19.1064
G01 X-0.1307 Y-19.1198
G01 X-0.1196 Y-19.1321
G01 X-0.1073 Y-19.1432
G01 X-0.0939 Y-19.1531
G01 X-0.0797 Y-19.1616
G01 X-0.0647 Y-19.1687
G01 X-0.0491 Y-19.1743
G01 X-0.0330 Y-19.1784
G01 X-0.0166 Y-19.1808
G01 X0.0000 Y-19.1816
G01 X8.4291 Y-19.1816
G00 Z3.0000
G00 X8.7691 Y-19.1816
G01 F80.00
G01 Z-0.1120
G01 F50.00
G01 X17.0000 Y-19.1816
G00 Z3.0000
G00 X17.0000 Y-19.1816
G01 F80.00
G01 Z-0.1120
G01 F50.00
G01 X17.0166 Y-19.1808
G01 X17.0330 Y-19.1784
G01 X17.0491 Y-19.1743
G01 X17.0647 Y-19.1687
G01 X17.0797 Y-19.1616
G01 X17.0939 Y-19.1531
G01 X17.1073 Y-19.1432
G01 X17.1196 Y-19.1321
G01 X17.1307 Y-19.1198
G01 X17.1406 Y-19.1064
G01 X17.1491 Y-19.0922
G01 X17.1562 Y-19.0772
G01 X17.1618 Y-19.0616
G01 X17.1659 Y-19.0455
G01 X17.1683 Y-19.0291
G01 X17.1691 Y-19.0125
G01 X17.1691 Y-0.0125
G01 X17.1683 Y0.0041
G01 X17.1659 Y0.0205
G01 X17.1618 Y0.0366
G01 X17.1562 Y0.0522
G01 X17.1491 Y0.0672
G01 X17.1406 Y0.0814
G01 X17.1307 Y0.0948
G01 X17.1196 Y0.1071
G01 X17.1073 Y0.1182
G01 X17.0939 Y0.1281
G01 X17.0797 Y0.1366
G01 X17.0647 Y0.1437
G01 X17.0491 Y0.1493
G01 X17.0330 Y0.1534
G01 X17.0166 Y0.1558
G01 X17.0000 Y0.1566
G01 X8.7691 Y0.1566
G00 Z3.0000
M05
G00 Z3.0000
G00 Z12.70
G00 X0.0 Y0.0

M02