(G-CODE GENERATED BY FLATCAM v8.95 - www.flatcam.org - Version Date: 2019/08/17)

(Name: si5351_Ф1_верх.gbr_ncc_cnc)
(Type: G-code from Geometry)
(Units: MM)

(Created on Wednesday, 16 September 2020 at 00:10)

(TOOL DIAMETER: 0.14 mm)
(Feedrate: 50.0 mm/min)
(Feedrate_Z: 79.9998 mm/min)
(Feedrate rapids 79.9998 mm/min)

(Z_Cut: -0.0746 mm)
(Z_Move: 3.0 mm)
(Z Toolchange: 25.0 mm)
(X,Y Toolchange: 0.0000, 0.0000 mm)
(Z Start: None mm)
(Z End: 25.0 mm)
(Steps per circle: 128)
(Postprocessor Geometry: default)

(X range:    0.0000 ...    0.0000  mm)
(Y range:    0.0000 ...    0.0000  mm)

(Spindle Speed: None RPM)

G21
G90
G94

G01 F50.00
G00 Z3.0000

M03
G00 X2.0904 Y-1.9159
G01 F80.00
G01 Z-0.0746
G01 F50.00
G01 X2.0554 Y-1.9950
G01 X2.0278 Y-2.0665
G01 X2.0026 Y-2.1426
G01 X1.9802 Y-2.2243
G01 X1.9632 Y-2.2999
G01 X1.9495 Y-2.3788
G01 X1.9397 Y-2.4583
G01 X1.9340 Y-2.5355
G01 X1.9318 Y-2.6200
G01 X1.9338 Y-2.7000
G01 X1.9394 Y-2.7767
G01 X1.9501 Y-2.8634
G01 X1.9632 Y-2.9389
G01 X1.9810 Y-3.0182
G01 X2.0022 Y-3.0948
G01 X2.0265 Y-3.1687
G01 X2.0580 Y-3.2502
G01 X2.0891 Y-3.3203
G01 X2.1239 Y-3.3894
G01 X2.1669 Y-3.4655
G01 X2.2083 Y-3.5307
G01 X2.2543 Y-3.5961
G01 X2.3063 Y-3.6624
G01 X2.3566 Y-3.7207
G01 X2.4115 Y-3.7784
G01 X2.4705 Y-3.8346
G01 X2.5308 Y-3.8867
G01 X2.5951 Y-3.9369
G01 X2.6578 Y-3.9811
G01 X2.7316 Y-4.0278
G01 X2.7993 Y-4.0661
G01 X2.8737 Y-4.1034
G01 X2.9437 Y-4.1344
G01 X3.0198 Y-4.1637
G01 X3.0958 Y-4.1888
G01 X3.1730 Y-4.2102
G01 X3.2523 Y-4.2280
G01 X3.3303 Y-4.2415
G01 X3.4107 Y-4.2515
G01 X3.4890 Y-4.2573
G01 X3.5709 Y-4.2594
G01 X3.6488 Y-4.2576
G01 X3.7360 Y-4.2511
G01 X3.8133 Y-4.2415
G01 X3.8913 Y-4.2280
G01 X3.9706 Y-4.2102
G01 X4.0491 Y-4.1884
G01 X4.1240 Y-4.1637
G01 X4.2001 Y-4.1343
G01 X4.2727 Y-4.1021
G01 X4.3441 Y-4.0662
G01 X4.4146 Y-4.0263
G01 X4.4822 Y-3.9835
G01 X4.5481 Y-3.9372
G01 X4.5776 Y-3.9142
G01 X6.6242 Y-6.4330
G01 X6.6242 Y-7.7788
G01 X6.6249 Y-7.8027
G01 X6.6287 Y-7.8408
G01 X6.6334 Y-7.8680
G01 X6.6432 Y-7.9067
G01 X6.6568 Y-7.9448
G01 X6.6680 Y-7.9701
G01 X6.6867 Y-8.0047
G01 X6.7089 Y-8.0382
G01 X6.7264 Y-8.0607
G01 X6.7538 Y-8.0906
G01 X6.7695 Y-8.1055
G01 X6.7858 Y-8.1196
G01 X6.8029 Y-8.1328
G01 X6.8200 Y-8.1448
G01 X6.8379 Y-8.1562
G01 X6.8577 Y-8.1674
G01 X6.8760 Y-8.1766
G01 X6.8968 Y-8.1858
G01 X6.9169 Y-8.1935
G01 X6.9365 Y-8.2000
G01 X6.9566 Y-8.2055
G01 X6.9778 Y-8.2103
G01 X6.9998 Y-8.2142
G01 X7.0204 Y-8.2167
G01 X7.0437 Y-8.2185
G01 X7.0678 Y-8.2189
G01 X7.1042 Y-8.2171
G01 X7.1264 Y-8.2145
G01 X7.1494 Y-8.2107
G01 X7.1722 Y-8.2055
G01 X7.1948 Y-8.1992
G01 X7.2231 Y-8.1892
G01 X7.2548 Y-8.2002
G01 X7.2937 Y-8.2100
G01 X7.3207 Y-8.2146
G01 X7.3612 Y-8.2185
G01 X7.3828 Y-8.2189
G01 X7.4067 Y-8.2182
G01 X7.4285 Y-8.2165
G01 X7.4634 Y-8.2113
G01 X7.7465 Y-8.2110
G01 X7.7604 Y-8.2095
G01 X7.7709 Y-8.2074
G01 X7.7835 Y-8.2037
G01 X7.7964 Y-8.1986
G01 X7.8059 Y-8.1938
G01 X7.8177 Y-8.1865
G01 X7.8280 Y-8.1787
G01 X7.8382 Y-8.1693
G01 X7.8484 Y-8.1787
G01 X7.8587 Y-8.1865
G01 X7.8705 Y-8.1938
G01 X7.8800 Y-8.1986
G01 X7.8929 Y-8.2037
G01 X7.9055 Y-8.2074
G01 X7.9160 Y-8.2095
G01 X7.9299 Y-8.2110
G01 X8.2437 Y-8.2112
G01 X8.2566 Y-8.2101
G01 X8.2709 Y-8.2074
G01 X8.2835 Y-8.2037
G01 X8.2982 Y-8.1978
G01 X8.2982 Y-8.2313
G01 X7.4775 Y-8.2313
G01 X7.4616 Y-8.2322
G01 X7.4270 Y-8.2368
G01 X7.4045 Y-8.2385
G01 X7.3819 Y-8.2391
G01 X7.3593 Y-8.2385
G01 X7.3368 Y-8.2368
G01 X7.3022 Y-8.2322
G01 X7.2907 Y-8.2314
G01 X7.1600 Y-8.2313
G01 X7.1469 Y-8.2319
G01 X7.1095 Y-8.2368
G01 X7.0870 Y-8.2385
G01 X7.0644 Y-8.2391
G01 X7.0418 Y-8.2385
G01 X7.0193 Y-8.2368
G01 X6.9969 Y-8.2341
G01 X6.9746 Y-8.2302
G01 X6.9526 Y-8.2253
G01 X6.9308 Y-8.2192
G01 X6.9093 Y-8.2122
G01 X6.8883 Y-8.2040
G01 X6.8676 Y-8.1949
G01 X6.8474 Y-8.1847
G01 X6.8278 Y-8.1736
G01 X6.8087 Y-8.1615
G01 X6.7902 Y-8.1485
G01 X6.7724 Y-8.1346
G01 X6.7553 Y-8.1198
G01 X6.7389 Y-8.1043
G01 X6.7234 Y-8.0879
G01 X6.7086 Y-8.0708
G01 X6.6947 Y-8.0530
G01 X6.6817 Y-8.0345
G01 X6.6696 Y-8.0154
G01 X6.6585 Y-7.9958
G01 X6.6483 Y-7.9756
G01 X6.6392 Y-7.9549
G01 X6.6310 Y-7.9339
G01 X6.6240 Y-7.9124
G01 X6.6179 Y-7.8906
G01 X6.6130 Y-7.8686
G01 X6.6091 Y-7.8463
G01 X6.6064 Y-7.8239
G01 X6.6047 Y-7.8014
G01 X6.6041 Y-7.7771
G01 X6.6041 Y-6.4883
G01 X6.6028 Y-6.4711
G01 X6.6003 Y-6.4573
G01 X6.5953 Y-6.4411
G01 X6.5888 Y-6.4263
G01 X6.5818 Y-6.4142
G01 X6.5728 Y-6.4016
G01 X4.6564 Y-4.0430
G01 X4.6439 Y-4.0296
G01 X4.6308 Y-4.0187
G01 X4.6160 Y-4.0091
G01 X4.6014 Y-4.0020
G01 X4.5851 Y-3.9964
G01 X4.5692 Y-3.9930
G01 X4.5549 Y-3.9915
G01 X4.5378 Y-3.9917
G01 X4.5216 Y-3.9938
G01 X4.5048 Y-3.9981
G01 X4.4924 Y-4.0027
G01 X4.4800 Y-4.0088
G01 X4.4252 Y-4.0432
G01 X4.3543 Y-4.0834
G01 X4.2815 Y-4.1200
G01 X4.2070 Y-4.1530
G01 X4.1310 Y-4.1823
G01 X4.0537 Y-4.2079
G01 X3.9751 Y-4.2296
G01 X3.8956 Y-4.2475
G01 X3.8154 Y-4.2614
G01 X3.7345 Y-4.2714
G01 X3.6533 Y-4.2774
G01 X3.5718 Y-4.2794
G01 X3.4903 Y-4.2774
G01 X3.4091 Y-4.2714
G01 X3.3282 Y-4.2614
G01 X3.2480 Y-4.2475
G01 X3.1685 Y-4.2296
G01 X3.0899 Y-4.2079
G01 X3.0126 Y-4.1823
G01 X2.9366 Y-4.1530
G01 X2.8621 Y-4.1200
G01 X2.7893 Y-4.0834
G01 X2.7184 Y-4.0432
G01 X2.6496 Y-3.9996
G01 X2.5830 Y-3.9527
G01 X2.5187 Y-3.9026
G01 X2.4570 Y-3.8493
G01 X2.3980 Y-3.7932
G01 X2.3419 Y-3.7342
G01 X2.2886 Y-3.6725
G01 X2.2385 Y-3.6082
G01 X2.1916 Y-3.5416
G01 X2.1480 Y-3.4728
G01 X2.1078 Y-3.4019
G01 X2.0712 Y-3.3291
G01 X2.0382 Y-3.2546
G01 X2.0089 Y-3.1786
G01 X1.9833 Y-3.1013
G01 X1.9616 Y-3.0227
G01 X1.9437 Y-2.9432
G01 X1.9298 Y-2.8630
G01 X1.9198 Y-2.7821
G01 X1.9138 Y-2.7009
G01 X1.9118 Y-2.6194
G01 X1.9138 Y-2.5379
G01 X1.9198 Y-2.4567
G01 X1.9298 Y-2.3758
G01 X1.9437 Y-2.2956
G01 X1.9616 Y-2.2161
G01 X1.9833 Y-2.1375
G01 X2.0089 Y-2.0602
G01 X2.0382 Y-1.9842
G01 X2.0712 Y-1.9097
G01 X2.1078 Y-1.8369
G01 X2.1480 Y-1.7660
G01 X2.1916 Y-1.6972
G01 X2.2385 Y-1.6306
G01 X2.2886 Y-1.5663
G01 X2.3419 Y-1.5046
G01 X2.3980 Y-1.4456
G01 X2.4570 Y-1.3895
G01 X2.5187 Y-1.3362
G01 X2.5830 Y-1.2861
G01 X2.6496 Y-1.2392
G01 X2.7184 Y-1.1956
G01 X2.7893 Y-1.1554
G01 X2.8621 Y-1.1188
G01 X2.9366 Y-1.0858
G01 X3.0126 Y-1.0565
G01 X3.0899 Y-1.0309
G01 X3.1685 Y-1.0092
G01 X3.2480 Y-0.9913
G01 X3.3282 Y-0.9774
G01 X3.4091 Y-0.9674
G01 X3.4903 Y-0.9614
G01 X3.5718 Y-0.9594
G01 X3.6533 Y-0.9614
G01 X3.7345 Y-0.9674
G01 X3.8154 Y-0.9774
G01 X3.8956 Y-0.9913
G01 X3.9751 Y-1.0092
G01 X4.0537 Y-1.0309
G01 X4.1310 Y-1.0565
G01 X4.2070 Y-1.0858
G01 X4.2815 Y-1.1188
G01 X4.3543 Y-1.1554
G01 X4.4252 Y-1.1956
G01 X4.4940 Y-1.2392
G01 X4.5606 Y-1.2861
G01 X4.6249 Y-1.3362
G01 X4.6866 Y-1.3895
G01 X4.7456 Y-1.4456
G01 X4.8017 Y-1.5046
G01 X4.8550 Y-1.5663
G01 X4.9051 Y-1.6306
G01 X4.9520 Y-1.6972
G01 X4.9956 Y-1.7660
G01 X5.0358 Y-1.8369
G01 X5.0724 Y-1.9097
G01 X5.1054 Y-1.9842
G01 X5.1347 Y-2.0602
G01 X5.1603 Y-2.1375
G01 X5.1820 Y-2.2161
G01 X5.1999 Y-2.2956
G01 X5.2138 Y-2.3758
G01 X5.2238 Y-2.4567
G01 X5.2298 Y-2.5379
G01 X5.2318 Y-2.6194
G01 X5.2298 Y-2.7009
G01 X5.2238 Y-2.7821
G01 X5.2138 Y-2.8630
G01 X5.1999 Y-2.9432
G01 X5.1820 Y-3.0227
G01 X5.1570 Y-3.1128
G01 X5.1545 Y-3.1265
G01 X5.1535 Y-3.1369
G01 X5.1539 Y-3.1585
G01 X5.1582 Y-3.1818
G01 X5.1653 Y-3.2018
G01 X5.1756 Y-3.2208
G01 X5.1846 Y-3.2333
G01 X6.9153 Y-5.3633
G01 X6.9283 Y-5.3772
G01 X6.9437 Y-5.3897
G01 X6.9605 Y-5.3998
G01 X6.9763 Y-5.4067
G01 X6.9959 Y-5.4122
G01 X7.0190 Y-5.4149
G01 X7.0644 Y-5.4135
G01 X7.0870 Y-5.4141
G01 X7.1095 Y-5.4158
G01 X7.1319 Y-5.4185
G01 X7.1542 Y-5.4224
G01 X7.1951 Y-5.4322
G01 X7.2137 Y-5.4347
G01 X7.2288 Y-5.4349
G01 X7.2438 Y-5.4335
G01 X7.2921 Y-5.4224
G01 X7.3144 Y-5.4185
G01 X7.3368 Y-5.4158
G01 X7.3593 Y-5.4141
G01 X7.3819 Y-5.4135
G01 X7.4045 Y-5.4141
G01 X7.4270 Y-5.4158
G01 X7.4494 Y-5.4185
G01 X7.4717 Y-5.4224
G01 X7.4937 Y-5.4273
G01 X7.5155 Y-5.4334
G01 X7.5370 Y-5.4404
G01 X7.5580 Y-5.4486
G01 X7.6005 Y-5.4673
G01 X7.6198 Y-5.4724
G01 X7.6365 Y-5.4745
G01 X7.6505 Y-5.4748
G01 X7.6674 Y-5.4732
G01 X7.6804 Y-5.4706
G01 X7.6961 Y-5.4656
G01 X7.7090 Y-5.4599
G01 X7.7207 Y-5.4533
G01 X7.7324 Y-5.4450
G01 X7.7446 Y-5.4342
G01 X7.7540 Y-5.4239
G01 X7.7618 Y-5.4135
G01 X7.7692 Y-5.4012
G01 X7.7749 Y-5.3895
G01 X7.7795 Y-5.3770
G01 X7.7823 Y-5.3666
G01 X7.7847 Y-5.3536
G01 X7.7859 Y-5.3397
G01 X7.7859 Y-4.5469
G01 X7.7847 Y-4.5302
G01 X7.7813 Y-4.5129
G01 X7.7748 Y-4.4939
G01 X7.7669 Y-4.4783
G01 X7.7873 Y-4.4849
G01 X7.8061 Y-4.4881
G01 X7.8061 Y-5.7568
G01 X7.7970 Y-5.7274
G01 X7.7889 Y-5.7062
G01 X7.7797 Y-5.6854
G01 X7.7694 Y-5.6650
G01 X7.7576 Y-5.6446
G01 X7.7374 Y-5.6144
G01 X7.7227 Y-5.5952
G01 X7.7075 Y-5.5776
G01 X7.6907 Y-5.5602
G01 X7.6638 Y-5.5358
G01 X7.6441 Y-5.5202
G01 X7.6267 Y-5.5080
G01 X7.6078 Y-5.4961
G01 X7.5863 Y-5.4840
G01 X7.5532 Y-5.4684
G01 X7.5310 Y-5.4597
G01 X7.4919 Y-5.4477
G01 X7.4649 Y-5.4416
G01 X7.4253 Y-5.4358
G01 X7.3853 Y-5.4337
G01 X7.3607 Y-5.4342
G01 X7.3396 Y-5.4357
G01 X7.3182 Y-5.4383
G01 X7.2981 Y-5.4417
G01 X7.2758 Y-5.4466
G01 X7.2556 Y-5.4522
G01 X7.2232 Y-5.4634
G01 X7.1915 Y-5.4524
G01 X7.1528 Y-5.4426
G01 X7.1256 Y-5.4380
G01 X7.0883 Y-5.4343
G01 X7.0610 Y-5.4337
G01 X7.0210 Y-5.4358
G01 X6.9819 Y-5.4415
G01 X6.9573 Y-5.4469
G01 X5.1137 Y-3.1779
G01 X5.1421 Y-3.0922
G01 X5.1626 Y-3.0182
G01 X5.1809 Y-2.9360
G01 X5.1942 Y-2.8592
G01 X5.2039 Y-2.7805
G01 X5.2098 Y-2.6994
G01 X5.2118 Y-2.6160
G01 X5.2098 Y-2.5394
G01 X5.2039 Y-2.4583
G01 X5.1942 Y-2.3796
G01 X5.1804 Y-2.2999
G01 X5.1626 Y-2.2206
G01 X5.1412 Y-2.1434
G01 X5.1161 Y-2.0674
G01 X5.0868 Y-1.9913
G01 X5.0542 Y-1.9179
G01 X5.0181 Y-1.8463
G01 X4.9786 Y-1.7765
G01 X4.9357 Y-1.7087
G01 X4.8896 Y-1.6431
G01 X4.8401 Y-1.5797
G01 X4.7866 Y-1.5176
G01 X4.7339 Y-1.4622
G01 X4.6706 Y-1.4020
G01 X4.6126 Y-1.3520
G01 X4.5460 Y-1.3002
G01 X4.4822 Y-1.2553
G01 X4.4146 Y-1.2125
G01 X4.3453 Y-1.1733
G01 X4.2703 Y-1.1356
G01 X4.1988 Y-1.1040
G01 X4.1240 Y-1.0751
G01 X4.0486 Y-1.0502
G01 X3.9697 Y-1.0284
G01 X3.8913 Y-1.0108
G01 X3.8121 Y-0.9971
G01 X3.7329 Y-0.9873
G01 X3.6518 Y-0.9814
G01 X3.5712 Y-0.9794
G01 X3.4918 Y-0.9814
G01 X3.4107 Y-0.9873
G01 X3.3315 Y-0.9971
G01 X3.2514 Y-1.0110
G01 X3.1727 Y-1.0287
G01 X3.0964 Y-1.0498
G01 X3.0189 Y-1.0754
G01 X2.9437 Y-1.1044
G01 X2.8709 Y-1.1367
G01 X2.7986 Y-1.1731
G01 X2.7290 Y-1.2125
G01 X2.6610 Y-1.2556
G01 X2.5949 Y-1.3021
G01 X2.5310 Y-1.3520
G01 X2.4703 Y-1.4043
G01 X2.4123 Y-1.4596
G01 X2.3566 Y-1.5181
G01 X2.3044 Y-1.5786
G01 X2.2550 Y-1.6419
G01 X2.2084 Y-1.7080
G01 X2.1650 Y-1.7765
G01 X2.1257 Y-1.8458
G01 X2.0904 Y-1.9159
G01 X2.1533 Y-1.9466
G01 X2.1207 Y-2.0202
G01 X2.0936 Y-2.0905
G01 X2.0694 Y-2.1637
G01 X2.0489 Y-2.2379
G01 X2.0323 Y-2.3114
G01 X2.0186 Y-2.3907
G01 X2.0094 Y-2.4655
G01 X2.0037 Y-2.5424
G01 X2.0018 Y-2.6194
G01 X2.0036 Y-2.6947
G01 X2.0095 Y-2.7750
G01 X2.0188 Y-2.8498
G01 X2.0320 Y-2.9257
G01 X2.0493 Y-3.0025
G01 X2.0694 Y-3.0751
G01 X2.0936 Y-3.1483
G01 X2.1220 Y-3.2218
G01 X2.1525 Y-3.2907
G01 X2.1872 Y-3.3595
G01 X2.2261 Y-3.4280
G01 X2.2664 Y-3.4916
G01 X2.3108 Y-3.5546
G01 X2.3593 Y-3.6167
G01 X2.4085 Y-3.6737
G01 X2.4616 Y-3.7296
G01 X2.5175 Y-3.7827
G01 X2.5758 Y-3.8330
G01 X2.6366 Y-3.8804
G01 X2.6996 Y-3.9248
G01 X2.7647 Y-3.9660
G01 X2.8317 Y-4.0040
G01 X2.9005 Y-4.0387
G01 X2.9694 Y-4.0692
G01 X3.0429 Y-4.0976
G01 X3.1144 Y-4.1213
G01 X3.1920 Y-4.1427
G01 X3.2655 Y-4.1592
G01 X3.3414 Y-4.1724
G01 X3.4179 Y-4.1818
G01 X3.4957 Y-4.1875
G01 X3.5718 Y-4.1894
G01 X3.6488 Y-4.1875
G01 X3.7257 Y-4.1818
G01 X3.8022 Y-4.1724
G01 X3.8781 Y-4.1592
G01 X3.9533 Y-4.1423
G01 X4.0275 Y-4.1218
G01 X4.1000 Y-4.0979
G01 X4.1726 Y-4.0699
G01 X4.2431 Y-4.0387
G01 X4.3119 Y-4.0040
G01 X4.3782 Y-3.9665
G01 X4.4440 Y-3.9248
G01 X4.5057 Y-3.8814
G01 X4.5674 Y-3.8333
G01 X4.5879 Y-3.8157
G01 X6.6942 Y-6.4082
G01 X6.6942 Y-7.7788
G01 X6.6959 Y-7.8134
G01 X6.6985 Y-7.8348
G01 X6.7049 Y-7.8671
G01 X6.7103 Y-7.8865
G01 X6.7159 Y-7.9035
G01 X6.7165 Y-7.9050
G01 X6.7218 Y-7.9189
G01 X6.7298 Y-7.9371
G01 X6.7388 Y-7.9548
G01 X6.7566 Y-7.9844
G01 X6.7772 Y-8.0123
G01 X6.7901 Y-8.0274
G01 X6.8146 Y-8.0519
G01 X6.8296 Y-8.0649
G01 X6.8573 Y-8.0856
G01 X6.8741 Y-8.0963
G01 X6.8914 Y-8.1060
G01 X6.9227 Y-8.1208
G01 X6.9553 Y-8.1325
G01 X6.9761 Y-8.1383
G01 X7.0101 Y-8.1449
G01 X7.0447 Y-8.1484
G01 X7.0661 Y-8.1489
G01 X7.1007 Y-8.1472
G01 X7.1366 Y-8.1418
G01 X7.1702 Y-8.1335
G01 X7.1906 Y-8.1267
G01 X7.2232 Y-8.1132
G01 X7.2572 Y-8.1273
G01 X7.2920 Y-8.1379
G01 X7.3276 Y-8.1449
G01 X7.3637 Y-8.1485
G01 X7.3836 Y-8.1489
G01 X7.4165 Y-8.1473
G01 X7.4362 Y-8.1449
G01 X7.4566 Y-8.1413
G01 X7.7416 Y-8.1412
G01 X7.7522 Y-8.1399
G01 X7.7617 Y-8.1372
G01 X7.7713 Y-8.1330
G01 X7.7824 Y-8.1256
G01 X7.7899 Y-8.1185
G01 X7.7965 Y-8.1100
G01 X7.8014 Y-8.1013
G01 X7.8052 Y-8.0915
G01 X7.8074 Y-8.0818
G01 X7.8082 Y-8.0713
G01 X7.8082 Y-6.0700
G01 X7.8068 Y-6.0573
G01 X7.8041 Y-6.0478
G01 X7.7982 Y-6.0353
G01 X7.7922 Y-6.0268
G01 X7.7827 Y-6.0173
G01 X7.7742 Y-6.0113
G01 X7.7649 Y-6.0066
G01 X7.7521 Y-6.0027
G01 X7.7520 Y-5.8729
G01 X7.7504 Y-5.8392
G01 X7.7480 Y-5.8195
G01 X7.7446 Y-5.7999
G01 X7.7366 Y-5.7680
G01 X7.7310 Y-5.7507
G01 X7.7165 Y-5.7155
G01 X7.6985 Y-5.6820
G01 X7.6887 Y-5.6667
G01 X7.6691 Y-5.6403
G01 X7.6562 Y-5.6252
G01 X7.6424 Y-5.6109
G01 X7.6180 Y-5.5888
G01 X7.6038 Y-5.5775
G01 X7.5722 Y-5.5563
G01 X7.5549 Y-5.5466
G01 X7.5250 Y-5.5324
G01 X7.5066 Y-5.5253
G01 X7.4877 Y-5.5191
G01 X7.4541 Y-5.5108
G01 X7.4182 Y-5.5054
G01 X7.3819 Y-5.5036
G01 X7.3473 Y-5.5053
G01 X7.3114 Y-5.5104
G01 X7.2903 Y-5.5152
G01 X7.2572 Y-5.5253
G01 X7.2232 Y-5.5394
G01 X7.2061 Y-5.5318
G01 X7.1875 Y-5.5247
G01 X7.1560 Y-5.5152
G01 X7.1383 Y-5.5111
G01 X7.1007 Y-5.5054
G01 X7.0627 Y-5.5037
G01 X7.0281 Y-5.5054
G01 X6.9935 Y-5.5105
G01 X6.9574 Y-5.5195
G01 X6.9329 Y-5.5279
G01 X5.0338 Y-3.1906
G01 X5.0500 Y-3.1483
G01 X5.0737 Y-3.0768
G01 X5.0947 Y-3.0009
G01 X5.1119 Y-2.9240
G01 X5.1248 Y-2.8498
G01 X5.1342 Y-2.7740
G01 X5.1399 Y-2.6964
G01 X5.1418 Y-2.6177
G01 X5.1398 Y-2.5406
G01 X5.1342 Y-2.4655
G01 X5.1250 Y-2.3907
G01 X5.1116 Y-2.3131
G01 X5.0943 Y-2.2363
G01 X5.0742 Y-2.1637
G01 X5.0506 Y-2.0921
G01 X5.0223 Y-2.0186
G01 X4.9903 Y-1.9466
G01 X4.9564 Y-1.8793
G01 X4.9193 Y-1.8137
G01 X4.8772 Y-1.7472
G01 X4.8318 Y-1.6828
G01 X4.7843 Y-1.6221
G01 X4.7351 Y-1.5651
G01 X4.6832 Y-1.5105
G01 X4.6261 Y-1.4561
G01 X4.5665 Y-1.4047
G01 X4.5070 Y-1.3584
G01 X4.4455 Y-1.3150
G01 X4.3789 Y-1.2728
G01 X4.3104 Y-1.2340
G01 X4.2431 Y-1.2001
G01 X4.1742 Y-1.1696
G01 X4.1007 Y-1.1412
G01 X4.0260 Y-1.1165
G01 X3.9533 Y-1.0965
G01 X3.8798 Y-1.0799
G01 X3.8022 Y-1.0664
G01 X3.7257 Y-1.0570
G01 X3.6471 Y-1.0512
G01 X3.5718 Y-1.0494
G01 X3.4965 Y-1.0512
G01 X3.4179 Y-1.0570
G01 X3.3414 Y-1.0664
G01 X3.2638 Y-1.0799
G01 X3.1903 Y-1.0965
G01 X3.1177 Y-1.1165
G01 X3.0429 Y-1.1412
G01 X2.9694 Y-1.1696
G01 X2.9005 Y-1.2001
G01 X2.8332 Y-1.2340
G01 X2.7647 Y-1.2728
G01 X2.6981 Y-1.3150
G01 X2.6366 Y-1.3584
G01 X2.5771 Y-1.4047
G01 X2.5175 Y-1.4561
G01 X2.4604 Y-1.5105
G01 X2.4085 Y-1.5651
G01 X2.3593 Y-1.6221
G01 X2.3108 Y-1.6842
G01 X2.2655 Y-1.7486
G01 X2.2252 Y-1.8123
G01 X2.1880 Y-1.8778
G01 X2.1533 Y-1.9466
G00 Z3.0000
G00 X5.3018 Y-2.6194
G01 F80.00
G01 Z-0.0746
G01 F50.00
G01 X5.2997 Y-2.7043
G01 X5.2934 Y-2.7890
G01 X5.2831 Y-2.8732
G01 X5.2685 Y-2.9569
G01 X5.2499 Y-3.0398
G01 X5.2258 Y-3.1263
G01 X5.2238 Y-3.1366
G01 X5.2233 Y-3.1475
G01 X5.2250 Y-3.1606
G01 X5.2283 Y-3.1711
G01 X5.2332 Y-3.1809
G01 X5.2389 Y-3.1891
G01 X6.9696 Y-5.3192
G01 X6.9768 Y-5.3267
G01 X6.9874 Y-5.3347
G01 X6.9993 Y-5.3405
G01 X7.0124 Y-5.3441
G01 X7.0259 Y-5.3450
G01 X7.0644 Y-5.3435
G01 X7.0904 Y-5.3442
G01 X7.1164 Y-5.3461
G01 X7.1422 Y-5.3493
G01 X7.1679 Y-5.3537
G01 X7.2082 Y-5.3634
G01 X7.2194 Y-5.3650
G01 X7.2344 Y-5.3641
G01 X7.2784 Y-5.3537
G01 X7.3041 Y-5.3493
G01 X7.3299 Y-5.3461
G01 X7.3559 Y-5.3442
G01 X7.3819 Y-5.3435
G01 X7.4079 Y-5.3442
G01 X7.4339 Y-5.3461
G01 X7.4597 Y-5.3493
G01 X7.4854 Y-5.3537
G01 X7.5107 Y-5.3594
G01 X7.5358 Y-5.3664
G01 X7.5605 Y-5.3745
G01 X7.5848 Y-5.3839
G01 X7.6209 Y-5.4002
G01 X7.6300 Y-5.4030
G01 X7.6405 Y-5.4047
G01 X7.6543 Y-5.4044
G01 X7.6702 Y-5.4005
G01 X7.6826 Y-5.3945
G01 X7.6932 Y-5.3865
G01 X7.7023 Y-5.3765
G01 X7.7095 Y-5.3644
G01 X7.7140 Y-5.3515
G01 X7.7160 Y-5.3349
G01 X7.7159 Y-4.5450
G01 X7.7130 Y-4.5285
G01 X7.7077 Y-4.5159
G01 X7.7000 Y-4.5043
G01 X7.6900 Y-4.4944
G01 X7.6900 Y-2.9188
G01 X9.5500 Y-2.9188
G01 X9.5500 Y-4.4788
G01 X8.5464 Y-4.4788
G01 X8.5363 Y-4.4795
G01 X8.5260 Y-4.4818
G01 X8.5166 Y-4.4854
G01 X8.5075 Y-4.4906
G01 X8.4995 Y-4.4968
G01 X8.4945 Y-4.5019
G01 X8.4882 Y-4.5100
G01 X8.4847 Y-4.5159
G01 X8.4807 Y-4.5248
G01 X8.4784 Y-4.5323
G01 X8.4764 Y-4.5488
G01 X8.4764 Y-4.6989
G01 X8.4571 Y-4.7117
G01 X8.4404 Y-4.7255
G01 X8.4251 Y-4.7407
G01 X8.4104 Y-4.7588
G01 X8.3949 Y-4.7833
G01 X8.3855 Y-4.8027
G01 X8.3777 Y-4.8244
G01 X8.3727 Y-4.8441
G01 X8.3692 Y-4.8670
G01 X8.3681 Y-4.8885
G01 X8.3682 Y-8.3013
G01 X7.4775 Y-8.3013
G01 X7.4339 Y-8.3065
G01 X7.4079 Y-8.3084
G01 X7.3819 Y-8.3091
G01 X7.3559 Y-8.3084
G01 X7.3299 Y-8.3065
G01 X7.2892 Y-8.3014
G01 X7.1600 Y-8.3013
G01 X7.1164 Y-8.3065
G01 X7.0904 Y-8.3084
G01 X7.0644 Y-8.3091
G01 X7.0384 Y-8.3084
G01 X7.0124 Y-8.3065
G01 X6.9866 Y-8.3033
G01 X6.9609 Y-8.2989
G01 X6.9356 Y-8.2932
G01 X6.9105 Y-8.2862
G01 X6.8858 Y-8.2781
G01 X6.8615 Y-8.2687
G01 X6.8377 Y-8.2582
G01 X6.8144 Y-8.2465
G01 X6.7918 Y-8.2336
G01 X6.7698 Y-8.2197
G01 X6.7485 Y-8.2047
G01 X6.7280 Y-8.1887
G01 X6.7083 Y-8.1717
G01 X6.6894 Y-8.1538
G01 X6.6715 Y-8.1349
G01 X6.6545 Y-8.1152
G01 X6.6385 Y-8.0947
G01 X6.6235 Y-8.0734
G01 X6.6096 Y-8.0514
G01 X6.5967 Y-8.0288
G01 X6.5850 Y-8.0055
G01 X6.5745 Y-7.9817
G01 X6.5651 Y-7.9574
G01 X6.5570 Y-7.9327
G01 X6.5500 Y-7.9076
G01 X6.5443 Y-7.8823
G01 X6.5399 Y-7.8566
G01 X6.5367 Y-7.8308
G01 X6.5348 Y-7.8048
G01 X6.5341 Y-7.7779
G01 X6.5341 Y-6.4899
G01 X6.5333 Y-6.4796
G01 X6.5320 Y-6.4727
G01 X6.5261 Y-6.4573
G01 X6.5184 Y-6.4457
G01 X4.5997 Y-4.0844
G01 X4.5927 Y-4.0777
G01 X4.5838 Y-4.0713
G01 X4.5754 Y-4.0670
G01 X4.5656 Y-4.0636
G01 X4.5558 Y-4.0618
G01 X4.5452 Y-4.0614
G01 X4.5355 Y-4.0624
G01 X4.5254 Y-4.0650
G01 X4.5131 Y-4.0705
G01 X4.4612 Y-4.1033
G01 X4.3873 Y-4.1451
G01 X4.3115 Y-4.1833
G01 X4.2338 Y-4.2177
G01 X4.1546 Y-4.2483
G01 X4.0740 Y-4.2749
G01 X3.9922 Y-4.2975
G01 X3.9093 Y-4.3161
G01 X3.8256 Y-4.3307
G01 X3.7414 Y-4.3410
G01 X3.6567 Y-4.3473
G01 X3.5718 Y-4.3494
G01 X3.4869 Y-4.3473
G01 X3.4022 Y-4.3410
G01 X3.3180 Y-4.3307
G01 X3.2343 Y-4.3161
G01 X3.1514 Y-4.2975
G01 X3.0696 Y-4.2749
G01 X2.9890 Y-4.2483
G01 X2.9098 Y-4.2177
G01 X2.8321 Y-4.1833
G01 X2.7563 Y-4.1451
G01 X2.6824 Y-4.1033
G01 X2.6107 Y-4.0578
G01 X2.5413 Y-4.0089
G01 X2.4743 Y-3.9567
G01 X2.4100 Y-3.9012
G01 X2.3485 Y-3.8427
G01 X2.2900 Y-3.7812
G01 X2.2345 Y-3.7169
G01 X2.1823 Y-3.6499
G01 X2.1334 Y-3.5805
G01 X2.0879 Y-3.5088
G01 X2.0461 Y-3.4349
G01 X2.0079 Y-3.3591
G01 X1.9735 Y-3.2814
G01 X1.9429 Y-3.2022
G01 X1.9163 Y-3.1216
G01 X1.8937 Y-3.0398
G01 X1.8751 Y-2.9569
G01 X1.8605 Y-2.8732
G01 X1.8502 Y-2.7890
G01 X1.8439 Y-2.7043
G01 X1.8418 Y-2.6194
G01 X1.8439 Y-2.5345
G01 X1.8502 Y-2.4498
G01 X1.8605 Y-2.3656
G01 X1.8751 Y-2.2819
G01 X1.8937 Y-2.1990
G01 X1.9163 Y-2.1172
G01 X1.9429 Y-2.0366
G01 X1.9735 Y-1.9574
G01 X2.0079 Y-1.8797
G01 X2.0461 Y-1.8039
G01 X2.0879 Y-1.7300
G01 X2.1334 Y-1.6583
G01 X2.1823 Y-1.5889
G01 X2.2345 Y-1.5219
G01 X2.2900 Y-1.4576
G01 X2.3485 Y-1.3961
G01 X2.4100 Y-1.3376
G01 X2.4743 Y-1.2821
G01 X2.5413 Y-1.2299
G01 X2.6107 Y-1.1810
G01 X2.6824 Y-1.1355
G01 X2.7563 Y-1.0937
G01 X2.8321 Y-1.0555
G01 X2.9098 Y-1.0211
G01 X2.9890 Y-0.9905
G01 X3.0696 Y-0.9639
G01 X3.1514 Y-0.9413
G01 X3.2343 Y-0.9227
G01 X3.3180 Y-0.9081
G01 X3.4022 Y-0.8978
G01 X3.4869 Y-0.8915
G01 X3.5718 Y-0.8894
G01 X3.6567 Y-0.8915
G01 X3.7414 Y-0.8978
G01 X3.8256 Y-0.9081
G01 X3.9093 Y-0.9227
G01 X3.9922 Y-0.9413
G01 X4.0740 Y-0.9639
G01 X4.1546 Y-0.9905
G01 X4.2338 Y-1.0211
G01 X4.3115 Y-1.0555
G01 X4.3873 Y-1.0937
G01 X4.4612 Y-1.1355
G01 X4.5329 Y-1.1810
G01 X4.6023 Y-1.2299
G01 X4.6693 Y-1.2821
G01 X4.7336 Y-1.3376
G01 X4.7951 Y-1.3961
G01 X4.8536 Y-1.4576
G01 X4.9091 Y-1.5219
G01 X4.9613 Y-1.5889
G01 X5.0102 Y-1.6583
G01 X5.0557 Y-1.7300
G01 X5.0975 Y-1.8039
G01 X5.1357 Y-1.8797
G01 X5.1701 Y-1.9574
G01 X5.2007 Y-2.0366
G01 X5.2273 Y-2.1172
G01 X5.2499 Y-2.1990
G01 X5.2685 Y-2.2819
G01 X5.2831 Y-2.3656
G01 X5.2934 Y-2.4498
G01 X5.2997 Y-2.5345
G01 X5.3018 Y-2.6194
G00 Z3.0000
G00 X7.7501 Y-2.4522
G01 F80.00
G01 Z-0.0746
G01 F50.00
G01 X7.7521 Y-2.4659
G01 X7.7567 Y-2.4786
G01 X7.7620 Y-2.4879
G01 X7.7705 Y-2.4983
G01 X7.7811 Y-2.5070
G01 X7.7902 Y-2.5122
G01 X7.8029 Y-2.5167
G01 X7.8166 Y-2.5187
G01 X9.4270 Y-2.5185
G01 X9.4402 Y-2.5158
G01 X9.4499 Y-2.5121
G01 X9.4589 Y-2.5070
G01 X9.4672 Y-2.5005
G01 X9.4762 Y-2.4906
G01 X9.4818 Y-2.4817
G01 X9.4859 Y-2.4723
G01 X9.4886 Y-2.4627
G01 X9.4900 Y-2.4488
G01 X9.4900 Y-2.1690
G01 X10.0725 Y-2.1690
G01 X10.0725 Y-2.4488
G01 X10.0732 Y-2.4589
G01 X10.0755 Y-2.4691
G01 X10.0792 Y-2.4786
G01 X10.0845 Y-2.4879
G01 X10.0906 Y-2.4958
G01 X10.0977 Y-2.5026
G01 X10.1066 Y-2.5089
G01 X10.1156 Y-2.5134
G01 X10.1255 Y-2.5167
G01 X10.1355 Y-2.5185
G01 X10.1425 Y-2.5188
G01 X11.5425 Y-2.5188
G01 X11.5528 Y-2.5180
G01 X11.5661 Y-2.5147
G01 X11.5753 Y-2.5106
G01 X11.5844 Y-2.5049
G01 X11.5920 Y-2.4983
G01 X11.5987 Y-2.4906
G01 X11.6043 Y-2.4817
G01 X11.6084 Y-2.4723
G01 X11.6111 Y-2.4627
G01 X11.6125 Y-2.4513
G01 X11.6125 Y-1.1488
G01 X11.6118 Y-1.1386
G01 X11.6084 Y-1.1253
G01 X11.6043 Y-1.1159
G01 X11.5986 Y-1.1069
G01 X11.5921 Y-1.0994
G01 X11.5844 Y-1.0927
G01 X11.5753 Y-1.0870
G01 X11.5661 Y-1.0829
G01 X11.5562 Y-1.0801
G01 X11.5444 Y-1.0788
G01 X10.1425 Y-1.0788
G01 X10.1322 Y-1.0796
G01 X10.1223 Y-1.0818
G01 X10.1097 Y-1.0870
G01 X10.1006 Y-1.0927
G01 X10.0929 Y-1.0994
G01 X10.0845 Y-1.1096
G01 X10.0792 Y-1.1190
G01 X10.0755 Y-1.1285
G01 X10.0732 Y-1.1386
G01 X10.0725 Y-1.1488
G01 X10.0725 Y-1.4286
G01 X9.4900 Y-1.4286
G01 X9.4900 Y-1.1488
G01 X9.4893 Y-1.1386
G01 X9.4870 Y-1.1285
G01 X9.4833 Y-1.1190
G01 X9.4780 Y-1.1096
G01 X9.4696 Y-1.0994
G01 X9.4619 Y-1.0927
G01 X9.4528 Y-1.0870
G01 X9.4436 Y-1.0829
G01 X9.4337 Y-1.0801
G01 X9.4200 Y-1.0788
G01 X7.8200 Y-1.0788
G01 X7.8097 Y-1.0796
G01 X7.7965 Y-1.0829
G01 X7.7871 Y-1.0870
G01 X7.7783 Y-1.0926
G01 X7.7705 Y-1.0993
G01 X7.7639 Y-1.1070
G01 X7.7582 Y-1.1159
G01 X7.7540 Y-1.1253
G01 X7.7514 Y-1.1349
G01 X7.7501 Y-1.1454
G01 X7.7501 Y-2.4522
G00 Z3.0000
G00 X7.7501 Y-4.3522
G01 F80.00
G01 Z-0.0746
G01 F50.00
G01 X7.7508 Y-4.3593
G01 X7.7530 Y-4.3690
G01 X7.7566 Y-4.3786
G01 X7.7600 Y-4.3848
G01 X7.7660 Y-4.3933
G01 X7.7729 Y-4.4006
G01 X7.7809 Y-4.4068
G01 X7.7872 Y-4.4106
G01 X7.7998 Y-4.4158
G01 X7.8130 Y-4.4185
G01 X7.8761 Y-4.4188
G01 X7.8761 Y-6.0390
G01 X7.8703 Y-6.0542
G01 X7.8685 Y-6.0643
G01 X7.8682 Y-6.0713
G01 X7.8682 Y-8.0713
G01 X7.8690 Y-8.0818
G01 X7.8712 Y-8.0915
G01 X7.8750 Y-8.1013
G01 X7.8821 Y-8.1131
G01 X7.8887 Y-8.1208
G01 X7.8991 Y-8.1293
G01 X7.9083 Y-8.1346
G01 X7.9180 Y-8.1383
G01 X7.9280 Y-8.1406
G01 X7.9382 Y-8.1413
G01 X8.2382 Y-8.1413
G01 X8.2484 Y-8.1406
G01 X8.2584 Y-8.1383
G01 X8.2710 Y-8.1331
G01 X8.2802 Y-8.1273
G01 X8.2902 Y-8.1182
G01 X8.2980 Y-8.1076
G01 X8.3029 Y-8.0980
G01 X8.3068 Y-8.0853
G01 X8.3082 Y-8.0738
G01 X8.3082 Y-7.1233
G01 X8.3139 Y-7.0967
G01 X8.3159 Y-7.0769
G01 X8.3163 Y-7.0644
G01 X8.3163 Y-4.4188
G01 X9.4212 Y-4.4188
G01 X9.4371 Y-4.4167
G01 X9.4500 Y-4.4120
G01 X9.4618 Y-4.4049
G01 X9.4695 Y-4.3983
G01 X9.4743 Y-4.3930
G01 X9.4817 Y-4.3819
G01 X9.4859 Y-4.3723
G01 X9.4893 Y-4.3590
G01 X9.4900 Y-4.3488
G01 X9.4900 Y-3.0488
G01 X9.4893 Y-3.0387
G01 X9.4859 Y-3.0253
G01 X9.4818 Y-3.0159
G01 X9.4762 Y-3.0070
G01 X9.4648 Y-2.9950
G01 X9.4528 Y-2.9870
G01 X9.4370 Y-2.9809
G01 X9.4270 Y-2.9791
G01 X9.4200 Y-2.9788
G01 X7.8200 Y-2.9788
G01 X7.8097 Y-2.9796
G01 X7.7965 Y-2.9829
G01 X7.7872 Y-2.9870
G01 X7.7781 Y-2.9927
G01 X7.7681 Y-3.0018
G01 X7.7620 Y-3.0097
G01 X7.7583 Y-3.0157
G01 X7.7552 Y-3.0223
G01 X7.7521 Y-3.0317
G01 X7.7500 Y-3.0475
G01 X7.7501 Y-4.3522
G00 Z3.0000
G00 X8.4200 Y-4.4888
G01 F80.00
G01 Z-0.0746
G01 F50.00
G01 X8.4143 Y-4.5026
G01 X8.4109 Y-4.5138
G01 X8.4070 Y-4.5365
G01 X8.4064 Y-4.6625
G01 X8.3863 Y-4.6803
G01 X8.3863 Y-4.4888
G01 X8.4200 Y-4.4888
G00 Z3.0000
G00 X10.0125 Y-4.0678
G01 F80.00
G01 Z-0.0746
G01 F50.00
G01 X10.0725 Y-4.0678
G01 X10.0726 Y-4.3522
G01 X10.0746 Y-4.3659
G01 X10.0792 Y-4.3787
G01 X10.0863 Y-4.3905
G01 X10.0953 Y-4.4005
G01 X10.1038 Y-4.4071
G01 X10.1158 Y-4.4135
G01 X10.1285 Y-4.4174
G01 X10.1391 Y-4.4187
G01 X10.4735 Y-4.4188
G01 X10.4735 Y-4.4788
G01 X10.0125 Y-4.4788
G01 X10.0125 Y-4.0678
G00 Z3.0000
G00 X11.6725 Y-4.4788
G01 F80.00
G01 Z-0.0746
G01 F50.00
G01 X11.2115 Y-4.4788
G01 X11.2115 Y-4.4188
G01 X11.5459 Y-4.4187
G01 X11.5565 Y-4.4174
G01 X11.5660 Y-4.4147
G01 X11.5758 Y-4.4104
G01 X11.5843 Y-4.4049
G01 X11.5945 Y-4.3957
G01 X11.6042 Y-4.3819
G01 X11.6095 Y-4.3690
G01 X11.6122 Y-4.3551
G01 X11.6125 Y-4.0678
G01 X11.6725 Y-4.0678
G01 X11.6725 Y-4.4788
G00 Z3.0000
G00 X11.6725 Y-3.3298
G01 F80.00
G01 Z-0.0746
G01 F50.00
G01 X11.6125 Y-3.3298
G01 X11.6125 Y-3.0488
G01 X11.6111 Y-3.0349
G01 X11.6072 Y-3.0221
G01 X11.6025 Y-3.0127
G01 X11.5967 Y-3.0045
G01 X11.5873 Y-2.9950
G01 X11.5784 Y-2.9887
G01 X11.5661 Y-2.9829
G01 X11.5528 Y-2.9796
G01 X11.5425 Y-2.9788
G01 X10.1425 Y-2.9788
G01 X10.1355 Y-2.9791
G01 X10.1255 Y-2.9809
G01 X10.1156 Y-2.9842
G01 X10.1066 Y-2.9887
G01 X10.0977 Y-2.9950
G01 X10.0906 Y-3.0018
G01 X10.0845 Y-3.0097
G01 X10.0792 Y-3.0190
G01 X10.0755 Y-3.0285
G01 X10.0732 Y-3.0387
G01 X10.0725 Y-3.0488
G01 X10.0725 Y-3.3298
G01 X10.0125 Y-3.3298
G01 X10.0125 Y-2.9188
G01 X11.6725 Y-2.9188
G01 X11.6725 Y-3.3298
G00 Z3.0000
G00 X9.9425 Y-1.3685
G01 F80.00
G01 Z-0.0746
G01 F50.00
G01 X9.9562 Y-1.3672
G01 X9.9661 Y-1.3645
G01 X9.9781 Y-1.3588
G01 X9.9870 Y-1.3526
G01 X9.9966 Y-1.3429
G01 X10.0028 Y-1.3342
G01 X10.0082 Y-1.3226
G01 X10.0112 Y-1.3119
G01 X10.0125 Y-1.2985
G01 X10.0125 Y-1.0188
G01 X11.6725 Y-1.0188
G01 X11.6725 Y-2.5788
G01 X10.0125 Y-2.5788
G01 X10.0125 Y-2.2991
G01 X10.0112 Y-2.2857
G01 X10.0082 Y-2.2750
G01 X10.0028 Y-2.2635
G01 X9.9966 Y-2.2546
G01 X9.9870 Y-2.2450
G01 X9.9782 Y-2.2389
G01 X9.9662 Y-2.2332
G01 X9.9562 Y-2.2304
G01 X9.9425 Y-2.2291
G01 X9.6165 Y-2.2291
G01 X9.6063 Y-2.2304
G01 X9.5932 Y-2.2344
G01 X9.5812 Y-2.2408
G01 X9.5729 Y-2.2472
G01 X9.5638 Y-2.2574
G01 X9.5570 Y-2.2686
G01 X9.5520 Y-2.2826
G01 X9.5501 Y-2.2953
G01 X9.5500 Y-2.5788
G01 X7.6900 Y-2.5788
G01 X7.6900 Y-1.0188
G01 X9.5500 Y-1.0188
G01 X9.5501 Y-1.3024
G01 X9.5520 Y-1.3151
G01 X9.5569 Y-1.3288
G01 X9.5638 Y-1.3403
G01 X9.5731 Y-1.3505
G01 X9.5811 Y-1.3568
G01 X9.5932 Y-1.3632
G01 X9.6063 Y-1.3672
G01 X9.6165 Y-1.3685
G01 X9.9425 Y-1.3685
G00 Z3.0000
G00 X9.3683 Y-8.0747
G01 F80.00
G01 Z-0.0746
G01 F50.00
G01 X9.3703 Y-8.0884
G01 X9.3748 Y-8.1011
G01 X9.3806 Y-8.1110
G01 X9.3887 Y-8.1208
G01 X9.3985 Y-8.1289
G01 X9.4084 Y-8.1347
G01 X9.4211 Y-8.1392
G01 X9.4319 Y-8.1410
G01 X9.7382 Y-8.1413
G01 X9.7484 Y-8.1406
G01 X9.7566 Y-8.1388
G01 X9.7864 Y-8.1447
G01 X9.8044 Y-8.1470
G01 X9.8424 Y-8.1490
G01 X9.8787 Y-8.1472
G01 X9.8971 Y-8.1449
G01 X9.9218 Y-8.1402
G01 X9.9473 Y-8.1450
G01 X9.9830 Y-8.1485
G01 X10.0029 Y-8.1489
G01 X10.0375 Y-8.1472
G01 X10.0734 Y-8.1418
G01 X10.1103 Y-8.1325
G01 X10.1413 Y-8.1214
G01 X10.1579 Y-8.1141
G01 X10.1915 Y-8.0963
G01 X10.2231 Y-8.0751
G01 X10.2485 Y-8.0542
G01 X10.2617 Y-8.0417
G01 X10.2873 Y-8.0136
G01 X10.3099 Y-7.9830
G01 X10.3268 Y-7.9548
G01 X10.3358 Y-7.9371
G01 X10.3438 Y-7.9189
G01 X10.3549 Y-7.8879
G01 X10.3603 Y-7.8687
G01 X10.3646 Y-7.8493
G01 X10.3694 Y-7.8168
G01 X10.3709 Y-7.7970
G01 X10.3714 Y-6.4999
G01 X14.2347 Y-5.3553
G01 X14.2525 Y-5.3494
G01 X14.2826 Y-5.3372
G01 X14.3002 Y-5.3286
G01 X14.3173 Y-5.3191
G01 X14.3445 Y-5.3013
G01 X14.3601 Y-5.2895
G01 X14.3751 Y-5.2768
G01 X14.3983 Y-5.2542
G01 X14.4125 Y-5.2382
G01 X14.4332 Y-5.2111
G01 X14.4439 Y-5.1946
G01 X14.4604 Y-5.1648
G01 X14.4687 Y-5.1470
G01 X14.4807 Y-5.1150
G01 X14.4863 Y-5.0962
G01 X14.4933 Y-5.0645
G01 X14.4962 Y-5.0451
G01 X14.5999 Y-4.1893
G01 X14.6838 Y-4.1874
G01 X14.7589 Y-4.1818
G01 X14.8354 Y-4.1724
G01 X14.9130 Y-4.1589
G01 X14.9865 Y-4.1423
G01 X15.0607 Y-4.1218
G01 X15.1339 Y-4.0976
G01 X15.2042 Y-4.0705
G01 X15.2763 Y-4.0387
G01 X15.3451 Y-4.0040
G01 X15.4107 Y-3.9669
G01 X15.4787 Y-3.9238
G01 X15.5402 Y-3.8804
G01 X15.6010 Y-3.8330
G01 X15.6593 Y-3.7827
G01 X15.7139 Y-3.7308
G01 X15.7694 Y-3.6725
G01 X15.8186 Y-3.6154
G01 X15.8650 Y-3.5560
G01 X15.9113 Y-3.4902
G01 X15.9516 Y-3.4265
G01 X15.9896 Y-3.3595
G01 X16.0243 Y-3.2907
G01 X16.0548 Y-3.2218
G01 X16.0832 Y-3.1483
G01 X16.1074 Y-3.0751
G01 X16.1275 Y-3.0025
G01 X16.1448 Y-2.9257
G01 X16.1580 Y-2.8498
G01 X16.1673 Y-2.7750
G01 X16.1731 Y-2.6964
G01 X16.1750 Y-2.6177
G01 X16.1731 Y-2.5424
G01 X16.1674 Y-2.4655
G01 X16.1577 Y-2.3873
G01 X16.1448 Y-2.3131
G01 X16.1283 Y-2.2396
G01 X16.1074 Y-2.1637
G01 X16.0826 Y-2.0889
G01 X16.0555 Y-2.0186
G01 X16.0250 Y-1.9497
G01 X15.9888 Y-1.8778
G01 X15.9516 Y-1.8123
G01 X15.9113 Y-1.7486
G01 X15.8660 Y-1.6842
G01 X15.8186 Y-1.6234
G01 X15.7694 Y-1.5663
G01 X15.7142 Y-1.5083
G01 X15.6593 Y-1.4561
G01 X15.6010 Y-1.4058
G01 X15.5402 Y-1.3584
G01 X15.4772 Y-1.3140
G01 X15.4121 Y-1.2728
G01 X15.3451 Y-1.2348
G01 X15.2763 Y-1.2001
G01 X15.2058 Y-1.1689
G01 X15.1339 Y-1.1412
G01 X15.0607 Y-1.1170
G01 X14.9865 Y-1.0965
G01 X14.9113 Y-1.0796
G01 X14.8354 Y-1.0664
G01 X14.7589 Y-1.0570
G01 X14.6820 Y-1.0513
G01 X14.6050 Y-1.0494
G01 X14.5280 Y-1.0513
G01 X14.4511 Y-1.0570
G01 X14.3746 Y-1.0664
G01 X14.2987 Y-1.0796
G01 X14.2235 Y-1.0965
G01 X14.1493 Y-1.1170
G01 X14.0761 Y-1.1412
G01 X14.0042 Y-1.1689
G01 X13.9337 Y-1.2001
G01 X13.8649 Y-1.2348
G01 X13.7979 Y-1.2728
G01 X13.7328 Y-1.3140
G01 X13.6698 Y-1.3584
G01 X13.6090 Y-1.4058
G01 X13.5507 Y-1.4561
G01 X13.4936 Y-1.5105
G01 X13.4417 Y-1.5651
G01 X13.3903 Y-1.6247
G01 X13.3430 Y-1.6855
G01 X13.2996 Y-1.7472
G01 X13.2593 Y-1.8108
G01 X13.2204 Y-1.8793
G01 X13.1857 Y-1.9481
G01 X13.1545 Y-2.0186
G01 X13.1268 Y-2.0905
G01 X13.1026 Y-2.1637
G01 X13.0817 Y-2.2396
G01 X13.0649 Y-2.3148
G01 X13.0520 Y-2.3890
G01 X13.0427 Y-2.4638
G01 X13.0369 Y-2.5424
G01 X13.0350 Y-2.6194
G01 X13.0369 Y-2.6964
G01 X13.0426 Y-2.7733
G01 X13.0520 Y-2.8498
G01 X13.0655 Y-2.9274
G01 X13.0821 Y-3.0009
G01 X13.1021 Y-3.0735
G01 X13.1268 Y-3.1483
G01 X13.1552 Y-3.2218
G01 X13.1857 Y-3.2907
G01 X13.2196 Y-3.3580
G01 X13.2584 Y-3.4265
G01 X13.2996 Y-3.4916
G01 X13.3450 Y-3.5560
G01 X13.3914 Y-3.6154
G01 X13.4406 Y-3.6725
G01 X13.4948 Y-3.7296
G01 X13.5507 Y-3.7827
G01 X13.6103 Y-3.8341
G01 X13.6698 Y-3.8804
G01 X13.6711 Y-3.8814
G01 X13.7313 Y-3.9238
G01 X13.7979 Y-3.9660
G01 X13.8636 Y-4.0033
G01 X13.8760 Y-4.0096
G01 X13.7905 Y-4.7148
G01 X9.7350 Y-5.9164
G01 X9.6992 Y-5.9293
G01 X9.6716 Y-5.9423
G01 X9.6545 Y-5.9517
G01 X9.6388 Y-5.9615
G01 X9.6219 Y-5.9733
G01 X9.6076 Y-5.9845
G01 X9.5886 Y-6.0013
G01 X9.4348 Y-6.0014
G01 X9.4242 Y-6.0027
G01 X9.4147 Y-6.0054
G01 X9.4049 Y-6.0097
G01 X9.3964 Y-6.0152
G01 X9.3887 Y-6.0218
G01 X9.3839 Y-6.0271
G01 X9.3749 Y-6.0414
G01 X9.3696 Y-6.0573
G01 X9.3682 Y-6.0713
G01 X9.3683 Y-8.0747
G00 Z3.0000
G00 X8.6446 Y-8.8968
G01 F80.00
G01 Z-0.0746
G01 F50.00
G01 X8.6693 Y-8.8907
G01 X8.6869 Y-8.8850
G01 X8.7093 Y-8.8758
G01 X8.7259 Y-8.8676
G01 X8.7474 Y-8.8548
G01 X8.7633 Y-8.8436
G01 X8.7829 Y-8.8274
G01 X8.7983 Y-8.8124
G01 X8.7983 Y-8.8968
G01 X8.6446 Y-8.8968
G00 Z3.0000
G00 X8.3682 Y-11.7845
G01 F80.00
G01 Z-0.0746
G01 F50.00
G01 X8.3524 Y-14.8820
G01 X8.3534 Y-14.9035
G01 X8.3569 Y-14.9268
G01 X8.3647 Y-14.9551
G01 X8.3733 Y-14.9763
G01 X8.3839 Y-14.9962
G01 X8.3961 Y-15.0144
G01 X8.4100 Y-15.0312
G01 X8.4242 Y-15.0454
G01 X8.4411 Y-15.0593
G01 X8.4529 Y-15.0675
G01 X8.4703 Y-15.0777
G01 X8.4912 Y-15.0873
G01 X10.0481 Y-15.6277
G01 X10.0444 Y-15.6580
G01 X10.0405 Y-15.7104
G01 X10.0392 Y-15.7629
G01 X10.0404 Y-15.8137
G01 X10.0445 Y-15.8695
G01 X10.0508 Y-15.9199
G01 X10.0594 Y-15.9700
G01 X10.0717 Y-16.0246
G01 X10.0853 Y-16.0735
G01 X10.1017 Y-16.1233
G01 X10.1213 Y-16.1740
G01 X10.1419 Y-16.2204
G01 X10.1648 Y-16.2658
G01 X10.1923 Y-16.3145
G01 X10.2195 Y-16.3574
G01 X10.2498 Y-16.4003
G01 X10.2832 Y-16.4430
G01 X10.3164 Y-16.4815
G01 X10.3526 Y-16.5195
G01 X10.3919 Y-16.5569
G01 X10.4304 Y-16.5900
G01 X10.4718 Y-16.6223
G01 X10.5162 Y-16.6535
G01 X10.5591 Y-16.6807
G01 X10.6033 Y-16.7057
G01 X10.6517 Y-16.7302
G01 X10.7013 Y-16.7521
G01 X10.7487 Y-16.7704
G01 X10.7970 Y-16.7863
G01 X10.8492 Y-16.8008
G01 X10.9005 Y-16.8123
G01 X10.9539 Y-16.8216
G01 X11.0043 Y-16.8277
G01 X11.0550 Y-16.8315
G01 X11.1092 Y-16.8329
G01 X11.1617 Y-16.8316
G01 X11.2141 Y-16.8277
G01 X11.2662 Y-16.8213
G01 X11.3196 Y-16.8120
G01 X11.3692 Y-16.8008
G01 X11.4214 Y-16.7863
G01 X11.4713 Y-16.7698
G01 X11.5187 Y-16.7515
G01 X11.5596 Y-16.7334
G01 X15.4454 Y-16.7334
G01 X15.4930 Y-16.7322
G01 X15.5388 Y-16.7288
G01 X15.5878 Y-16.7228
G01 X15.6364 Y-16.7143
G01 X15.6812 Y-16.7043
G01 X15.7255 Y-16.6920
G01 X15.7723 Y-16.6766
G01 X15.8168 Y-16.6595
G01 X15.8619 Y-16.6394
G01 X15.9029 Y-16.6188
G01 X15.9428 Y-16.5961
G01 X15.9845 Y-16.5698
G01 X16.0235 Y-16.5424
G01 X16.0624 Y-16.5120
G01 X16.0971 Y-16.4820
G01 X16.1304 Y-16.4503
G01 X16.1645 Y-16.4146
G01 X16.1956 Y-16.3785
G01 X16.2259 Y-16.3396
G01 X16.2532 Y-16.3006
G01 X16.2778 Y-16.2618
G01 X16.3004 Y-16.2219
G01 X16.3227 Y-16.1778
G01 X16.3420 Y-16.1343
G01 X16.3591 Y-16.0898
G01 X16.3745 Y-16.0430
G01 X16.3872 Y-15.9970
G01 X16.3972 Y-15.9522
G01 X16.4051 Y-15.9070
G01 X16.4112 Y-15.8580
G01 X16.4147 Y-15.8088
G01 X16.4159 Y-15.7629
G01 X16.4147 Y-15.7170
G01 X16.4113 Y-15.6695
G01 X16.4053 Y-15.6205
G01 X16.3972 Y-15.5736
G01 X16.3868 Y-15.5271
G01 X16.3735 Y-15.4796
G01 X16.3591 Y-15.4360
G01 X16.3426 Y-15.3931
G01 X16.3227 Y-15.3480
G01 X16.3013 Y-15.3054
G01 X16.2769 Y-15.2625
G01 X16.2523 Y-15.2237
G01 X16.2259 Y-15.1862
G01 X16.1956 Y-15.1473
G01 X16.1645 Y-15.1112
G01 X16.1304 Y-15.0755
G01 X16.0971 Y-15.0438
G01 X16.0624 Y-15.0138
G01 X16.0249 Y-14.9845
G01 X15.9846 Y-14.9560
G01 X15.9443 Y-14.9305
G01 X15.9029 Y-14.9070
G01 X15.8588 Y-14.8849
G01 X15.8152 Y-14.8657
G01 X15.7723 Y-14.8492
G01 X15.7287 Y-14.8348
G01 X15.6812 Y-14.8215
G01 X15.6347 Y-14.8111
G01 X15.5878 Y-14.8030
G01 X15.5405 Y-14.7971
G01 X15.4930 Y-14.7936
G01 X15.4454 Y-14.7924
G01 X11.5596 Y-14.7924
G01 X11.5187 Y-14.7743
G01 X11.4712 Y-14.7560
G01 X11.4214 Y-14.7395
G01 X11.3692 Y-14.7250
G01 X11.3179 Y-14.7135
G01 X11.2645 Y-14.7042
G01 X11.2141 Y-14.6981
G01 X11.1634 Y-14.6943
G01 X11.1092 Y-14.6929
G01 X11.0550 Y-14.6943
G01 X11.0043 Y-14.6981
G01 X10.9539 Y-14.7042
G01 X10.9021 Y-14.7131
G01 X10.8492 Y-14.7250
G01 X10.7986 Y-14.7390
G01 X10.7487 Y-14.7554
G01 X10.6981 Y-14.7750
G01 X10.6517 Y-14.7956
G01 X10.6063 Y-14.8185
G01 X10.5591 Y-14.8451
G01 X10.5147 Y-14.8732
G01 X10.4704 Y-14.9045
G01 X10.4304 Y-14.9358
G01 X10.3919 Y-14.9689
G01 X10.3526 Y-15.0063
G01 X10.3164 Y-15.0443
G01 X10.2810 Y-15.0854
G01 X10.2498 Y-15.1255
G01 X10.2205 Y-15.1670
G01 X10.1921 Y-15.2118
G01 X8.7934 Y-14.7265
G01 X8.8047 Y-12.4931
G01 X8.8075 Y-12.4815
G01 X8.8082 Y-12.4713
G01 X8.8082 Y-10.4713
G01 X8.8075 Y-10.4611
G01 X8.8041 Y-10.4478
G01 X8.8000 Y-10.4385
G01 X8.7942 Y-10.4293
G01 X8.7877 Y-10.4218
G01 X8.7779 Y-10.4137
G01 X8.7680 Y-10.4079
G01 X8.7584 Y-10.4043
G01 X8.7484 Y-10.4020
G01 X8.7382 Y-10.4013
G01 X8.4382 Y-10.4013
G01 X8.4280 Y-10.4020
G01 X8.4180 Y-10.4043
G01 X8.4084 Y-10.4079
G01 X8.3985 Y-10.4137
G01 X8.3913 Y-10.4193
G01 X8.3839 Y-10.4271
G01 X8.3784 Y-10.4350
G01 X8.3748 Y-10.4415
G01 X8.3712 Y-10.4511
G01 X8.3689 Y-10.4611
G01 X8.3682 Y-10.4713
G01 X8.3682 Y-11.7845
G00 Z3.0000
G00 X8.8682 Y-12.4713
G01 F80.00
G01 Z-0.0746
G01 F50.00
G01 X8.8683 Y-13.5334
G01 X8.8692 Y-13.5533
G01 X8.8708 Y-13.5661
G01 X8.8745 Y-13.5852
G01 X8.8778 Y-13.5973
G01 X8.8844 Y-13.6160
G01 X8.8895 Y-13.6275
G01 X8.8951 Y-13.6386
G01 X8.9054 Y-13.6556
G01 X8.9127 Y-13.6659
G01 X8.9242 Y-13.6799
G01 X8.9406 Y-13.6965
G01 X8.9578 Y-13.7106
G01 X8.9760 Y-13.7226
G01 X8.9977 Y-13.7339
G01 X9.0112 Y-13.7496
G01 X9.0335 Y-13.7717
G01 X9.0565 Y-13.7905
G01 X9.0833 Y-13.8084
G01 X9.0978 Y-13.8165
G01 X9.1231 Y-13.8285
G01 X9.1559 Y-13.8402
G01 X9.1831 Y-13.8470
G01 X9.2002 Y-13.8501
G01 X9.2175 Y-13.8521
G01 X9.2455 Y-13.8535
G01 X11.1522 Y-13.8535
G01 X11.1831 Y-13.8520
G01 X11.2120 Y-13.8479
G01 X11.2437 Y-13.8402
G01 X11.2729 Y-13.8299
G01 X11.3010 Y-13.8169
G01 X11.3269 Y-13.8016
G01 X13.5570 Y-12.3405
G01 X13.6050 Y-12.3417
G01 X15.6050 Y-12.3417
G01 X15.6575 Y-12.3404
G01 X15.7099 Y-12.3365
G01 X15.7621 Y-12.3301
G01 X15.8138 Y-12.3211
G01 X15.8668 Y-12.3092
G01 X15.9174 Y-12.2951
G01 X15.9656 Y-12.2791
G01 X16.0131 Y-12.2609
G01 X16.0627 Y-12.2389
G01 X16.1081 Y-12.2161
G01 X16.1568 Y-12.1885
G01 X16.1997 Y-12.1613
G01 X16.2427 Y-12.1310
G01 X16.2841 Y-12.0987
G01 X16.3226 Y-12.0655
G01 X16.3632 Y-12.0269
G01 X16.3982 Y-11.9901
G01 X16.4325 Y-11.9503
G01 X16.4648 Y-11.9089
G01 X16.4941 Y-11.8674
G01 X16.5241 Y-11.8201
G01 X16.5491 Y-11.7758
G01 X16.5727 Y-11.7289
G01 X16.5940 Y-11.6809
G01 X16.6123 Y-11.6335
G01 X16.6294 Y-11.5819
G01 X16.6434 Y-11.5313
G01 X16.6546 Y-11.4817
G01 X16.6641 Y-11.4266
G01 X16.6703 Y-11.3761
G01 X16.6741 Y-11.3254
G01 X16.6755 Y-11.2695
G01 X16.6742 Y-11.2187
G01 X16.6703 Y-11.1663
G01 X16.6639 Y-11.1141
G01 X16.6552 Y-11.0640
G01 X16.6434 Y-11.0111
G01 X16.6289 Y-10.9588
G01 X16.6129 Y-10.9106
G01 X16.5947 Y-10.8631
G01 X16.5720 Y-10.8120
G01 X16.5491 Y-10.7666
G01 X16.5241 Y-10.7223
G01 X16.4951 Y-10.6765
G01 X16.4648 Y-10.6335
G01 X16.4336 Y-10.5934
G01 X16.3970 Y-10.5510
G01 X16.3620 Y-10.5142
G01 X16.3252 Y-10.4792
G01 X16.2841 Y-10.4437
G01 X16.2413 Y-10.4104
G01 X16.1997 Y-10.3811
G01 X16.1553 Y-10.3530
G01 X16.1081 Y-10.3263
G01 X16.0627 Y-10.3035
G01 X16.0147 Y-10.2822
G01 X15.9640 Y-10.2627
G01 X15.9157 Y-10.2468
G01 X15.8651 Y-10.2328
G01 X15.8138 Y-10.2213
G01 X15.7604 Y-10.2121
G01 X15.7099 Y-10.2059
G01 X15.6592 Y-10.2021
G01 X15.6059 Y-10.2007
G01 X13.6050 Y-10.2007
G01 X13.5508 Y-10.2021
G01 X13.5001 Y-10.2059
G01 X13.4479 Y-10.2123
G01 X13.3945 Y-10.2216
G01 X13.3449 Y-10.2328
G01 X13.2943 Y-10.2468
G01 X13.2428 Y-10.2639
G01 X13.1953 Y-10.2822
G01 X13.1489 Y-10.3028
G01 X13.1004 Y-10.3271
G01 X13.0532 Y-10.3539
G01 X13.0103 Y-10.3811
G01 X12.9687 Y-10.4104
G01 X12.9259 Y-10.4437
G01 X12.8848 Y-10.4792
G01 X12.8480 Y-10.5142
G01 X12.8130 Y-10.5510
G01 X12.7775 Y-10.5921
G01 X12.7442 Y-10.6349
G01 X12.7149 Y-10.6765
G01 X12.6877 Y-10.7194
G01 X12.6609 Y-10.7666
G01 X12.6366 Y-10.8151
G01 X12.6160 Y-10.8615
G01 X12.5977 Y-10.9089
G01 X12.5806 Y-10.9605
G01 X12.5666 Y-11.0111
G01 X12.5548 Y-11.0640
G01 X12.5461 Y-11.1141
G01 X12.5398 Y-11.1646
G01 X12.5358 Y-11.2187
G01 X12.5345 Y-11.2729
G01 X12.5358 Y-11.3237
G01 X12.5395 Y-11.3744
G01 X12.5461 Y-11.4283
G01 X12.5554 Y-11.4817
G01 X12.5666 Y-11.5313
G01 X12.5801 Y-11.5803
G01 X12.5971 Y-11.6318
G01 X12.6167 Y-11.6824
G01 X12.6373 Y-11.7289
G01 X12.6601 Y-11.7743
G01 X12.6868 Y-11.8215
G01 X12.7159 Y-11.8674
G01 X12.7452 Y-11.9089
G01 X12.7764 Y-11.9490
G01 X12.8118 Y-11.9901
G01 X12.8551 Y-12.0350
G01 X11.0567 Y-13.2133
G01 X9.3085 Y-13.2133
G01 X9.3082 Y-10.4713
G01 X9.3075 Y-10.4611
G01 X9.3052 Y-10.4511
G01 X9.3000 Y-10.4385
G01 X9.2942 Y-10.4293
G01 X9.2877 Y-10.4218
G01 X9.2802 Y-10.4153
G01 X9.2710 Y-10.4095
G01 X9.2584 Y-10.4043
G01 X9.2484 Y-10.4020
G01 X9.2382 Y-10.4013
G01 X8.9382 Y-10.4013
G01 X8.9242 Y-10.4027
G01 X8.9115 Y-10.4066
G01 X8.9019 Y-10.4115
G01 X8.8913 Y-10.4193
G01 X8.8839 Y-10.4271
G01 X8.8764 Y-10.4385
G01 X8.8723 Y-10.4478
G01 X8.8696 Y-10.4573
G01 X8.8682 Y-10.4688
G01 X8.8682 Y-12.4713
G00 Z3.0000
G00 X9.3683 Y-12.4747
G01 F80.00
G01 Z-0.0746
G01 F50.00
G01 X9.3696 Y-12.4853
G01 X9.3723 Y-12.4948
G01 X9.3764 Y-12.5041
G01 X9.3839 Y-12.5155
G01 X9.3913 Y-12.5233
G01 X9.4019 Y-12.5311
G01 X9.4115 Y-12.5360
G01 X9.4211 Y-12.5392
G01 X9.4280 Y-12.5406
G01 X9.4382 Y-12.5413
G01 X9.6522 Y-12.5413
G01 X9.6829 Y-12.5577
G01 X9.7024 Y-12.5664
G01 X9.7351 Y-12.5780
G01 X9.7686 Y-12.5865
G01 X9.7899 Y-12.5902
G01 X9.8243 Y-12.5935
G01 X9.8589 Y-12.5936
G01 X9.8805 Y-12.5920
G01 X9.9130 Y-12.5872
G01 X9.9324 Y-12.5829
G01 X9.9516 Y-12.5775
G01 X9.9826 Y-12.5664
G01 X10.0008 Y-12.5584
G01 X10.0185 Y-12.5494
G01 X10.0467 Y-12.5325
G01 X10.0616 Y-12.5221
G01 X10.0773 Y-12.5099
G01 X10.0923 Y-12.4969
G01 X10.1156 Y-12.4736
G01 X10.1286 Y-12.4586
G01 X10.1512 Y-12.4280
G01 X10.1681 Y-12.3998
G01 X10.1764 Y-12.3834
G01 X10.1910 Y-12.3485
G01 X10.2020 Y-12.3121
G01 X10.2084 Y-12.2798
G01 X10.2107 Y-12.2618
G01 X10.2126 Y-12.2255
G01 X10.2127 Y-10.7719
G01 X13.2662 Y-9.2702
G01 X13.2943 Y-9.2794
G01 X13.3449 Y-9.2934
G01 X13.3962 Y-9.3049
G01 X13.4462 Y-9.3136
G01 X13.5018 Y-9.3205
G01 X13.5525 Y-9.3242
G01 X13.6033 Y-9.3255
G01 X15.6050 Y-9.3255
G01 X15.6575 Y-9.3242
G01 X15.7116 Y-9.3202
G01 X15.7621 Y-9.3139
G01 X15.8138 Y-9.3049
G01 X15.8668 Y-9.2930
G01 X15.9157 Y-9.2794
G01 X15.9640 Y-9.2635
G01 X16.0147 Y-9.2440
G01 X16.0642 Y-9.2220
G01 X16.1096 Y-9.1991
G01 X16.1539 Y-9.1741
G01 X16.1997 Y-9.1451
G01 X16.2427 Y-9.1148
G01 X16.2841 Y-9.0825
G01 X16.3239 Y-9.0482
G01 X16.3620 Y-9.0120
G01 X16.3982 Y-8.9739
G01 X16.4325 Y-8.9341
G01 X16.4648 Y-8.8927
G01 X16.4951 Y-8.8497
G01 X16.5232 Y-8.8053
G01 X16.5491 Y-8.7596
G01 X16.5727 Y-8.7127
G01 X16.5940 Y-8.6647
G01 X16.6129 Y-8.6156
G01 X16.6294 Y-8.5657
G01 X16.6434 Y-8.5151
G01 X16.6549 Y-8.4638
G01 X16.6639 Y-8.4121
G01 X16.6703 Y-8.3599
G01 X16.6742 Y-8.3075
G01 X16.6755 Y-8.2550
G01 X16.6742 Y-8.2025
G01 X16.6703 Y-8.1501
G01 X16.6639 Y-8.0979
G01 X16.6549 Y-8.0462
G01 X16.6434 Y-7.9949
G01 X16.6294 Y-7.9442
G01 X16.6129 Y-7.8944
G01 X16.5940 Y-7.8453
G01 X16.5727 Y-7.7973
G01 X16.5491 Y-7.7504
G01 X16.5232 Y-7.7047
G01 X16.4951 Y-7.6603
G01 X16.4648 Y-7.6173
G01 X16.4325 Y-7.5759
G01 X16.3982 Y-7.5361
G01 X16.3607 Y-7.4968
G01 X16.3226 Y-7.4607
G01 X16.2841 Y-7.4275
G01 X16.2441 Y-7.3962
G01 X16.1997 Y-7.3649
G01 X16.1553 Y-7.3368
G01 X16.1096 Y-7.3109
G01 X16.0611 Y-7.2866
G01 X16.0147 Y-7.2660
G01 X15.9673 Y-7.2477
G01 X15.9174 Y-7.2311
G01 X15.8651 Y-7.2166
G01 X15.8138 Y-7.2051
G01 X15.7621 Y-7.1961
G01 X15.7082 Y-7.1895
G01 X15.6575 Y-7.1858
G01 X15.6050 Y-7.1845
G01 X13.6050 Y-7.1845
G01 X13.5508 Y-7.1859
G01 X13.5001 Y-7.1897
G01 X13.4496 Y-7.1959
G01 X13.3962 Y-7.2051
G01 X13.3432 Y-7.2170
G01 X13.2943 Y-7.2306
G01 X13.2460 Y-7.2465
G01 X13.1953 Y-7.2660
G01 X13.1458 Y-7.2880
G01 X13.1004 Y-7.3109
G01 X13.0561 Y-7.3359
G01 X13.0097 Y-7.3653
G01 X12.9673 Y-7.3952
G01 X12.9259 Y-7.4275
G01 X12.8861 Y-7.4618
G01 X12.8480 Y-7.4980
G01 X12.8118 Y-7.5361
G01 X12.7775 Y-7.5759
G01 X12.7452 Y-7.6173
G01 X12.7149 Y-7.6603
G01 X12.6868 Y-7.7047
G01 X12.6609 Y-7.7504
G01 X12.6373 Y-7.7973
G01 X12.6160 Y-7.8453
G01 X12.5971 Y-7.8944
G01 X12.5806 Y-7.9442
G01 X12.5666 Y-7.9949
G01 X12.5551 Y-8.0462
G01 X12.5461 Y-8.0979
G01 X12.5397 Y-8.1501
G01 X12.5358 Y-8.2025
G01 X12.5345 Y-8.2550
G01 X12.5358 Y-8.3075
G01 X12.5397 Y-8.3599
G01 X12.5461 Y-8.4121
G01 X12.5551 Y-8.4638
G01 X12.5666 Y-8.5151
G01 X12.5806 Y-8.5657
G01 X12.5971 Y-8.6156
G01 X12.6160 Y-8.6647
G01 X12.6373 Y-8.7127
G01 X12.6609 Y-8.7596
G01 X12.6864 Y-8.8046
G01 X12.7043 Y-8.8330
G01 X9.6218 Y-10.3489
G01 X9.5962 Y-10.3631
G01 X9.5817 Y-10.3724
G01 X9.5678 Y-10.3825
G01 X9.5456 Y-10.4013
G01 X9.4382 Y-10.4013
G01 X9.4242 Y-10.4027
G01 X9.4115 Y-10.4066
G01 X9.3985 Y-10.4137
G01 X9.3887 Y-10.4218
G01 X9.3806 Y-10.4316
G01 X9.3748 Y-10.4415
G01 X9.3712 Y-10.4511
G01 X9.3689 Y-10.4611
G01 X9.3682 Y-10.4713
G01 X9.3683 Y-12.4747
G00 Z3.0000
G00 X8.1612 Y-13.6754
G01 F80.00
G01 Z-0.0746
G01 F50.00
G01 X8.2190 Y-13.5919
G01 X8.2185 Y-13.6935
G01 X8.1918 Y-13.6828
G01 X8.1778 Y-13.6788
G01 X8.1612 Y-13.6754
G00 Z3.0000
G00 X5.8641 Y-11.0670
G01 F80.00
G01 Z-0.0746
G01 F50.00
G01 X5.9242 Y-11.0070
G01 X5.9242 Y-11.0919
G01 X5.9092 Y-11.0824
G01 X5.8948 Y-11.0756
G01 X5.8808 Y-11.0707
G01 X5.8641 Y-11.0670
G01 X5.2581 Y-11.5742
G01 X5.9255 Y-10.9067
G01 X5.9320 Y-10.9019
G01 X5.9393 Y-10.8985
G01 X5.9471 Y-10.8965
G01 X5.9551 Y-10.8961
G01 X5.9631 Y-10.8973
G01 X5.9706 Y-10.9000
G01 X5.9775 Y-10.9041
G01 X5.9835 Y-10.9095
G01 X5.9883 Y-10.9160
G01 X5.9917 Y-10.9233
G01 X5.9937 Y-10.9311
G01 X5.9942 Y-10.9380
G01 X5.9942 Y-12.7140
G01 X5.9929 Y-12.7249
G01 X5.9893 Y-12.7342
G01 X5.9821 Y-12.7439
G01 X5.9742 Y-12.7501
G01 X5.9650 Y-12.7542
G01 X5.9531 Y-12.7559
G01 X5.9431 Y-12.7547
G01 X5.9338 Y-12.7511
G01 X5.9241 Y-12.7439
G01 X5.9179 Y-12.7360
G01 X5.9138 Y-12.7268
G01 X5.9121 Y-12.7169
G01 X5.9120 Y-11.2052
G01 X5.9113 Y-11.1952
G01 X5.9090 Y-11.1848
G01 X5.9054 Y-11.1755
G01 X5.9002 Y-11.1663
G01 X5.8915 Y-11.1557
G01 X5.8809 Y-11.1470
G01 X5.8661 Y-11.1395
G01 X5.8521 Y-11.1360
G01 X5.8382 Y-11.1353
G01 X5.8217 Y-11.1383
G01 X5.8091 Y-11.1435
G01 X5.7975 Y-11.1512
G01 X5.3161 Y-11.6322
G01 X5.3093 Y-11.6379
G01 X5.3022 Y-11.6417
G01 X5.2965 Y-11.6436
G01 X5.2885 Y-11.6448
G01 X5.2805 Y-11.6444
G01 X5.2727 Y-11.6424
G01 X5.2654 Y-11.6390
G01 X5.2589 Y-11.6342
G01 X5.2548 Y-11.6298
G01 X5.2503 Y-11.6231
G01 X5.2472 Y-11.6157
G01 X5.2457 Y-11.6078
G01 X5.2455 Y-11.6018
G01 X5.2467 Y-11.5938
G01 X5.2494 Y-11.5863
G01 X5.2535 Y-11.5794
G01 X5.2581 Y-11.5742
G00 Z3.0000
G00 X1.5106 Y-10.9124
G01 F80.00
G01 Z-0.0746
G01 F50.00
G01 X1.5302 Y-10.9836
G01 X1.5534 Y-11.0537
G01 X1.5788 Y-11.1194
G01 X1.6073 Y-11.1838
G01 X1.6405 Y-11.2499
G01 X1.6760 Y-11.3126
G01 X1.7156 Y-11.3750
G01 X1.7562 Y-11.4326
G01 X1.7995 Y-11.4881
G01 X1.8477 Y-11.5441
G01 X1.8975 Y-11.5963
G01 X1.9510 Y-11.6472
G01 X2.0043 Y-11.6932
G01 X2.0599 Y-11.7366
G01 X2.1202 Y-11.7792
G01 X2.1827 Y-11.8186
G01 X2.2439 Y-11.8533
G01 X2.3069 Y-11.8850
G01 X2.3744 Y-11.9150
G01 X2.4433 Y-11.9415
G01 X2.5102 Y-11.9636
G01 X2.5781 Y-11.9824
G01 X2.6486 Y-11.9983
G01 X2.7212 Y-12.0110
G01 X2.7945 Y-12.0200
G01 X2.8648 Y-12.0251
G01 X2.9352 Y-12.0269
G01 X3.0090 Y-12.0251
G01 X3.0827 Y-12.0196
G01 X3.1526 Y-12.0110
G01 X3.2220 Y-11.9990
G01 X3.2941 Y-11.9828
G01 X3.3653 Y-11.9631
G01 X3.4321 Y-11.9410
G01 X3.4978 Y-11.9156
G01 X3.5654 Y-11.8858
G01 X3.6299 Y-11.8533
G01 X3.6941 Y-11.8169
G01 X3.7536 Y-11.7792
G01 X3.8112 Y-11.7386
G01 X3.8695 Y-11.6932
G01 X3.9241 Y-11.6461
G01 X3.9763 Y-11.5963
G01 X4.0261 Y-11.5441
G01 X4.0732 Y-11.4895
G01 X4.1176 Y-11.4326
G01 X4.1592 Y-11.3736
G01 X4.1978 Y-11.3126
G01 X4.2341 Y-11.2483
G01 X4.2658 Y-11.1854
G01 X4.2956 Y-11.1178
G01 X4.3215 Y-11.0505
G01 X4.3436 Y-10.9836
G01 X4.3624 Y-10.9157
G01 X4.3787 Y-10.8437
G01 X4.3910 Y-10.7726
G01 X4.3998 Y-10.7010
G01 X4.4051 Y-10.6290
G01 X4.4069 Y-10.5569
G01 X4.4051 Y-10.4848
G01 X4.3998 Y-10.4128
G01 X4.3910 Y-10.3412
G01 X4.3787 Y-10.2701
G01 X4.3628 Y-10.1997
G01 X4.3436 Y-10.1302
G01 X4.3210 Y-10.0617
G01 X4.2950 Y-9.9944
G01 X4.2658 Y-9.9284
G01 X4.2333 Y-9.8639
G01 X4.1971 Y-9.8001
G01 X4.1592 Y-9.7402
G01 X4.1176 Y-9.6812
G01 X4.0732 Y-9.6243
G01 X4.0261 Y-9.5697
G01 X4.0074 Y-9.5500
G01 X4.0074 Y-8.8900
G01 X4.0054 Y-8.8280
G01 X6.0812 Y-9.5875
G01 X6.1101 Y-9.5966
G01 X6.1275 Y-9.6006
G01 X6.1450 Y-9.6037
G01 X6.1734 Y-9.6065
G01 X6.1903 Y-9.6070
G01 X6.7736 Y-9.6070
G01 X6.7737 Y-12.1453
G01 X6.7754 Y-12.1807
G01 X6.7804 Y-12.2149
G01 X6.7851 Y-12.2355
G01 X6.7950 Y-12.2684
G01 X6.8018 Y-12.2861
G01 X6.8099 Y-12.3042
G01 X6.8254 Y-12.3332
G01 X6.8360 Y-12.3500
G01 X6.8475 Y-12.3663
G01 X6.8684 Y-12.3917
G01 X6.8952 Y-12.4187
G01 X6.9103 Y-12.4316
G01 X6.9367 Y-12.4512
G01 X6.9693 Y-12.4708
G01 X7.0037 Y-12.4870
G01 X7.0207 Y-12.4935
G01 X7.0522 Y-12.5030
G01 X7.0716 Y-12.5074
G01 X7.0912 Y-12.5108
G01 X7.1241 Y-12.5140
G01 X7.1438 Y-12.5146
G01 X7.1818 Y-12.5126
G01 X7.1998 Y-12.5103
G01 X7.2284 Y-12.5047
G01 X7.2594 Y-12.5196
G01 X7.2906 Y-12.5306
G01 X7.3178 Y-12.5374
G01 X7.3332 Y-12.5402
G01 X7.3662 Y-12.5435
G01 X7.3976 Y-12.5435
G01 X7.4281 Y-12.5406
G01 X7.4382 Y-12.5413
G01 X7.7407 Y-12.5413
G01 X7.7484 Y-12.5406
G01 X7.7584 Y-12.5383
G01 X7.7681 Y-12.5346
G01 X7.7743 Y-12.5312
G01 X7.7824 Y-12.5256
G01 X7.7877 Y-12.5208
G01 X7.7943 Y-12.5131
G01 X7.7982 Y-12.5073
G01 X7.8014 Y-12.5013
G01 X7.8052 Y-12.4915
G01 X7.8074 Y-12.4818
G01 X7.8082 Y-12.4725
G01 X7.8082 Y-10.4701
G01 X7.8061 Y-10.4542
G01 X7.8029 Y-10.4446
G01 X7.7998 Y-10.4380
G01 X7.7943 Y-10.4295
G01 X7.7899 Y-10.4241
G01 X7.7773 Y-10.4133
G01 X7.7649 Y-10.4066
G01 X7.7553 Y-10.4034
G01 X7.7484 Y-10.4020
G01 X7.7382 Y-10.4013
G01 X7.7020 Y-10.4013
G01 X7.7020 Y-9.6070
G01 X9.0488 Y-9.6070
G01 X9.0662 Y-9.6065
G01 X9.0958 Y-9.6036
G01 X9.1129 Y-9.6005
G01 X9.1417 Y-9.5932
G01 X9.1697 Y-9.5833
G01 X9.1857 Y-9.5763
G01 X9.2012 Y-9.5684
G01 X9.2267 Y-9.5531
G01 X9.2409 Y-9.5430
G01 X9.2638 Y-9.5241
G01 X9.2764 Y-9.5120
G01 X9.2963 Y-9.4900
G01 X9.3140 Y-9.4662
G01 X9.3234 Y-9.4515
G01 X9.3319 Y-9.4363
G01 X9.3446 Y-9.4094
G01 X9.3546 Y-9.3815
G01 X9.3597 Y-9.3630
G01 X9.3657 Y-9.3322
G01 X9.3684 Y-9.3043
G01 X9.3689 Y-9.2886
G01 X9.3674 Y-9.2555
G01 X9.3628 Y-9.2244
G01 X9.3551 Y-9.1940
G01 X9.3439 Y-9.1628
G01 X9.3303 Y-9.1345
G01 X9.3225 Y-9.1209
G01 X9.3082 Y-9.0994
G01 X9.3082 Y-6.0713
G01 X9.3075 Y-6.0611
G01 X9.3052 Y-6.0511
G01 X9.3015 Y-6.0414
G01 X9.2981 Y-6.0352
G01 X9.2925 Y-6.0271
G01 X9.2877 Y-6.0218
G01 X9.2769 Y-6.0130
G01 X9.2682 Y-6.0081
G01 X9.2617 Y-6.0054
G01 X9.2452 Y-6.0016
G01 X8.9348 Y-6.0014
G01 X8.9242 Y-6.0027
G01 X8.9115 Y-6.0066
G01 X8.8995 Y-6.0130
G01 X8.8910 Y-6.0196
G01 X8.8839 Y-6.0271
G01 X8.8765 Y-6.0382
G01 X8.8723 Y-6.0478
G01 X8.8689 Y-6.0611
G01 X8.8682 Y-6.0713
G01 X8.8683 Y-8.9668
G01 X6.2479 Y-8.9668
G01 X3.8123 Y-8.0756
G01 X3.8122 Y-7.4473
G01 X3.8109 Y-7.4367
G01 X3.8082 Y-7.4272
G01 X3.8041 Y-7.4179
G01 X3.7984 Y-7.4088
G01 X3.7918 Y-7.4012
G01 X3.7841 Y-7.3945
G01 X3.7754 Y-7.3890
G01 X3.7658 Y-7.3847
G01 X3.7528 Y-7.3815
G01 X3.7423 Y-7.3807
G01 X2.1423 Y-7.3807
G01 X2.1318 Y-7.3815
G01 X2.1220 Y-7.3837
G01 X2.1125 Y-7.3874
G01 X2.1062 Y-7.3908
G01 X2.0928 Y-7.4012
G01 X2.0862 Y-7.4088
G01 X2.0822 Y-7.4148
G01 X2.0789 Y-7.4209
G01 X2.0753 Y-7.4305
G01 X2.0731 Y-7.4404
G01 X2.0724 Y-7.4473
G01 X2.0723 Y-8.2590
G01 X2.0468 Y-8.2953
G01 X2.0196 Y-8.3382
G01 X1.9928 Y-8.3854
G01 X1.9685 Y-8.4339
G01 X1.9479 Y-8.4803
G01 X1.9296 Y-8.5277
G01 X1.9125 Y-8.5793
G01 X1.8981 Y-8.6316
G01 X1.8870 Y-8.6812
G01 X1.8783 Y-8.7313
G01 X1.8716 Y-8.7845
G01 X1.8677 Y-8.8375
G01 X1.8664 Y-8.8891
G01 X1.8664 Y-9.5500
G01 X1.8477 Y-9.5697
G01 X1.8006 Y-9.6243
G01 X1.7552 Y-9.6826
G01 X1.7146 Y-9.7402
G01 X1.6769 Y-9.7997
G01 X1.6409 Y-9.8631
G01 X1.6080 Y-9.9284
G01 X1.5782 Y-9.9960
G01 X1.5528 Y-10.0617
G01 X1.5307 Y-10.1285
G01 X1.5110 Y-10.1997
G01 X1.4948 Y-10.2718
G01 X1.4828 Y-10.3412
G01 X1.4742 Y-10.4111
G01 X1.4687 Y-10.4848
G01 X1.4669 Y-10.5569
G01 X1.4687 Y-10.6290
G01 X1.4742 Y-10.7027
G01 X1.4828 Y-10.7726
G01 X1.4948 Y-10.8420
G01 X1.5106 Y-10.9124
G00 Z3.0000
G00 X1.9523 Y-7.3613
G01 F80.00
G01 Z-0.0746
G01 F50.00
G01 X1.9585 Y-7.3492
G01 X1.9668 Y-7.3355
G01 X1.9751 Y-7.3237
G01 X1.9849 Y-7.3117
G01 X1.9951 Y-7.3010
G01 X2.0066 Y-7.2904
G01 X2.0183 Y-7.2812
G01 X2.0309 Y-7.2727
G01 X2.0560 Y-7.2592
G01 X2.0704 Y-7.2534
G01 X2.0845 Y-7.2488
G01 X2.1127 Y-7.2428
G01 X2.1285 Y-7.2412
G01 X2.1423 Y-7.2407
G01 X3.7561 Y-7.2412
G01 X3.7702 Y-7.2426
G01 X3.7856 Y-7.2452
G01 X3.8111 Y-7.2523
G01 X3.8252 Y-7.2578
G01 X3.8383 Y-7.2640
G01 X3.8609 Y-7.2774
G01 X3.8819 Y-7.2939
G01 X3.9018 Y-7.3142
G01 X3.9188 Y-7.3370
G01 X3.9323 Y-7.3613
G01 X3.9324 Y-6.9401
G01 X3.9262 Y-6.9522
G01 X3.9179 Y-6.9659
G01 X3.9096 Y-6.9777
G01 X3.8998 Y-6.9897
G01 X3.8896 Y-7.0004
G01 X3.8781 Y-7.0110
G01 X3.8664 Y-7.0202
G01 X3.8538 Y-7.0287
G01 X3.8287 Y-7.0422
G01 X3.8143 Y-7.0480
G01 X3.8002 Y-7.0526
G01 X3.7720 Y-7.0586
G01 X3.7562 Y-7.0602
G01 X3.7424 Y-7.0607
G01 X2.1286 Y-7.0602
G01 X2.1145 Y-7.0588
G01 X2.0991 Y-7.0562
G01 X2.0736 Y-7.0491
G01 X2.0595 Y-7.0436
G01 X2.0464 Y-7.0374
G01 X2.0238 Y-7.0240
G01 X2.0028 Y-7.0075
G01 X1.9829 Y-6.9872
G01 X1.9659 Y-6.9644
G01 X1.9524 Y-6.9401
G01 X1.9523 Y-7.3613
G01 X2.0223 Y-7.1977
G01 X2.0407 Y-7.1898
G01 X2.0626 Y-7.1823
G01 X2.0843 Y-7.1768
G01 X2.1048 Y-7.1732
G01 X2.1240 Y-7.1713
G01 X2.1421 Y-7.1707
G01 X3.7459 Y-7.1707
G01 X3.7754 Y-7.1727
G01 X3.8060 Y-7.1781
G01 X3.8346 Y-7.1864
G01 X3.8624 Y-7.1978
G01 X3.8624 Y-7.1037
G01 X3.8347 Y-7.1150
G01 X3.8069 Y-7.1232
G01 X3.7755 Y-7.1287
G01 X3.7469 Y-7.1307
G01 X2.1424 Y-7.1307
G01 X2.1119 Y-7.1290
G01 X2.0819 Y-7.1241
G01 X2.0509 Y-7.1153
G01 X2.0223 Y-7.1036
G01 X2.0223 Y-7.1977
G00 Z3.0000
G00 X1.9524 Y-5.4613
G01 F80.00
G01 Z-0.0746
G01 F50.00
G01 X1.9524 Y-5.3607
G01 X2.0530 Y-5.3607
G01 X2.0370 Y-5.3691
G01 X2.0224 Y-5.3784
G01 X2.0067 Y-5.3904
G01 X1.9928 Y-5.4033
G01 X1.9818 Y-5.4155
G01 X1.9699 Y-5.4310
G01 X1.9603 Y-5.4461
G01 X1.9524 Y-5.4613
G01 X2.5034 Y-5.2907
G01 X2.5034 Y-5.4107
G01 X2.1338 Y-5.4110
G01 X2.1130 Y-5.4138
G01 X2.0939 Y-5.4194
G01 X2.0747 Y-5.4282
G01 X2.0576 Y-5.4394
G01 X2.0472 Y-5.4481
G01 X2.0378 Y-5.4576
G01 X2.0291 Y-5.4685
G01 X2.0231 Y-5.4774
G01 X2.0164 Y-5.4896
G01 X2.0111 Y-5.5022
G01 X2.0071 Y-5.5149
G01 X2.0042 Y-5.5282
G01 X2.0024 Y-5.5497
G01 X2.0024 Y-5.7617
G01 X1.8824 Y-5.7617
G01 X1.8824 Y-5.2907
G01 X2.5034 Y-5.2907
G01 X2.5734 Y-5.2207
G01 X2.5734 Y-5.4807
G01 X2.1411 Y-5.4807
G01 X2.1253 Y-5.4828
G01 X2.1126 Y-5.4874
G01 X2.1033 Y-5.4927
G01 X2.0954 Y-5.4988
G01 X2.0885 Y-5.5060
G01 X2.0842 Y-5.5118
G01 X2.0806 Y-5.5179
G01 X2.0765 Y-5.5272
G01 X2.0738 Y-5.5367
G01 X2.0727 Y-5.5440
G01 X2.0724 Y-5.8317
G01 X1.8124 Y-5.8317
G01 X1.8124 Y-5.2207
G01 X2.5734 Y-5.2207
G00 Z3.0000
G00 X3.8318 Y-5.3607
G01 F80.00
G01 Z-0.0746
G01 F50.00
G01 X3.9324 Y-5.3607
G01 X3.9324 Y-5.4613
G01 X3.9245 Y-5.4461
G01 X3.9149 Y-5.4310
G01 X3.9030 Y-5.4155
G01 X3.8920 Y-5.4033
G01 X3.8781 Y-5.3904
G01 X3.8624 Y-5.3784
G01 X3.8478 Y-5.3691
G01 X3.8318 Y-5.3607
G01 X4.0024 Y-5.7617
G01 X3.8824 Y-5.7617
G01 X3.8824 Y-5.5497
G01 X3.8806 Y-5.5282
G01 X3.8777 Y-5.5149
G01 X3.8737 Y-5.5022
G01 X3.8684 Y-5.4896
G01 X3.8617 Y-5.4774
G01 X3.8557 Y-5.4685
G01 X3.8470 Y-5.4576
G01 X3.8376 Y-5.4481
G01 X3.8272 Y-5.4394
G01 X3.8101 Y-5.4282
G01 X3.7909 Y-5.4194
G01 X3.7718 Y-5.4138
G01 X3.7510 Y-5.4110
G01 X3.3814 Y-5.4107
G01 X3.3814 Y-5.2907
G01 X4.0024 Y-5.2907
G01 X4.0024 Y-5.7617
G01 X4.0724 Y-5.8317
G01 X3.8124 Y-5.8317
G01 X3.8121 Y-5.5440
G01 X3.8110 Y-5.5367
G01 X3.8083 Y-5.5272
G01 X3.8042 Y-5.5179
G01 X3.8006 Y-5.5118
G01 X3.7963 Y-5.5060
G01 X3.7894 Y-5.4988
G01 X3.7815 Y-5.4927
G01 X3.7722 Y-5.4874
G01 X3.7595 Y-5.4828
G01 X3.7437 Y-5.4807
G01 X3.3114 Y-5.4807
G01 X3.3114 Y-5.2207
G01 X4.0724 Y-5.2207
G01 X4.0724 Y-5.8317
G00 Z3.0000
G00 X1.1150 Y-15.9970
G01 F80.00
G01 Z-0.0746
G01 F50.00
G01 X1.1287 Y-16.0462
G01 X1.1431 Y-16.0898
G01 X1.1602 Y-16.1343
G01 X1.1803 Y-16.1794
G01 X1.2009 Y-16.2204
G01 X1.2244 Y-16.2618
G01 X1.2509 Y-16.3035
G01 X1.2773 Y-16.3410
G01 X1.3066 Y-16.3785
G01 X1.3377 Y-16.4146
G01 X1.3694 Y-16.4479
G01 X1.4064 Y-16.4831
G01 X1.4412 Y-16.5131
G01 X1.4773 Y-16.5413
G01 X1.5191 Y-16.5707
G01 X1.5579 Y-16.5953
G01 X1.5993 Y-16.6188
G01 X1.6419 Y-16.6402
G01 X1.6838 Y-16.6588
G01 X1.7315 Y-16.6772
G01 X1.7752 Y-16.6916
G01 X1.8210 Y-16.7043
G01 X1.8692 Y-16.7150
G01 X1.9144 Y-16.7228
G01 X1.9617 Y-16.7287
G01 X2.0092 Y-16.7322
G01 X2.0568 Y-16.7334
G01 X5.8188 Y-16.7334
G01 X5.8597 Y-16.7515
G01 X5.9071 Y-16.7698
G01 X5.9570 Y-16.7863
G01 X6.0092 Y-16.8008
G01 X6.0605 Y-16.8123
G01 X6.1122 Y-16.8213
G01 X6.1660 Y-16.8279
G01 X6.2167 Y-16.8316
G01 X6.2675 Y-16.8329
G01 X6.3200 Y-16.8317
G01 X6.3758 Y-16.8276
G01 X6.4262 Y-16.8213
G01 X6.4779 Y-16.8123
G01 X6.5292 Y-16.8008
G01 X6.5782 Y-16.7873
G01 X6.6313 Y-16.7698
G01 X6.6787 Y-16.7515
G01 X6.7267 Y-16.7302
G01 X6.7736 Y-16.7066
G01 X6.8178 Y-16.6815
G01 X6.8651 Y-16.6516
G01 X6.9066 Y-16.6223
G01 X6.9467 Y-16.5911
G01 X6.9878 Y-16.5557
G01 X7.0258 Y-16.5195
G01 X7.0620 Y-16.4815
G01 X7.0963 Y-16.4417
G01 X7.1286 Y-16.4003
G01 X7.1589 Y-16.3574
G01 X7.1870 Y-16.3130
G01 X7.2136 Y-16.2658
G01 X7.2365 Y-16.2204
G01 X7.2578 Y-16.1724
G01 X7.2767 Y-16.1234
G01 X7.2936 Y-16.0719
G01 X7.3071 Y-16.0229
G01 X7.3190 Y-15.9700
G01 X7.3279 Y-15.9182
G01 X7.3340 Y-15.8678
G01 X7.3378 Y-15.8171
G01 X7.3392 Y-15.7629
G01 X7.3379 Y-15.7104
G01 X7.3340 Y-15.6580
G01 X7.3276 Y-15.6059
G01 X7.3186 Y-15.5542
G01 X7.3071 Y-15.5029
G01 X7.2931 Y-15.4523
G01 X7.2767 Y-15.4024
G01 X7.2578 Y-15.3534
G01 X7.2365 Y-15.3054
G01 X7.2129 Y-15.2585
G01 X7.1870 Y-15.2128
G01 X7.1589 Y-15.1684
G01 X7.1286 Y-15.1255
G01 X7.0963 Y-15.0841
G01 X7.0632 Y-15.0456
G01 X7.0512 Y-15.0329
G01 X8.2777 Y-13.2611
G01 X8.2890 Y-13.2428
G01 X8.2988 Y-13.2226
G01 X8.3065 Y-13.2016
G01 X8.3118 Y-13.1808
G01 X8.3153 Y-13.1577
G01 X8.3163 Y-13.1357
G01 X8.3082 Y-11.7845
G01 X8.3082 Y-10.4688
G01 X8.3068 Y-10.4573
G01 X8.3029 Y-10.4446
G01 X8.2958 Y-10.4316
G01 X8.2877 Y-10.4218
G01 X8.2779 Y-10.4137
G01 X8.2649 Y-10.4066
G01 X8.2522 Y-10.4027
G01 X8.2407 Y-10.4013
G01 X7.9382 Y-10.4013
G01 X7.9280 Y-10.4020
G01 X7.9180 Y-10.4043
G01 X7.9083 Y-10.4080
G01 X7.8991 Y-10.4133
G01 X7.8887 Y-10.4218
G01 X7.8821 Y-10.4295
G01 X7.8750 Y-10.4413
G01 X7.8712 Y-10.4511
G01 X7.8690 Y-10.4608
G01 X7.8682 Y-10.4713
G01 X7.8682 Y-12.4713
G01 X7.8690 Y-12.4818
G01 X7.8723 Y-12.4949
G01 X7.8757 Y-13.0685
G01 X6.6911 Y-14.7798
G01 X6.6771 Y-14.7737
G01 X6.6297 Y-14.7554
G01 X6.5801 Y-14.7391
G01 X6.5292 Y-14.7250
G01 X6.4779 Y-14.7135
G01 X6.4262 Y-14.7045
G01 X6.3741 Y-14.6981
G01 X6.3217 Y-14.6942
G01 X6.2692 Y-14.6929
G01 X6.2167 Y-14.6942
G01 X6.1643 Y-14.6981
G01 X6.1122 Y-14.7045
G01 X6.0589 Y-14.7138
G01 X6.0092 Y-14.7250
G01 X5.9570 Y-14.7395
G01 X5.9072 Y-14.7560
G01 X5.8597 Y-14.7743
G01 X5.8188 Y-14.7924
G01 X2.0559 Y-14.7925
G01 X2.0092 Y-14.7936
G01 X1.9634 Y-14.7970
G01 X1.9144 Y-14.8030
G01 X1.8658 Y-14.8115
G01 X1.8210 Y-14.8215
G01 X1.7751 Y-14.8342
G01 X1.7299 Y-14.8492
G01 X1.6838 Y-14.8670
G01 X1.6419 Y-14.8856
G01 X1.6009 Y-14.9062
G01 X1.5579 Y-14.9305
G01 X1.5176 Y-14.9560
G01 X1.4773 Y-14.9845
G01 X1.4412 Y-15.0127
G01 X1.4064 Y-15.0427
G01 X1.3706 Y-15.0767
G01 X1.3377 Y-15.1112
G01 X1.3056 Y-15.1486
G01 X1.2773 Y-15.1848
G01 X1.2509 Y-15.2223
G01 X1.2244 Y-15.2640
G01 X1.2009 Y-15.3054
G01 X1.1788 Y-15.3495
G01 X1.1602 Y-15.3915
G01 X1.1437 Y-15.4344
G01 X1.1281 Y-15.4812
G01 X1.1150 Y-15.5288
G01 X1.1050 Y-15.5736
G01 X1.0971 Y-15.6188
G01 X1.0910 Y-15.6678
G01 X1.0875 Y-15.7170
G01 X1.0863 Y-15.7629
G01 X1.0875 Y-15.8088
G01 X1.0910 Y-15.8580
G01 X1.0971 Y-15.9070
G01 X1.1050 Y-15.9522
G01 X1.1150 Y-15.9970
G01 X1.0469 Y-16.0132
G01 X1.0469 Y-16.0132
G01 X1.0614 Y-16.0657
G01 X1.0784 Y-16.1166
G01 X1.0959 Y-16.1619
G01 X1.1148 Y-16.2046
G01 X1.1391 Y-16.2531
G01 X1.1646 Y-16.2981
G01 X1.1936 Y-16.3438
G01 X1.2232 Y-16.3854
G01 X1.2520 Y-16.4223
G01 X1.2836 Y-16.4590
G01 X1.3206 Y-16.4981
G01 X1.3574 Y-16.5332
G01 X1.3961 Y-16.5666
G01 X1.3994 Y-16.5693
G01 X1.4343 Y-16.5965
G01 X1.4363 Y-16.5981
G01 X1.4781 Y-16.6275
G01 X1.5212 Y-16.6549
G01 X1.5656 Y-16.6801
G01 X1.6116 Y-16.7033
G01 X1.6578 Y-16.7238
G01 X1.7055 Y-16.7422
G01 X1.7548 Y-16.7586
G01 X1.8032 Y-16.7720
G01 X1.8530 Y-16.7832
G01 X1.9042 Y-16.7921
G01 X1.9540 Y-16.7983
G01 X2.0032 Y-16.8019
G01 X2.0568 Y-16.8034
G01 X5.8040 Y-16.8034
G01 X5.8337 Y-16.8164
G01 X5.8827 Y-16.8354
G01 X5.9357 Y-16.8530
G01 X5.9914 Y-16.8685
G01 X6.0443 Y-16.8805
G01 X6.1019 Y-16.8906
G01 X6.1566 Y-16.8973
G01 X6.2124 Y-16.9015
G01 X6.2683 Y-16.9029
G01 X6.3243 Y-16.9016
G01 X6.3818 Y-16.8973
G01 X6.4365 Y-16.8906
G01 X6.4924 Y-16.8808
G01 X6.5470 Y-16.8685
G01 X6.6005 Y-16.8537
G01 X6.6541 Y-16.8360
G01 X6.7086 Y-16.8148
G01 X6.7568 Y-16.7934
G01 X6.8035 Y-16.7699
G01 X6.8523 Y-16.7424
G01 X6.9025 Y-16.7108
G01 X6.9490 Y-16.6780
G01 X6.9931 Y-16.6436
G01 X7.0373 Y-16.6052
G01 X7.0753 Y-16.5690
G01 X7.1115 Y-16.5310
G01 X7.1484 Y-16.4885
G01 X7.1843 Y-16.4427
G01 X7.2175 Y-16.3955
G01 X7.2472 Y-16.3486
G01 X7.2762 Y-16.2972
G01 X7.3012 Y-16.2472
G01 X7.3227 Y-16.1984
G01 X7.3414 Y-16.1502
G01 X7.3603 Y-16.0933
G01 X7.3752 Y-16.0391
G01 X7.3879 Y-15.9819
G01 X7.3970 Y-15.9293
G01 X7.4033 Y-15.8781
G01 X7.4078 Y-15.8184
G01 X7.4092 Y-15.7633
G01 X7.4078 Y-15.7074
G01 X7.4033 Y-15.6477
G01 X7.3970 Y-15.5965
G01 X7.3879 Y-15.5439
G01 X7.3756 Y-15.4884
G01 X7.3599 Y-15.4312
G01 X7.3414 Y-15.3757
G01 X7.3223 Y-15.3264
G01 X7.3012 Y-15.2786
G01 X7.2758 Y-15.2278
G01 X7.2472 Y-15.1772
G01 X7.2165 Y-15.1287
G01 X7.1843 Y-15.0831
G01 X7.1521 Y-15.0417
G01 X7.1400 Y-15.0276
G01 X8.2901 Y-13.3661
G01 X8.2826 Y-14.8923
G01 X8.2840 Y-14.9127
G01 X8.2872 Y-14.9352
G01 X8.2908 Y-14.9518
G01 X8.2958 Y-14.9699
G01 X8.3035 Y-14.9913
G01 X8.3106 Y-15.0076
G01 X8.3221 Y-15.0293
G01 X8.3331 Y-15.0466
G01 X8.3471 Y-15.0654
G01 X8.3589 Y-15.0790
G01 X8.3762 Y-15.0963
G01 X8.3904 Y-15.1086
G01 X8.4101 Y-15.1231
G01 X8.4256 Y-15.1329
G01 X8.4476 Y-15.1446
G01 X8.4663 Y-15.1527
G01 X9.9728 Y-15.6757
G01 X9.9705 Y-15.7078
G01 X9.9692 Y-15.7638
G01 X9.9705 Y-15.8180
G01 X9.9745 Y-15.8721
G01 X9.9821 Y-15.9336
G01 X9.9913 Y-15.9861
G01 X10.0028 Y-16.0374
G01 X10.0193 Y-16.0971
G01 X10.0358 Y-16.1469
G01 X10.0560 Y-16.1992
G01 X10.0783 Y-16.2495
G01 X10.1022 Y-16.2972
G01 X10.1318 Y-16.3497
G01 X10.1609 Y-16.3955
G01 X10.1915 Y-16.4392
G01 X10.2302 Y-16.4887
G01 X10.2644 Y-16.5284
G01 X10.3037 Y-16.5696
G01 X10.3430 Y-16.6070
G01 X10.3834 Y-16.6419
G01 X10.4329 Y-16.6806
G01 X10.4759 Y-16.7108
G01 X10.5224 Y-16.7403
G01 X10.5711 Y-16.7679
G01 X10.6188 Y-16.7920
G01 X10.6761 Y-16.8174
G01 X10.7260 Y-16.8365
G01 X10.7791 Y-16.8541
G01 X10.8330 Y-16.8689
G01 X10.8876 Y-16.8812
G01 X10.9421 Y-16.8906
G01 X10.9983 Y-16.8975
G01 X11.0541 Y-16.9016
G01 X11.1101 Y-16.9029
G01 X11.1660 Y-16.9015
G01 X11.2218 Y-16.8973
G01 X11.2767 Y-16.8905
G01 X11.3341 Y-16.8805
G01 X11.3870 Y-16.8685
G01 X11.4426 Y-16.8530
G01 X11.4957 Y-16.8354
G01 X11.5447 Y-16.8164
G01 X11.5744 Y-16.8034
G01 X15.4454 Y-16.8034
G01 X15.4990 Y-16.8019
G01 X15.5482 Y-16.7983
G01 X15.5983 Y-16.7921
G01 X15.6492 Y-16.7832
G01 X15.6990 Y-16.7720
G01 X15.7482 Y-16.7583
G01 X15.7967 Y-16.7422
G01 X15.8444 Y-16.7238
G01 X15.8900 Y-16.7036
G01 X15.9351 Y-16.6809
G01 X15.9796 Y-16.6558
G01 X16.0234 Y-16.6281
G01 X16.0649 Y-16.5988
G01 X16.1061 Y-16.5666
G01 X16.1448 Y-16.5332
G01 X16.1817 Y-16.4980
G01 X16.2169 Y-16.4610
G01 X16.2518 Y-16.4203
G01 X16.2816 Y-16.3820
G01 X16.3086 Y-16.3438
G01 X16.3374 Y-16.2985
G01 X16.3634 Y-16.2526
G01 X16.3874 Y-16.2046
G01 X16.4063 Y-16.1619
G01 X16.4238 Y-16.1166
G01 X16.4412 Y-16.0644
G01 X16.4549 Y-16.0149
G01 X16.4665 Y-15.9625
G01 X16.4746 Y-15.9154
G01 X16.4805 Y-15.8683
G01 X16.4845 Y-15.8148
G01 X16.4858 Y-15.7620
G01 X16.4844 Y-15.7084
G01 X16.4809 Y-15.6618
G01 X16.4751 Y-15.6136
G01 X16.4660 Y-15.5608
G01 X16.4549 Y-15.5109
G01 X16.4408 Y-15.4601
G01 X16.4238 Y-15.4092
G01 X16.4063 Y-15.3639
G01 X16.3874 Y-15.3212
G01 X16.3634 Y-15.2732
G01 X16.3374 Y-15.2273
G01 X16.3086 Y-15.1820
G01 X16.2813 Y-15.1434
G01 X16.2518 Y-15.1055
G01 X16.2169 Y-15.0648
G01 X16.1805 Y-15.0266
G01 X16.1415 Y-14.9897
G01 X16.1048 Y-14.9581
G01 X16.0679 Y-14.9293
G01 X16.0234 Y-14.8978
G01 X15.9799 Y-14.8703
G01 X15.9328 Y-14.8437
G01 X15.8900 Y-14.8222
G01 X15.8467 Y-14.8030
G01 X15.7982 Y-14.7841
G01 X15.7482 Y-14.7675
G01 X15.7015 Y-14.7545
G01 X15.6450 Y-14.7418
G01 X15.5979 Y-14.7337
G01 X15.5465 Y-14.7274
G01 X15.4973 Y-14.7238
G01 X15.4475 Y-14.7225
G01 X11.5744 Y-14.7224
G01 X11.5447 Y-14.7094
G01 X11.4956 Y-14.6904
G01 X11.4426 Y-14.6728
G01 X11.3870 Y-14.6573
G01 X11.3308 Y-14.6446
G01 X11.2731 Y-14.6348
G01 X11.2218 Y-14.6285
G01 X11.1686 Y-14.6245
G01 X11.1101 Y-14.6229
G01 X11.0524 Y-14.6243
G01 X10.9966 Y-14.6285
G01 X10.9385 Y-14.6358
G01 X10.8834 Y-14.6455
G01 X10.8314 Y-14.6573
G01 X10.7816 Y-14.6710
G01 X10.7260 Y-14.6893
G01 X10.6737 Y-14.7094
G01 X10.6221 Y-14.7322
G01 X10.5688 Y-14.7592
G01 X10.5235 Y-14.7849
G01 X10.4787 Y-14.8132
G01 X10.4329 Y-14.8452
G01 X10.3861 Y-14.8816
G01 X10.3437 Y-14.9181
G01 X10.3025 Y-14.9574
G01 X10.2622 Y-14.9999
G01 X10.2279 Y-15.0397
G01 X10.1956 Y-15.0811
G01 X10.1630 Y-15.1271
G01 X8.8636 Y-14.6768
G01 X8.8685 Y-13.7225
G01 X8.8839 Y-13.7391
G01 X8.9045 Y-13.7577
G01 X8.9273 Y-13.7746
G01 X8.9537 Y-13.7903
G01 X8.9732 Y-13.8111
G01 X8.9990 Y-13.8344
G01 X9.0276 Y-13.8558
G01 X9.0485 Y-13.8691
G01 X9.0641 Y-13.8779
G01 X9.0835 Y-13.8875
G01 X9.1011 Y-13.8951
G01 X9.1307 Y-13.9057
G01 X9.1516 Y-13.9116
G01 X9.1702 Y-13.9159
G01 X9.1901 Y-13.9193
G01 X9.2115 Y-13.9219
G01 X9.2472 Y-13.9235
G01 X11.1526 Y-13.9235
G01 X11.1907 Y-13.9216
G01 X11.2094 Y-13.9193
G01 X11.2296 Y-13.9157
G01 X11.2640 Y-13.9071
G01 X11.3001 Y-13.8944
G01 X11.3328 Y-13.8792
G01 X11.3649 Y-13.8604
G01 X13.5771 Y-12.4111
G01 X13.6050 Y-12.4117
G01 X15.6050 Y-12.4117
G01 X15.6601 Y-12.4104
G01 X15.7159 Y-12.4063
G01 X15.7757 Y-12.3988
G01 X15.8283 Y-12.3896
G01 X15.8830 Y-12.3773
G01 X15.9352 Y-12.3628
G01 X15.9860 Y-12.3461
G01 X16.0422 Y-12.3246
G01 X16.0918 Y-12.3026
G01 X16.1396 Y-12.2786
G01 X16.1910 Y-12.2497
G01 X16.2379 Y-12.2200
G01 X16.2816 Y-12.1893
G01 X16.3312 Y-12.1506
G01 X16.3708 Y-12.1163
G01 X16.4090 Y-12.0801
G01 X16.4477 Y-12.0396
G01 X16.4861 Y-11.9954
G01 X16.5213 Y-11.9503
G01 X16.5534 Y-11.9047
G01 X16.5850 Y-11.8546
G01 X16.6124 Y-11.8058
G01 X16.6361 Y-11.7585
G01 X16.6573 Y-11.7108
G01 X16.6785 Y-11.6562
G01 X16.6961 Y-11.6031
G01 X16.7115 Y-11.5475
G01 X16.7242 Y-11.4903
G01 X16.7336 Y-11.4351
G01 X16.7401 Y-11.3821
G01 X16.7439 Y-11.3306
G01 X16.7455 Y-11.2721
G01 X16.7441 Y-11.2144
G01 X16.7399 Y-11.1586
G01 X16.7326 Y-11.1005
G01 X16.7234 Y-11.0479
G01 X16.7121 Y-10.9974
G01 X16.6973 Y-10.9434
G01 X16.6791 Y-10.8878
G01 X16.6584 Y-10.8340
G01 X16.6361 Y-10.7839
G01 X16.6092 Y-10.7306
G01 X16.5814 Y-10.6819
G01 X16.5533 Y-10.6376
G01 X16.5231 Y-10.5946
G01 X16.4872 Y-10.5483
G01 X16.4495 Y-10.5047
G01 X16.4108 Y-10.4641
G01 X16.3683 Y-10.4239
G01 X16.3279 Y-10.3890
G01 X16.2871 Y-10.3572
G01 X16.2408 Y-10.3244
G01 X16.1884 Y-10.2912
G01 X16.1419 Y-10.2650
G01 X16.0957 Y-10.2417
G01 X16.0407 Y-10.2172
G01 X15.9860 Y-10.1963
G01 X15.9369 Y-10.1801
G01 X15.8854 Y-10.1658
G01 X15.8267 Y-10.1525
G01 X15.7689 Y-10.1426
G01 X15.7159 Y-10.1361
G01 X15.6635 Y-10.1322
G01 X15.6050 Y-10.1307
G01 X13.6046 Y-10.1307
G01 X13.5456 Y-10.1323
G01 X13.4924 Y-10.1363
G01 X13.4382 Y-10.1430
G01 X13.3791 Y-10.1533
G01 X13.3270 Y-10.1651
G01 X13.2772 Y-10.1789
G01 X13.2200 Y-10.1977
G01 X13.1654 Y-10.2189
G01 X13.1177 Y-10.2401
G01 X13.0704 Y-10.2638
G01 X13.0190 Y-10.2927
G01 X12.9685 Y-10.3249
G01 X12.9259 Y-10.3549
G01 X12.8815 Y-10.3895
G01 X12.8366 Y-10.4285
G01 X12.7979 Y-10.4654
G01 X12.7623 Y-10.5028
G01 X12.7233 Y-10.5477
G01 X12.6869 Y-10.5946
G01 X12.6567 Y-10.6376
G01 X12.6286 Y-10.6819
G01 X12.5988 Y-10.7343
G01 X12.5739 Y-10.7839
G01 X12.5527 Y-10.8316
G01 X12.5315 Y-10.8862
G01 X12.5127 Y-10.9434
G01 X12.4989 Y-10.9932
G01 X12.4871 Y-11.0453
G01 X12.4768 Y-11.1040
G01 X12.4697 Y-11.1628
G01 X12.4659 Y-11.2144
G01 X12.4645 Y-11.2678
G01 X12.4659 Y-11.3280
G01 X12.4704 Y-11.3864
G01 X12.4769 Y-11.4387
G01 X12.4863 Y-11.4929
G01 X12.4996 Y-11.5516
G01 X12.5139 Y-11.6031
G01 X12.5301 Y-11.6522
G01 X12.5510 Y-11.7069
G01 X12.5750 Y-11.7609
G01 X12.5988 Y-11.8081
G01 X12.6250 Y-11.8546
G01 X12.6562 Y-11.9040
G01 X12.6905 Y-11.9526
G01 X12.7233 Y-11.9946
G01 X12.7470 Y-12.0221
G01 X11.0358 Y-13.1433
G01 X9.3785 Y-13.1433
G01 X9.3785 Y-12.5979
G01 X9.3929 Y-12.6037
G01 X9.4055 Y-12.6074
G01 X9.4198 Y-12.6101
G01 X9.4318 Y-12.6112
G01 X9.6338 Y-12.6113
G01 X9.6546 Y-12.6218
G01 X9.6733 Y-12.6301
G01 X9.6934 Y-12.6379
G01 X9.7139 Y-12.6447
G01 X9.7347 Y-12.6505
G01 X9.7558 Y-12.6553
G01 X9.7781 Y-12.6592
G01 X9.8002 Y-12.6619
G01 X9.8416 Y-12.6639
G01 X9.8822 Y-12.6621
G01 X9.9098 Y-12.6588
G01 X9.9486 Y-12.6510
G01 X9.9711 Y-12.6447
G01 X9.9939 Y-12.6370
G01 X10.0276 Y-12.6231
G01 X10.0492 Y-12.6124
G01 X10.0695 Y-12.6009
G01 X10.0899 Y-12.5878
G01 X10.1074 Y-12.5753
G01 X10.1355 Y-12.5522
G01 X10.1531 Y-12.5356
G01 X10.1704 Y-12.5174
G01 X10.1849 Y-12.5003
G01 X10.2065 Y-12.4712
G01 X10.2196 Y-12.4508
G01 X10.2311 Y-12.4305
G01 X10.2408 Y-12.4111
G01 X10.2504 Y-12.3890
G01 X10.2639 Y-12.3507
G01 X10.2697 Y-12.3299
G01 X10.2744 Y-12.3088
G01 X10.2804 Y-12.2678
G01 X10.2826 Y-12.2268
G01 X10.2827 Y-10.8154
G01 X13.2714 Y-9.3456
G01 X13.3312 Y-9.3621
G01 X13.3833 Y-9.3737
G01 X13.4375 Y-9.3831
G01 X13.4966 Y-9.3903
G01 X13.5499 Y-9.3942
G01 X13.6020 Y-9.3955
G01 X15.6050 Y-9.3955
G01 X15.6644 Y-9.3939
G01 X15.7176 Y-9.3899
G01 X15.7689 Y-9.3836
G01 X15.8309 Y-9.3729
G01 X15.8830 Y-9.3611
G01 X15.9369 Y-9.3461
G01 X15.9884 Y-9.3291
G01 X16.0383 Y-9.3100
G01 X16.0957 Y-9.2845
G01 X16.1434 Y-9.2604
G01 X16.1910 Y-9.2335
G01 X16.2379 Y-9.2038
G01 X16.2816 Y-9.1731
G01 X16.3292 Y-9.1361
G01 X16.3708 Y-9.1001
G01 X16.4139 Y-9.0590
G01 X16.4495 Y-9.0215
G01 X16.4844 Y-8.9812
G01 X16.5190 Y-8.9371
G01 X16.5533 Y-8.8886
G01 X16.5828 Y-8.8421
G01 X16.6112 Y-8.7919
G01 X16.6374 Y-8.7395
G01 X16.6600 Y-8.6883
G01 X16.6785 Y-8.6400
G01 X16.6954 Y-8.5893
G01 X16.7111 Y-8.5330
G01 X16.7234 Y-8.4783
G01 X16.7332 Y-8.4222
G01 X16.7403 Y-8.3634
G01 X16.7443 Y-8.3075
G01 X16.7455 Y-8.2541
G01 X16.7443 Y-8.2025
G01 X16.7401 Y-8.1441
G01 X16.7332 Y-8.0878
G01 X16.7234 Y-8.0317
G01 X16.7104 Y-7.9746
G01 X16.6964 Y-7.9238
G01 X16.6799 Y-7.8740
G01 X16.6600 Y-7.8217
G01 X16.6359 Y-7.7672
G01 X16.6112 Y-7.7181
G01 X16.5837 Y-7.6694
G01 X16.5533 Y-7.6214
G01 X16.5205 Y-7.5749
G01 X16.4844 Y-7.5288
G01 X16.4495 Y-7.4885
G01 X16.4139 Y-7.4510
G01 X16.3733 Y-7.4122
G01 X16.3290 Y-7.3738
G01 X16.2838 Y-7.3385
G01 X16.2393 Y-7.3072
G01 X16.1943 Y-7.2786
G01 X16.1428 Y-7.2493
G01 X16.0922 Y-7.2238
G01 X16.0446 Y-7.2027
G01 X15.9889 Y-7.1810
G01 X15.9369 Y-7.1639
G01 X15.8854 Y-7.1496
G01 X15.8268 Y-7.1363
G01 X15.7732 Y-7.1270
G01 X15.7202 Y-7.1204
G01 X15.6605 Y-7.1159
G01 X15.6050 Y-7.1145
G01 X13.6050 Y-7.1145
G01 X13.5525 Y-7.1157
G01 X13.4898 Y-7.1204
G01 X13.4368 Y-7.1270
G01 X13.3832 Y-7.1363
G01 X13.3246 Y-7.1496
G01 X13.2731 Y-7.1639
G01 X13.2211 Y-7.1810
G01 X13.1683 Y-7.2014
G01 X13.1167 Y-7.2243
G01 X13.0672 Y-7.2493
G01 X13.0157 Y-7.2786
G01 X12.9685 Y-7.3087
G01 X12.9263 Y-7.3384
G01 X12.8842 Y-7.3712
G01 X12.8397 Y-7.4094
G01 X12.7992 Y-7.4479
G01 X12.7605 Y-7.4885
G01 X12.7228 Y-7.5321
G01 X12.6884 Y-7.5763
G01 X12.6548 Y-7.6243
G01 X12.6269 Y-7.6685
G01 X12.6008 Y-7.7144
G01 X12.5755 Y-7.7643
G01 X12.5516 Y-7.8178
G01 X12.5323 Y-7.8677
G01 X12.5136 Y-7.9238
G01 X12.4985 Y-7.9787
G01 X12.4863 Y-8.0333
G01 X12.4764 Y-8.0911
G01 X12.4701 Y-8.1424
G01 X12.4661 Y-8.1956
G01 X12.4645 Y-8.2516
G01 X12.4658 Y-8.3101
G01 X12.4697 Y-8.3634
G01 X12.4768 Y-8.4222
G01 X12.4863 Y-8.4767
G01 X12.4989 Y-8.5330
G01 X12.5139 Y-8.5869
G01 X12.5315 Y-8.6400
G01 X12.5516 Y-8.6922
G01 X12.5743 Y-8.7433
G01 X12.6054 Y-8.8037
G01 X9.5909 Y-10.2861
G01 X9.5735 Y-10.2953
G01 X9.5557 Y-10.3058
G01 X9.5400 Y-10.3162
G01 X9.5198 Y-10.3313
G01 X9.4327 Y-10.3314
G01 X9.4198 Y-10.3325
G01 X9.4055 Y-10.3352
G01 X9.3865 Y-10.3412
G01 X9.3708 Y-10.3486
G01 X9.3531 Y-10.3601
G01 X9.3382 Y-10.3733
G01 X9.3280 Y-10.3639
G01 X9.3188 Y-10.3568
G01 X9.3056 Y-10.3486
G01 X9.2931 Y-10.3425
G01 X9.2803 Y-10.3378
G01 X9.2677 Y-10.3345
G01 X9.2566 Y-10.3325
G01 X9.2419 Y-10.3314
G01 X8.9382 Y-10.3313
G01 X8.9236 Y-10.3321
G01 X8.9122 Y-10.3338
G01 X8.8993 Y-10.3368
G01 X8.8771 Y-10.3453
G01 X8.8673 Y-10.3506
G01 X8.8554 Y-10.3584
G01 X8.8382 Y-10.3733
G01 X8.8280 Y-10.3639
G01 X8.8188 Y-10.3568
G01 X8.8091 Y-10.3506
G01 X8.7962 Y-10.3439
G01 X8.7835 Y-10.3389
G01 X8.7709 Y-10.3352
G01 X8.7566 Y-10.3325
G01 X8.7437 Y-10.3314
G01 X8.4382 Y-10.3313
G01 X8.4236 Y-10.3321
G01 X8.4122 Y-10.3338
G01 X8.3993 Y-10.3368
G01 X8.3771 Y-10.3453
G01 X8.3673 Y-10.3506
G01 X8.3554 Y-10.3584
G01 X8.3382 Y-10.3733
G01 X8.3280 Y-10.3639
G01 X8.3188 Y-10.3568
G01 X8.3091 Y-10.3506
G01 X8.2962 Y-10.3439
G01 X8.2835 Y-10.3389
G01 X8.2709 Y-10.3352
G01 X8.2604 Y-10.3331
G01 X8.2465 Y-10.3316
G01 X7.9382 Y-10.3313
G01 X7.9236 Y-10.3321
G01 X7.9122 Y-10.3338
G01 X7.8993 Y-10.3368
G01 X7.8865 Y-10.3412
G01 X7.8768 Y-10.3455
G01 X7.8674 Y-10.3505
G01 X7.8561 Y-10.3579
G01 X7.8382 Y-10.3733
G01 X7.8253 Y-10.3617
G01 X7.8090 Y-10.3505
G01 X7.7899 Y-10.3412
G01 X7.7720 Y-10.3355
G01 X7.7720 Y-9.6770
G01 X9.0488 Y-9.6770
G01 X9.0879 Y-9.6751
G01 X9.1258 Y-9.6694
G01 X9.1444 Y-9.6651
G01 X9.1653 Y-9.6592
G01 X9.1949 Y-9.6486
G01 X9.2125 Y-9.6410
G01 X9.2468 Y-9.6230
G01 X9.2655 Y-9.6113
G01 X9.2809 Y-9.6004
G01 X9.3107 Y-9.5760
G01 X9.3381 Y-9.5486
G01 X9.3505 Y-9.5343
G01 X9.3642 Y-9.5165
G01 X9.3821 Y-9.4897
G01 X9.3944 Y-9.4678
G01 X9.4096 Y-9.4354
G01 X9.4211 Y-9.4034
G01 X9.4280 Y-9.3783
G01 X9.4346 Y-9.3447
G01 X9.4373 Y-9.3217
G01 X9.4389 Y-9.2878
G01 X9.4382 Y-9.2643
G01 X9.4348 Y-9.2302
G01 X9.4307 Y-9.2074
G01 X9.4228 Y-9.1761
G01 X9.4149 Y-9.1523
G01 X9.4022 Y-9.1218
G01 X9.3925 Y-9.1022
G01 X9.3785 Y-9.0784
G01 X9.3784 Y-8.1979
G01 X9.3929 Y-8.2037
G01 X9.4055 Y-8.2074
G01 X9.4198 Y-8.2101
G01 X9.4318 Y-8.2112
G01 X9.7382 Y-8.2113
G01 X9.7553 Y-8.2102
G01 X9.7776 Y-8.2142
G01 X9.7984 Y-8.2167
G01 X9.8199 Y-8.2184
G01 X9.8415 Y-8.2189
G01 X9.8631 Y-8.2185
G01 X9.8847 Y-8.2169
G01 X9.9218 Y-8.2117
G01 X9.9546 Y-8.2165
G01 X9.9770 Y-8.2183
G01 X10.0003 Y-8.2189
G01 X10.0237 Y-8.2184
G01 X10.0452 Y-8.2167
G01 X10.0660 Y-8.2142
G01 X10.0879 Y-8.2103
G01 X10.1090 Y-8.2055
G01 X10.1322 Y-8.1990
G01 X10.1664 Y-8.1867
G01 X10.1891 Y-8.1768
G01 X10.2094 Y-8.1666
G01 X10.2304 Y-8.1545
G01 X10.2606 Y-8.1343
G01 X10.2803 Y-8.1191
G01 X10.2967 Y-8.1050
G01 X10.3130 Y-8.0894
G01 X10.3296 Y-8.0718
G01 X10.3527 Y-8.0437
G01 X10.3672 Y-8.0233
G01 X10.3789 Y-8.0047
G01 X10.3910 Y-7.9832
G01 X10.4065 Y-7.9504
G01 X10.4153 Y-7.9279
G01 X10.4273 Y-7.8891
G01 X10.4335 Y-7.8613
G01 X10.4393 Y-7.8211
G01 X10.4413 Y-7.7818
G01 X10.4414 Y-6.5522
G01 X14.2537 Y-5.4226
G01 X14.2748 Y-5.4158
G01 X14.2945 Y-5.4083
G01 X14.3134 Y-5.4001
G01 X14.3340 Y-5.3899
G01 X14.3512 Y-5.3804
G01 X14.3701 Y-5.3686
G01 X14.3876 Y-5.3565
G01 X14.4047 Y-5.3434
G01 X14.4208 Y-5.3298
G01 X14.4364 Y-5.3153
G01 X14.4513 Y-5.3000
G01 X14.4670 Y-5.2821
G01 X14.4787 Y-5.2674
G01 X14.4927 Y-5.2481
G01 X14.5116 Y-5.2176
G01 X14.5216 Y-5.1989
G01 X14.5318 Y-5.1773
G01 X14.5400 Y-5.1574
G01 X14.5527 Y-5.1187
G01 X14.5592 Y-5.0922
G01 X14.5656 Y-5.0540
G01 X14.6621 Y-4.2580
G01 X14.6880 Y-4.2573
G01 X14.7649 Y-4.2516
G01 X14.8448 Y-4.2418
G01 X14.9243 Y-4.2280
G01 X15.0061 Y-4.2096
G01 X15.0843 Y-4.1877
G01 X15.1572 Y-4.1637
G01 X15.2294 Y-4.1358
G01 X15.3054 Y-4.1023
G01 X15.3771 Y-4.0663
G01 X15.4482 Y-4.0260
G01 X15.5168 Y-3.9825
G01 X15.5817 Y-3.9369
G01 X15.6480 Y-3.8849
G01 X15.7066 Y-3.8343
G01 X15.7622 Y-3.7815
G01 X15.8178 Y-3.7233
G01 X15.8728 Y-3.6598
G01 X15.9225 Y-3.5961
G01 X15.9682 Y-3.5311
G01 X16.0099 Y-3.4655
G01 X16.0518 Y-3.3917
G01 X16.0873 Y-3.3210
G01 X16.1188 Y-3.2502
G01 X16.1503 Y-3.1687
G01 X16.1744 Y-3.0953
G01 X16.1961 Y-3.0171
G01 X16.2133 Y-2.9402
G01 X16.2267 Y-2.8634
G01 X16.2374 Y-2.7767
G01 X16.2431 Y-2.6990
G01 X16.2450 Y-2.6198
G01 X16.2428 Y-2.5355
G01 X16.2370 Y-2.4578
G01 X16.2273 Y-2.3788
G01 X16.2137 Y-2.3003
G01 X16.1966 Y-2.2243
G01 X16.1733 Y-2.1401
G01 X16.1488 Y-2.0661
G01 X16.1205 Y-1.9926
G01 X16.0874 Y-1.9179
G01 X16.0529 Y-1.8494
G01 X16.0099 Y-1.7733
G01 X15.9681 Y-1.7076
G01 X15.9227 Y-1.6430
G01 X15.8705 Y-1.5764
G01 X15.8205 Y-1.5185
G01 X15.7642 Y-1.4593
G01 X15.7068 Y-1.4046
G01 X15.6480 Y-1.3539
G01 X15.5792 Y-1.3001
G01 X15.5154 Y-1.2553
G01 X15.4482 Y-1.2128
G01 X15.3780 Y-1.1730
G01 X15.3092 Y-1.1383
G01 X15.2294 Y-1.1030
G01 X15.1577 Y-1.0753
G01 X15.0811 Y-1.0500
G01 X15.0043 Y-1.0288
G01 X14.9283 Y-1.0116
G01 X14.8451 Y-0.9971
G01 X14.7660 Y-0.9873
G01 X14.6889 Y-0.9816
G01 X14.6016 Y-0.9794
G01 X14.5250 Y-0.9814
G01 X14.4440 Y-0.9873
G01 X14.3649 Y-0.9971
G01 X14.2884 Y-1.0103
G01 X14.2032 Y-1.0294
G01 X14.1289 Y-1.0500
G01 X14.0557 Y-1.0741
G01 X13.9772 Y-1.1043
G01 X13.9007 Y-1.1384
G01 X13.8320 Y-1.1730
G01 X13.7648 Y-1.2110
G01 X13.6910 Y-1.2577
G01 X13.6281 Y-1.3021
G01 X13.5672 Y-1.3496
G01 X13.5032 Y-1.4046
G01 X13.4458 Y-1.4593
G01 X13.3922 Y-1.5155
G01 X13.3351 Y-1.5817
G01 X13.2873 Y-1.6430
G01 X13.2433 Y-1.7055
G01 X13.1982 Y-1.7765
G01 X13.1591 Y-1.8456
G01 X13.1240 Y-1.9151
G01 X13.0895 Y-1.9926
G01 X13.0612 Y-2.0661
G01 X13.0367 Y-2.1401
G01 X13.0139 Y-2.2217
G01 X12.9967 Y-2.2987
G01 X12.9833 Y-2.3754
G01 X12.9728 Y-2.4595
G01 X12.9670 Y-2.5382
G01 X12.9650 Y-2.6160
G01 X12.9670 Y-2.7006
G01 X12.9728 Y-2.7793
G01 X12.9823 Y-2.8566
G01 X12.9967 Y-2.9401
G01 X13.0150 Y-3.0212
G01 X13.0356 Y-3.0954
G01 X13.0606 Y-3.1711
G01 X13.0912 Y-3.2502
G01 X13.1227 Y-3.3210
G01 X13.1582 Y-3.3917
G01 X13.2001 Y-3.4655
G01 X13.2418 Y-3.5311
G01 X13.2875 Y-3.5961
G01 X13.3395 Y-3.6624
G01 X13.3895 Y-3.7203
G01 X13.4447 Y-3.7784
G01 X13.5062 Y-3.8368
G01 X13.5653 Y-3.8877
G01 X13.6264 Y-3.9354
G01 X13.6960 Y-3.9844
G01 X13.7616 Y-4.0259
G01 X13.8008 Y-4.0482
G01 X13.7265 Y-4.6607
G01 X9.7150 Y-5.8493
G01 X9.6945 Y-5.8561
G01 X9.6737 Y-5.8641
G01 X9.6535 Y-5.8730
G01 X9.6347 Y-5.8825
G01 X9.6165 Y-5.8929
G01 X9.5976 Y-5.9048
G01 X9.5795 Y-5.9176
G01 X9.5620 Y-5.9313
G01 X9.4363 Y-5.9313
G01 X9.4225 Y-5.9322
G01 X9.4120 Y-5.9338
G01 X9.3929 Y-5.9389
G01 X9.3732 Y-5.9473
G01 X9.3561 Y-5.9579
G01 X9.3474 Y-5.9648
G01 X9.3382 Y-5.9733
G01 X9.3290 Y-5.9648
G01 X9.3203 Y-5.9579
G01 X9.3089 Y-5.9505
G01 X9.2966 Y-5.9441
G01 X9.2835 Y-5.9389
G01 X9.2709 Y-5.9352
G01 X9.2574 Y-5.9326
G01 X9.2468 Y-5.9316
G01 X8.9324 Y-5.9314
G01 X8.9190 Y-5.9326
G01 X8.9055 Y-5.9352
G01 X8.8929 Y-5.9389
G01 X8.8784 Y-5.9447
G01 X8.8784 Y-5.9113
G01 X9.5092 Y-5.9113
G01 X9.5275 Y-5.9101
G01 X9.5465 Y-5.9062
G01 X9.5619 Y-5.9010
G01 X9.5744 Y-5.8952
G01 X9.6079 Y-5.8746
G01 X9.6259 Y-5.8644
G01 X9.6476 Y-5.8536
G01 X9.6665 Y-5.8453
G01 X9.6877 Y-5.8371
G01 X9.7133 Y-5.8288
G01 X13.6200 Y-4.6713
G01 X13.6343 Y-4.6661
G01 X13.6464 Y-4.6604
G01 X13.6583 Y-4.6532
G01 X13.6720 Y-4.6427
G01 X13.6883 Y-4.6259
G01 X13.6964 Y-4.6151
G01 X13.7033 Y-4.6037
G01 X13.7128 Y-4.5819
G01 X13.7163 Y-4.5696
G01 X13.7185 Y-4.5587
G01 X13.7685 Y-4.1465
G01 X13.7693 Y-4.1321
G01 X13.7690 Y-4.1211
G01 X13.7673 Y-4.1074
G01 X13.7639 Y-4.0928
G01 X13.7570 Y-4.0741
G01 X13.7481 Y-4.0574
G01 X13.7376 Y-4.0427
G01 X13.7251 Y-4.0294
G01 X13.7112 Y-4.0179
G01 X13.6828 Y-3.9996
G01 X13.6162 Y-3.9527
G01 X13.5519 Y-3.9026
G01 X13.4902 Y-3.8493
G01 X13.4312 Y-3.7932
G01 X13.3751 Y-3.7342
G01 X13.3218 Y-3.6725
G01 X13.2717 Y-3.6082
G01 X13.2248 Y-3.5416
G01 X13.1812 Y-3.4728
G01 X13.1410 Y-3.4019
G01 X13.1044 Y-3.3291
G01 X13.0714 Y-3.2546
G01 X13.0421 Y-3.1786
G01 X13.0165 Y-3.1013
G01 X12.9948 Y-3.0227
G01 X12.9769 Y-2.9432
G01 X12.9630 Y-2.8630
G01 X12.9530 Y-2.7821
G01 X12.9470 Y-2.7009
G01 X12.9450 Y-2.6194
G01 X12.9470 Y-2.5379
G01 X12.9530 Y-2.4567
G01 X12.9630 Y-2.3758
G01 X12.9769 Y-2.2956
G01 X12.9948 Y-2.2161
G01 X13.0165 Y-2.1375
G01 X13.0421 Y-2.0602
G01 X13.0714 Y-1.9842
G01 X13.1044 Y-1.9097
G01 X13.1410 Y-1.8369
G01 X13.1812 Y-1.7660
G01 X13.2248 Y-1.6972
G01 X13.2717 Y-1.6306
G01 X13.3218 Y-1.5663
G01 X13.3751 Y-1.5046
G01 X13.4312 Y-1.4456
G01 X13.4902 Y-1.3895
G01 X13.5519 Y-1.3362
G01 X13.6162 Y-1.2861
G01 X13.6828 Y-1.2392
G01 X13.7516 Y-1.1956
G01 X13.8225 Y-1.1554
G01 X13.8953 Y-1.1188
G01 X13.9698 Y-1.0858
G01 X14.0458 Y-1.0565
G01 X14.1231 Y-1.0309
G01 X14.2017 Y-1.0092
G01 X14.2812 Y-0.9913
G01 X14.3614 Y-0.9774
G01 X14.4423 Y-0.9674
G01 X14.5235 Y-0.9614
G01 X14.6050 Y-0.9594
G01 X14.6865 Y-0.9614
G01 X14.7677 Y-0.9674
G01 X14.8486 Y-0.9774
G01 X14.9288 Y-0.9913
G01 X15.0083 Y-1.0092
G01 X15.0869 Y-1.0309
G01 X15.1642 Y-1.0565
G01 X15.2402 Y-1.0858
G01 X15.3147 Y-1.1188
G01 X15.3875 Y-1.1554
G01 X15.4584 Y-1.1956
G01 X15.5272 Y-1.2392
G01 X15.5938 Y-1.2861
G01 X15.6581 Y-1.3362
G01 X15.7198 Y-1.3895
G01 X15.7788 Y-1.4456
G01 X15.8349 Y-1.5046
G01 X15.8882 Y-1.5663
G01 X15.9383 Y-1.6306
G01 X15.9852 Y-1.6972
G01 X16.0288 Y-1.7660
G01 X16.0690 Y-1.8369
G01 X16.1056 Y-1.9097
G01 X16.1386 Y-1.9842
G01 X16.1679 Y-2.0602
G01 X16.1935 Y-2.1375
G01 X16.2152 Y-2.2161
G01 X16.2331 Y-2.2956
G01 X16.2470 Y-2.3758
G01 X16.2570 Y-2.4567
G01 X16.2630 Y-2.5379
G01 X16.2650 Y-2.6194
G01 X16.2630 Y-2.7009
G01 X16.2570 Y-2.7821
G01 X16.2470 Y-2.8630
G01 X16.2331 Y-2.9432
G01 X16.2152 Y-3.0227
G01 X16.1935 Y-3.1013
G01 X16.1679 Y-3.1786
G01 X16.1386 Y-3.2546
G01 X16.1056 Y-3.3291
G01 X16.0690 Y-3.4019
G01 X16.0288 Y-3.4728
G01 X15.9852 Y-3.5416
G01 X15.9383 Y-3.6082
G01 X15.8882 Y-3.6725
G01 X15.8349 Y-3.7342
G01 X15.7788 Y-3.7932
G01 X15.7198 Y-3.8493
G01 X15.6581 Y-3.9026
G01 X15.5938 Y-3.9527
G01 X15.5272 Y-3.9996
G01 X15.4584 Y-4.0432
G01 X15.3875 Y-4.0834
G01 X15.3147 Y-4.1200
G01 X15.2402 Y-4.1530
G01 X15.1642 Y-4.1823
G01 X15.0869 Y-4.2079
G01 X15.0083 Y-4.2296
G01 X14.9288 Y-4.2475
G01 X14.8486 Y-4.2614
G01 X14.7865 Y-4.2691
G01 X14.7667 Y-4.2732
G01 X14.7485 Y-4.2798
G01 X14.7309 Y-4.2892
G01 X14.7148 Y-4.3009
G01 X14.6995 Y-4.3161
G01 X14.6885 Y-4.3305
G01 X14.6784 Y-4.3486
G01 X14.6716 Y-4.3661
G01 X14.6670 Y-4.3858
G01 X14.5859 Y-5.0543
G01 X14.5824 Y-5.0780
G01 X14.5781 Y-5.0999
G01 X14.5728 Y-5.1215
G01 X14.5664 Y-5.1429
G01 X14.5590 Y-5.1639
G01 X14.5506 Y-5.1846
G01 X14.5412 Y-5.2048
G01 X14.5308 Y-5.2245
G01 X14.5195 Y-5.2437
G01 X14.5073 Y-5.2623
G01 X14.4942 Y-5.2803
G01 X14.4802 Y-5.2977
G01 X14.4654 Y-5.3144
G01 X14.4499 Y-5.3303
G01 X14.4335 Y-5.3455
G01 X14.4165 Y-5.3598
G01 X14.3987 Y-5.3733
G01 X14.3804 Y-5.3859
G01 X14.3614 Y-5.3977
G01 X14.3419 Y-5.4085
G01 X14.3220 Y-5.4183
G01 X14.3015 Y-5.4272
G01 X14.2807 Y-5.4350
G01 X14.2578 Y-5.4424
G01 X10.5617 Y-6.5375
G01 X10.5502 Y-6.5415
G01 X10.5376 Y-6.5472
G01 X10.5253 Y-6.5543
G01 X10.5147 Y-6.5619
G01 X10.5039 Y-6.5715
G01 X10.4950 Y-6.5809
G01 X10.4863 Y-6.5922
G01 X10.4777 Y-6.6065
G01 X10.4712 Y-6.6206
G01 X10.4671 Y-6.6326
G01 X10.4639 Y-6.6459
G01 X10.4618 Y-6.6626
G01 X10.4615 Y-7.7771
G01 X10.4609 Y-7.8014
G01 X10.4592 Y-7.8239
G01 X10.4565 Y-7.8463
G01 X10.4526 Y-7.8686
G01 X10.4477 Y-7.8906
G01 X10.4416 Y-7.9124
G01 X10.4346 Y-7.9339
G01 X10.4264 Y-7.9549
G01 X10.4173 Y-7.9756
G01 X10.4071 Y-7.9958
G01 X10.3960 Y-8.0154
G01 X10.3839 Y-8.0345
G01 X10.3709 Y-8.0530
G01 X10.3570 Y-8.0708
G01 X10.3422 Y-8.0879
G01 X10.3267 Y-8.1043
G01 X10.3103 Y-8.1198
G01 X10.2932 Y-8.1346
G01 X10.2754 Y-8.1485
G01 X10.2569 Y-8.1615
G01 X10.2378 Y-8.1736
G01 X10.2182 Y-8.1847
G01 X10.1980 Y-8.1949
G01 X10.1773 Y-8.2040
G01 X10.1563 Y-8.2122
G01 X10.1348 Y-8.2192
G01 X10.1130 Y-8.2253
G01 X10.0910 Y-8.2302
G01 X10.0687 Y-8.2341
G01 X10.0463 Y-8.2368
G01 X10.0238 Y-8.2385
G01 X10.0012 Y-8.2391
G01 X9.9786 Y-8.2385
G01 X9.9329 Y-8.2341
G01 X9.9195 Y-8.2337
G01 X9.8650 Y-8.2385
G01 X9.8424 Y-8.2391
G01 X9.8198 Y-8.2385
G01 X9.7973 Y-8.2368
G01 X9.7627 Y-8.2322
G01 X9.7483 Y-8.2313
G01 X9.5386 Y-8.2313
G01 X9.5231 Y-8.2322
G01 X9.5068 Y-8.2349
G01 X9.4923 Y-8.2392
G01 X9.4795 Y-8.2444
G01 X9.4663 Y-8.2514
G01 X9.4533 Y-8.2603
G01 X9.4408 Y-8.2711
G01 X9.4295 Y-8.2835
G01 X9.4208 Y-8.2956
G01 X9.4116 Y-8.3123
G01 X9.4052 Y-8.3287
G01 X9.4008 Y-8.3462
G01 X9.3987 Y-8.3656
G01 X9.3987 Y-9.0405
G01 X9.4009 Y-9.0618
G01 X9.4055 Y-9.0799
G01 X9.4111 Y-9.0943
G01 X9.4278 Y-9.1299
G01 X9.4351 Y-9.1487
G01 X9.4467 Y-9.1872
G01 X9.4546 Y-9.2267
G01 X9.4571 Y-9.2467
G01 X9.4590 Y-9.2869
G01 X9.4585 Y-9.3070
G01 X9.4546 Y-9.3471
G01 X9.4512 Y-9.3669
G01 X9.4414 Y-9.4060
G01 X9.4351 Y-9.4251
G01 X9.4196 Y-9.4623
G01 X9.4106 Y-9.4803
G01 X9.4007 Y-9.4978
G01 X9.3783 Y-9.5313
G01 X9.3528 Y-9.5624
G01 X9.3243 Y-9.5909
G01 X9.2932 Y-9.6164
G01 X9.2767 Y-9.6280
G01 X9.2422 Y-9.6487
G01 X9.2058 Y-9.6659
G01 X9.1679 Y-9.6795
G01 X9.1288 Y-9.6893
G01 X9.0890 Y-9.6952
G01 X9.0689 Y-9.6966
G01 X9.0471 Y-9.6972
G01 X7.9322 Y-9.6972
G01 X7.9167 Y-9.6980
G01 X7.9039 Y-9.7001
G01 X7.8897 Y-9.7038
G01 X7.8794 Y-9.7075
G01 X7.8650 Y-9.7144
G01 X7.8497 Y-9.7240
G01 X7.8345 Y-9.7369
G01 X7.8231 Y-9.7494
G01 X7.8128 Y-9.7641
G01 X7.8048 Y-9.7792
G01 X7.7987 Y-9.7948
G01 X7.7945 Y-9.8116
G01 X7.7927 Y-9.8248
G01 X7.7922 Y-9.8372
G01 X7.7922 Y-10.1713
G01 X7.7927 Y-10.1836
G01 X7.7945 Y-10.1969
G01 X7.7969 Y-10.2074
G01 X7.8009 Y-10.2198
G01 X7.8062 Y-10.2324
G01 X7.8128 Y-10.2444
G01 X7.8191 Y-10.2538
G01 X7.8345 Y-10.2715
G01 X7.8444 Y-10.2804
G01 X7.8529 Y-10.2867
G01 X7.8650 Y-10.2941
G01 X7.8762 Y-10.2996
G01 X7.8897 Y-10.3047
G01 X7.9007 Y-10.3077
G01 X7.9230 Y-10.3110
G01 X9.4689 Y-10.3113
G01 X9.4878 Y-10.3100
G01 X9.5058 Y-10.3063
G01 X9.5171 Y-10.3027
G01 X9.5299 Y-10.2973
G01 X9.5645 Y-10.2773
G01 X9.5836 Y-10.2673
G01 X12.4631 Y-8.8509
G01 X12.4806 Y-8.8392
G01 X12.4933 Y-8.8279
G01 X12.5059 Y-8.8134
G01 X12.5158 Y-8.7983
G01 X12.5241 Y-8.7812
G01 X12.5303 Y-8.7619
G01 X12.5333 Y-8.7448
G01 X12.5342 Y-8.7259
G01 X12.5326 Y-8.7081
G01 X12.5285 Y-8.6894
G01 X12.5122 Y-8.6460
G01 X12.4944 Y-8.5919
G01 X12.4792 Y-8.5370
G01 X12.4667 Y-8.4814
G01 X12.4570 Y-8.4253
G01 X12.4500 Y-8.3688
G01 X12.4458 Y-8.3119
G01 X12.4444 Y-8.2550
G01 X12.4458 Y-8.1981
G01 X12.4500 Y-8.1412
G01 X12.4570 Y-8.0847
G01 X12.4667 Y-8.0286
G01 X12.4792 Y-7.9730
G01 X12.4944 Y-7.9181
G01 X12.5122 Y-7.8640
G01 X12.5327 Y-7.8109
G01 X12.5558 Y-7.7588
G01 X12.5814 Y-7.7079
G01 X12.6095 Y-7.6583
G01 X12.6400 Y-7.6102
G01 X12.6728 Y-7.5636
G01 X12.7078 Y-7.5187
G01 X12.7450 Y-7.4756
G01 X12.7843 Y-7.4343
G01 X12.8256 Y-7.3950
G01 X12.8687 Y-7.3578
G01 X12.9136 Y-7.3228
G01 X12.9602 Y-7.2900
G01 X13.0083 Y-7.2595
G01 X13.0579 Y-7.2314
G01 X13.1088 Y-7.2058
G01 X13.1609 Y-7.1827
G01 X13.2140 Y-7.1622
G01 X13.2681 Y-7.1444
G01 X13.3230 Y-7.1292
G01 X13.3786 Y-7.1167
G01 X13.4347 Y-7.1070
G01 X13.4912 Y-7.1000
G01 X13.5481 Y-7.0958
G01 X13.6067 Y-7.0943
G01 X15.6033 Y-7.0943
G01 X15.6619 Y-7.0958
G01 X15.7188 Y-7.1000
G01 X15.7753 Y-7.1070
G01 X15.8314 Y-7.1167
G01 X15.8870 Y-7.1292
G01 X15.9419 Y-7.1444
G01 X15.9960 Y-7.1622
G01 X16.0491 Y-7.1827
G01 X16.1012 Y-7.2058
G01 X16.1521 Y-7.2314
G01 X16.2017 Y-7.2595
G01 X16.2498 Y-7.2900
G01 X16.2964 Y-7.3228
G01 X16.3413 Y-7.3578
G01 X16.3844 Y-7.3950
G01 X16.4257 Y-7.4343
G01 X16.4650 Y-7.4756
G01 X16.5022 Y-7.5187
G01 X16.5372 Y-7.5636
G01 X16.5700 Y-7.6102
G01 X16.6005 Y-7.6583
G01 X16.6286 Y-7.7079
G01 X16.6542 Y-7.7588
G01 X16.6773 Y-7.8109
G01 X16.6978 Y-7.8640
G01 X16.7156 Y-7.9181
G01 X16.7308 Y-7.9730
G01 X16.7433 Y-8.0286
G01 X16.7530 Y-8.0847
G01 X16.7600 Y-8.1412
G01 X16.7642 Y-8.1981
G01 X16.7656 Y-8.2550
G01 X16.7642 Y-8.3119
G01 X16.7600 Y-8.3688
G01 X16.7530 Y-8.4253
G01 X16.7433 Y-8.4814
G01 X16.7308 Y-8.5370
G01 X16.7156 Y-8.5919
G01 X16.6978 Y-8.6460
G01 X16.6773 Y-8.6991
G01 X16.6542 Y-8.7512
G01 X16.6286 Y-8.8021
G01 X16.6005 Y-8.8517
G01 X16.5700 Y-8.8998
G01 X16.5372 Y-8.9464
G01 X16.5022 Y-8.9913
G01 X16.4650 Y-9.0344
G01 X16.4257 Y-9.0757
G01 X16.3844 Y-9.1150
G01 X16.3413 Y-9.1522
G01 X16.2964 Y-9.1872
G01 X16.2498 Y-9.2200
G01 X16.2017 Y-9.2505
G01 X16.1521 Y-9.2786
G01 X16.1012 Y-9.3042
G01 X16.0491 Y-9.3273
G01 X15.9960 Y-9.3478
G01 X15.9419 Y-9.3656
G01 X15.8870 Y-9.3808
G01 X15.8314 Y-9.3933
G01 X15.7753 Y-9.4030
G01 X15.7188 Y-9.4100
G01 X15.6619 Y-9.4142
G01 X15.6033 Y-9.4157
G01 X13.6067 Y-9.4157
G01 X13.5481 Y-9.4142
G01 X13.4912 Y-9.4100
G01 X13.4347 Y-9.4030
G01 X13.3786 Y-9.3933
G01 X13.3147 Y-9.3789
G01 X13.3020 Y-9.3770
G01 X13.2895 Y-9.3763
G01 X13.2770 Y-9.3766
G01 X13.2627 Y-9.3784
G01 X13.2506 Y-9.3812
G01 X13.2364 Y-9.3858
G01 X13.2256 Y-9.3906
G01 X10.3745 Y-10.7930
G01 X10.3610 Y-10.8016
G01 X10.3476 Y-10.8125
G01 X10.3350 Y-10.8259
G01 X10.3249 Y-10.8396
G01 X10.3163 Y-10.8551
G01 X10.3097 Y-10.8718
G01 X10.3054 Y-10.8883
G01 X10.3031 Y-10.9059
G01 X10.3028 Y-12.2221
G01 X10.3022 Y-12.2464
G01 X10.3005 Y-12.2689
G01 X10.2978 Y-12.2913
G01 X10.2939 Y-12.3136
G01 X10.2890 Y-12.3356
G01 X10.2829 Y-12.3574
G01 X10.2759 Y-12.3789
G01 X10.2677 Y-12.3999
G01 X10.2586 Y-12.4206
G01 X10.2484 Y-12.4408
G01 X10.2373 Y-12.4604
G01 X10.2252 Y-12.4795
G01 X10.2122 Y-12.4980
G01 X10.1983 Y-12.5158
G01 X10.1835 Y-12.5329
G01 X10.1680 Y-12.5493
G01 X10.1516 Y-12.5648
G01 X10.1345 Y-12.5796
G01 X10.1167 Y-12.5935
G01 X10.0982 Y-12.6065
G01 X10.0791 Y-12.6186
G01 X10.0595 Y-12.6297
G01 X10.0393 Y-12.6399
G01 X10.0186 Y-12.6490
G01 X9.9976 Y-12.6572
G01 X9.9761 Y-12.6642
G01 X9.9543 Y-12.6703
G01 X9.9323 Y-12.6752
G01 X9.9100 Y-12.6791
G01 X9.8876 Y-12.6818
G01 X9.8651 Y-12.6835
G01 X9.8425 Y-12.6841
G01 X9.8199 Y-12.6835
G01 X9.7974 Y-12.6818
G01 X9.7750 Y-12.6791
G01 X9.7527 Y-12.6752
G01 X9.7307 Y-12.6703
G01 X9.7089 Y-12.6642
G01 X9.6874 Y-12.6572
G01 X9.6378 Y-12.6375
G01 X9.6167 Y-12.6327
G01 X9.5985 Y-12.6313
G01 X9.5367 Y-12.6313
G01 X9.5135 Y-12.6336
G01 X9.4997 Y-12.6368
G01 X9.4858 Y-12.6417
G01 X9.4718 Y-12.6483
G01 X9.4596 Y-12.6558
G01 X9.4484 Y-12.6642
G01 X9.4384 Y-12.6736
G01 X9.4296 Y-12.6835
G01 X9.4209 Y-12.6956
G01 X9.4143 Y-12.7069
G01 X9.4090 Y-12.7185
G01 X9.4042 Y-12.7324
G01 X9.4009 Y-12.7462
G01 X9.3992 Y-12.7590
G01 X9.3986 Y-12.7713
G01 X9.3986 Y-12.9831
G01 X9.3999 Y-13.0017
G01 X9.4023 Y-13.0148
G01 X9.4053 Y-13.0257
G01 X9.4143 Y-13.0475
G01 X9.4209 Y-13.0588
G01 X9.4276 Y-13.0684
G01 X9.4435 Y-13.0858
G01 X9.4534 Y-13.0942
G01 X9.4629 Y-13.1009
G01 X9.4827 Y-13.1115
G01 X9.4960 Y-13.1165
G01 X9.5069 Y-13.1195
G01 X9.5294 Y-13.1228
G01 X10.9880 Y-13.1231
G01 X11.0069 Y-13.1218
G01 X11.0260 Y-13.1178
G01 X11.0458 Y-13.1106
G01 X11.0647 Y-13.1002
G01 X12.5970 Y-12.0962
G01 X12.6133 Y-12.0827
G01 X12.6261 Y-12.0685
G01 X12.6361 Y-12.0540
G01 X12.6453 Y-12.0357
G01 X12.6518 Y-12.0161
G01 X12.6552 Y-11.9971
G01 X12.6559 Y-11.9753
G01 X12.6537 Y-11.9562
G01 X12.6483 Y-11.9362
G01 X12.6405 Y-11.9179
G01 X12.6095 Y-11.8679
G01 X12.5814 Y-11.8183
G01 X12.5558 Y-11.7674
G01 X12.5327 Y-11.7153
G01 X12.5122 Y-11.6622
G01 X12.4944 Y-11.6081
G01 X12.4792 Y-11.5532
G01 X12.4667 Y-11.4976
G01 X12.4570 Y-11.4415
G01 X12.4500 Y-11.3850
G01 X12.4458 Y-11.3281
G01 X12.4444 Y-11.2712
G01 X12.4458 Y-11.2143
G01 X12.4500 Y-11.1574
G01 X12.4570 Y-11.1009
G01 X12.4667 Y-11.0448
G01 X12.4792 Y-10.9892
G01 X12.4944 Y-10.9343
G01 X12.5122 Y-10.8802
G01 X12.5327 Y-10.8271
G01 X12.5558 Y-10.7750
G01 X12.5814 Y-10.7241
G01 X12.6095 Y-10.6745
G01 X12.6400 Y-10.6264
G01 X12.6728 Y-10.5798
G01 X12.7078 Y-10.5349
G01 X12.7450 Y-10.4918
G01 X12.7843 Y-10.4505
G01 X12.8256 Y-10.4112
G01 X12.8687 Y-10.3740
G01 X12.9136 Y-10.3390
G01 X12.9602 Y-10.3062
G01 X13.0083 Y-10.2757
G01 X13.0579 Y-10.2476
G01 X13.1088 Y-10.2220
G01 X13.1609 Y-10.1989
G01 X13.2140 Y-10.1784
G01 X13.2681 Y-10.1606
G01 X13.3230 Y-10.1454
G01 X13.3786 Y-10.1329
G01 X13.4347 Y-10.1232
G01 X13.4912 Y-10.1162
G01 X13.5481 Y-10.1120
G01 X13.6067 Y-10.1105
G01 X15.6033 Y-10.1105
G01 X15.6619 Y-10.1120
G01 X15.7188 Y-10.1162
G01 X15.7753 Y-10.1232
G01 X15.8314 Y-10.1329
G01 X15.8870 Y-10.1454
G01 X15.9419 Y-10.1606
G01 X15.9960 Y-10.1784
G01 X16.0491 Y-10.1989
G01 X16.1012 Y-10.2220
G01 X16.1521 Y-10.2476
G01 X16.2017 Y-10.2757
G01 X16.2498 Y-10.3062
G01 X16.2964 Y-10.3390
G01 X16.3413 Y-10.3740
G01 X16.3844 Y-10.4112
G01 X16.4257 Y-10.4505
G01 X16.4650 Y-10.4918
G01 X16.5022 Y-10.5349
G01 X16.5372 Y-10.5798
G01 X16.5700 Y-10.6264
G01 X16.6005 Y-10.6745
G01 X16.6286 Y-10.7241
G01 X16.6542 Y-10.7750
G01 X16.6773 Y-10.8271
G01 X16.6978 Y-10.8802
G01 X16.7156 Y-10.9343
G01 X16.7308 Y-10.9892
G01 X16.7433 Y-11.0448
G01 X16.7530 Y-11.1009
G01 X16.7600 Y-11.1574
G01 X16.7642 Y-11.2143
G01 X16.7656 Y-11.2712
G01 X16.7642 Y-11.3281
G01 X16.7600 Y-11.3850
G01 X16.7530 Y-11.4415
G01 X16.7433 Y-11.4976
G01 X16.7308 Y-11.5532
G01 X16.7156 Y-11.6081
G01 X16.6978 Y-11.6622
G01 X16.6773 Y-11.7153
G01 X16.6542 Y-11.7674
G01 X16.6286 Y-11.8183
G01 X16.6005 Y-11.8679
G01 X16.5700 Y-11.9160
G01 X16.5372 Y-11.9626
G01 X16.5022 Y-12.0075
G01 X16.4650 Y-12.0506
G01 X16.4257 Y-12.0919
G01 X16.3844 Y-12.1312
G01 X16.3413 Y-12.1684
G01 X16.2964 Y-12.2034
G01 X16.2498 Y-12.2362
G01 X16.2017 Y-12.2667
G01 X16.1521 Y-12.2948
G01 X16.1012 Y-12.3204
G01 X16.0491 Y-12.3435
G01 X15.9960 Y-12.3640
G01 X15.9419 Y-12.3818
G01 X15.8870 Y-12.3970
G01 X15.8314 Y-12.4095
G01 X15.7753 Y-12.4192
G01 X15.7188 Y-12.4262
G01 X15.6619 Y-12.4304
G01 X15.6033 Y-12.4319
G01 X13.6239 Y-12.4319
G01 X13.6114 Y-12.4324
G01 X13.5986 Y-12.4342
G01 X13.5764 Y-12.4402
G01 X13.5605 Y-12.4470
G01 X13.5472 Y-12.4547
G01 X11.3785 Y-13.8757
G01 X11.3602 Y-13.8870
G01 X11.3251 Y-13.9054
G01 X11.2884 Y-13.9204
G01 X11.2504 Y-13.9317
G01 X11.2310 Y-13.9360
G01 X11.1918 Y-13.9417
G01 X11.1505 Y-13.9437
G01 X9.2489 Y-13.9437
G01 X9.2271 Y-13.9431
G01 X9.2070 Y-13.9417
G01 X9.1672 Y-13.9358
G01 X9.1281 Y-13.9260
G01 X9.1090 Y-13.9197
G01 X9.0757 Y-13.9063
G01 X9.0626 Y-13.9022
G01 X9.0417 Y-13.8983
G01 X9.0204 Y-13.8977
G01 X9.0077 Y-13.8989
G01 X8.9930 Y-13.9017
G01 X8.9786 Y-13.9062
G01 X8.9678 Y-13.9107
G01 X8.9549 Y-13.9175
G01 X8.9457 Y-13.9236
G01 X8.9357 Y-13.9315
G01 X8.9256 Y-13.9411
G01 X8.9172 Y-13.9507
G01 X8.9104 Y-13.9601
G01 X8.9031 Y-13.9725
G01 X8.8974 Y-13.9847
G01 X8.8929 Y-13.9975
G01 X8.8897 Y-14.0102
G01 X8.8877 Y-14.0244
G01 X8.8870 Y-14.0368
G01 X8.8844 Y-14.5623
G01 X8.8848 Y-14.5741
G01 X8.8866 Y-14.5879
G01 X8.8894 Y-14.6002
G01 X8.8939 Y-14.6137
G01 X8.8998 Y-14.6269
G01 X8.9067 Y-14.6389
G01 X8.9155 Y-14.6510
G01 X8.9245 Y-14.6612
G01 X8.9331 Y-14.6692
G01 X8.9445 Y-14.6780
G01 X8.9552 Y-14.6848
G01 X8.9671 Y-14.6908
G01 X8.9785 Y-14.6953
G01 X10.0587 Y-15.0701
G01 X10.0746 Y-15.0745
G01 X10.0903 Y-15.0771
G01 X10.1015 Y-15.0778
G01 X10.1149 Y-15.0774
G01 X10.1289 Y-15.0757
G01 X10.1393 Y-15.0734
G01 X10.1530 Y-15.0692
G01 X10.1634 Y-15.0648
G01 X10.1831 Y-15.0538
G01 X10.1956 Y-15.0442
G01 X10.2063 Y-15.0340
G01 X10.2497 Y-14.9839
G01 X10.2890 Y-14.9427
G01 X10.3302 Y-14.9034
G01 X10.3733 Y-14.8662
G01 X10.4182 Y-14.8312
G01 X10.4648 Y-14.7984
G01 X10.5129 Y-14.7680
G01 X10.5624 Y-14.7399
G01 X10.6133 Y-14.7143
G01 X10.6653 Y-14.6912
G01 X10.7184 Y-14.6707
G01 X10.7725 Y-14.6529
G01 X10.8274 Y-14.6377
G01 X10.8829 Y-14.6252
G01 X10.9390 Y-14.6155
G01 X10.9955 Y-14.6085
G01 X11.0523 Y-14.6043
G01 X11.1092 Y-14.6029
G01 X11.1661 Y-14.6043
G01 X11.2229 Y-14.6085
G01 X11.2794 Y-14.6155
G01 X11.3355 Y-14.6252
G01 X11.3910 Y-14.6377
G01 X11.4459 Y-14.6529
G01 X11.5000 Y-14.6707
G01 X11.5595 Y-14.6937
G01 X11.5702 Y-14.6972
G01 X11.5877 Y-14.7009
G01 X11.6024 Y-14.7022
G01 X15.4437 Y-14.7023
G01 X15.4974 Y-14.7036
G01 X15.5494 Y-14.7074
G01 X15.6010 Y-14.7138
G01 X15.6523 Y-14.7227
G01 X15.7031 Y-14.7341
G01 X15.7533 Y-14.7480
G01 X15.8027 Y-14.7643
G01 X15.8513 Y-14.7831
G01 X15.8988 Y-14.8042
G01 X15.9453 Y-14.8276
G01 X15.9906 Y-14.8532
G01 X16.0346 Y-14.8811
G01 X16.0772 Y-14.9111
G01 X16.1182 Y-14.9431
G01 X16.1576 Y-14.9771
G01 X16.1953 Y-15.0130
G01 X16.2312 Y-15.0507
G01 X16.2652 Y-15.0901
G01 X16.2972 Y-15.1311
G01 X16.3272 Y-15.1737
G01 X16.3551 Y-15.2177
G01 X16.3807 Y-15.2630
G01 X16.4041 Y-15.3095
G01 X16.4252 Y-15.3570
G01 X16.4440 Y-15.4056
G01 X16.4603 Y-15.4550
G01 X16.4742 Y-15.5052
G01 X16.4856 Y-15.5560
G01 X16.4945 Y-15.6073
G01 X16.5009 Y-15.6589
G01 X16.5047 Y-15.7109
G01 X16.5060 Y-15.7629
G01 X16.5047 Y-15.8149
G01 X16.5009 Y-15.8669
G01 X16.4945 Y-15.9185
G01 X16.4856 Y-15.9698
G01 X16.4742 Y-16.0206
G01 X16.4603 Y-16.0708
G01 X16.4440 Y-16.1202
G01 X16.4252 Y-16.1688
G01 X16.4041 Y-16.2163
G01 X16.3807 Y-16.2628
G01 X16.3551 Y-16.3081
G01 X16.3272 Y-16.3521
G01 X16.2972 Y-16.3947
G01 X16.2652 Y-16.4357
G01 X16.2312 Y-16.4751
G01 X16.1953 Y-16.5128
G01 X16.1576 Y-16.5487
G01 X16.1182 Y-16.5827
G01 X16.0772 Y-16.6147
G01 X16.0346 Y-16.6447
G01 X15.9906 Y-16.6726
G01 X15.9453 Y-16.6982
G01 X15.8988 Y-16.7216
G01 X15.8513 Y-16.7427
G01 X15.8027 Y-16.7615
G01 X15.7533 Y-16.7778
G01 X15.7031 Y-16.7917
G01 X15.6523 Y-16.8031
G01 X15.6010 Y-16.8120
G01 X15.5494 Y-16.8184
G01 X15.4974 Y-16.8222
G01 X15.4437 Y-16.8235
G01 X11.6041 Y-16.8236
G01 X11.5855 Y-16.8253
G01 X11.5692 Y-16.8289
G01 X11.5000 Y-16.8551
G01 X11.4459 Y-16.8729
G01 X11.3910 Y-16.8881
G01 X11.3355 Y-16.9006
G01 X11.2794 Y-16.9103
G01 X11.2229 Y-16.9173
G01 X11.1661 Y-16.9215
G01 X11.1092 Y-16.9229
G01 X11.0523 Y-16.9215
G01 X10.9955 Y-16.9173
G01 X10.9390 Y-16.9103
G01 X10.8829 Y-16.9006
G01 X10.8274 Y-16.8881
G01 X10.7725 Y-16.8729
G01 X10.7184 Y-16.8551
G01 X10.6653 Y-16.8346
G01 X10.6133 Y-16.8115
G01 X10.5624 Y-16.7859
G01 X10.5129 Y-16.7578
G01 X10.4648 Y-16.7274
G01 X10.4182 Y-16.6946
G01 X10.3733 Y-16.6596
G01 X10.3302 Y-16.6224
G01 X10.2890 Y-16.5831
G01 X10.2497 Y-16.5419
G01 X10.2125 Y-16.4988
G01 X10.1775 Y-16.4539
G01 X10.1447 Y-16.4073
G01 X10.1143 Y-16.3592
G01 X10.0862 Y-16.3097
G01 X10.0606 Y-16.2588
G01 X10.0375 Y-16.2068
G01 X10.0170 Y-16.1537
G01 X9.9992 Y-16.0996
G01 X9.9840 Y-16.0447
G01 X9.9715 Y-15.9892
G01 X9.9618 Y-15.9331
G01 X9.9548 Y-15.8766
G01 X9.9506 Y-15.8198
G01 X9.9493 Y-15.7770
G01 X9.9456 Y-15.7545
G01 X9.9379 Y-15.7321
G01 X9.9333 Y-15.7226
G01 X9.9263 Y-15.7111
G01 X9.9194 Y-15.7015
G01 X9.9100 Y-15.6909
G01 X9.8924 Y-15.6756
G01 X9.8731 Y-15.6638
G01 X9.8557 Y-15.6564
G01 X8.4564 Y-15.1704
G01 X8.4284 Y-15.1575
G01 X8.4150 Y-15.1500
G01 X8.3893 Y-15.1331
G01 X8.3653 Y-15.1137
G01 X8.3541 Y-15.1031
G01 X8.3334 Y-15.0803
G01 X8.3238 Y-15.0682
G01 X8.3067 Y-15.0426
G01 X8.2921 Y-15.0155
G01 X8.2804 Y-14.9870
G01 X8.2715 Y-14.9575
G01 X8.2681 Y-14.9425
G01 X8.2637 Y-14.9120
G01 X8.2626 Y-14.8966
G01 X8.2673 Y-13.8833
G01 X8.2656 Y-13.8606
G01 X8.2602 Y-13.8385
G01 X8.2560 Y-13.8275
G01 X8.2500 Y-13.8151
G01 X8.2438 Y-13.8050
G01 X8.2352 Y-13.7935
G01 X8.2280 Y-13.7854
G01 X8.2184 Y-13.7763
G01 X8.1994 Y-13.7626
G01 X8.1873 Y-13.7561
G01 X8.1771 Y-13.7518
G01 X8.1647 Y-13.7477
G01 X8.1520 Y-13.7448
G01 X8.1408 Y-13.7433
G01 X8.1270 Y-13.7426
G01 X8.1091 Y-13.7438
G01 X8.0945 Y-13.7465
G01 X8.0801 Y-13.7509
G01 X8.0644 Y-13.7576
G01 X8.0497 Y-13.7661
G01 X8.0363 Y-13.7763
G01 X8.0245 Y-13.7877
G01 X8.0146 Y-13.7997
G01 X7.2227 Y-14.9435
G01 X7.2110 Y-14.9639
G01 X7.2061 Y-14.9757
G01 X7.2016 Y-14.9909
G01 X7.1991 Y-15.0040
G01 X7.1981 Y-15.0152
G01 X7.1979 Y-15.0289
G01 X7.1993 Y-15.0432
G01 X7.2020 Y-15.0572
G01 X7.2050 Y-15.0675
G01 X7.2100 Y-15.0803
G01 X7.2167 Y-15.0933
G01 X7.2337 Y-15.1185
G01 X7.2641 Y-15.1666
G01 X7.2922 Y-15.2161
G01 X7.3178 Y-15.2670
G01 X7.3409 Y-15.3190
G01 X7.3614 Y-15.3721
G01 X7.3792 Y-15.4262
G01 X7.3944 Y-15.4811
G01 X7.4069 Y-15.5366
G01 X7.4166 Y-15.5927
G01 X7.4236 Y-15.6492
G01 X7.4278 Y-15.7060
G01 X7.4292 Y-15.7629
G01 X7.4278 Y-15.8198
G01 X7.4236 Y-15.8766
G01 X7.4166 Y-15.9331
G01 X7.4069 Y-15.9892
G01 X7.3944 Y-16.0447
G01 X7.3792 Y-16.0996
G01 X7.3614 Y-16.1537
G01 X7.3409 Y-16.2068
G01 X7.3178 Y-16.2588
G01 X7.2922 Y-16.3097
G01 X7.2641 Y-16.3592
G01 X7.2337 Y-16.4073
G01 X7.2009 Y-16.4539
G01 X7.1659 Y-16.4988
G01 X7.1287 Y-16.5419
G01 X7.0894 Y-16.5831
G01 X7.0482 Y-16.6224
G01 X7.0051 Y-16.6596
G01 X6.9602 Y-16.6946
G01 X6.9136 Y-16.7274
G01 X6.8655 Y-16.7578
G01 X6.8160 Y-16.7859
G01 X6.7651 Y-16.8115
G01 X6.7131 Y-16.8346
G01 X6.6600 Y-16.8551
G01 X6.6059 Y-16.8729
G01 X6.5510 Y-16.8881
G01 X6.4955 Y-16.9006
G01 X6.4394 Y-16.9103
G01 X6.3829 Y-16.9173
G01 X6.3261 Y-16.9215
G01 X6.2692 Y-16.9229
G01 X6.2123 Y-16.9215
G01 X6.1555 Y-16.9173
G01 X6.0990 Y-16.9103
G01 X6.0429 Y-16.9006
G01 X5.9874 Y-16.8881
G01 X5.9325 Y-16.8729
G01 X5.8784 Y-16.8551
G01 X5.8212 Y-16.8329
G01 X5.8088 Y-16.8288
G01 X5.7929 Y-16.8253
G01 X5.7743 Y-16.8236
G01 X2.0585 Y-16.8235
G01 X2.0048 Y-16.8222
G01 X1.9528 Y-16.8184
G01 X1.9012 Y-16.8120
G01 X1.8499 Y-16.8031
G01 X1.7991 Y-16.7917
G01 X1.7489 Y-16.7778
G01 X1.6995 Y-16.7615
G01 X1.6509 Y-16.7427
G01 X1.6034 Y-16.7216
G01 X1.5569 Y-16.6982
G01 X1.5116 Y-16.6726
G01 X1.4676 Y-16.6447
G01 X1.4250 Y-16.6147
G01 X1.3840 Y-16.5827
G01 X1.3446 Y-16.5487
G01 X1.3069 Y-16.5128
G01 X1.2710 Y-16.4751
G01 X1.2370 Y-16.4357
G01 X1.2050 Y-16.3947
G01 X1.1750 Y-16.3521
G01 X1.1471 Y-16.3081
G01 X1.1215 Y-16.2628
G01 X1.0981 Y-16.2163
G01 X1.0770 Y-16.1688
G01 X1.0582 Y-16.1202
G01 X1.0419 Y-16.0708
G01 X1.0280 Y-16.0206
G01 X1.0166 Y-15.9698
G01 X1.0077 Y-15.9185
G01 X1.0013 Y-15.8669
G01 X0.9975 Y-15.8149
G01 X0.9962 Y-15.7629
G01 X0.9975 Y-15.7109
G01 X1.0013 Y-15.6589
G01 X1.0077 Y-15.6073
G01 X1.0166 Y-15.5560
G01 X1.0280 Y-15.5052
G01 X1.0419 Y-15.4550
G01 X1.0582 Y-15.4056
G01 X1.0770 Y-15.3570
G01 X1.0981 Y-15.3095
G01 X1.1215 Y-15.2630
G01 X1.1471 Y-15.2177
G01 X1.1750 Y-15.1737
G01 X1.2050 Y-15.1311
G01 X1.2370 Y-15.0901
G01 X1.2710 Y-15.0507
G01 X1.3069 Y-15.0130
G01 X1.3446 Y-14.9771
G01 X1.3840 Y-14.9431
