(G-CODE GENERATED BY FLATCAM v8.993 - www.flatcam.org - Version Date: 2020/06/05)

(Name: si5351_Ф1_верх.gbr_iso_combined_cnc)
(Type: G-code from Geometry)
(Units: MM)

(Created on Monday, 09 November 2020 at 21:38)

(This preprocessor is the default preprocessor used by FlatCAM.)
(It is made to work with MACH3 compatible motion controllers.)

(TOOL DIAMETER: 0.14 mm)
(Feedrate_XY: 120.0 mm/min)
(Feedrate_Z: 70.0 mm/min)
(Feedrate rapids 1500.0 mm/min)

(Z_Cut: -0.06 mm)
(Z_Move: 2.0 mm)
(Z Start: None mm)
(Z End: 25.0 mm)
(Steps per circle: 128)
(Preprocessor Geometry: default)

(X range:   -0.2800 ...   18.2800  mm)
(Y range:  -19.7925 ...    0.2675  mm)

(Spindle Speed: 10000 RPM)
G21
G90
G94



G01 F120.00
G00 Z2.0000

M03 S10000
G00 X-0.0700 Y-0.0125
G01 F70.00
G01 Z-0.0600
G01 F120.00
G01 X-0.0700 Y-19.5125
G01 X-0.0688 Y-19.5253
G01 X-0.0653 Y-19.5377
G01 X-0.0591 Y-19.5499
G01 X-0.0513 Y-19.5601
G01 X-0.0403 Y-19.5697
G01 X-0.0276 Y-19.5768
G01 X-0.0137 Y-19.5812
G01 X0.0000 Y-19.5825
G01 X18.0000 Y-19.5825
G01 X18.0128 Y-19.5813
G01 X18.0252 Y-19.5778
G01 X18.0367 Y-19.5721
G01 X18.0476 Y-19.5638
G01 X18.0572 Y-19.5528
G01 X18.0643 Y-19.5401
G01 X18.0687 Y-19.5262
G01 X18.0700 Y-19.5125
G01 X18.0700 Y-0.0125
G01 X18.0688 Y0.0003
G01 X18.0650 Y0.0135
G01 X18.0591 Y0.0249
G01 X18.0513 Y0.0351
G01 X18.0403 Y0.0447
G01 X18.0276 Y0.0518
G01 X18.0137 Y0.0562
G01 X18.0000 Y0.0575
G01 X0.0000 Y0.0575
G01 X-0.0137 Y0.0562
G01 X-0.0268 Y0.0522
G01 X-0.0389 Y0.0457
G01 X-0.0495 Y0.0370
G01 X-0.0582 Y0.0264
G01 X-0.0647 Y0.0143
G01 X-0.0687 Y0.0012
G01 X-0.0700 Y-0.0125
G00 Z2.0000
G00 X-0.1400 Y-0.0125
G01 F70.00
G01 Z-0.0600
G01 F120.00
G01 X-0.1400 Y-19.5125
G01 X-0.1393 Y-19.5262
G01 X-0.1376 Y-19.5381
G01 X-0.1345 Y-19.5515
G01 X-0.1306 Y-19.5629
G01 X-0.1258 Y-19.5739
G01 X-0.1192 Y-19.5859
G01 X-0.1114 Y-19.5973
G01 X-0.1026 Y-19.6078
G01 X-0.0927 Y-19.6174
G01 X-0.0820 Y-19.6260
G01 X-0.0690 Y-19.6343
G01 X-0.0567 Y-19.6405
G01 X-0.0423 Y-19.6460
G01 X-0.0290 Y-19.6495
G01 X-0.0154 Y-19.6516
G01 X0.0000 Y-19.6525
G01 X18.0000 Y-19.6525
G01 X18.0120 Y-19.6520
G01 X18.0256 Y-19.6501
G01 X18.0373 Y-19.6474
G01 X18.0504 Y-19.6431
G01 X18.0614 Y-19.6383
G01 X18.0734 Y-19.6317
G01 X18.0848 Y-19.6239
G01 X18.0953 Y-19.6151
G01 X18.1060 Y-19.6039
G01 X18.1145 Y-19.5931
G01 X18.1218 Y-19.5815
G01 X18.1280 Y-19.5692
G01 X18.1335 Y-19.5548
G01 X18.1370 Y-19.5415
G01 X18.1391 Y-19.5279
G01 X18.1400 Y-19.5125
G01 X18.1400 Y-0.0125
G01 X18.1395 Y-0.0005
G01 X18.1376 Y0.0131
G01 X18.1349 Y0.0248
G01 X18.1306 Y0.0379
G01 X18.1258 Y0.0489
G01 X18.1192 Y0.0609
G01 X18.1114 Y0.0723
G01 X18.1026 Y0.0828
G01 X18.0914 Y0.0935
G01 X18.0806 Y0.1020
G01 X18.0690 Y0.1093
G01 X18.0567 Y0.1155
G01 X18.0423 Y0.1210
G01 X18.0290 Y0.1245
G01 X18.0154 Y0.1266
G01 X18.0000 Y0.1275
G01 X0.0000 Y0.1275
G01 X-0.0137 Y0.1268
G01 X-0.0273 Y0.1248
G01 X-0.0406 Y0.1215
G01 X-0.0536 Y0.1168
G01 X-0.0660 Y0.1110
G01 X-0.0778 Y0.1039
G01 X-0.0888 Y0.0957
G01 X-0.0990 Y0.0865
G01 X-0.1082 Y0.0763
G01 X-0.1164 Y0.0653
G01 X-0.1235 Y0.0535
G01 X-0.1293 Y0.0411
G01 X-0.1340 Y0.0281
G01 X-0.1373 Y0.0148
G01 X-0.1393 Y0.0012
G01 X-0.1400 Y-0.0125
G00 Z2.0000
G00 X-0.2100 Y-0.0125
G01 F70.00
G01 Z-0.0600
G01 F120.00
G01 X-0.2100 Y-19.5125
G01 X-0.2090 Y-19.5331
G01 X-0.2065 Y-19.5509
G01 X-0.2017 Y-19.5710
G01 X-0.1959 Y-19.5881
G01 X-0.1887 Y-19.6046
G01 X-0.1788 Y-19.6227
G01 X-0.1671 Y-19.6397
G01 X-0.1539 Y-19.6554
G01 X-0.1372 Y-19.6715
G01 X-0.1209 Y-19.6842
G01 X-0.1035 Y-19.6952
G01 X-0.0851 Y-19.7045
G01 X-0.0634 Y-19.7127
G01 X-0.0435 Y-19.7179
G01 X-0.0206 Y-19.7215
G01 X0.0000 Y-19.7225
G01 X18.0000 Y-19.7225
G01 X18.0206 Y-19.7215
G01 X18.0384 Y-19.7190
G01 X18.0585 Y-19.7142
G01 X18.0756 Y-19.7084
G01 X18.0921 Y-19.7012
G01 X18.1102 Y-19.6913
G01 X18.1272 Y-19.6796
G01 X18.1429 Y-19.6664
G01 X18.1573 Y-19.6516
G01 X18.1717 Y-19.6334
G01 X18.1827 Y-19.6160
G01 X18.1930 Y-19.5952
G01 X18.2002 Y-19.5759
G01 X18.2054 Y-19.5560
G01 X18.2090 Y-19.5331
G01 X18.2100 Y-19.5125
G01 X18.2100 Y-0.0125
G01 X18.2090 Y0.0081
G01 X18.2065 Y0.0259
G01 X18.2024 Y0.0435
G01 X18.1959 Y0.0631
G01 X18.1887 Y0.0796
G01 X18.1788 Y0.0977
G01 X18.1671 Y0.1147
G01 X18.1539 Y0.1304
G01 X18.1391 Y0.1448
G01 X18.1209 Y0.1592
G01 X18.1035 Y0.1702
G01 X18.0827 Y0.1805
G01 X18.0634 Y0.1877
G01 X18.0435 Y0.1929
G01 X18.0206 Y0.1965
G01 X18.0000 Y0.1975
G01 X-0.0026 Y0.1975
G01 X-0.0231 Y0.1962
G01 X-0.0435 Y0.1929
G01 X-0.0634 Y0.1877
G01 X-0.0827 Y0.1805
G01 X-0.1013 Y0.1715
G01 X-0.1188 Y0.1607
G01 X-0.1352 Y0.1482
G01 X-0.1503 Y0.1342
G01 X-0.1640 Y0.1187
G01 X-0.1760 Y0.1020
G01 X-0.1864 Y0.0842
G01 X-0.1950 Y0.0655
G01 X-0.2017 Y0.0460
G01 X-0.2060 Y0.0285
G01 X-0.2090 Y0.0081
G01 X-0.2100 Y-0.0125
G00 Z2.0000
G00 X-0.2800 Y-0.0125
G01 F70.00
G01 Z-0.0600
G01 F120.00
G01 X-0.2800 Y-19.5125
G01 X-0.2787 Y-19.5399
G01 X-0.2753 Y-19.5638
G01 X-0.2689 Y-19.5905
G01 X-0.2612 Y-19.6133
G01 X-0.2501 Y-19.6384
G01 X-0.2366 Y-19.6623
G01 X-0.2228 Y-19.6820
G01 X-0.2051 Y-19.7031
G01 X-0.1829 Y-19.7245
G01 X-0.1612 Y-19.7414
G01 X-0.1380 Y-19.7561
G01 X-0.1135 Y-19.7685
G01 X-0.0846 Y-19.7794
G01 X-0.0580 Y-19.7864
G01 X-0.0309 Y-19.7908
G01 X0.0000 Y-19.7925
G01 X18.0000 Y-19.7925
G01 X18.0274 Y-19.7912
G01 X18.0546 Y-19.7871
G01 X18.0813 Y-19.7804
G01 X18.1040 Y-19.7725
G01 X18.1290 Y-19.7610
G01 X18.1498 Y-19.7491
G01 X18.1723 Y-19.7332
G01 X18.1906 Y-19.7176
G01 X18.2098 Y-19.6980
G01 X18.2269 Y-19.6765
G01 X18.2436 Y-19.6505
G01 X18.2560 Y-19.6260
G01 X18.2659 Y-19.6003
G01 X18.2739 Y-19.5705
G01 X18.2783 Y-19.5434
G01 X18.2800 Y-19.5125
G01 X18.2800 Y-0.0125
G01 X18.2790 Y0.0115
G01 X18.2753 Y0.0388
G01 X18.2689 Y0.0655
G01 X18.2612 Y0.0883
G01 X18.2501 Y0.1134
G01 X18.2366 Y0.1373
G01 X18.2207 Y0.1598
G01 X18.2051 Y0.1781
G01 X18.1855 Y0.1973
G01 X18.1640 Y0.2144
G01 X18.1410 Y0.2294
G01 X18.1135 Y0.2435
G01 X18.0878 Y0.2534
G01 X18.0580 Y0.2614
G01 X18.0309 Y0.2658
G01 X18.0000 Y0.2675
G01 X-0.0034 Y0.2675
G01 X-0.0309 Y0.2658
G01 X-0.0580 Y0.2614
G01 X-0.0846 Y0.2544
G01 X-0.1103 Y0.2449
G01 X-0.1320 Y0.2344
G01 X-0.1556 Y0.2203
G01 X-0.1776 Y0.2039
G01 X-0.1980 Y0.1855
G01 X-0.2164 Y0.1651
G01 X-0.2328 Y0.1431
G01 X-0.2469 Y0.1195
G01 X-0.2587 Y0.0947
G01 X-0.2679 Y0.0688
G01 X-0.2746 Y0.0421
G01 X-0.2787 Y0.0149
G01 X-0.2800 Y-0.0125
G00 Z2.0000
G00 X1.9524 Y-5.4613
G01 F70.00
G01 Z-0.0600
G01 F120.00
G01 X1.9610 Y-5.4450
G01 X1.9707 Y-5.4298
G01 X1.9817 Y-5.4155
G01 X1.9939 Y-5.4022
G01 X2.0072 Y-5.3900
G01 X2.0215 Y-5.3790
G01 X2.0367 Y-5.3693
G01 X2.0530 Y-5.3607
G01 X1.9524 Y-5.3607
G01 X1.9524 Y-5.4613
G00 Z2.0000
G00 X2.5034 Y-5.2907
G01 F70.00
G01 Z-0.0600
G01 F120.00
G01 X1.8824 Y-5.2907
G01 X1.8824 Y-5.7617
G01 X2.0024 Y-5.7617
G01 X2.0024 Y-5.5490
G01 X2.0045 Y-5.5268
G01 X2.0075 Y-5.5134
G01 X2.0112 Y-5.5019
G01 X2.0166 Y-5.4893
G01 X2.0232 Y-5.4773
G01 X2.0310 Y-5.4659
G01 X2.0387 Y-5.4567
G01 X2.0471 Y-5.4481
G01 X2.0576 Y-5.4393
G01 X2.0749 Y-5.4281
G01 X2.0936 Y-5.4195
G01 X2.1134 Y-5.4137
G01 X2.1338 Y-5.4110
G01 X2.5034 Y-5.4107
G01 X2.5034 Y-5.2907
G00 Z2.0000
G00 X2.5734 Y-5.2207
G01 F70.00
G01 Z-0.0600
G01 F120.00
G01 X1.8124 Y-5.2207
G01 X1.8124 Y-5.8317
G01 X2.0724 Y-5.8317
G01 X2.0724 Y-5.5507
G01 X2.0729 Y-5.5421
G01 X2.0745 Y-5.5337
G01 X2.0774 Y-5.5247
G01 X2.0811 Y-5.5169
G01 X2.0862 Y-5.5090
G01 X2.0917 Y-5.5024
G01 X2.0987 Y-5.4960
G01 X2.1057 Y-5.4911
G01 X2.1133 Y-5.4871
G01 X2.1271 Y-5.4824
G01 X2.1415 Y-5.4807
G01 X2.5734 Y-5.4807
G01 X2.5734 Y-5.2207
G00 Z2.0000
G00 X3.8318 Y-5.3607
G01 F70.00
G01 Z-0.0600
G01 F120.00
G01 X3.8481 Y-5.3693
G01 X3.8633 Y-5.3790
G01 X3.8776 Y-5.3900
G01 X3.8909 Y-5.4022
G01 X3.9031 Y-5.4155
G01 X3.9141 Y-5.4298
G01 X3.9238 Y-5.4450
G01 X3.9324 Y-5.4613
G01 X3.9324 Y-5.3607
G01 X3.8318 Y-5.3607
G00 Z2.0000
G00 X4.0024 Y-5.7617
G01 F70.00
G01 Z-0.0600
G01 F120.00
G01 X4.0024 Y-5.2907
G01 X3.3814 Y-5.2907
G01 X3.3814 Y-5.4107
G01 X3.7510 Y-5.4110
G01 X3.7714 Y-5.4137
G01 X3.7912 Y-5.4195
G01 X3.8099 Y-5.4281
G01 X3.8272 Y-5.4393
G01 X3.8364 Y-5.4470
G01 X3.8461 Y-5.4567
G01 X3.8548 Y-5.4673
G01 X3.8616 Y-5.4773
G01 X3.8682 Y-5.4893
G01 X3.8730 Y-5.5003
G01 X3.8773 Y-5.5134
G01 X3.8803 Y-5.5268
G01 X3.8824 Y-5.5490
G01 X3.8824 Y-5.7617
G01 X4.0024 Y-5.7617
G00 Z2.0000
G00 X4.0724 Y-5.8317
G01 F70.00
G01 Z-0.0600
G01 F120.00
G01 X4.0724 Y-5.2207
G01 X3.3114 Y-5.2207
G01 X3.3114 Y-5.4807
G01 X3.7433 Y-5.4807
G01 X3.7577 Y-5.4824
G01 X3.7715 Y-5.4871
G01 X3.7791 Y-5.4911
G01 X3.7861 Y-5.4960
G01 X3.7925 Y-5.5018
G01 X3.7986 Y-5.5090
G01 X3.8037 Y-5.5169
G01 X3.8074 Y-5.5247
G01 X3.8101 Y-5.5329
G01 X3.8119 Y-5.5421
G01 X3.8124 Y-5.5507
G01 X3.8124 Y-5.8317
G01 X4.0724 Y-5.8317
G00 Z2.0000
G00 X3.8623 Y-7.1977
G01 F70.00
G01 Z-0.0600
G01 F120.00
G01 X3.8623 Y-7.1037
G01 X3.8367 Y-7.1143
G01 X3.8071 Y-7.1231
G01 X3.7767 Y-7.1286
G01 X3.7458 Y-7.1307
G01 X2.1424 Y-7.1307
G01 X2.1115 Y-7.1290
G01 X2.0811 Y-7.1239
G01 X2.0513 Y-7.1155
G01 X2.0224 Y-7.1037
G01 X2.0224 Y-7.1977
G01 X2.0480 Y-7.1871
G01 X2.0776 Y-7.1783
G01 X2.1080 Y-7.1728
G01 X2.1389 Y-7.1707
G01 X3.7423 Y-7.1707
G01 X3.7732 Y-7.1724
G01 X3.8036 Y-7.1775
G01 X3.8334 Y-7.1859
G01 X3.8623 Y-7.1977
G00 Z2.0000
G00 X3.9323 Y-7.3613
G01 F70.00
G01 Z-0.0600
G01 F120.00
G01 X3.9323 Y-6.9403
G01 X3.9198 Y-6.9630
G01 X3.9031 Y-6.9859
G01 X3.8834 Y-7.0063
G01 X3.8612 Y-7.0239
G01 X3.8368 Y-7.0383
G01 X3.8107 Y-7.0493
G01 X3.7834 Y-7.0567
G01 X3.7553 Y-7.0603
G01 X2.1424 Y-7.0607
G01 X2.1270 Y-7.0601
G01 X2.1116 Y-7.0584
G01 X2.0839 Y-7.0524
G01 X2.0573 Y-7.0427
G01 X2.0434 Y-7.0359
G01 X2.0301 Y-7.0281
G01 X2.0173 Y-7.0194
G01 X2.0052 Y-7.0097
G01 X1.9851 Y-6.9898
G01 X1.9753 Y-6.9779
G01 X1.9664 Y-6.9652
G01 X1.9524 Y-6.9401
G01 X1.9524 Y-7.3611
G01 X1.9649 Y-7.3384
G01 X1.9816 Y-7.3155
G01 X2.0013 Y-7.2951
G01 X2.0235 Y-7.2775
G01 X2.0479 Y-7.2631
G01 X2.0740 Y-7.2521
G01 X2.1013 Y-7.2447
G01 X2.1294 Y-7.2411
G01 X3.7423 Y-7.2407
G01 X3.7577 Y-7.2413
G01 X3.7731 Y-7.2430
G01 X3.8008 Y-7.2490
G01 X3.8155 Y-7.2539
G01 X3.8298 Y-7.2598
G01 X3.8546 Y-7.2733
G01 X3.8775 Y-7.2900
G01 X3.8890 Y-7.3004
G01 X3.8996 Y-7.3116
G01 X3.9094 Y-7.3235
G01 X3.9183 Y-7.3362
G01 X3.9323 Y-7.3613
G00 Z2.0000
G00 X1.8664 Y-9.5500
G01 F70.00
G01 Z-0.0600
G01 F120.00
G01 X1.8471 Y-9.5703
G01 X1.8011 Y-9.6237
G01 X1.7557 Y-9.6819
G01 X1.7146 Y-9.7402
G01 X1.6769 Y-9.7997
G01 X1.6401 Y-9.8647
G01 X1.6080 Y-9.9284
G01 X1.5795 Y-9.9928
G01 X1.5528 Y-10.0617
G01 X1.5302 Y-10.1302
G01 X1.5114 Y-10.1981
G01 X1.4950 Y-10.2710
G01 X1.4828 Y-10.3412
G01 X1.4742 Y-10.4111
G01 X1.4687 Y-10.4848
G01 X1.4669 Y-10.5569
G01 X1.4686 Y-10.6273
G01 X1.4740 Y-10.7010
G01 X1.4828 Y-10.7726
G01 X1.4948 Y-10.8420
G01 X1.5110 Y-10.9141
G01 X1.5302 Y-10.9836
G01 X1.5523 Y-11.0505
G01 X1.5791 Y-11.1202
G01 X1.6080 Y-11.1854
G01 X1.6397 Y-11.2483
G01 X1.6760 Y-11.3126
G01 X1.7146 Y-11.3736
G01 X1.7552 Y-11.4312
G01 X1.8006 Y-11.4895
G01 X1.8477 Y-11.5441
G01 X1.8963 Y-11.5951
G01 X1.9497 Y-11.6461
G01 X2.0057 Y-11.6943
G01 X2.0612 Y-11.7376
G01 X2.1202 Y-11.7792
G01 X2.1812 Y-11.8178
G01 X2.2424 Y-11.8525
G01 X2.3084 Y-11.8858
G01 X2.3744 Y-11.9150
G01 X2.4401 Y-11.9404
G01 X2.5102 Y-11.9636
G01 X2.5797 Y-11.9828
G01 X2.6484 Y-11.9983
G01 X2.7212 Y-12.0110
G01 X2.7945 Y-12.0200
G01 X2.8648 Y-12.0251
G01 X2.9360 Y-12.0269
G01 X3.0107 Y-12.0250
G01 X3.0810 Y-12.0198
G01 X3.1526 Y-12.0110
G01 X3.2237 Y-11.9987
G01 X3.2924 Y-11.9832
G01 X3.3653 Y-11.9631
G01 X3.4321 Y-11.9410
G01 X3.4994 Y-11.9150
G01 X3.5654 Y-11.8858
G01 X3.6283 Y-11.8541
G01 X3.6941 Y-11.8169
G01 X3.7536 Y-11.7792
G01 X3.8112 Y-11.7386
G01 X3.8708 Y-11.6921
G01 X3.9241 Y-11.6461
G01 X3.9763 Y-11.5963
G01 X4.0261 Y-11.5441
G01 X4.0721 Y-11.4908
G01 X4.1176 Y-11.4326
G01 X4.1601 Y-11.3721
G01 X4.1978 Y-11.3126
G01 X4.2333 Y-11.2499
G01 X4.2658 Y-11.1854
G01 X4.2943 Y-11.1210
G01 X4.3215 Y-11.0505
G01 X4.3441 Y-10.9820
G01 X4.3628 Y-10.9141
G01 X4.3783 Y-10.8454
G01 X4.3910 Y-10.7726
G01 X4.3998 Y-10.7010
G01 X4.4051 Y-10.6290
G01 X4.4069 Y-10.5552
G01 X4.4051 Y-10.4848
G01 X4.4000 Y-10.4145
G01 X4.3910 Y-10.3412
G01 X4.3783 Y-10.2684
G01 X4.3628 Y-10.1997
G01 X4.3436 Y-10.1302
G01 X4.3210 Y-10.0617
G01 X4.2956 Y-9.9960
G01 X4.2654 Y-9.9276
G01 X4.2333 Y-9.8639
G01 X4.1986 Y-9.8027
G01 X4.1587 Y-9.7395
G01 X4.1176 Y-9.6812
G01 X4.0738 Y-9.6250
G01 X4.0267 Y-9.5703
G01 X4.0074 Y-9.5500
G01 X4.0074 Y-8.8900
G01 X4.0054 Y-8.8280
G01 X6.0812 Y-9.5875
G01 X6.1101 Y-9.5966
G01 X6.1275 Y-9.6006
G01 X6.1450 Y-9.6037
G01 X6.1734 Y-9.6065
G01 X6.1903 Y-9.6070
G01 X6.7737 Y-9.6070
G01 X6.7737 Y-12.1453
G01 X6.7753 Y-12.1790
G01 X6.7779 Y-12.2004
G01 X6.7847 Y-12.2343
G01 X6.7950 Y-12.2683
G01 X6.8018 Y-12.2861
G01 X6.8099 Y-12.3042
G01 X6.8254 Y-12.3332
G01 X6.8360 Y-12.3500
G01 X6.8475 Y-12.3663
G01 X6.8684 Y-12.3917
G01 X6.8952 Y-12.4187
G01 X6.9103 Y-12.4316
G01 X6.9367 Y-12.4512
G01 X6.9693 Y-12.4708
G01 X7.0037 Y-12.4870
G01 X7.0207 Y-12.4935
G01 X7.0522 Y-12.5030
G01 X7.0716 Y-12.5074
G01 X7.0912 Y-12.5108
G01 X7.1239 Y-12.5140
G01 X7.1429 Y-12.5145
G01 X7.1809 Y-12.5127
G01 X7.1998 Y-12.5103
G01 X7.2284 Y-12.5047
G01 X7.2594 Y-12.5196
G01 X7.2906 Y-12.5306
G01 X7.3058 Y-12.5347
G01 X7.3332 Y-12.5402
G01 X7.3662 Y-12.5435
G01 X7.3976 Y-12.5435
G01 X7.4281 Y-12.5406
G01 X7.4382 Y-12.5413
G01 X7.7399 Y-12.5413
G01 X7.7544 Y-12.5394
G01 X7.7681 Y-12.5346
G01 X7.7764 Y-12.5300
G01 X7.7846 Y-12.5237
G01 X7.7912 Y-12.5170
G01 X7.7969 Y-12.5095
G01 X7.8018 Y-12.5004
G01 X7.8052 Y-12.4916
G01 X7.8073 Y-12.4824
G01 X7.8082 Y-12.4730
G01 X7.8082 Y-10.4696
G01 X7.8074 Y-10.4610
G01 X7.8057 Y-10.4526
G01 X7.8029 Y-10.4445
G01 X7.7991 Y-10.4368
G01 X7.7895 Y-10.4237
G01 X7.7833 Y-10.4177
G01 X7.7764 Y-10.4126
G01 X7.7626 Y-10.4057
G01 X7.7485 Y-10.4021
G01 X7.7391 Y-10.4013
G01 X7.7020 Y-10.4013
G01 X7.7020 Y-9.6070
G01 X9.0488 Y-9.6070
G01 X9.0662 Y-9.6065
G01 X9.0958 Y-9.6036
G01 X9.1249 Y-9.5978
G01 X9.1417 Y-9.5932
G01 X9.1583 Y-9.5877
G01 X9.1857 Y-9.5763
G01 X9.2119 Y-9.5623
G01 X9.2267 Y-9.5531
G01 X9.2505 Y-9.5354
G01 X9.2638 Y-9.5241
G01 X9.2848 Y-9.5031
G01 X9.2963 Y-9.4900
G01 X9.3140 Y-9.4662
G01 X9.3234 Y-9.4515
G01 X9.3319 Y-9.4363
G01 X9.3446 Y-9.4094
G01 X9.3546 Y-9.3815
G01 X9.3595 Y-9.3638
G01 X9.3657 Y-9.3322
G01 X9.3684 Y-9.3043
G01 X9.3689 Y-9.2886
G01 X9.3674 Y-9.2555
G01 X9.3628 Y-9.2244
G01 X9.3551 Y-9.1940
G01 X9.3439 Y-9.1628
G01 X9.3303 Y-9.1345
G01 X9.3225 Y-9.1209
G01 X9.3082 Y-9.0994
G01 X9.3082 Y-6.0713
G01 X9.3065 Y-6.0560
G01 X9.3015 Y-6.0414
G01 X9.2969 Y-6.0331
G01 X9.2918 Y-6.0262
G01 X9.2858 Y-6.0200
G01 X9.2792 Y-6.0146
G01 X9.2712 Y-6.0096
G01 X9.2634 Y-6.0060
G01 X9.2552 Y-6.0034
G01 X9.2459 Y-6.0017
G01 X8.9348 Y-6.0014
G01 X8.9229 Y-6.0030
G01 X8.9114 Y-6.0066
G01 X8.9008 Y-6.0122
G01 X8.8912 Y-6.0194
G01 X8.8830 Y-6.0282
G01 X8.8765 Y-6.0383
G01 X8.8717 Y-6.0493
G01 X8.8690 Y-6.0610
G01 X8.8682 Y-6.0713
G01 X8.8683 Y-8.9668
G01 X6.2479 Y-8.9668
G01 X3.8123 Y-8.0756
G01 X3.8122 Y-7.4464
G01 X3.8108 Y-7.4362
G01 X3.8079 Y-7.4263
G01 X3.8036 Y-7.4169
G01 X3.7985 Y-7.4090
G01 X3.7924 Y-7.4018
G01 X3.7847 Y-7.3950
G01 X3.7761 Y-7.3894
G01 X3.7675 Y-7.3854
G01 X3.7551 Y-7.3819
G01 X3.7423 Y-7.3807
G01 X2.1363 Y-7.3810
G01 X2.1236 Y-7.3832
G01 X2.1124 Y-7.3874
G01 X2.1020 Y-7.3935
G01 X2.0922 Y-7.4018
G01 X2.0846 Y-7.4111
G01 X2.0787 Y-7.4216
G01 X2.0744 Y-7.4337
G01 X2.0725 Y-7.4456
G01 X2.0723 Y-8.2590
G01 X2.0468 Y-8.2953
G01 X2.0196 Y-8.3382
G01 X1.9936 Y-8.3839
G01 X1.9692 Y-8.4323
G01 X1.9479 Y-8.4803
G01 X1.9284 Y-8.5310
G01 X1.9125 Y-8.5793
G01 X1.8989 Y-8.6282
G01 X1.8870 Y-8.6812
G01 X1.8778 Y-8.7346
G01 X1.8716 Y-8.7851
G01 X1.8678 Y-8.8358
G01 X1.8664 Y-8.8891
G01 X1.8664 Y-9.5500
G00 Z2.0000
G00 X5.8642 Y-11.0670
G01 F70.00
G01 Z-0.0600
G01 F120.00
G01 X5.8794 Y-11.0703
G01 X5.8956 Y-11.0759
G01 X5.9110 Y-11.0834
G01 X5.9242 Y-11.0918
G01 X5.9242 Y-11.0070
G01 X5.8642 Y-11.0670
G00 Z2.0000
G00 X5.9235 Y-10.9087
G01 F70.00
G01 Z-0.0600
G01 F120.00
G01 X5.2581 Y-11.5742
G01 X5.2524 Y-11.5810
G01 X5.2486 Y-11.5881
G01 X5.2463 Y-11.5958
G01 X5.2455 Y-11.6038
G01 X5.2472 Y-11.6157
G01 X5.2524 Y-11.6266
G01 X5.2605 Y-11.6355
G01 X5.2690 Y-11.6409
G01 X5.2805 Y-11.6444
G01 X5.2925 Y-11.6444
G01 X5.3022 Y-11.6417
G01 X5.3125 Y-11.6355
G01 X5.7925 Y-11.1557
G01 X5.8032 Y-11.1470
G01 X5.8153 Y-11.1406
G01 X5.8284 Y-11.1366
G01 X5.8420 Y-11.1352
G01 X5.8557 Y-11.1366
G01 X5.8688 Y-11.1406
G01 X5.8809 Y-11.1470
G01 X5.8915 Y-11.1557
G01 X5.9002 Y-11.1663
G01 X5.9053 Y-11.1753
G01 X5.9090 Y-11.1849
G01 X5.9113 Y-11.1950
G01 X5.9120 Y-11.2044
G01 X5.9121 Y-12.7169
G01 X5.9129 Y-12.7229
G01 X5.9152 Y-12.7306
G01 X5.9190 Y-12.7377
G01 X5.9241 Y-12.7439
G01 X5.9303 Y-12.7490
G01 X5.9374 Y-12.7528
G01 X5.9451 Y-12.7551
G01 X5.9531 Y-12.7559
G01 X5.9611 Y-12.7551
G01 X5.9688 Y-12.7528
G01 X5.9759 Y-12.7490
G01 X5.9821 Y-12.7439
G01 X5.9872 Y-12.7377
G01 X5.9910 Y-12.7306
G01 X5.9933 Y-12.7229
G01 X5.9942 Y-12.7140
G01 X5.9942 Y-10.9380
G01 X5.9924 Y-10.9252
G01 X5.9872 Y-10.9143
G01 X5.9791 Y-10.9054
G01 X5.9688 Y-10.8992
G01 X5.9571 Y-10.8963
G01 X5.9451 Y-10.8969
G01 X5.9338 Y-10.9009
G01 X5.9235 Y-10.9087
G00 Z2.0000
G00 X8.3382 Y-10.3733
G01 F70.00
G01 Z-0.0600
G01 F120.00
G01 X8.3481 Y-10.3642
G01 X8.3590 Y-10.3559
G01 X8.3707 Y-10.3487
G01 X8.3815 Y-10.3433
G01 X8.3943 Y-10.3384
G01 X8.4059 Y-10.3351
G01 X8.4194 Y-10.3326
G01 X8.4330 Y-10.3314
G01 X8.7382 Y-10.3313
G01 X8.7519 Y-10.3320
G01 X8.7638 Y-10.3337
G01 X8.7755 Y-10.3364
G01 X8.7870 Y-10.3401
G01 X8.7981 Y-10.3447
G01 X8.8087 Y-10.3503
G01 X8.8188 Y-10.3568
G01 X8.8283 Y-10.3642
G01 X8.8382 Y-10.3733
G01 X8.8481 Y-10.3642
G01 X8.8576 Y-10.3568
G01 X8.8677 Y-10.3503
G01 X8.8783 Y-10.3447
G01 X8.8894 Y-10.3401
G01 X8.9009 Y-10.3364
G01 X8.9126 Y-10.3337
G01 X8.9245 Y-10.3320
G01 X8.9382 Y-10.3313
G01 X9.2451 Y-10.3315
G01 X9.2587 Y-10.3328
G01 X9.2705 Y-10.3351
G01 X9.2837 Y-10.3389
G01 X9.2949 Y-10.3433
G01 X9.3072 Y-10.3495
G01 X9.3174 Y-10.3559
G01 X9.3283 Y-10.3642
G01 X9.3382 Y-10.3733
G01 X9.3534 Y-10.3599
G01 X9.3692 Y-10.3495
G01 X9.3878 Y-10.3407
G01 X9.4059 Y-10.3351
G01 X9.4194 Y-10.3326
G01 X9.4330 Y-10.3314
G01 X9.5198 Y-10.3313
G01 X9.5407 Y-10.3157
G01 X9.5565 Y-10.3053
G01 X9.5742 Y-10.2949
G01 X9.5909 Y-10.2861
G01 X12.6054 Y-8.8037
G01 X12.5747 Y-8.7442
G01 X12.5520 Y-8.6930
G01 X12.5312 Y-8.6392
G01 X12.5136 Y-8.5861
G01 X12.4987 Y-8.5321
G01 X12.4864 Y-8.4775
G01 X12.4768 Y-8.4223
G01 X12.4697 Y-8.3634
G01 X12.4657 Y-8.3075
G01 X12.4645 Y-8.2550
G01 X12.4657 Y-8.2025
G01 X12.4700 Y-8.1432
G01 X12.4764 Y-8.0911
G01 X12.4864 Y-8.0325
G01 X12.4987 Y-7.9779
G01 X12.5136 Y-7.9239
G01 X12.5318 Y-7.8692
G01 X12.5513 Y-7.8185
G01 X12.5755 Y-7.7643
G01 X12.6008 Y-7.7144
G01 X12.6268 Y-7.6687
G01 X12.6548 Y-7.6243
G01 X12.6889 Y-7.5756
G01 X12.7234 Y-7.5315
G01 X12.7599 Y-7.4891
G01 X12.7985 Y-7.4485
G01 X12.8391 Y-7.4099
G01 X12.8815 Y-7.3734
G01 X12.9256 Y-7.3389
G01 X12.9743 Y-7.3048
G01 X13.0187 Y-7.2768
G01 X13.0704 Y-7.2476
G01 X13.1205 Y-7.2226
G01 X13.1685 Y-7.2013
G01 X13.2176 Y-7.1824
G01 X13.2772 Y-7.1627
G01 X13.3279 Y-7.1487
G01 X13.3825 Y-7.1364
G01 X13.4377 Y-7.1268
G01 X13.4898 Y-7.1204
G01 X13.5525 Y-7.1157
G01 X13.6050 Y-7.1145
G01 X15.6050 Y-7.1145
G01 X15.6610 Y-7.1159
G01 X15.7168 Y-7.1200
G01 X15.7689 Y-7.1264
G01 X15.8275 Y-7.1364
G01 X15.8821 Y-7.1487
G01 X15.9328 Y-7.1627
G01 X15.9892 Y-7.1812
G01 X16.0415 Y-7.2013
G01 X16.0895 Y-7.2226
G01 X16.1426 Y-7.2492
G01 X16.1913 Y-7.2768
G01 X16.2357 Y-7.3048
G01 X16.2858 Y-7.3400
G01 X16.3285 Y-7.3734
G01 X16.3734 Y-7.4123
G01 X16.4139 Y-7.4510
G01 X16.4501 Y-7.4891
G01 X16.4844 Y-7.5288
G01 X16.5211 Y-7.5756
G01 X16.5533 Y-7.6214
G01 X16.5832 Y-7.6687
G01 X16.6108 Y-7.7174
G01 X16.6360 Y-7.7674
G01 X16.6600 Y-7.8217
G01 X16.6788 Y-7.8708
G01 X16.6954 Y-7.9207
G01 X16.7104 Y-7.9746
G01 X16.7236 Y-8.0325
G01 X16.7332 Y-8.0877
G01 X16.7400 Y-8.1432
G01 X16.7443 Y-8.2025
G01 X16.7455 Y-8.2550
G01 X16.7443 Y-8.3075
G01 X16.7403 Y-8.3634
G01 X16.7332 Y-8.4223
G01 X16.7236 Y-8.4775
G01 X16.7113 Y-8.5321
G01 X16.6954 Y-8.5893
G01 X16.6788 Y-8.6392
G01 X16.6600 Y-8.6883
G01 X16.6374 Y-8.7395
G01 X16.6108 Y-8.7926
G01 X16.5832 Y-8.8413
G01 X16.5533 Y-8.8886
G01 X16.5190 Y-8.9371
G01 X16.4866 Y-8.9785
G01 X16.4523 Y-9.0183
G01 X16.4139 Y-9.0590
G01 X16.3709 Y-9.1001
G01 X16.3298 Y-9.1355
G01 X16.2816 Y-9.1731
G01 X16.2386 Y-9.2033
G01 X16.1913 Y-9.2332
G01 X16.1426 Y-9.2608
G01 X16.0957 Y-9.2845
G01 X16.0383 Y-9.3100
G01 X15.9892 Y-9.3288
G01 X15.9393 Y-9.3454
G01 X15.8788 Y-9.3621
G01 X15.8275 Y-9.3736
G01 X15.7723 Y-9.3832
G01 X15.7168 Y-9.3900
G01 X15.6644 Y-9.3939
G01 X15.6050 Y-9.3955
G01 X13.6016 Y-9.3955
G01 X13.5490 Y-9.3941
G01 X13.4966 Y-9.3903
G01 X13.4377 Y-9.3832
G01 X13.3825 Y-9.3736
G01 X13.3312 Y-9.3621
G01 X13.2714 Y-9.3456
G01 X10.2827 Y-10.8154
G01 X10.2826 Y-12.2272
G01 X10.2805 Y-12.2669
G01 X10.2779 Y-12.2884
G01 X10.2742 Y-12.3097
G01 X10.2695 Y-12.3307
G01 X10.2637 Y-12.3516
G01 X10.2504 Y-12.3890
G01 X10.2404 Y-12.4120
G01 X10.2307 Y-12.4313
G01 X10.2200 Y-12.4501
G01 X10.2065 Y-12.4712
G01 X10.1849 Y-12.5003
G01 X10.1698 Y-12.5181
G01 X10.1537 Y-12.5350
G01 X10.1355 Y-12.5522
G01 X10.1190 Y-12.5662
G01 X10.0899 Y-12.5878
G01 X10.0688 Y-12.6013
G01 X10.0500 Y-12.6120
G01 X10.0276 Y-12.6231
G01 X9.9940 Y-12.6370
G01 X9.9703 Y-12.6450
G01 X9.9478 Y-12.6512
G01 X9.9071 Y-12.6592
G01 X9.8675 Y-12.6632
G01 X9.8391 Y-12.6639
G01 X9.7994 Y-12.6618
G01 X9.7779 Y-12.6592
G01 X9.7566 Y-12.6555
G01 X9.7356 Y-12.6508
G01 X9.7147 Y-12.6450
G01 X9.6942 Y-12.6382
G01 X9.6741 Y-12.6304
G01 X9.6543 Y-12.6217
G01 X9.6338 Y-12.6113
G01 X9.4313 Y-12.6111
G01 X9.4177 Y-12.6098
G01 X9.4042 Y-12.6071
G01 X9.3910 Y-12.6031
G01 X9.3785 Y-12.5979
G01 X9.3785 Y-13.1433
G01 X11.0358 Y-13.1433
G01 X12.7470 Y-12.0221
G01 X12.7234 Y-11.9947
G01 X12.6900 Y-11.9520
G01 X12.6558 Y-11.9034
G01 X12.6250 Y-11.8546
G01 X12.5992 Y-11.8088
G01 X12.5747 Y-11.7604
G01 X12.5513 Y-11.7077
G01 X12.5301 Y-11.6522
G01 X12.5136 Y-11.6023
G01 X12.4996 Y-11.5516
G01 X12.4861 Y-11.4920
G01 X12.4768 Y-11.4385
G01 X12.4704 Y-11.3864
G01 X12.4659 Y-11.3272
G01 X12.4645 Y-11.2678
G01 X12.4659 Y-11.2152
G01 X12.4697 Y-11.1628
G01 X12.4768 Y-11.1039
G01 X12.4871 Y-11.0453
G01 X12.4987 Y-10.9941
G01 X12.5127 Y-10.9434
G01 X12.5318 Y-10.8854
G01 X12.5513 Y-10.8347
G01 X12.5726 Y-10.7867
G01 X12.5992 Y-10.7336
G01 X12.6286 Y-10.6819
G01 X12.6567 Y-10.6376
G01 X12.6869 Y-10.5946
G01 X12.7234 Y-10.5477
G01 X12.7623 Y-10.5028
G01 X12.7985 Y-10.4647
G01 X12.8366 Y-10.4285
G01 X12.8815 Y-10.3896
G01 X12.9284 Y-10.3531
G01 X12.9714 Y-10.3229
G01 X13.0157 Y-10.2948
G01 X13.0674 Y-10.2654
G01 X13.1205 Y-10.2388
G01 X13.1685 Y-10.2175
G01 X13.2176 Y-10.1986
G01 X13.2739 Y-10.1798
G01 X13.3312 Y-10.1641
G01 X13.3825 Y-10.1526
G01 X13.4377 Y-10.1430
G01 X13.4932 Y-10.1362
G01 X13.5456 Y-10.1323
G01 X13.6050 Y-10.1307
G01 X15.6050 Y-10.1307
G01 X15.6627 Y-10.1322
G01 X15.7168 Y-10.1362
G01 X15.7689 Y-10.1426
G01 X15.8275 Y-10.1526
G01 X15.8854 Y-10.1658
G01 X15.9361 Y-10.1798
G01 X15.9860 Y-10.1963
G01 X16.0415 Y-10.2175
G01 X16.0957 Y-10.2417
G01 X16.1426 Y-10.2654
G01 X16.1884 Y-10.2912
G01 X16.2372 Y-10.3220
G01 X16.2844 Y-10.3551
G01 X16.3285 Y-10.3896
G01 X16.3709 Y-10.4261
G01 X16.4139 Y-10.4672
G01 X16.4523 Y-10.5079
G01 X16.4866 Y-10.5477
G01 X16.5190 Y-10.5891
G01 X16.5533 Y-10.6376
G01 X16.5832 Y-10.6849
G01 X16.6108 Y-10.7336
G01 X16.6374 Y-10.7867
G01 X16.6600 Y-10.8379
G01 X16.6788 Y-10.8870
G01 X16.6954 Y-10.9369
G01 X16.7113 Y-10.9941
G01 X16.7236 Y-11.0487
G01 X16.7332 Y-11.1039
G01 X16.7400 Y-11.1594
G01 X16.7441 Y-11.2152
G01 X16.7455 Y-11.2712
G01 X16.7441 Y-11.3272
G01 X16.7396 Y-11.3864
G01 X16.7326 Y-11.4419
G01 X16.7236 Y-11.4937
G01 X16.7121 Y-11.5450
G01 X16.6964 Y-11.6023
G01 X16.6788 Y-11.6554
G01 X16.6587 Y-11.7077
G01 X16.6360 Y-11.7588
G01 X16.6108 Y-11.8088
G01 X16.5814 Y-11.8605
G01 X16.5513 Y-11.9077
G01 X16.5211 Y-11.9506
G01 X16.4888 Y-11.9920
G01 X16.4501 Y-12.0371
G01 X16.4115 Y-12.0777
G01 X16.3709 Y-12.1163
G01 X16.3312 Y-12.1506
G01 X16.2816 Y-12.1893
G01 X16.2386 Y-12.2195
G01 X16.1913 Y-12.2494
G01 X16.1426 Y-12.2770
G01 X16.0926 Y-12.3022
G01 X16.0415 Y-12.3249
G01 X15.9924 Y-12.3438
G01 X15.9328 Y-12.3635
G01 X15.8821 Y-12.3775
G01 X15.8275 Y-12.3898
G01 X15.7723 Y-12.3994
G01 X15.7202 Y-12.4058
G01 X15.6610 Y-12.4103
G01 X15.6050 Y-12.4117
G01 X13.6050 Y-12.4117
G01 X13.5771 Y-12.4111
G01 X11.3646 Y-13.8606
G01 X11.3335 Y-13.8788
G01 X11.2993 Y-13.8947
G01 X11.2638 Y-13.9072
G01 X11.2305 Y-13.9156
G01 X11.2086 Y-13.9194
G01 X11.1899 Y-13.9217
G01 X11.1522 Y-13.9235
G01 X9.2472 Y-13.9235
G01 X9.2107 Y-13.9218
G01 X9.1900 Y-13.9193
G01 X9.1711 Y-13.9160
G01 X9.1524 Y-13.9118
G01 X9.1307 Y-13.9057
G01 X9.1011 Y-13.8951
G01 X9.0835 Y-13.8875
G01 X9.0648 Y-13.8783
G01 X9.0481 Y-13.8689
G01 X9.0276 Y-13.8558
G01 X8.9984 Y-13.8339
G01 X8.9726 Y-13.8105
G01 X8.9537 Y-13.7903
G01 X8.9272 Y-13.7746
G01 X8.9044 Y-13.7576
G01 X8.8845 Y-13.7397
G01 X8.8685 Y-13.7225
G01 X8.8636 Y-14.6768
G01 X10.1627 Y-15.1275
G01 X10.1935 Y-15.0838
G01 X10.2302 Y-15.0371
G01 X10.2645 Y-14.9973
G01 X10.3007 Y-14.9593
G01 X10.3411 Y-14.9206
G01 X10.3860 Y-14.8817
G01 X10.4301 Y-14.8472
G01 X10.4758 Y-14.8150
G01 X10.5261 Y-14.7834
G01 X10.5749 Y-14.7559
G01 X10.6218 Y-14.7324
G01 X10.6698 Y-14.7110
G01 X10.7251 Y-14.6895
G01 X10.7783 Y-14.6720
G01 X10.8322 Y-14.6571
G01 X10.8902 Y-14.6442
G01 X10.9419 Y-14.6352
G01 X10.9940 Y-14.6288
G01 X11.0498 Y-14.6245
G01 X11.1092 Y-14.6229
G01 X11.1686 Y-14.6245
G01 X11.2209 Y-14.6284
G01 X11.2731 Y-14.6348
G01 X11.3299 Y-14.6445
G01 X11.3862 Y-14.6571
G01 X11.4418 Y-14.6725
G01 X11.4949 Y-14.6901
G01 X11.5439 Y-14.7090
G01 X11.5744 Y-14.7224
G01 X15.4471 Y-14.7225
G01 X15.4965 Y-14.7237
G01 X15.5508 Y-14.7278
G01 X15.5981 Y-14.7337
G01 X15.6450 Y-14.7418
G01 X15.6949 Y-14.7528
G01 X15.7474 Y-14.7673
G01 X15.7991 Y-14.7845
G01 X15.8436 Y-14.8016
G01 X15.8871 Y-14.8209
G01 X15.9359 Y-14.8453
G01 X15.9803 Y-14.8705
G01 X16.0263 Y-14.8997
G01 X16.0652 Y-14.9272
G01 X16.1028 Y-14.9565
G01 X16.1441 Y-14.9920
G01 X16.1811 Y-15.0272
G01 X16.2186 Y-15.0668
G01 X16.2497 Y-15.1028
G01 X16.2790 Y-15.1404
G01 X16.3105 Y-15.1849
G01 X16.3396 Y-15.2310
G01 X16.3630 Y-15.2724
G01 X16.3844 Y-15.3150
G01 X16.4067 Y-15.3647
G01 X16.4250 Y-15.4124
G01 X16.4420 Y-15.4642
G01 X16.4547 Y-15.5101
G01 X16.4651 Y-15.5566
G01 X16.4746 Y-15.6102
G01 X16.4808 Y-15.6609
G01 X16.4847 Y-15.7153
G01 X16.4859 Y-15.7629
G01 X16.4847 Y-15.8105
G01 X16.4808 Y-15.8649
G01 X16.4746 Y-15.9156
G01 X16.4651 Y-15.9692
G01 X16.4547 Y-16.0157
G01 X16.4420 Y-16.0616
G01 X16.4250 Y-16.1134
G01 X16.4067 Y-16.1611
G01 X16.3844 Y-16.2108
G01 X16.3630 Y-16.2534
G01 X16.3396 Y-16.2948
G01 X16.3105 Y-16.3409
G01 X16.2801 Y-16.3841
G01 X16.2497 Y-16.4230
G01 X16.2163 Y-16.4616
G01 X16.1811 Y-16.4986
G01 X16.1415 Y-16.5361
G01 X16.1055 Y-16.5672
G01 X16.0679 Y-16.5965
G01 X16.0263 Y-16.6261
G01 X15.9803 Y-16.6553
G01 X15.9389 Y-16.6788
G01 X15.8902 Y-16.7035
G01 X15.8436 Y-16.7242
G01 X15.7959 Y-16.7425
G01 X15.7474 Y-16.7585
G01 X15.6982 Y-16.7722
G01 X15.6484 Y-16.7834
G01 X15.5981 Y-16.7921
G01 X15.5457 Y-16.7985
G01 X15.4965 Y-16.8021
G01 X15.4454 Y-16.8034
G01 X11.5744 Y-16.8034
G01 X11.5439 Y-16.8168
G01 X11.4949 Y-16.8357
G01 X11.4418 Y-16.8533
G01 X11.3862 Y-16.8687
G01 X11.3333 Y-16.8806
G01 X11.2765 Y-16.8906
G01 X11.2209 Y-16.8974
G01 X11.1651 Y-16.9015
G01 X11.1109 Y-16.9029
G01 X11.0533 Y-16.9015
G01 X11.0009 Y-16.8977
G01 X10.9385 Y-16.8900
G01 X10.8868 Y-16.8810
G01 X10.8322 Y-16.8687
G01 X10.7783 Y-16.8538
G01 X10.7235 Y-16.8357
G01 X10.6729 Y-16.8161
G01 X10.6249 Y-16.7949
G01 X10.5688 Y-16.7666
G01 X10.5231 Y-16.7407
G01 X10.4758 Y-16.7108
G01 X10.4301 Y-16.6786
G01 X10.3887 Y-16.6463
G01 X10.3411 Y-16.6052
G01 X10.3031 Y-16.5690
G01 X10.2645 Y-16.5285
G01 X10.2280 Y-16.4861
G01 X10.1956 Y-16.4447
G01 X10.1604 Y-16.3948
G01 X10.1314 Y-16.3490
G01 X10.1055 Y-16.3033
G01 X10.0772 Y-16.2472
G01 X10.0560 Y-16.1992
G01 X10.0358 Y-16.1470
G01 X10.0183 Y-16.0938
G01 X10.0038 Y-16.0416
G01 X9.9905 Y-15.9819
G01 X9.9815 Y-15.9302
G01 X9.9745 Y-15.8729
G01 X9.9706 Y-15.8188
G01 X9.9692 Y-15.7646
G01 X9.9705 Y-15.7087
G01 X9.9728 Y-15.6757
G01 X8.4655 Y-15.1524
G01 X8.4476 Y-15.1446
G01 X8.4252 Y-15.1327
G01 X8.4101 Y-15.1231
G01 X8.3911 Y-15.1091
G01 X8.3762 Y-15.0963
G01 X8.3595 Y-15.0797
G01 X8.3478 Y-15.0662
G01 X8.3336 Y-15.0473
G01 X8.3239 Y-15.0323
G01 X8.3152 Y-15.0167
G01 X8.3051 Y-14.9953
G01 X8.2982 Y-14.9770
G01 X8.2914 Y-14.9544
G01 X8.2875 Y-14.9369
G01 X8.2839 Y-14.9118
G01 X8.2826 Y-14.8923
G01 X8.2901 Y-13.3661
G01 X7.1400 Y-15.0276
G01 X7.1515 Y-15.0410
G01 X7.1838 Y-15.0824
G01 X7.2161 Y-15.1281
G01 X7.2470 Y-15.1768
G01 X7.2754 Y-15.2270
G01 X7.2997 Y-15.2755
G01 X7.3237 Y-15.3298
G01 X7.3426 Y-15.3788
G01 X7.3591 Y-15.4287
G01 X7.3746 Y-15.4842
G01 X7.3873 Y-15.5405
G01 X7.3973 Y-15.5990
G01 X7.4037 Y-15.6512
G01 X7.4076 Y-15.7035
G01 X7.4092 Y-15.7595
G01 X7.4078 Y-15.8188
G01 X7.4037 Y-15.8746
G01 X7.3969 Y-15.9302
G01 X7.3869 Y-15.9870
G01 X7.3742 Y-16.0432
G01 X7.3601 Y-16.0938
G01 X7.3437 Y-16.1437
G01 X7.3224 Y-16.1992
G01 X7.2997 Y-16.2503
G01 X7.2746 Y-16.3003
G01 X7.2452 Y-16.3519
G01 X7.2171 Y-16.3963
G01 X7.1869 Y-16.4392
G01 X7.1526 Y-16.4834
G01 X7.1139 Y-16.5285
G01 X7.0753 Y-16.5690
G01 X7.0348 Y-16.6076
G01 X6.9897 Y-16.6463
G01 X6.9483 Y-16.6786
G01 X6.9054 Y-16.7088
G01 X6.8582 Y-16.7389
G01 X6.8066 Y-16.7683
G01 X6.7566 Y-16.7934
G01 X6.7055 Y-16.8161
G01 X6.6500 Y-16.8374
G01 X6.6001 Y-16.8538
G01 X6.5495 Y-16.8679
G01 X6.4950 Y-16.8803
G01 X6.4365 Y-16.8906
G01 X6.3809 Y-16.8974
G01 X6.3251 Y-16.9015
G01 X6.2692 Y-16.9029
G01 X6.2133 Y-16.9015
G01 X6.1575 Y-16.8974
G01 X6.1019 Y-16.8906
G01 X6.0451 Y-16.8806
G01 X5.9922 Y-16.8687
G01 X5.9366 Y-16.8533
G01 X5.8835 Y-16.8357
G01 X5.8345 Y-16.8168
G01 X5.8040 Y-16.8034
G01 X2.0568 Y-16.8034
G01 X2.0075 Y-16.8022
G01 X1.9514 Y-16.7980
G01 X1.9041 Y-16.7921
G01 X1.8572 Y-16.7840
G01 X1.8040 Y-16.7722
G01 X1.7515 Y-16.7575
G01 X1.7063 Y-16.7425
G01 X1.6618 Y-16.7254
G01 X1.6120 Y-16.7035
G01 X1.5633 Y-16.6788
G01 X1.5219 Y-16.6553
G01 X1.4788 Y-16.6280
G01 X1.4370 Y-16.5986
G01 X1.3941 Y-16.5650
G01 X1.3581 Y-16.5338
G01 X1.3235 Y-16.5010
G01 X1.2859 Y-16.4616
G01 X1.2504 Y-16.4203
G01 X1.2211 Y-16.3827
G01 X1.1936 Y-16.3438
G01 X1.1644 Y-16.2978
G01 X1.1376 Y-16.2503
G01 X1.1162 Y-16.2077
G01 X1.0969 Y-16.1642
G01 X1.0772 Y-16.1134
G01 X1.0602 Y-16.0616
G01 X1.0475 Y-16.0157
G01 X1.0371 Y-15.9692
G01 X1.0276 Y-15.9156
G01 X1.0211 Y-15.8615
G01 X1.0176 Y-15.8140
G01 X1.0164 Y-15.7663
G01 X1.0176 Y-15.7118
G01 X1.0214 Y-15.6609
G01 X1.0282 Y-15.6068
G01 X1.0363 Y-15.5599
G01 X1.0467 Y-15.5134
G01 X1.0612 Y-15.4609
G01 X1.0784 Y-15.4092
G01 X1.0955 Y-15.3647
G01 X1.1148 Y-15.3212
G01 X1.1392 Y-15.2724
G01 X1.1662 Y-15.2251
G01 X1.1917 Y-15.1849
G01 X1.2191 Y-15.1459
G01 X1.2504 Y-15.1055
G01 X1.2859 Y-15.0642
G01 X1.3235 Y-15.0248
G01 X1.3581 Y-14.9920
G01 X1.3941 Y-14.9608
G01 X1.4370 Y-14.9272
G01 X1.4816 Y-14.8959
G01 X1.5219 Y-14.8705
G01 X1.5633 Y-14.8470
G01 X1.6120 Y-14.8223
G01 X1.6586 Y-14.8016
G01 X1.7063 Y-14.7833
G01 X1.7581 Y-14.7663
G01 X1.8040 Y-14.7536
G01 X1.8505 Y-14.7432
G01 X1.9007 Y-14.7343
G01 X1.9548 Y-14.7275
G01 X2.0092 Y-14.7236
G01 X2.0568 Y-14.7224
G01 X5.8040 Y-14.7224
G01 X5.8345 Y-14.7090
G01 X5.8835 Y-14.6901
G01 X5.9366 Y-14.6725
G01 X5.9922 Y-14.6571
G01 X6.0451 Y-14.6452
G01 X6.1019 Y-14.6352
G01 X6.1575 Y-14.6284
G01 X6.2133 Y-14.6243
G01 X6.2675 Y-14.6229
G01 X6.3251 Y-14.6243
G01 X6.3809 Y-14.6284
G01 X6.4365 Y-14.6352
G01 X6.4882 Y-14.6442
G01 X6.5462 Y-14.6571
G01 X6.5968 Y-14.6710
G01 X6.6516 Y-14.6890
G01 X6.6653 Y-14.6941
G01 X7.8056 Y-13.0468
G01 X7.8029 Y-12.5954
G01 X7.7886 Y-12.6019
G01 X7.7739 Y-12.6067
G01 X7.7587 Y-12.6098
G01 X7.7434 Y-12.6112
G01 X7.4290 Y-12.6110
G01 X7.3993 Y-12.6135
G01 X7.3645 Y-12.6135
G01 X7.3437 Y-12.6120
G01 X7.3247 Y-12.6097
G01 X7.2888 Y-12.6026
G01 X7.2521 Y-12.5917
G01 X7.2186 Y-12.5781
G01 X7.1887 Y-12.5823
G01 X7.1671 Y-12.5839
G01 X7.1438 Y-12.5845
G01 X7.1205 Y-12.5839
G01 X7.0989 Y-12.5823
G01 X7.0758 Y-12.5792
G01 X7.0402 Y-12.5722
G01 X7.0177 Y-12.5661
G01 X6.9955 Y-12.5588
G01 X6.9722 Y-12.5497
G01 X6.9394 Y-12.5342
G01 X6.9175 Y-12.5219
G01 X6.8964 Y-12.5084
G01 X6.8673 Y-12.4868
G01 X6.8482 Y-12.4705
G01 X6.8326 Y-12.4556
G01 X6.8177 Y-12.4400
G01 X6.8014 Y-12.4209
G01 X6.7798 Y-12.3918
G01 X6.7663 Y-12.3707
G01 X6.7556 Y-12.3519
G01 X6.7445 Y-12.3295
G01 X6.7306 Y-12.2959
G01 X6.7236 Y-12.2754
G01 X6.7160 Y-12.2480
G01 X6.7084 Y-12.2090
G01 X6.7055 Y-12.1841
G01 X6.7037 Y-12.1461
G01 X6.7037 Y-9.6770
G01 X6.1752 Y-9.6767
G01 X6.1522 Y-9.6751
G01 X6.1310 Y-9.6724
G01 X6.1101 Y-9.6685
G01 X6.0790 Y-9.6605
G01 X6.0572 Y-9.6533
G01 X4.0774 Y-8.9289
G01 X4.0774 Y-9.5221
G01 X4.1273 Y-9.5799
G01 X4.1738 Y-9.6395
G01 X4.2174 Y-9.7013
G01 X4.2560 Y-9.7623
G01 X4.2951 Y-9.8309
G01 X4.3275 Y-9.8954
G01 X4.3610 Y-9.9708
G01 X4.3869 Y-10.0381
G01 X4.4106 Y-10.1099
G01 X4.4307 Y-10.1827
G01 X4.4473 Y-10.2565
G01 X4.4602 Y-10.3309
G01 X4.4695 Y-10.4060
G01 X4.4750 Y-10.4813
G01 X4.4769 Y-10.5535
G01 X4.4750 Y-10.6325
G01 X4.4698 Y-10.7044
G01 X4.4597 Y-10.7863
G01 X4.4473 Y-10.8573
G01 X4.4307 Y-10.9311
G01 X4.4106 Y-11.0039
G01 X4.3869 Y-11.0757
G01 X4.3597 Y-11.1462
G01 X4.3305 Y-11.2122
G01 X4.2934 Y-11.2859
G01 X4.2578 Y-11.3486
G01 X4.2174 Y-11.4125
G01 X4.1738 Y-11.4743
G01 X4.1273 Y-11.5339
G01 X4.0780 Y-11.5911
G01 X4.0258 Y-11.6458
G01 X3.9711 Y-11.6980
G01 X3.9112 Y-11.7495
G01 X3.8543 Y-11.7938
G01 X3.7896 Y-11.8392
G01 X3.7286 Y-11.8778
G01 X3.6659 Y-11.9134
G01 X3.5984 Y-11.9475
G01 X3.5262 Y-11.9797
G01 X3.4557 Y-12.0069
G01 X3.3839 Y-12.0306
G01 X3.3111 Y-12.0507
G01 X3.2373 Y-12.0673
G01 X3.1629 Y-12.0802
G01 X3.0878 Y-12.0895
G01 X3.0125 Y-12.0950
G01 X2.9369 Y-12.0969
G01 X2.8613 Y-12.0950
G01 X2.7860 Y-12.0895
G01 X2.7109 Y-12.0802
G01 X2.6365 Y-12.0673
G01 X2.5627 Y-12.0507
G01 X2.4899 Y-12.0306
G01 X2.4149 Y-12.0057
G01 X2.3444 Y-11.9783
G01 X2.2785 Y-11.9490
G01 X2.2140 Y-11.9166
G01 X2.1452 Y-11.8778
G01 X2.0842 Y-11.8392
G01 X2.0195 Y-11.7938
G01 X1.9599 Y-11.7473
G01 X1.9027 Y-11.6980
G01 X1.8492 Y-11.6471
G01 X1.7958 Y-11.5911
G01 X1.7465 Y-11.5339
G01 X1.7000 Y-11.4743
G01 X1.6564 Y-11.4125
G01 X1.6160 Y-11.3486
G01 X1.5787 Y-11.2829
G01 X1.5448 Y-11.2153
G01 X1.5128 Y-11.1430
G01 X1.4869 Y-11.0757
G01 X1.4642 Y-11.0072
G01 X1.4439 Y-10.9344
G01 X1.4265 Y-10.8573
G01 X1.4141 Y-10.7863
G01 X1.4043 Y-10.7078
G01 X1.3988 Y-10.6325
G01 X1.3969 Y-10.5569
G01 X1.3988 Y-10.4813
G01 X1.4043 Y-10.4060
G01 X1.4131 Y-10.3343
G01 X1.4272 Y-10.2531
G01 X1.4431 Y-10.1827
G01 X1.4632 Y-10.1099
G01 X1.4869 Y-10.0381
G01 X1.5141 Y-9.9676
G01 X1.5448 Y-9.8985
G01 X1.5787 Y-9.8309
G01 X1.6160 Y-9.7652
G01 X1.6546 Y-9.7042
G01 X1.7020 Y-9.6368
G01 X1.7465 Y-9.5799
G01 X1.7964 Y-9.5221
G01 X1.7964 Y-8.8883
G01 X1.7978 Y-8.8340
G01 X1.8021 Y-8.7765
G01 X1.8093 Y-8.7193
G01 X1.8183 Y-8.6675
G01 X1.8298 Y-8.6162
G01 X1.8455 Y-8.5589
G01 X1.8637 Y-8.5042
G01 X1.8832 Y-8.4535
G01 X1.9045 Y-8.4055
G01 X1.9303 Y-8.3539
G01 X1.9596 Y-8.3022
G01 X1.9877 Y-8.2578
G01 X2.0023 Y-8.2369
G01 X2.0024 Y-7.4455
G01 X2.0034 Y-7.4336
G01 X2.0053 Y-7.4217
G01 X2.0083 Y-7.4101
G01 X2.0123 Y-7.3987
G01 X2.0180 Y-7.3862
G01 X2.0240 Y-7.3758
G01 X2.0309 Y-7.3659
G01 X2.0386 Y-7.3567
G01 X2.0496 Y-7.3458
G01 X2.0603 Y-7.3372
G01 X2.0718 Y-7.3297
G01 X2.0840 Y-7.3234
G01 X2.0968 Y-7.3183
G01 X2.1100 Y-7.3145
G01 X2.1252 Y-7.3118
G01 X2.1389 Y-7.3107
G01 X3.7423 Y-7.3107
G01 X3.7543 Y-7.3112
G01 X3.7662 Y-7.3128
G01 X3.7780 Y-7.3153
G01 X3.7911 Y-7.3195
G01 X3.8083 Y-7.3272
G01 X3.8243 Y-7.3372
G01 X3.8388 Y-7.3493
G01 X3.8516 Y-7.3632
G01 X3.8624 Y-7.3787
G01 X3.8710 Y-7.3955
G01 X3.8772 Y-7.4134
G01 X3.8812 Y-7.4336
G01 X3.8823 Y-7.4507
G01 X3.8823 Y-8.0267
G01 X6.2603 Y-8.8968
G01 X8.5322 Y-8.8968
G01 X8.5026 Y-8.8893
G01 X8.4891 Y-8.8847
G01 X8.4701 Y-8.8770
G01 X6.2887 Y-8.8766
G01 X6.2668 Y-8.8749
G01 X6.2552 Y-8.8725
G01 X6.2438 Y-8.8692
G01 X4.0942 Y-8.0828
G01 X4.0799 Y-8.0766
G01 X4.0664 Y-8.0690
G01 X4.0539 Y-8.0598
G01 X4.0436 Y-8.0506
G01 X4.0354 Y-8.0417
G01 X4.0271 Y-8.0308
G01 X4.0198 Y-8.0191
G01 X4.0137 Y-8.0067
G01 X4.0089 Y-7.9937
G01 X4.0054 Y-7.9804
G01 X4.0034 Y-7.9685
G01 X4.0023 Y-7.9547
G01 X4.0024 Y-6.6397
G01 X3.8824 Y-6.6397
G01 X3.8824 Y-6.8541
G01 X3.8803 Y-6.8746
G01 X3.8753 Y-6.8946
G01 X3.8682 Y-6.9121
G01 X3.8588 Y-6.9285
G01 X3.8484 Y-6.9421
G01 X3.8351 Y-6.9556
G01 X3.8202 Y-6.9671
G01 X3.8038 Y-6.9765
G01 X3.7863 Y-6.9836
G01 X3.7680 Y-6.9883
G01 X3.7561 Y-6.9900
G01 X3.7424 Y-6.9907
G01 X2.1424 Y-6.9907
G01 X2.1219 Y-6.9892
G01 X2.1001 Y-6.9842
G01 X2.0810 Y-6.9765
G01 X2.0632 Y-6.9661
G01 X2.0471 Y-6.9533
G01 X2.0331 Y-6.9382
G01 X2.0214 Y-6.9212
G01 X2.0124 Y-6.9027
G01 X2.0084 Y-6.8913
G01 X2.0054 Y-6.8797
G01 X2.0035 Y-6.8678
G01 X2.0025 Y-6.8559
G01 X2.0024 Y-6.6397
G01 X1.8824 Y-6.6397
G01 X1.8822 Y-8.3815
G01 X1.8802 Y-8.4003
G01 X1.8758 Y-8.4187
G01 X1.8441 Y-8.4990
G01 X1.8263 Y-8.5531
G01 X1.8111 Y-8.6080
G01 X1.7986 Y-8.6636
G01 X1.7889 Y-8.7197
G01 X1.7819 Y-8.7762
G01 X1.7777 Y-8.8331
G01 X1.7762 Y-8.8917
G01 X1.7762 Y-9.4628
G01 X1.7752 Y-9.4800
G01 X1.7725 Y-9.4952
G01 X1.7681 Y-9.5100
G01 X1.7621 Y-9.5242
G01 X1.7545 Y-9.5377
G01 X1.7466 Y-9.5490
G01 X1.7310 Y-9.5673
G01 X1.6839 Y-9.6276
G01 X1.6398 Y-9.6902
G01 X1.5989 Y-9.7549
G01 X1.5611 Y-9.8215
G01 X1.5267 Y-9.8899
G01 X1.4957 Y-9.9599
G01 X1.4681 Y-10.0314
G01 X1.4441 Y-10.1041
G01 X1.4237 Y-10.1779
G01 X1.4069 Y-10.2526
G01 X1.3938 Y-10.3280
G01 X1.3845 Y-10.4040
G01 X1.3788 Y-10.4804
G01 X1.3769 Y-10.5569
G01 X1.3788 Y-10.6334
G01 X1.3845 Y-10.7098
G01 X1.3938 Y-10.7858
G01 X1.4069 Y-10.8612
G01 X1.4237 Y-10.9359
G01 X1.4441 Y-11.0097
G01 X1.4681 Y-11.0824
G01 X1.4957 Y-11.1539
G01 X1.5267 Y-11.2239
G01 X1.5611 Y-11.2923
G01 X1.5989 Y-11.3589
G01 X1.6398 Y-11.4236
G01 X1.6839 Y-11.4862
G01 X1.7310 Y-11.5465
G01 X1.7810 Y-11.6045
G01 X1.8338 Y-11.6600
G01 X1.8893 Y-11.7128
G01 X1.9473 Y-11.7628
G01 X2.0076 Y-11.8099
G01 X2.0702 Y-11.8540
G01 X2.1349 Y-11.8949
G01 X2.2015 Y-11.9327
G01 X2.2699 Y-11.9671
G01 X2.3399 Y-11.9981
G01 X2.4114 Y-12.0257
G01 X2.4841 Y-12.0497
G01 X2.5579 Y-12.0701
G01 X2.6326 Y-12.0869
G01 X2.7080 Y-12.1000
G01 X2.7840 Y-12.1093
G01 X2.8604 Y-12.1150
G01 X2.9369 Y-12.1169
G01 X3.0134 Y-12.1150
G01 X3.0898 Y-12.1093
G01 X3.1658 Y-12.1000
G01 X3.2412 Y-12.0869
G01 X3.3159 Y-12.0701
G01 X3.3897 Y-12.0497
G01 X3.4624 Y-12.0257
G01 X3.5339 Y-11.9981
G01 X3.6039 Y-11.9671
G01 X3.6723 Y-11.9327
G01 X3.7389 Y-11.8949
G01 X3.8036 Y-11.8540
G01 X3.8662 Y-11.8099
G01 X3.9265 Y-11.7628
G01 X3.9845 Y-11.7128
G01 X4.0400 Y-11.6600
G01 X4.0928 Y-11.6045
G01 X4.1428 Y-11.5465
G01 X4.1899 Y-11.4862
G01 X4.2340 Y-11.4236
G01 X4.2749 Y-11.3589
G01 X4.3127 Y-11.2923
G01 X4.3471 Y-11.2239
G01 X4.3781 Y-11.1539
G01 X4.4057 Y-11.0824
G01 X4.4297 Y-11.0097
G01 X4.4501 Y-10.9359
G01 X4.4669 Y-10.8612
G01 X4.4800 Y-10.7858
G01 X4.4893 Y-10.7098
G01 X4.4950 Y-10.6334
G01 X4.4969 Y-10.5569
G01 X4.4950 Y-10.4804
G01 X4.4893 Y-10.4040
G01 X4.4800 Y-10.3280
G01 X4.4669 Y-10.2526
G01 X4.4501 Y-10.1779
G01 X4.4297 Y-10.1041
G01 X4.4057 Y-10.0314
G01 X4.3781 Y-9.9599
G01 X4.3471 Y-9.8899
G01 X4.3127 Y-9.8215
G01 X4.2749 Y-9.7549
G01 X4.2340 Y-9.6902
G01 X4.1899 Y-9.6276
G01 X4.1428 Y-9.5673
G01 X4.1272 Y-9.5490
G01 X4.1193 Y-9.5377
G01 X4.1117 Y-9.5242
G01 X4.1057 Y-9.5100
G01 X4.1013 Y-9.4952
G01 X4.0988 Y-9.4817
G01 X4.0976 Y-9.4628
G01 X4.0976 Y-9.1546
G01 X4.0984 Y-9.1427
G01 X4.1002 Y-9.1308
G01 X4.1063 Y-9.1094
G01 X4.1109 Y-9.0983
G01 X4.1174 Y-9.0862
G01 X4.1239 Y-9.0762
G01 X4.1325 Y-9.0655
G01 X4.1408 Y-9.0569
G01 X4.1498 Y-9.0489
G01 X4.1595 Y-9.0418
G01 X4.1712 Y-9.0348
G01 X4.1820 Y-9.0295
G01 X4.1932 Y-9.0253
G01 X4.2047 Y-9.0219
G01 X4.2182 Y-9.0194
G01 X4.2318 Y-9.0182
G01 X4.2438 Y-9.0182
G01 X4.2575 Y-9.0195
G01 X4.2692 Y-9.0217
G01 X4.2857 Y-9.0266
G01 X6.0486 Y-9.6716
G01 X6.0697 Y-9.6787
G01 X6.0895 Y-9.6843
G01 X6.1095 Y-9.6889
G01 X6.1298 Y-9.6925
G01 X6.1502 Y-9.6951
G01 X6.1707 Y-9.6966
G01 X6.1930 Y-9.6972
G01 X6.5435 Y-9.6972
G01 X6.5589 Y-9.6980
G01 X6.5725 Y-9.7002
G01 X6.5841 Y-9.7032
G01 X6.5955 Y-9.7072
G01 X6.6080 Y-9.7129
G01 X6.6198 Y-9.7198
G01 X6.6296 Y-9.7268
G01 X6.6388 Y-9.7346
G01 X6.6484 Y-9.7444
G01 X6.6559 Y-9.7538
G01 X6.6627 Y-9.7637
G01 X6.6686 Y-9.7742
G01 X6.6741 Y-9.7868
G01 X6.6780 Y-9.7982
G01 X6.6808 Y-9.8099
G01 X6.6826 Y-9.8217
G01 X6.6835 Y-9.8337
G01 X6.6835 Y-12.1427
G01 X6.6841 Y-12.1670
G01 X6.6858 Y-12.1895
G01 X6.6885 Y-12.2119
G01 X6.6924 Y-12.2342
G01 X6.6973 Y-12.2562
G01 X6.7034 Y-12.2780
G01 X6.7104 Y-12.2995
G01 X6.7186 Y-12.3205
G01 X6.7277 Y-12.3412
G01 X6.7379 Y-12.3614
G01 X6.7490 Y-12.3810
G01 X6.7611 Y-12.4001
G01 X6.7741 Y-12.4186
G01 X6.7880 Y-12.4364
G01 X6.8028 Y-12.4535
G01 X6.8183 Y-12.4699
G01 X6.8347 Y-12.4854
G01 X6.8518 Y-12.5002
G01 X6.8696 Y-12.5141
G01 X6.8881 Y-12.5271
G01 X6.9072 Y-12.5392
G01 X6.9268 Y-12.5503
G01 X6.9470 Y-12.5605
G01 X6.9677 Y-12.5696
G01 X6.9887 Y-12.5778
G01 X7.0102 Y-12.5848
G01 X7.0320 Y-12.5909
G01 X7.0540 Y-12.5958
G01 X7.0763 Y-12.5997
G01 X7.0987 Y-12.6024
G01 X7.1212 Y-12.6041
G01 X7.1502 Y-12.6051
G01 X7.1705 Y-12.6084
G01 X7.1837 Y-12.6122
G01 X7.1965 Y-12.6173
G01 X7.2087 Y-12.6236
G01 X7.2205 Y-12.6313
G01 X7.3287 Y-12.6313
G01 X7.3619 Y-12.6335
G01 X7.3819 Y-12.6340
G01 X7.4020 Y-12.6335
G01 X7.4351 Y-12.6313
G01 X7.6506 Y-12.6315
G01 X7.6693 Y-12.6336
G01 X7.6876 Y-12.6383
G01 X7.7050 Y-12.6454
G01 X7.7213 Y-12.6547
G01 X7.7323 Y-12.6628
G01 X7.7425 Y-12.6720
G01 X7.7528 Y-12.6835
G01 X7.7609 Y-12.6945
G01 X7.7678 Y-12.7063
G01 X7.7736 Y-12.7187
G01 X7.7781 Y-12.7317
G01 X7.7816 Y-12.7466
G01 X7.7838 Y-12.7688
G01 X7.7848 Y-13.0066
G01 X7.7823 Y-13.0253
G01 X7.7778 Y-13.0418
G01 X7.7707 Y-13.0592
G01 X7.7612 Y-13.0755
G01 X6.7157 Y-14.5858
G01 X6.7085 Y-14.5954
G01 X6.7004 Y-14.6043
G01 X6.6917 Y-14.6125
G01 X6.6823 Y-14.6199
G01 X6.6722 Y-14.6264
G01 X6.6617 Y-14.6321
G01 X6.6507 Y-14.6369
G01 X6.6393 Y-14.6407
G01 X6.6260 Y-14.6438
G01 X6.6107 Y-14.6458
G01 X6.5970 Y-14.6461
G01 X6.5834 Y-14.6451
G01 X6.5699 Y-14.6427
G01 X6.5510 Y-14.6377
G01 X6.4955 Y-14.6252
G01 X6.4394 Y-14.6155
G01 X6.3829 Y-14.6085
G01 X6.3261 Y-14.6043
G01 X6.2692 Y-14.6029
G01 X6.2123 Y-14.6043
G01 X6.1555 Y-14.6085
G01 X6.0990 Y-14.6155
G01 X6.0429 Y-14.6252
G01 X5.9874 Y-14.6377
G01 X5.9325 Y-14.6529
G01 X5.8784 Y-14.6707
G01 X5.8097 Y-14.6968
G01 X5.7913 Y-14.7008
G01 X5.7724 Y-14.7023
G01 X2.0585 Y-14.7023
G01 X2.0048 Y-14.7036
G01 X1.9528 Y-14.7074
G01 X1.9012 Y-14.7138
G01 X1.8499 Y-14.7227
G01 X1.7991 Y-14.7341
G01 X1.7489 Y-14.7480
G01 X1.6995 Y-14.7643
G01 X1.6509 Y-14.7831
G01 X1.6034 Y-14.8042
G01 X1.5569 Y-14.8276
G01 X1.5116 Y-14.8532
G01 X1.4676 Y-14.8811
G01 X1.4250 Y-14.9111
G01 X1.3840 Y-14.9431
G01 X1.3446 Y-14.9771
G01 X1.3069 Y-15.0130
G01 X1.2710 Y-15.0507
G01 X1.2370 Y-15.0901
G01 X1.2050 Y-15.1311
G01 X1.1750 Y-15.1737
G01 X1.1471 Y-15.2177
G01 X1.1215 Y-15.2630
G01 X1.0981 Y-15.3095
G01 X1.0770 Y-15.3570
G01 X1.0582 Y-15.4056
G01 X1.0419 Y-15.4550
G01 X1.0280 Y-15.5052
G01 X1.0166 Y-15.5560
G01 X1.0077 Y-15.6073
G01 X1.0013 Y-15.6589
G01 X0.9975 Y-15.7109
G01 X0.9962 Y-15.7629
G01 X0.9975 Y-15.8149
G01 X1.0013 Y-15.8669
G01 X1.0077 Y-15.9185
G01 X1.0166 Y-15.9698
G01 X1.0280 Y-16.0206
G01 X1.0419 Y-16.0708
G01 X1.0582 Y-16.1202
G01 X1.0770 Y-16.1688
G01 X1.0981 Y-16.2163
G01 X1.1215 Y-16.2628
G01 X1.1471 Y-16.3081
G01 X1.1750 Y-16.3521
G01 X1.2050 Y-16.3947
G01 X1.2370 Y-16.4357
G01 X1.2710 Y-16.4751
G01 X1.3069 Y-16.5128
G01 X1.3446 Y-16.5487
G01 X1.3840 Y-16.5827
G01 X1.4250 Y-16.6147
G01 X1.4676 Y-16.6447
G01 X1.5116 Y-16.6726
G01 X1.5569 Y-16.6982
G01 X1.6034 Y-16.7216
G01 X1.6509 Y-16.7427
G01 X1.6995 Y-16.7615
G01 X1.7489 Y-16.7778
G01 X1.7991 Y-16.7917
G01 X1.8499 Y-16.8031
G01 X1.9012 Y-16.8120
G01 X1.9528 Y-16.8184
G01 X2.0048 Y-16.8222
G01 X2.0585 Y-16.8235
G01 X5.7742 Y-16.8235
G01 X5.7913 Y-16.8250
G01 X5.8098 Y-16.8291
G01 X5.8785 Y-16.8551
G01 X5.9325 Y-16.8729
G01 X5.9874 Y-16.8881
G01 X6.0429 Y-16.9006
G01 X6.0990 Y-16.9103
G01 X6.1555 Y-16.9173
G01 X6.2123 Y-16.9215
G01 X6.2692 Y-16.9229
G01 X6.3261 Y-16.9215
G01 X6.3829 Y-16.9173
G01 X6.4394 Y-16.9103
G01 X6.4955 Y-16.9006
G01 X6.5510 Y-16.8881
G01 X6.6059 Y-16.8729
G01 X6.6600 Y-16.8551
G01 X6.7131 Y-16.8346
G01 X6.7651 Y-16.8115
G01 X6.8160 Y-16.7859
G01 X6.8655 Y-16.7578
G01 X6.9136 Y-16.7274
G01 X6.9602 Y-16.6946
G01 X7.0051 Y-16.6596
G01 X7.0482 Y-16.6224
G01 X7.0894 Y-16.5831
G01 X7.1287 Y-16.5419
G01 X7.1659 Y-16.4988
G01 X7.2009 Y-16.4539
G01 X7.2337 Y-16.4073
G01 X7.2641 Y-16.3592
G01 X7.2922 Y-16.3097
G01 X7.3178 Y-16.2588
G01 X7.3409 Y-16.2068
G01 X7.3614 Y-16.1537
G01 X7.3792 Y-16.0996
G01 X7.3944 Y-16.0447
G01 X7.4069 Y-15.9892
G01 X7.4166 Y-15.9331
G01 X7.4236 Y-15.8766
G01 X7.4278 Y-15.8198
G01 X7.4292 Y-15.7629
G01 X7.4278 Y-15.7060
G01 X7.4236 Y-15.6492
G01 X7.4166 Y-15.5927
G01 X7.4069 Y-15.5366
G01 X7.3944 Y-15.4811
G01 X7.3792 Y-15.4262
G01 X7.3614 Y-15.3721
G01 X7.3409 Y-15.3190
G01 X7.3178 Y-15.2670
G01 X7.2922 Y-15.2161
G01 X7.2641 Y-15.1666
G01 X7.2337 Y-15.1185
G01 X7.2168 Y-15.0937
G01 X7.2098 Y-15.0798
G01 X7.2048 Y-15.0670
G01 X7.2016 Y-15.0554
G01 X7.1991 Y-15.0418
G01 X7.1979 Y-15.0281
G01 X7.1980 Y-15.0160
G01 X7.1994 Y-15.0023
G01 X7.2017 Y-14.9905
G01 X7.2056 Y-14.9772
G01 X7.2107 Y-14.9644
G01 X7.2163 Y-14.9537
G01 X7.2227 Y-14.9435
G01 X8.0152 Y-13.7988
G01 X8.0264 Y-13.7857
G01 X8.0377 Y-13.7751
G01 X8.0501 Y-13.7659
G01 X8.0649 Y-13.7573
G01 X8.0808 Y-13.7506
G01 X8.0956 Y-13.7463
G01 X8.1108 Y-13.7436
G01 X8.1280 Y-13.7426
G01 X8.1400 Y-13.7432
G01 X8.1536 Y-13.7451
G01 X8.1653 Y-13.7479
G01 X8.1767 Y-13.7516
G01 X8.1878 Y-13.7564
G01 X8.1984 Y-13.7620
G01 X8.2085 Y-13.7686
G01 X8.2193 Y-13.7771
G01 X8.2280 Y-13.7853
G01 X8.2360 Y-13.7943
G01 X8.2432 Y-13.8040
G01 X8.2495 Y-13.8142
G01 X8.2556 Y-13.8265
G01 X8.2600 Y-13.8378
G01 X8.2633 Y-13.8493
G01 X8.2657 Y-13.8611
G01 X8.2673 Y-13.8833
G01 X8.2626 Y-14.8966
G01 X8.2637 Y-14.9120
G01 X8.2681 Y-14.9425
G01 X8.2715 Y-14.9575
G01 X8.2804 Y-14.9870
G01 X8.2921 Y-15.0155
G01 X8.2991 Y-15.0292
G01 X8.3149 Y-15.0556
G01 X8.3334 Y-15.0803
G01 X8.3541 Y-15.1031
G01 X8.3771 Y-15.1237
G01 X8.3893 Y-15.1331
G01 X8.4150 Y-15.1500
G01 X8.4284 Y-15.1575
G01 X8.4564 Y-15.1704
G01 X9.8557 Y-15.6564
G01 X9.8761 Y-15.6653
G01 X9.8934 Y-15.6764
G01 X9.9028 Y-15.6839
G01 X9.9114 Y-15.6923
G01 X9.9254 Y-15.7096
G01 X9.9317 Y-15.7198
G01 X9.9372 Y-15.7305
G01 X9.9417 Y-15.7416
G01 X9.9452 Y-15.7530
G01 X9.9478 Y-15.7648
G01 X9.9495 Y-15.7784
G01 X9.9506 Y-15.8198
G01 X9.9548 Y-15.8766
G01 X9.9618 Y-15.9331
G01 X9.9715 Y-15.9892
G01 X9.9840 Y-16.0447
G01 X9.9992 Y-16.0996
G01 X10.0170 Y-16.1537
G01 X10.0375 Y-16.2068
G01 X10.0606 Y-16.2588
G01 X10.0862 Y-16.3097
G01 X10.1143 Y-16.3592
G01 X10.1447 Y-16.4073
G01 X10.1775 Y-16.4539
G01 X10.2125 Y-16.4988
G01 X10.2497 Y-16.5419
G01 X10.2890 Y-16.5831
G01 X10.3302 Y-16.6224
G01 X10.3733 Y-16.6596
G01 X10.4182 Y-16.6946
G01 X10.4648 Y-16.7274
G01 X10.5129 Y-16.7578
G01 X10.5624 Y-16.7859
G01 X10.6133 Y-16.8115
G01 X10.6653 Y-16.8346
G01 X10.7184 Y-16.8551
G01 X10.7725 Y-16.8729
G01 X10.8274 Y-16.8881
G01 X10.8829 Y-16.9006
G01 X10.9390 Y-16.9103
G01 X10.9955 Y-16.9173
G01 X11.0523 Y-16.9215
G01 X11.1092 Y-16.9229
G01 X11.1661 Y-16.9215
G01 X11.2229 Y-16.9173
G01 X11.2794 Y-16.9103
G01 X11.3355 Y-16.9006
G01 X11.3910 Y-16.8881
G01 X11.4459 Y-16.8729
G01 X11.5000 Y-16.8551
G01 X11.5687 Y-16.8290
G01 X11.5854 Y-16.8253
G01 X11.6043 Y-16.8235
G01 X15.4437 Y-16.8235
G01 X15.4974 Y-16.8222
G01 X15.5494 Y-16.8184
G01 X15.6010 Y-16.8120
G01 X15.6523 Y-16.8031
G01 X15.7031 Y-16.7917
G01 X15.7533 Y-16.7778
G01 X15.8027 Y-16.7615
G01 X15.8513 Y-16.7427
G01 X15.8988 Y-16.7216
G01 X15.9453 Y-16.6982
G01 X15.9906 Y-16.6726
G01 X16.0346 Y-16.6447
G01 X16.0772 Y-16.6147
G01 X16.1182 Y-16.5827
G01 X16.1576 Y-16.5487
G01 X16.1953 Y-16.5128
G01 X16.2312 Y-16.4751
G01 X16.2652 Y-16.4357
G01 X16.2972 Y-16.3947
G01 X16.3272 Y-16.3521
G01 X16.3551 Y-16.3081
G01 X16.3807 Y-16.2628
G01 X16.4041 Y-16.2163
G01 X16.4252 Y-16.1688
G01 X16.4440 Y-16.1202
G01 X16.4603 Y-16.0708
G01 X16.4742 Y-16.0206
G01 X16.4856 Y-15.9698
G01 X16.4945 Y-15.9185
G01 X16.5009 Y-15.8669
G01 X16.5047 Y-15.8149
G01 X16.5060 Y-15.7629
G01 X16.5047 Y-15.7109
G01 X16.5009 Y-15.6589
G01 X16.4945 Y-15.6073
G01 X16.4856 Y-15.5560
G01 X16.4742 Y-15.5052
G01 X16.4603 Y-15.4550
G01 X16.4440 Y-15.4056
G01 X16.4252 Y-15.3570
G01 X16.4041 Y-15.3095
G01 X16.3807 Y-15.2630
G01 X16.3551 Y-15.2177
G01 X16.3272 Y-15.1737
G01 X16.2972 Y-15.1311
G01 X16.2652 Y-15.0901
G01 X16.2312 Y-15.0507
G01 X16.1953 Y-15.0130
G01 X16.1576 Y-14.9771
G01 X16.1182 Y-14.9431
G01 X16.0772 Y-14.9111
G01 X16.0346 Y-14.8811
G01 X15.9906 Y-14.8532
G01 X15.9453 Y-14.8276
G01 X15.8988 Y-14.8042
G01 X15.8513 Y-14.7831
G01 X15.8027 Y-14.7643
G01 X15.7533 Y-14.7480
G01 X15.7031 Y-14.7341
G01 X15.6523 Y-14.7227
G01 X15.6010 Y-14.7138
G01 X15.5494 Y-14.7074
G01 X15.4974 Y-14.7036
G01 X15.4437 Y-14.7023
G01 X11.6042 Y-14.7023
G01 X11.5854 Y-14.7005
G01 X11.5686 Y-14.6967
G01 X11.4999 Y-14.6707
G01 X11.4459 Y-14.6529
G01 X11.3910 Y-14.6377
G01 X11.3355 Y-14.6252
G01 X11.2794 Y-14.6155
G01 X11.2229 Y-14.6085
G01 X11.1661 Y-14.6043
G01 X11.1092 Y-14.6029
G01 X11.0523 Y-14.6043
G01 X10.9955 Y-14.6085
G01 X10.9390 Y-14.6155
G01 X10.8829 Y-14.6252
G01 X10.8274 Y-14.6377
G01 X10.7725 Y-14.6529
G01 X10.7184 Y-14.6707
G01 X10.6653 Y-14.6912
G01 X10.6133 Y-14.7143
G01 X10.5624 Y-14.7399
G01 X10.5129 Y-14.7680
G01 X10.4648 Y-14.7984
G01 X10.4182 Y-14.8312
G01 X10.3733 Y-14.8662
G01 X10.3302 Y-14.9034
G01 X10.2890 Y-14.9427
G01 X10.2497 Y-14.9839
G01 X10.2060 Y-15.0344
G01 X10.1960 Y-15.0438
G01 X10.1852 Y-15.0523
G01 X10.1659 Y-15.0637
G01 X10.1451 Y-15.0718
G01 X10.1232 Y-15.0766
G01 X10.1009 Y-15.0778
G01 X10.0804 Y-15.0757
G01 X10.0587 Y-15.0701
G01 X8.9704 Y-14.6922
G01 X8.9520 Y-14.6829
G01 X8.9352 Y-14.6709
G01 X8.9203 Y-14.6567
G01 X8.9076 Y-14.6403
G01 X8.8975 Y-14.6223
G01 X8.8902 Y-14.6031
G01 X8.8858 Y-14.5829
G01 X8.8844 Y-14.5623
G01 X8.8870 Y-14.0368
G01 X8.8886 Y-14.0163
G01 X8.8927 Y-13.9980
G01 X8.8993 Y-13.9803
G01 X8.9081 Y-13.9637
G01 X8.9202 Y-13.9470
G01 X8.9333 Y-13.9335
G01 X8.9481 Y-13.9219
G01 X8.9644 Y-13.9123
G01 X8.9834 Y-13.9045
G01 X8.9999 Y-13.9002
G01 X9.0152 Y-13.8980
G01 X9.0306 Y-13.8976
G01 X9.0477 Y-13.8991
G01 X9.0594 Y-13.9013
G01 X9.0710 Y-13.9046
G01 X9.1090 Y-13.9197
G01 X9.1281 Y-13.9260
G01 X9.1672 Y-13.9358
G01 X9.2070 Y-13.9417
G01 X9.2271 Y-13.9431
G01 X9.2489 Y-13.9437
G01 X11.1505 Y-13.9437
G01 X11.1918 Y-13.9417
G01 X11.2310 Y-13.9360
G01 X11.2504 Y-13.9317
G01 X11.2884 Y-13.9204
G01 X11.3251 Y-13.9054
G01 X11.3602 Y-13.8870
G01 X11.3785 Y-13.8757
G01 X13.5472 Y-12.4547
G01 X13.5606 Y-12.4470
G01 X13.5765 Y-12.4401
G01 X13.5880 Y-12.4365
G01 X13.5998 Y-12.4339
G01 X13.6222 Y-12.4319
G01 X15.6033 Y-12.4319
G01 X15.6619 Y-12.4304
G01 X15.7188 Y-12.4262
G01 X15.7753 Y-12.4192
G01 X15.8314 Y-12.4095
G01 X15.8870 Y-12.3970
G01 X15.9419 Y-12.3818
G01 X15.9960 Y-12.3640
G01 X16.0491 Y-12.3435
G01 X16.1012 Y-12.3204
G01 X16.1521 Y-12.2948
G01 X16.2017 Y-12.2667
G01 X16.2498 Y-12.2362
G01 X16.2964 Y-12.2034
G01 X16.3413 Y-12.1684
G01 X16.3844 Y-12.1312
G01 X16.4257 Y-12.0919
G01 X16.4650 Y-12.0506
G01 X16.5022 Y-12.0075
G01 X16.5372 Y-11.9626
G01 X16.5700 Y-11.9160
G01 X16.6005 Y-11.8679
G01 X16.6286 Y-11.8183
G01 X16.6542 Y-11.7674
G01 X16.6773 Y-11.7153
G01 X16.6978 Y-11.6622
G01 X16.7156 Y-11.6081
G01 X16.7308 Y-11.5532
G01 X16.7433 Y-11.4976
G01 X16.7530 Y-11.4415
G01 X16.7600 Y-11.3850
G01 X16.7642 Y-11.3281
G01 X16.7656 Y-11.2712
G01 X16.7642 Y-11.2143
G01 X16.7600 Y-11.1574
G01 X16.7530 Y-11.1009
G01 X16.7433 Y-11.0448
G01 X16.7308 Y-10.9892
G01 X16.7156 Y-10.9343
G01 X16.6978 Y-10.8802
G01 X16.6773 Y-10.8271
G01 X16.6542 Y-10.7750
G01 X16.6286 Y-10.7241
G01 X16.6005 Y-10.6745
G01 X16.5700 Y-10.6264
G01 X16.5372 Y-10.5798
G01 X16.5022 Y-10.5349
G01 X16.4650 Y-10.4918
G01 X16.4257 Y-10.4505
G01 X16.3844 Y-10.4112
G01 X16.3413 Y-10.3740
G01 X16.2964 Y-10.3390
G01 X16.2498 Y-10.3062
G01 X16.2017 Y-10.2757
G01 X16.1521 Y-10.2476
G01 X16.1012 Y-10.2220
G01 X16.0491 Y-10.1989
G01 X15.9960 Y-10.1784
G01 X15.9419 Y-10.1606
G01 X15.8870 Y-10.1454
G01 X15.8314 Y-10.1329
G01 X15.7753 Y-10.1232
G01 X15.7188 Y-10.1162
G01 X15.6619 Y-10.1120
G01 X15.6033 Y-10.1105
G01 X13.6067 Y-10.1105
G01 X13.5481 Y-10.1120
G01 X13.4912 Y-10.1162
G01 X13.4347 Y-10.1232
G01 X13.3786 Y-10.1329
G01 X13.3230 Y-10.1454
G01 X13.2681 Y-10.1606
G01 X13.2140 Y-10.1784
G01 X13.1609 Y-10.1989
G01 X13.1088 Y-10.2220
G01 X13.0579 Y-10.2476
G01 X13.0083 Y-10.2757
G01 X12.9602 Y-10.3062
G01 X12.9136 Y-10.3390
G01 X12.8687 Y-10.3740
G01 X12.8256 Y-10.4112
G01 X12.7843 Y-10.4505
G01 X12.7450 Y-10.4918
G01 X12.7078 Y-10.5349
G01 X12.6728 Y-10.5798
G01 X12.6400 Y-10.6264
G01 X12.6095 Y-10.6745
G01 X12.5814 Y-10.7241
G01 X12.5558 Y-10.7750
G01 X12.5327 Y-10.8271
G01 X12.5122 Y-10.8802
G01 X12.4944 Y-10.9343
G01 X12.4792 Y-10.9892
G01 X12.4667 Y-11.0448
G01 X12.4570 Y-11.1009
G01 X12.4500 Y-11.1574
G01 X12.4458 Y-11.2143
G01 X12.4444 Y-11.2712
G01 X12.4458 Y-11.3281
G01 X12.4500 Y-11.3850
G01 X12.4570 Y-11.4415
G01 X12.4667 Y-11.4976
G01 X12.4792 Y-11.5532
G01 X12.4944 Y-11.6081
G01 X12.5122 Y-11.6622
G01 X12.5327 Y-11.7153
G01 X12.5558 Y-11.7674
G01 X12.5814 Y-11.8183
G01 X12.6095 Y-11.8679
G01 X12.6403 Y-11.9175
G01 X12.6484 Y-11.9364
G01 X12.6533 Y-11.9546
G01 X12.6559 Y-11.9749
G01 X12.6554 Y-11.9955
G01 X12.6519 Y-12.0158
G01 X12.6461 Y-12.0337
G01 X12.6372 Y-12.0522
G01 X12.6256 Y-12.0692
G01 X12.6129 Y-12.0831
G01 X12.5970 Y-12.0962
G01 X11.0647 Y-13.1002
G01 X11.0466 Y-13.1103
G01 X11.0255 Y-13.1180
G01 X11.0069 Y-13.1218
G01 X10.9880 Y-13.1231
G01 X9.5283 Y-13.1227
G01 X9.5164 Y-13.1213
G01 X9.5046 Y-13.1189
G01 X9.4931 Y-13.1155
G01 X9.4819 Y-13.1111
G01 X9.4711 Y-13.1058
G01 X9.4608 Y-13.0995
G01 X9.4511 Y-13.0924
G01 X9.4421 Y-13.0845
G01 X9.4337 Y-13.0759
G01 X9.4262 Y-13.0665
G01 X9.4194 Y-13.0566
G01 X9.4136 Y-13.0461
G01 X9.4086 Y-13.0351
G01 X9.4047 Y-13.0238
G01 X9.4017 Y-13.0121
G01 X9.3997 Y-13.0003
G01 X9.3986 Y-12.9831
G01 X9.3986 Y-12.7713
G01 X9.3991 Y-12.7593
G01 X9.4007 Y-12.7474
G01 X9.4037 Y-12.7340
G01 X9.4080 Y-12.7209
G01 X9.4144 Y-12.7068
G01 X9.4213 Y-12.6950
G01 X9.4293 Y-12.6838
G01 X9.4384 Y-12.6735
G01 X9.4485 Y-12.6642
G01 X9.4594 Y-12.6559
G01 X9.4726 Y-12.6478
G01 X9.4866 Y-12.6413
G01 X9.4996 Y-12.6368
G01 X9.5147 Y-12.6334
G01 X9.5352 Y-12.6313
G01 X9.5985 Y-12.6313
G01 X9.6173 Y-12.6328
G01 X9.6357 Y-12.6368
G01 X9.6487 Y-12.6413
G01 X9.6874 Y-12.6572
G01 X9.7089 Y-12.6642
G01 X9.7307 Y-12.6703
G01 X9.7527 Y-12.6752
G01 X9.7750 Y-12.6791
G01 X9.7974 Y-12.6818
G01 X9.8199 Y-12.6835
G01 X9.8425 Y-12.6841
G01 X9.8651 Y-12.6835
G01 X9.8876 Y-12.6818
G01 X9.9100 Y-12.6791
G01 X9.9323 Y-12.6752
G01 X9.9543 Y-12.6703
G01 X9.9761 Y-12.6642
G01 X9.9976 Y-12.6572
G01 X10.0186 Y-12.6490
G01 X10.0393 Y-12.6399
G01 X10.0595 Y-12.6297
G01 X10.0791 Y-12.6186
G01 X10.0982 Y-12.6065
G01 X10.1167 Y-12.5935
G01 X10.1345 Y-12.5796
G01 X10.1516 Y-12.5648
G01 X10.1680 Y-12.5493
G01 X10.1835 Y-12.5329
G01 X10.1983 Y-12.5158
G01 X10.2122 Y-12.4980
G01 X10.2252 Y-12.4795
G01 X10.2373 Y-12.4604
G01 X10.2484 Y-12.4408
G01 X10.2586 Y-12.4206
G01 X10.2677 Y-12.3999
G01 X10.2759 Y-12.3789
G01 X10.2829 Y-12.3574
G01 X10.2890 Y-12.3356
G01 X10.2939 Y-12.3136
G01 X10.2978 Y-12.2913
G01 X10.3005 Y-12.2689
G01 X10.3022 Y-12.2464
G01 X10.3028 Y-12.2221
G01 X10.3031 Y-10.9066
G01 X10.3055 Y-10.8879
G01 X10.3098 Y-10.8713
G01 X10.3162 Y-10.8554
G01 X10.3244 Y-10.8404
G01 X10.3344 Y-10.8265
G01 X10.3473 Y-10.8128
G01 X10.3605 Y-10.8019
G01 X10.3749 Y-10.7927
G01 X13.2256 Y-9.3906
G01 X13.2382 Y-9.3851
G01 X13.2497 Y-9.3814
G01 X13.2615 Y-9.3786
G01 X13.2751 Y-9.3768
G01 X13.2889 Y-9.3762
G01 X13.3010 Y-9.3769
G01 X13.3163 Y-9.3793
G01 X13.3786 Y-9.3933
G01 X13.4347 Y-9.4030
G01 X13.4912 Y-9.4100
G01 X13.5481 Y-9.4142
G01 X13.6067 Y-9.4157
G01 X15.6033 Y-9.4157
G01 X15.6619 Y-9.4142
G01 X15.7188 Y-9.4100
G01 X15.7753 Y-9.4030
G01 X15.8314 Y-9.3933
G01 X15.8870 Y-9.3808
G01 X15.9419 Y-9.3656
G01 X15.9960 Y-9.3478
G01 X16.0491 Y-9.3273
G01 X16.1012 Y-9.3042
G01 X16.1521 Y-9.2786
G01 X16.2017 Y-9.2505
G01 X16.2498 Y-9.2200
G01 X16.2964 Y-9.1872
G01 X16.3413 Y-9.1522
G01 X16.3844 Y-9.1150
G01 X16.4257 Y-9.0757
G01 X16.4650 Y-9.0344
G01 X16.5022 Y-8.9913
G01 X16.5372 Y-8.9464
G01 X16.5700 Y-8.8998
G01 X16.6005 Y-8.8517
G01 X16.6286 Y-8.8021
G01 X16.6542 Y-8.7512
G01 X16.6773 Y-8.6991
G01 X16.6978 Y-8.6460
G01 X16.7156 Y-8.5919
G01 X16.7308 Y-8.5370
G01 X16.7433 Y-8.4814
G01 X16.7530 Y-8.4253
G01 X16.7600 Y-8.3688
G01 X16.7642 Y-8.3119
G01 X16.7656 Y-8.2550
G01 X16.7642 Y-8.1981
G01 X16.7600 Y-8.1412
G01 X16.7530 Y-8.0847
G01 X16.7433 Y-8.0286
G01 X16.7308 Y-7.9730
G01 X16.7156 Y-7.9181
G01 X16.6978 Y-7.8640
G01 X16.6773 Y-7.8109
G01 X16.6542 Y-7.7588
G01 X16.6286 Y-7.7079
G01 X16.6005 Y-7.6583
G01 X16.5700 Y-7.6102
G01 X16.5372 Y-7.5636
G01 X16.5022 Y-7.5187
G01 X16.4650 Y-7.4756
G01 X16.4257 Y-7.4343
G01 X16.3844 Y-7.3950
G01 X16.3413 Y-7.3578
G01 X16.2964 Y-7.3228
G01 X16.2498 Y-7.2900
G01 X16.2017 Y-7.2595
G01 X16.1521 Y-7.2314
G01 X16.1012 Y-7.2058
G01 X16.0491 Y-7.1827
G01 X15.9960 Y-7.1622
G01 X15.9419 Y-7.1444
G01 X15.8870 Y-7.1292
G01 X15.8314 Y-7.1167
G01 X15.7753 Y-7.1070
G01 X15.7188 Y-7.1000
G01 X15.6619 Y-7.0958
G01 X15.6033 Y-7.0943
G01 X13.6067 Y-7.0943
G01 X13.5481 Y-7.0958
G01 X13.4912 Y-7.1000
G01 X13.4347 Y-7.1070
G01 X13.3786 Y-7.1167
G01 X13.3230 Y-7.1292
G01 X13.2681 Y-7.1444
G01 X13.2140 Y-7.1622
G01 X13.1609 Y-7.1827
G01 X13.1088 Y-7.2058
G01 X13.0579 Y-7.2314
G01 X13.0083 Y-7.2595
G01 X12.9602 Y-7.2900
G01 X12.9136 Y-7.3228
G01 X12.8687 Y-7.3578
G01 X12.8256 Y-7.3950
G01 X12.7843 Y-7.4343
G01 X12.7450 Y-7.4756
G01 X12.7078 Y-7.5187
G01 X12.6728 Y-7.5636
G01 X12.6400 Y-7.6102
G01 X12.6095 Y-7.6583
G01 X12.5814 Y-7.7079
G01 X12.5558 Y-7.7588
G01 X12.5327 Y-7.8109
G01 X12.5122 Y-7.8640
G01 X12.4944 Y-7.9181
G01 X12.4792 Y-7.9730
G01 X12.4667 Y-8.0286
G01 X12.4570 Y-8.0847
G01 X12.4500 Y-8.1412
G01 X12.4458 Y-8.1981
G01 X12.4444 Y-8.2550
G01 X12.4458 Y-8.3119
G01 X12.4500 Y-8.3688
G01 X12.4570 Y-8.4253
G01 X12.4667 Y-8.4814
G01 X12.4792 Y-8.5370
G01 X12.4944 Y-8.5919
G01 X12.5122 Y-8.6460
G01 X12.5287 Y-8.6900
G01 X12.5327 Y-8.7084
G01 X12.5342 Y-8.7272
G01 X12.5332 Y-8.7460
G01 X12.5296 Y-8.7645
G01 X12.5236 Y-8.7824
G01 X12.5153 Y-8.7993
G01 X12.5048 Y-8.8149
G01 X12.4922 Y-8.8290
G01 X12.4779 Y-8.8413
G01 X12.4621 Y-8.8515
G01 X9.5836 Y-10.2673
G01 X9.5645 Y-10.2773
G01 X9.5304 Y-10.2970
G01 X9.5194 Y-10.3019
G01 X9.5063 Y-10.3062
G01 X9.4878 Y-10.3100
G01 X9.4689 Y-10.3113
G01 X7.9219 Y-10.3109
G01 X7.9082 Y-10.3092
G01 X7.8965 Y-10.3067
G01 X7.8834 Y-10.3025
G01 X7.8723 Y-10.2979
G01 X7.8617 Y-10.2923
G01 X7.8502 Y-10.2848
G01 X7.8394 Y-10.2762
G01 X7.8308 Y-10.2678
G01 X7.8229 Y-10.2588
G01 X7.8158 Y-10.2491
G01 X7.8095 Y-10.2388
G01 X7.8035 Y-10.2265
G01 X7.7987 Y-10.2136
G01 X7.7956 Y-10.2020
G01 X7.7934 Y-10.1901
G01 X7.7923 Y-10.1765
G01 X7.7922 Y-9.8355
G01 X7.7928 Y-9.8235
G01 X7.7945 Y-9.8115
G01 X7.7987 Y-9.7949
G01 X7.8049 Y-9.7789
G01 X7.8130 Y-9.7637
G01 X7.8240 Y-9.7484
G01 X7.8356 Y-9.7358
G01 X7.8488 Y-9.7247
G01 X7.8632 Y-9.7154
G01 X7.8802 Y-9.7072
G01 X7.8932 Y-9.7027
G01 X7.9049 Y-9.6999
G01 X7.9167 Y-9.6980
G01 X7.9305 Y-9.6972
G01 X9.0471 Y-9.6972
G01 X9.0689 Y-9.6966
G01 X9.0890 Y-9.6952
G01 X9.1090 Y-9.6927
G01 X9.1485 Y-9.6848
G01 X9.1870 Y-9.6732
G01 X9.2242 Y-9.6577
G01 X9.2597 Y-9.6388
G01 X9.2932 Y-9.6164
G01 X9.3243 Y-9.5909
G01 X9.3528 Y-9.5624
G01 X9.3783 Y-9.5313
G01 X9.4007 Y-9.4978
G01 X9.4106 Y-9.4803
G01 X9.4196 Y-9.4623
G01 X9.4351 Y-9.4251
G01 X9.4414 Y-9.4060
G01 X9.4512 Y-9.3669
G01 X9.4571 Y-9.3271
G01 X9.4585 Y-9.3070
G01 X9.4590 Y-9.2869
G01 X9.4571 Y-9.2467
G01 X9.4546 Y-9.2267
G01 X9.4467 Y-9.1872
G01 X9.4351 Y-9.1487
G01 X9.4278 Y-9.1299
G01 X9.4106 Y-9.0932
G01 X9.4057 Y-9.0804
G01 X9.4007 Y-9.0604
G01 X9.3987 Y-9.0416
G01 X9.3986 Y-8.3662
G01 X9.4009 Y-8.3457
G01 X9.4056 Y-8.3274
G01 X9.4127 Y-8.3099
G01 X9.4221 Y-8.2935
G01 X9.4303 Y-8.2825
G01 X9.4408 Y-8.2711
G01 X9.4524 Y-8.2609
G01 X9.4651 Y-8.2521
G01 X9.4787 Y-8.2447
G01 X9.4930 Y-8.2389
G01 X9.5079 Y-8.2347
G01 X9.5231 Y-8.2322
G01 X9.5386 Y-8.2313
G01 X9.7485 Y-8.2313
G01 X9.7622 Y-8.2322
G01 X9.7973 Y-8.2368
G01 X9.8198 Y-8.2385
G01 X9.8424 Y-8.2391
G01 X9.8650 Y-8.2385
G01 X9.8875 Y-8.2368
G01 X9.9098 Y-8.2342
G01 X9.9218 Y-8.2337
G01 X9.9338 Y-8.2342
G01 X9.9561 Y-8.2368
G01 X9.9786 Y-8.2385
G01 X10.0012 Y-8.2391
G01 X10.0238 Y-8.2385
G01 X10.0463 Y-8.2368
G01 X10.0687 Y-8.2341
G01 X10.0910 Y-8.2302
G01 X10.1130 Y-8.2253
G01 X10.1348 Y-8.2192
G01 X10.1563 Y-8.2122
G01 X10.1773 Y-8.2040
G01 X10.1980 Y-8.1949
G01 X10.2182 Y-8.1847
G01 X10.2378 Y-8.1736
G01 X10.2569 Y-8.1615
G01 X10.2754 Y-8.1485
G01 X10.2932 Y-8.1346
G01 X10.3103 Y-8.1198
G01 X10.3267 Y-8.1043
G01 X10.3422 Y-8.0879
G01 X10.3570 Y-8.0708
G01 X10.3709 Y-8.0530
G01 X10.3839 Y-8.0345
G01 X10.3960 Y-8.0154
G01 X10.4071 Y-7.9958
G01 X10.4173 Y-7.9756
G01 X10.4264 Y-7.9549
G01 X10.4346 Y-7.9339
G01 X10.4416 Y-7.9124
G01 X10.4477 Y-7.8906
G01 X10.4526 Y-7.8686
G01 X10.4565 Y-7.8463
G01 X10.4592 Y-7.8239
G01 X10.4609 Y-7.8014
G01 X10.4615 Y-7.7771
G01 X10.4618 Y-6.6632
G01 X10.4635 Y-6.6480
G01 X10.4670 Y-6.6330
G01 X10.4721 Y-6.6184
G01 X10.4787 Y-6.6046
G01 X10.4868 Y-6.5915
G01 X10.4963 Y-6.5794
G01 X10.5071 Y-6.5684
G01 X10.5190 Y-6.5587
G01 X10.5290 Y-6.5520
G01 X10.5395 Y-6.5463
G01 X10.5504 Y-6.5414
G01 X10.5617 Y-6.5375
G01 X14.2578 Y-5.4424
G01 X14.2807 Y-5.4351
G01 X14.3015 Y-5.4272
G01 X14.3220 Y-5.4183
G01 X14.3419 Y-5.4085
G01 X14.3614 Y-5.3977
G01 X14.3804 Y-5.3859
G01 X14.3987 Y-5.3733
G01 X14.4165 Y-5.3598
G01 X14.4335 Y-5.3455
G01 X14.4499 Y-5.3303
G01 X14.4654 Y-5.3144
G01 X14.4802 Y-5.2977
G01 X14.4942 Y-5.2803
G01 X14.5073 Y-5.2623
G01 X14.5195 Y-5.2437
G01 X14.5308 Y-5.2245
G01 X14.5412 Y-5.2048
G01 X14.5506 Y-5.1846
G01 X14.5590 Y-5.1639
G01 X14.5664 Y-5.1429
G01 X14.5728 Y-5.1215
G01 X14.5781 Y-5.0999
G01 X14.5824 Y-5.0780
G01 X14.5859 Y-5.0543
G01 X14.6667 Y-4.3875
G01 X14.6703 Y-4.3707
G01 X14.6765 Y-4.3528
G01 X14.6842 Y-4.3375
G01 X14.6948 Y-4.3218
G01 X14.7099 Y-4.3053
G01 X14.7260 Y-4.2924
G01 X14.7453 Y-4.2813
G01 X14.7646 Y-4.2738
G01 X14.7830 Y-4.2696
G01 X14.8486 Y-4.2614
G01 X14.9288 Y-4.2475
G01 X15.0083 Y-4.2296
G01 X15.0869 Y-4.2079
G01 X15.1642 Y-4.1823
G01 X15.2402 Y-4.1530
G01 X15.3147 Y-4.1200
G01 X15.3875 Y-4.0834
G01 X15.4584 Y-4.0432
G01 X15.5272 Y-3.9996
G01 X15.5938 Y-3.9527
G01 X15.6581 Y-3.9026
G01 X15.7198 Y-3.8493
G01 X15.7788 Y-3.7932
G01 X15.8349 Y-3.7342
G01 X15.8882 Y-3.6725
G01 X15.9383 Y-3.6082
G01 X15.9852 Y-3.5416
G01 X16.0288 Y-3.4728
G01 X16.0690 Y-3.4019
G01 X16.1056 Y-3.3291
G01 X16.1386 Y-3.2546
G01 X16.1679 Y-3.1786
G01 X16.1935 Y-3.1013
G01 X16.2152 Y-3.0227
G01 X16.2331 Y-2.9432
G01 X16.2470 Y-2.8630
G01 X16.2570 Y-2.7821
G01 X16.2630 Y-2.7009
G01 X16.2650 Y-2.6194
G01 X16.2630 Y-2.5379
G01 X16.2570 Y-2.4567
G01 X16.2470 Y-2.3758
G01 X16.2331 Y-2.2956
G01 X16.2152 Y-2.2161
G01 X16.1935 Y-2.1375
G01 X16.1679 Y-2.0602
G01 X16.1386 Y-1.9842
G01 X16.1056 Y-1.9097
G01 X16.0690 Y-1.8369
G01 X16.0288 Y-1.7660
G01 X15.9852 Y-1.6972
G01 X15.9383 Y-1.6306
G01 X15.8882 Y-1.5663
G01 X15.8349 Y-1.5046
G01 X15.7788 Y-1.4456
G01 X15.7198 Y-1.3895
G01 X15.6581 Y-1.3362
G01 X15.5938 Y-1.2861
G01 X15.5272 Y-1.2392
G01 X15.4584 Y-1.1956
G01 X15.3875 Y-1.1554
G01 X15.3147 Y-1.1188
G01 X15.2402 Y-1.0858
G01 X15.1642 Y-1.0565
G01 X15.0869 Y-1.0309
G01 X15.0083 Y-1.0092
G01 X14.9288 Y-0.9913
G01 X14.8486 Y-0.9774
G01 X14.7677 Y-0.9674
G01 X14.6865 Y-0.9614
G01 X14.6050 Y-0.9594
G01 X14.5235 Y-0.9614
G01 X14.4423 Y-0.9674
G01 X14.3614 Y-0.9774
G01 X14.2812 Y-0.9913
G01 X14.2017 Y-1.0092
G01 X14.1231 Y-1.0309
G01 X14.0458 Y-1.0565
G01 X13.9698 Y-1.0858
G01 X13.8953 Y-1.1188
G01 X13.8225 Y-1.1554
G01 X13.7516 Y-1.1956
G01 X13.6828 Y-1.2392
G01 X13.6162 Y-1.2861
G01 X13.5519 Y-1.3362
G01 X13.4902 Y-1.3895
G01 X13.4312 Y-1.4456
G01 X13.3751 Y-1.5046
G01 X13.3218 Y-1.5663
G01 X13.2717 Y-1.6306
G01 X13.2248 Y-1.6972
G01 X13.1812 Y-1.7660
G01 X13.1410 Y-1.8369
G01 X13.1044 Y-1.9097
G01 X13.0714 Y-1.9842
G01 X13.0421 Y-2.0602
G01 X13.0165 Y-2.1375
G01 X12.9948 Y-2.2161
G01 X12.9769 Y-2.2956
G01 X12.9630 Y-2.3758
G01 X12.9530 Y-2.4567
G01 X12.9470 Y-2.5379
G01 X12.9450 Y-2.6194
G01 X12.9470 Y-2.7009
G01 X12.9530 Y-2.7821
G01 X12.9630 Y-2.8630
G01 X12.9769 Y-2.9432
G01 X12.9948 Y-3.0227
G01 X13.0165 Y-3.1013
G01 X13.0421 Y-3.1786
G01 X13.0714 Y-3.2546
G01 X13.1044 Y-3.3291
G01 X13.1410 Y-3.4019
G01 X13.1812 Y-3.4728
G01 X13.2248 Y-3.5416
G01 X13.2717 Y-3.6082
G01 X13.3218 Y-3.6725
G01 X13.3751 Y-3.7342
G01 X13.4312 Y-3.7932
G01 X13.4902 Y-3.8493
G01 X13.5519 Y-3.9026
G01 X13.6162 Y-3.9527
G01 X13.6828 Y-3.9996
G01 X13.7100 Y-4.0170
G01 X13.7221 Y-4.0266
G01 X13.7342 Y-4.0387
G01 X13.7438 Y-4.0508
G01 X13.7528 Y-4.0654
G01 X13.7599 Y-4.0809
G01 X13.7647 Y-4.0956
G01 X13.7678 Y-4.1107
G01 X13.7692 Y-4.1261
G01 X13.7689 Y-4.1432
G01 X13.7182 Y-4.5606
G01 X13.7148 Y-4.5757
G01 X13.7103 Y-4.5886
G01 X13.7047 Y-4.6011
G01 X13.6978 Y-4.6130
G01 X13.6888 Y-4.6254
G01 X13.6796 Y-4.6356
G01 X13.6695 Y-4.6448
G01 X13.6585 Y-4.6531
G01 X13.6407 Y-4.6633
G01 X13.6200 Y-4.6713
G01 X9.7133 Y-5.8288
G01 X9.6876 Y-5.8372
G01 X9.6481 Y-5.8534
G01 X9.6278 Y-5.8634
G01 X9.6081 Y-5.8744
G01 X9.5736 Y-5.8956
G01 X9.5595 Y-5.9019
G01 X9.5448 Y-5.9067
G01 X9.5280 Y-5.9100
G01 X9.5109 Y-5.9113
G01 X8.8784 Y-5.9113
G01 X8.8784 Y-5.9447
G01 X8.8927 Y-5.9389
G01 X8.9059 Y-5.9351
G01 X8.9194 Y-5.9326
G01 X8.9330 Y-5.9314
G01 X9.2468 Y-5.9316
G01 X9.2604 Y-5.9331
G01 X9.2722 Y-5.9355
G01 X9.2854 Y-5.9395
G01 X9.2965 Y-5.9440
G01 X9.3072 Y-5.9495
G01 X9.3188 Y-5.9568
G01 X9.3283 Y-5.9642
G01 X9.3382 Y-5.9733
G01 X9.3548 Y-5.9589
G01 X9.3722 Y-5.9478
G01 X9.3927 Y-5.9389
G01 X9.4126 Y-5.9337
G01 X9.4245 Y-5.9320
G01 X9.4365 Y-5.9313
G01 X9.5620 Y-5.9313
G01 X9.5806 Y-5.9168
G01 X9.5982 Y-5.9044
G01 X9.6165 Y-5.8928
G01 X9.6353 Y-5.8822
G01 X9.6546 Y-5.8725
G01 X9.6744 Y-5.8638
G01 X9.6945 Y-5.8560
G01 X9.7151 Y-5.8493
G01 X13.7265 Y-4.6607
G01 X13.8008 Y-4.0482
G01 X13.7604 Y-4.0252
G01 X13.6953 Y-3.9840
G01 X13.6267 Y-3.9356
G01 X13.5620 Y-3.8849
G01 X13.5036 Y-3.8346
G01 X13.4466 Y-3.7803
G01 X13.3898 Y-3.7208
G01 X13.3351 Y-3.6571
G01 X13.2877 Y-3.5963
G01 X13.2433 Y-3.5334
G01 X13.1975 Y-3.4610
G01 X13.1586 Y-3.3925
G01 X13.1240 Y-3.3237
G01 X13.0898 Y-3.2470
G01 X13.0598 Y-3.1687
G01 X13.0356 Y-3.0955
G01 X13.0150 Y-3.0212
G01 X12.9965 Y-2.9393
G01 X12.9823 Y-2.8566
G01 X12.9729 Y-2.7801
G01 X12.9672 Y-2.7033
G01 X12.9650 Y-2.6177
G01 X12.9672 Y-2.5355
G01 X12.9729 Y-2.4587
G01 X12.9823 Y-2.3822
G01 X12.9965 Y-2.2995
G01 X13.0150 Y-2.2176
G01 X13.0356 Y-2.1433
G01 X13.0598 Y-2.0701
G01 X13.0898 Y-1.9918
G01 X13.1240 Y-1.9151
G01 X13.1586 Y-1.8463
G01 X13.1966 Y-1.7792
G01 X13.2414 Y-1.7083
G01 X13.2898 Y-1.6397
G01 X13.3373 Y-1.5790
G01 X13.3876 Y-1.5206
G01 X13.4453 Y-1.4597
G01 X13.5062 Y-1.4020
G01 X13.5646 Y-1.3517
G01 X13.6253 Y-1.3042
G01 X13.6939 Y-1.2558
G01 X13.7634 Y-1.2119
G01 X13.8319 Y-1.1730
G01 X13.9038 Y-1.1369
G01 X13.9774 Y-1.1042
G01 X14.0525 Y-1.0753
G01 X14.1289 Y-1.0500
G01 X14.2065 Y-1.0285
G01 X14.2851 Y-1.0109
G01 X14.3644 Y-0.9972
G01 X14.4443 Y-0.9873
G01 X14.5245 Y-0.9814
G01 X14.6050 Y-0.9794
G01 X14.6855 Y-0.9814
G01 X14.7657 Y-0.9873
G01 X14.8456 Y-0.9972
G01 X14.9249 Y-1.0109
G01 X15.0035 Y-1.0285
G01 X15.0811 Y-1.0500
G01 X15.1575 Y-1.0753
G01 X15.2326 Y-1.1042
G01 X15.3062 Y-1.1369
G01 X15.3781 Y-1.1730
G01 X15.4481 Y-1.2127
G01 X15.5161 Y-1.2558
G01 X15.5819 Y-1.3021
G01 X15.6454 Y-1.3517
G01 X15.7064 Y-1.4042
G01 X15.7647 Y-1.4597
G01 X15.8202 Y-1.5180
G01 X15.8727 Y-1.5790
G01 X15.9223 Y-1.6425
G01 X15.9686 Y-1.7083
G01 X16.0125 Y-1.7778
G01 X16.0529 Y-1.8494
G01 X16.0875 Y-1.9182
G01 X16.1188 Y-1.9886
G01 X16.1491 Y-2.0669
G01 X16.1744 Y-2.1433
G01 X16.1959 Y-2.2209
G01 X16.2141 Y-2.3028
G01 X16.2277 Y-2.3822
G01 X16.2371 Y-2.4587
G01 X16.2428 Y-2.5355
G01 X16.2450 Y-2.6194
G01 X16.2428 Y-2.7033
G01 X16.2367 Y-2.7836
G01 X16.2272 Y-2.8600
G01 X16.2141 Y-2.9360
G01 X16.1959 Y-3.0179
G01 X16.1744 Y-3.0955
G01 X16.1491 Y-3.1719
G01 X16.1188 Y-3.2502
G01 X16.0875 Y-3.3206
G01 X16.0529 Y-3.3894
G01 X16.0117 Y-3.4625
G01 X15.9667 Y-3.5334
G01 X15.9223 Y-3.5963
G01 X15.8727 Y-3.6598
G01 X15.8178 Y-3.7233
G01 X15.7647 Y-3.7791
G01 X15.7064 Y-3.8346
G01 X15.6427 Y-3.8893
G01 X15.5819 Y-3.9367
G01 X15.5176 Y-3.9820
G01 X15.4452 Y-4.0278
G01 X15.3781 Y-4.0658
G01 X15.3062 Y-4.1019
G01 X15.2294 Y-4.1358
G01 X15.1575 Y-4.1635
G01 X15.0827 Y-4.1883
G01 X15.0001 Y-4.2110
G01 X14.9249 Y-4.2279
G01 X14.8473 Y-4.2414
G01 X14.7640 Y-4.2517
G01 X14.6872 Y-4.2573
G01 X14.6621 Y-4.2580
G01 X14.5657 Y-5.0536
G01 X14.5592 Y-5.0922
G01 X14.5534 Y-5.1163
G01 X14.5462 Y-5.1399
G01 X14.5335 Y-5.1734
G01 X14.5224 Y-5.1974
G01 X14.5042 Y-5.2302
G01 X14.4908 Y-5.2509
G01 X14.4761 Y-5.2708
G01 X14.4530 Y-5.2981
G01 X14.4358 Y-5.3159
G01 X14.4176 Y-5.3326
G01 X14.3883 Y-5.3560
G01 X14.3665 Y-5.3709
G01 X14.3356 Y-5.3891
G01 X14.3135 Y-5.4001
G01 X14.2908 Y-5.4098
G01 X14.2554 Y-5.4221
G01 X10.4414 Y-6.5522
G01 X10.4413 Y-7.7822
G01 X10.4392 Y-7.8219
G01 X10.4335 Y-7.8613
G01 X10.4273 Y-7.8891
G01 X10.4224 Y-7.9066
G01 X10.4150 Y-7.9287
G01 X10.4065 Y-7.9504
G01 X10.3910 Y-7.9832
G01 X10.3787 Y-8.0051
G01 X10.3672 Y-8.0233
G01 X10.3527 Y-8.0437
G01 X10.3296 Y-8.0718
G01 X10.3124 Y-8.0900
G01 X10.2968 Y-8.1049
G01 X10.2777 Y-8.1212
G01 X10.2486 Y-8.1428
G01 X10.2275 Y-8.1563
G01 X10.2087 Y-8.1670
G01 X10.1894 Y-8.1767
G01 X10.1664 Y-8.1867
G01 X10.1322 Y-8.1990
G01 X10.1098 Y-8.2053
G01 X10.0871 Y-8.2105
G01 X10.0658 Y-8.2142
G01 X10.0443 Y-8.2168
G01 X10.0228 Y-8.2184
G01 X10.0012 Y-8.2189
G01 X9.9779 Y-8.2183
G01 X9.9546 Y-8.2165
G01 X9.9218 Y-8.2117
G01 X9.8838 Y-8.2170
G01 X9.8640 Y-8.2184
G01 X9.8407 Y-8.2189
G01 X9.7993 Y-8.2168
G01 X9.7778 Y-8.2142
G01 X9.7553 Y-8.2102
G01 X9.7382 Y-8.2113
G01 X9.4313 Y-8.2111
G01 X9.4177 Y-8.2098
G01 X9.4042 Y-8.2071
G01 X9.3910 Y-8.2031
G01 X9.3784 Y-8.1979
G01 X9.3785 Y-9.0784
G01 X9.3920 Y-9.1015
G01 X9.4022 Y-9.1217
G01 X9.4149 Y-9.1523
G01 X9.4226 Y-9.1753
G01 X9.4307 Y-9.2074
G01 X9.4349 Y-9.2314
G01 X9.4384 Y-9.2660
G01 X9.4389 Y-9.2903
G01 X9.4370 Y-9.3251
G01 X9.4318 Y-9.3613
G01 X9.4264 Y-9.3850
G01 X9.4155 Y-9.4199
G01 X9.4015 Y-9.4537
G01 X9.3843 Y-9.4860
G01 X9.3642 Y-9.5165
G01 X9.3482 Y-9.5370
G01 X9.3234 Y-9.5640
G01 X9.2950 Y-9.5896
G01 X9.2655 Y-9.6113
G01 X9.2494 Y-9.6215
G01 X9.2312 Y-9.6318
G01 X9.1981 Y-9.6473
G01 X9.1620 Y-9.6602
G01 X9.1249 Y-9.6695
G01 X9.1060 Y-9.6728
G01 X9.0853 Y-9.6753
G01 X9.0488 Y-9.6770
G01 X7.7720 Y-9.6770
G01 X7.7720 Y-10.3354
G01 X7.7902 Y-10.3413
G01 X7.8072 Y-10.3495
G01 X7.8230 Y-10.3599
G01 X7.8382 Y-10.3733
G01 X7.8481 Y-10.3642
G01 X7.8576 Y-10.3568
G01 X7.8677 Y-10.3503
G01 X7.8783 Y-10.3447
G01 X7.8894 Y-10.3401
G01 X7.9009 Y-10.3364
G01 X7.9126 Y-10.3337
G01 X7.9245 Y-10.3320
G01 X7.9382 Y-10.3313
G01 X8.2468 Y-10.3316
G01 X8.2604 Y-10.3331
G01 X8.2722 Y-10.3355
G01 X8.2837 Y-10.3389
G01 X8.2965 Y-10.3440
G01 X8.3072 Y-10.3495
G01 X8.3188 Y-10.3568
G01 X8.3283 Y-10.3642
G01 X8.3382 Y-10.3733
G00 Z2.0000
G00 X8.3682 Y-11.7845
G01 F70.00
G01 Z-0.0600
G01 F120.00
G01 X8.3524 Y-14.8826
G01 X8.3534 Y-14.9035
G01 X8.3569 Y-14.9268
G01 X8.3647 Y-14.9551
G01 X8.3732 Y-14.9762
G01 X8.3839 Y-14.9962
G01 X8.3951 Y-15.0129
G01 X8.4088 Y-15.0299
G01 X8.4188 Y-15.0403
G01 X8.4338 Y-15.0537
G01 X8.4515 Y-15.0666
G01 X8.4703 Y-15.0777
G01 X8.4909 Y-15.0872
G01 X10.0481 Y-15.6277
G01 X10.0443 Y-15.6589
G01 X10.0405 Y-15.7113
G01 X10.0392 Y-15.7629
G01 X10.0405 Y-15.8145
G01 X10.0445 Y-15.8695
G01 X10.0508 Y-15.9199
G01 X10.0596 Y-15.9708
G01 X10.0717 Y-16.0246
G01 X10.0853 Y-16.0735
G01 X10.1017 Y-16.1234
G01 X10.1213 Y-16.1740
G01 X10.1419 Y-16.2204
G01 X10.1651 Y-16.2665
G01 X10.1923 Y-16.3145
G01 X10.2195 Y-16.3574
G01 X10.2498 Y-16.4003
G01 X10.2821 Y-16.4417
G01 X10.3152 Y-16.4802
G01 X10.3526 Y-16.5195
G01 X10.3919 Y-16.5569
G01 X10.4304 Y-16.5900
G01 X10.4718 Y-16.6223
G01 X10.5162 Y-16.6535
G01 X10.5591 Y-16.6807
G01 X10.6033 Y-16.7057
G01 X10.6517 Y-16.7302
G01 X10.7013 Y-16.7521
G01 X10.7487 Y-16.7704
G01 X10.7970 Y-16.7863
G01 X10.8492 Y-16.8008
G01 X10.9021 Y-16.8127
G01 X10.9522 Y-16.8213
G01 X11.0026 Y-16.8276
G01 X11.0567 Y-16.8316
G01 X11.1092 Y-16.8329
G01 X11.1617 Y-16.8316
G01 X11.2141 Y-16.8277
G01 X11.2662 Y-16.8213
G01 X11.3196 Y-16.8120
G01 X11.3692 Y-16.8008
G01 X11.4214 Y-16.7863
G01 X11.4713 Y-16.7698
G01 X11.5187 Y-16.7515
G01 X11.5596 Y-16.7334
G01 X15.4454 Y-16.7334
G01 X15.4930 Y-16.7322
G01 X15.5397 Y-16.7288
G01 X15.5878 Y-16.7228
G01 X15.6364 Y-16.7143
G01 X15.6812 Y-16.7043
G01 X15.7255 Y-16.6920
G01 X15.7723 Y-16.6766
G01 X15.8168 Y-16.6595
G01 X15.8619 Y-16.6394
G01 X15.9029 Y-16.6188
G01 X15.9428 Y-16.5961
G01 X15.9846 Y-16.5698
G01 X16.0235 Y-16.5424
G01 X16.0624 Y-16.5120
G01 X16.0971 Y-16.4820
G01 X16.1304 Y-16.4503
G01 X16.1645 Y-16.4146
G01 X16.1956 Y-16.3785
G01 X16.2259 Y-16.3396
G01 X16.2532 Y-16.3006
G01 X16.2778 Y-16.2618
G01 X16.3004 Y-16.2219
G01 X16.3227 Y-16.1778
G01 X16.3420 Y-16.1343
G01 X16.3591 Y-16.0898
G01 X16.3745 Y-16.0430
G01 X16.3872 Y-15.9970
G01 X16.3972 Y-15.9522
G01 X16.4051 Y-15.9070
G01 X16.4112 Y-15.8580
G01 X16.4147 Y-15.8088
G01 X16.4159 Y-15.7629
G01 X16.4147 Y-15.7170
G01 X16.4113 Y-15.6695
G01 X16.4053 Y-15.6205
G01 X16.3972 Y-15.5736
G01 X16.3868 Y-15.5271
G01 X16.3735 Y-15.4796
G01 X16.3591 Y-15.4360
G01 X16.3426 Y-15.3931
G01 X16.3227 Y-15.3480
G01 X16.3013 Y-15.3054
G01 X16.2769 Y-15.2625
G01 X16.2523 Y-15.2237
G01 X16.2259 Y-15.1862
G01 X16.1966 Y-15.1486
G01 X16.1645 Y-15.1112
G01 X16.1316 Y-15.0767
G01 X16.0971 Y-15.0438
G01 X16.0597 Y-15.0117
G01 X16.0235 Y-14.9834
G01 X15.9860 Y-14.9570
G01 X15.9458 Y-14.9314
G01 X15.9029 Y-14.9070
G01 X15.8603 Y-14.8856
G01 X15.8168 Y-14.8663
G01 X15.7707 Y-14.8486
G01 X15.7271 Y-14.8342
G01 X15.6829 Y-14.8220
G01 X15.6347 Y-14.8111
G01 X15.5878 Y-14.8030
G01 X15.5405 Y-14.7971
G01 X15.4930 Y-14.7936
G01 X15.4454 Y-14.7924
G01 X11.5596 Y-14.7924
G01 X11.5187 Y-14.7743
G01 X11.4713 Y-14.7560
G01 X11.4214 Y-14.7395
G01 X11.3692 Y-14.7250
G01 X11.3179 Y-14.7135
G01 X11.2645 Y-14.7043
G01 X11.2141 Y-14.6981
G01 X11.1634 Y-14.6943
G01 X11.1092 Y-14.6929
G01 X11.0550 Y-14.6943
G01 X11.0026 Y-14.6982
G01 X10.9522 Y-14.7045
G01 X10.9021 Y-14.7131
G01 X10.8492 Y-14.7250
G01 X10.7986 Y-14.7390
G01 X10.7487 Y-14.7554
G01 X10.6981 Y-14.7750
G01 X10.6517 Y-14.7956
G01 X10.6063 Y-14.8185
G01 X10.5591 Y-14.8451
G01 X10.5147 Y-14.8732
G01 X10.4704 Y-14.9045
G01 X10.4304 Y-14.9358
G01 X10.3919 Y-14.9689
G01 X10.3526 Y-15.0063
G01 X10.3164 Y-15.0443
G01 X10.2810 Y-15.0854
G01 X10.2498 Y-15.1255
G01 X10.2205 Y-15.1670
G01 X10.1921 Y-15.2118
G01 X8.7934 Y-14.7265
G01 X8.8047 Y-12.4931
G01 X8.8073 Y-12.4824
G01 X8.8082 Y-12.4713
G01 X8.8082 Y-10.4704
G01 X8.8072 Y-10.4593
G01 X8.8044 Y-10.4485
G01 X8.7995 Y-10.4375
G01 X8.7934 Y-10.4282
G01 X8.7858 Y-10.4200
G01 X8.7771 Y-10.4131
G01 X8.7673 Y-10.4077
G01 X8.7569 Y-10.4038
G01 X8.7485 Y-10.4021
G01 X8.7391 Y-10.4013
G01 X8.4382 Y-10.4013
G01 X8.4296 Y-10.4018
G01 X8.4195 Y-10.4038
G01 X8.4098 Y-10.4073
G01 X8.4008 Y-10.4122
G01 X8.3925 Y-10.4183
G01 X8.3852 Y-10.4256
G01 X8.3791 Y-10.4339
G01 X8.3742 Y-10.4429
G01 X8.3707 Y-10.4526
G01 X8.3688 Y-10.4619
G01 X8.3682 Y-10.4713
G01 X8.3682 Y-11.7845
G00 Z2.0000
G00 X8.8683 Y-12.4755
G01 F70.00
G01 Z-0.0600
G01 F120.00
G01 X8.8683 Y-13.5334
G01 X8.8692 Y-13.5533
G01 X8.8708 Y-13.5665
G01 X8.8745 Y-13.5852
G01 X8.8778 Y-13.5973
G01 X8.8818 Y-13.6092
G01 X8.8895 Y-13.6275
G01 X8.8951 Y-13.6386
G01 X8.9054 Y-13.6557
G01 X8.9127 Y-13.6659
G01 X8.9248 Y-13.6806
G01 X8.9406 Y-13.6965
G01 X8.9580 Y-13.7107
G01 X8.9760 Y-13.7226
G01 X8.9977 Y-13.7339
G01 X9.0112 Y-13.7496
G01 X9.0335 Y-13.7717
G01 X9.0565 Y-13.7905
G01 X9.0834 Y-13.8084
G01 X9.0978 Y-13.8165
G01 X9.1231 Y-13.8285
G01 X9.1559 Y-13.8402
G01 X9.1831 Y-13.8470
G01 X9.2002 Y-13.8501
G01 X9.2175 Y-13.8521
G01 X9.2455 Y-13.8535
G01 X11.1522 Y-13.8535
G01 X11.1831 Y-13.8520
G01 X11.2129 Y-13.8477
G01 X11.2437 Y-13.8402
G01 X11.2729 Y-13.8299
G01 X11.3010 Y-13.8169
G01 X11.3269 Y-13.8016
G01 X13.5570 Y-12.3405
G01 X13.6050 Y-12.3417
G01 X15.6050 Y-12.3417
G01 X15.6575 Y-12.3404
G01 X15.7099 Y-12.3365
G01 X15.7621 Y-12.3301
G01 X15.8138 Y-12.3211
G01 X15.8668 Y-12.3092
G01 X15.9157 Y-12.2956
G01 X15.9640 Y-12.2797
G01 X16.0131 Y-12.2609
G01 X16.0627 Y-12.2389
G01 X16.1089 Y-12.2157
G01 X16.1568 Y-12.1885
G01 X16.1997 Y-12.1613
G01 X16.2427 Y-12.1310
G01 X16.2841 Y-12.0987
G01 X16.3226 Y-12.0655
G01 X16.3632 Y-12.0269
G01 X16.3982 Y-11.9901
G01 X16.4325 Y-11.9503
G01 X16.4648 Y-11.9089
G01 X16.4941 Y-11.8674
G01 X16.5241 Y-11.8201
G01 X16.5491 Y-11.7758
G01 X16.5727 Y-11.7289
G01 X16.5947 Y-11.6793
G01 X16.6129 Y-11.6318
G01 X16.6294 Y-11.5819
G01 X16.6434 Y-11.5313
G01 X16.6546 Y-11.4817
G01 X16.6641 Y-11.4266
G01 X16.6703 Y-11.3761
G01 X16.6742 Y-11.3237
G01 X16.6755 Y-11.2712
G01 X16.6743 Y-11.2204
G01 X16.6702 Y-11.1646
G01 X16.6639 Y-11.1141
G01 X16.6551 Y-11.0632
G01 X16.6430 Y-11.0094
G01 X16.6294 Y-10.9605
G01 X16.6129 Y-10.9106
G01 X16.5933 Y-10.8600
G01 X16.5727 Y-10.8135
G01 X16.5499 Y-10.7681
G01 X16.5223 Y-10.7194
G01 X16.4951 Y-10.6765
G01 X16.4658 Y-10.6349
G01 X16.4325 Y-10.5921
G01 X16.3970 Y-10.5510
G01 X16.3620 Y-10.5142
G01 X16.3252 Y-10.4792
G01 X16.2841 Y-10.4437
G01 X16.2427 Y-10.4114
G01 X16.2012 Y-10.3821
G01 X16.1553 Y-10.3530
G01 X16.1096 Y-10.3271
G01 X16.0642 Y-10.3042
G01 X16.0147 Y-10.2822
G01 X15.9656 Y-10.2633
G01 X15.9174 Y-10.2473
G01 X15.8643 Y-10.2326
G01 X15.8122 Y-10.2210
G01 X15.7621 Y-10.2123
G01 X15.7116 Y-10.2060
G01 X15.6575 Y-10.2020
G01 X15.6059 Y-10.2007
G01 X13.6050 Y-10.2007
G01 X13.5508 Y-10.2021
G01 X13.5001 Y-10.2059
G01 X13.4479 Y-10.2123
G01 X13.3945 Y-10.2216
G01 X13.3449 Y-10.2328
G01 X13.2951 Y-10.2466
G01 X13.2444 Y-10.2633
G01 X13.1938 Y-10.2829
G01 X13.1473 Y-10.3035
G01 X13.1019 Y-10.3263
G01 X13.0547 Y-10.3530
G01 X13.0088 Y-10.3821
G01 X12.9673 Y-10.4114
G01 X12.9272 Y-10.4426
G01 X12.8861 Y-10.4780
G01 X12.8468 Y-10.5155
G01 X12.8118 Y-10.5523
G01 X12.7786 Y-10.5908
G01 X12.7452 Y-10.6335
G01 X12.7140 Y-10.6779
G01 X12.6868 Y-10.7209
G01 X12.6617 Y-10.7651
G01 X12.6373 Y-10.8135
G01 X12.6153 Y-10.8631
G01 X12.5971 Y-10.9106
G01 X12.5811 Y-10.9588
G01 X12.5666 Y-11.0111
G01 X12.5548 Y-11.0640
G01 X12.5461 Y-11.1141
G01 X12.5398 Y-11.1646
G01 X12.5358 Y-11.2187
G01 X12.5345 Y-11.2729
G01 X12.5358 Y-11.3237
G01 X12.5395 Y-11.3744
G01 X12.5461 Y-11.4283
G01 X12.5554 Y-11.4817
G01 X12.5666 Y-11.5313
G01 X12.5801 Y-11.5803
G01 X12.5971 Y-11.6318
G01 X12.6167 Y-11.6824
G01 X12.6373 Y-11.7289
G01 X12.6601 Y-11.7743
G01 X12.6868 Y-11.8215
G01 X12.7159 Y-11.8674
G01 X12.7452 Y-11.9089
G01 X12.7764 Y-11.9490
G01 X12.8118 Y-11.9901
G01 X12.8551 Y-12.0350
G01 X11.0567 Y-13.2133
G01 X9.3085 Y-13.2133
G01 X9.3082 Y-10.4713
G01 X9.3076 Y-10.4619
G01 X9.3052 Y-10.4510
G01 X9.3011 Y-10.4406
G01 X9.2954 Y-10.4310
G01 X9.2883 Y-10.4224
G01 X9.2799 Y-10.4151
G01 X9.2704 Y-10.4092
G01 X9.2602 Y-10.4048
G01 X9.2493 Y-10.4022
G01 X9.2382 Y-10.4013
G01 X8.9382 Y-10.4013
G01 X8.9254 Y-10.4025
G01 X8.9138 Y-10.4057
G01 X8.9030 Y-10.4108
G01 X8.8931 Y-10.4177
G01 X8.8846 Y-10.4262
G01 X8.8782 Y-10.4353
G01 X8.8729 Y-10.4461
G01 X8.8695 Y-10.4576
G01 X8.8682 Y-10.4696
G01 X8.8683 Y-12.4755
G00 Z2.0000
G00 X9.4382 Y-12.5413
G01 F70.00
G01 Z-0.0600
G01 F120.00
G01 X9.6522 Y-12.5413
G01 X9.6858 Y-12.5591
G01 X9.7162 Y-12.5717
G01 X9.7334 Y-12.5775
G01 X9.7703 Y-12.5868
G01 X9.8071 Y-12.5922
G01 X9.8408 Y-12.5939
G01 X9.8624 Y-12.5934
G01 X9.8968 Y-12.5899
G01 X9.9316 Y-12.5831
G01 X9.9499 Y-12.5780
G01 X9.9688 Y-12.5717
G01 X9.9857 Y-12.5651
G01 X10.0155 Y-12.5510
G01 X10.0481 Y-12.5316
G01 X10.0786 Y-12.5088
G01 X10.0923 Y-12.4969
G01 X10.1156 Y-12.4736
G01 X10.1398 Y-12.4443
G01 X10.1609 Y-12.4126
G01 X10.1764 Y-12.3836
G01 X10.1838 Y-12.3670
G01 X10.1967 Y-12.3312
G01 X10.2055 Y-12.2960
G01 X10.2109 Y-12.2601
G01 X10.2126 Y-12.2247
G01 X10.2127 Y-10.7719
G01 X13.2662 Y-9.2702
G01 X13.2951 Y-9.2796
G01 X13.3457 Y-9.2936
G01 X13.3962 Y-9.3049
G01 X13.4471 Y-9.3138
G01 X13.5018 Y-9.3205
G01 X13.5525 Y-9.3242
G01 X13.6033 Y-9.3255
G01 X15.6050 Y-9.3255
G01 X15.6567 Y-9.3242
G01 X15.7116 Y-9.3202
G01 X15.7621 Y-9.3139
G01 X15.8138 Y-9.3049
G01 X15.8668 Y-9.2930
G01 X15.9157 Y-9.2794
G01 X15.9640 Y-9.2635
G01 X16.0147 Y-9.2440
G01 X16.0642 Y-9.2220
G01 X16.1096 Y-9.1991
G01 X16.1539 Y-9.1741
G01 X16.2004 Y-9.1446
G01 X16.2427 Y-9.1148
G01 X16.2841 Y-9.0825
G01 X16.3239 Y-9.0482
G01 X16.3620 Y-9.0120
G01 X16.3982 Y-8.9739
G01 X16.4325 Y-8.9341
G01 X16.4648 Y-8.8927
G01 X16.4951 Y-8.8497
G01 X16.5232 Y-8.8053
G01 X16.5491 Y-8.7596
G01 X16.5727 Y-8.7127
G01 X16.5940 Y-8.6647
G01 X16.6129 Y-8.6156
G01 X16.6294 Y-8.5657
G01 X16.6434 Y-8.5151
G01 X16.6549 Y-8.4638
G01 X16.6639 Y-8.4121
G01 X16.6703 Y-8.3599
G01 X16.6742 Y-8.3075
G01 X16.6755 Y-8.2550
G01 X16.6742 Y-8.2025
G01 X16.6703 Y-8.1501
G01 X16.6639 Y-8.0979
G01 X16.6549 Y-8.0462
G01 X16.6434 Y-7.9949
G01 X16.6294 Y-7.9443
G01 X16.6129 Y-7.8944
G01 X16.5940 Y-7.8453
G01 X16.5727 Y-7.7973
G01 X16.5491 Y-7.7504
G01 X16.5232 Y-7.7047
G01 X16.4946 Y-7.6596
G01 X16.4648 Y-7.6173
G01 X16.4314 Y-7.5746
G01 X16.3982 Y-7.5361
G01 X16.3632 Y-7.4993
G01 X16.3252 Y-7.4630
G01 X16.2841 Y-7.4275
G01 X16.2427 Y-7.3952
G01 X16.1997 Y-7.3649
G01 X16.1553 Y-7.3368
G01 X16.1096 Y-7.3109
G01 X16.0611 Y-7.2866
G01 X16.0131 Y-7.2653
G01 X15.9656 Y-7.2471
G01 X15.9174 Y-7.2311
G01 X15.8651 Y-7.2166
G01 X15.8138 Y-7.2051
G01 X15.7621 Y-7.1961
G01 X15.7091 Y-7.1896
G01 X15.6575 Y-7.1858
G01 X15.6050 Y-7.1845
G01 X13.6050 Y-7.1845
G01 X13.5516 Y-7.1858
G01 X13.5001 Y-7.1897
G01 X13.4496 Y-7.1959
G01 X13.3962 Y-7.2051
G01 X13.3432 Y-7.2170
G01 X13.2943 Y-7.2306
G01 X13.2460 Y-7.2465
G01 X13.1953 Y-7.2660
G01 X13.1458 Y-7.2880
G01 X13.1004 Y-7.3109
G01 X13.0561 Y-7.3359
G01 X13.0096 Y-7.3654
G01 X12.9673 Y-7.3952
G01 X12.9259 Y-7.4275
G01 X12.8861 Y-7.4618
G01 X12.8480 Y-7.4980
G01 X12.8118 Y-7.5361
G01 X12.7775 Y-7.5759
G01 X12.7452 Y-7.6173
G01 X12.7149 Y-7.6603
G01 X12.6868 Y-7.7047
G01 X12.6609 Y-7.7504
G01 X12.6373 Y-7.7973
G01 X12.6160 Y-7.8453
G01 X12.5971 Y-7.8944
G01 X12.5806 Y-7.9443
G01 X12.5666 Y-7.9949
G01 X12.5552 Y-8.0453
G01 X12.5461 Y-8.0979
G01 X12.5397 Y-8.1501
G01 X12.5358 Y-8.2025
G01 X12.5345 Y-8.2550
G01 X12.5358 Y-8.3075
G01 X12.5397 Y-8.3599
G01 X12.5461 Y-8.4121
G01 X12.5549 Y-8.4630
G01 X12.5666 Y-8.5151
G01 X12.5806 Y-8.5657
G01 X12.5971 Y-8.6156
G01 X12.6157 Y-8.6639
G01 X12.6373 Y-8.7127
G01 X12.6605 Y-8.7589
G01 X12.6864 Y-8.8046
G01 X12.7043 Y-8.8330
G01 X9.6218 Y-10.3489
G01 X9.6066 Y-10.3569
G01 X9.5817 Y-10.3724
G01 X9.5678 Y-10.3825
G01 X9.5456 Y-10.4013
G01 X9.4373 Y-10.4013
G01 X9.4254 Y-10.4025
G01 X9.4122 Y-10.4063
G01 X9.4000 Y-10.4126
G01 X9.3893 Y-10.4212
G01 X9.3805 Y-10.4317
G01 X9.3749 Y-10.4414
G01 X9.3712 Y-10.4510
G01 X9.3690 Y-10.4610
G01 X9.3682 Y-10.4713
G01 X9.3682 Y-12.4730
G01 X9.3697 Y-12.4858
G01 X9.3739 Y-12.4989
G01 X9.3805 Y-12.5109
G01 X9.3893 Y-12.5214
G01 X9.4000 Y-12.5300
G01 X9.4122 Y-12.5363
G01 X9.4245 Y-12.5400
G01 X9.4382 Y-12.5413
G00 Z2.0000
G00 X8.2185 Y-13.6934
G01 F70.00
G01 Z-0.0600
G01 F120.00
G01 X8.2190 Y-13.5919
G01 X8.1612 Y-13.6754
G01 X8.1892 Y-13.6820
G01 X8.2038 Y-13.6871
G01 X8.2185 Y-13.6934
G00 Z2.0000
G00 X8.7983 Y-8.8124
G01 F70.00
G01 Z-0.0600
G01 F120.00
G01 X8.7820 Y-8.8283
G01 X8.7626 Y-8.8441
G01 X8.7467 Y-8.8552
G01 X8.7267 Y-8.8672
G01 X8.7093 Y-8.8758
G01 X8.6862 Y-8.8853
G01 X8.6622 Y-8.8927
G01 X8.6446 Y-8.8968
G01 X8.7983 Y-8.8968
G01 X8.7983 Y-8.8124
G00 Z2.0000
G00 X9.4382 Y-8.1413
G01 F70.00
G01 Z-0.0600
G01 F120.00
G01 X9.7391 Y-8.1413
G01 X9.7476 Y-8.1407
G01 X9.7567 Y-8.1388
G01 X9.7864 Y-8.1447
G01 X9.8044 Y-8.1470
G01 X9.8424 Y-8.1489
G01 X9.8795 Y-8.1471
G01 X9.8976 Y-8.1448
G01 X9.9218 Y-8.1402
G01 X9.9460 Y-8.1448
G01 X9.9641 Y-8.1471
G01 X10.0003 Y-8.1489
G01 X10.0375 Y-8.1472
G01 X10.0734 Y-8.1418
G01 X10.1086 Y-8.1330
G01 X10.1444 Y-8.1201
G01 X10.1742 Y-8.1060
G01 X10.1900 Y-8.0972
G01 X10.2203 Y-8.0771
G01 X10.2498 Y-8.0531
G01 X10.2755 Y-8.0274
G01 X10.2985 Y-7.9993
G01 X10.3196 Y-7.9676
G01 X10.3351 Y-7.9386
G01 X10.3425 Y-7.9220
G01 X10.3554 Y-7.8862
G01 X10.3607 Y-7.8671
G01 X10.3671 Y-7.8348
G01 X10.3696 Y-7.8151
G01 X10.3709 Y-7.7961
G01 X10.3714 Y-6.4999
G01 X14.2347 Y-5.3553
G01 X14.2661 Y-5.3443
G01 X14.2841 Y-5.3365
G01 X14.3017 Y-5.3278
G01 X14.3297 Y-5.3114
G01 X14.3459 Y-5.3003
G01 X14.3614 Y-5.2884
G01 X14.3857 Y-5.2669
G01 X14.3995 Y-5.2529
G01 X14.4216 Y-5.2269
G01 X14.4332 Y-5.2111
G01 X14.4513 Y-5.1821
G01 X14.4604 Y-5.1648
G01 X14.4687 Y-5.1470
G01 X14.4807 Y-5.1150
G01 X14.4863 Y-5.0962
G01 X14.4934 Y-5.0637
G01 X14.5999 Y-4.1893
G01 X14.6838 Y-4.1874
G01 X14.7589 Y-4.1818
G01 X14.8354 Y-4.1724
G01 X14.9130 Y-4.1589
G01 X14.9865 Y-4.1423
G01 X15.0607 Y-4.1218
G01 X15.1355 Y-4.0970
G01 X15.2058 Y-4.0699
G01 X15.2763 Y-4.0387
G01 X15.3451 Y-4.0040
G01 X15.4107 Y-3.9669
G01 X15.4787 Y-3.9238
G01 X15.5402 Y-3.8804
G01 X15.6010 Y-3.8330
G01 X15.6593 Y-3.7827
G01 X15.7139 Y-3.7308
G01 X15.7694 Y-3.6725
G01 X15.8186 Y-3.6154
G01 X15.8650 Y-3.5560
G01 X15.9113 Y-3.4902
G01 X15.9516 Y-3.4265
G01 X15.9896 Y-3.3595
G01 X16.0243 Y-3.2907
G01 X16.0548 Y-3.2218
G01 X16.0838 Y-3.1467
G01 X16.1074 Y-3.0751
G01 X16.1275 Y-3.0025
G01 X16.1448 Y-2.9257
G01 X16.1582 Y-2.8481
G01 X16.1674 Y-2.7733
G01 X16.1731 Y-2.6964
G01 X16.1750 Y-2.6177
G01 X16.1731 Y-2.5424
G01 X16.1674 Y-2.4655
G01 X16.1577 Y-2.3873
G01 X16.1448 Y-2.3131
G01 X16.1279 Y-2.2379
G01 X16.1069 Y-2.1620
G01 X16.0832 Y-2.0905
G01 X16.0555 Y-2.0186
G01 X16.0243 Y-1.9481
G01 X15.9904 Y-1.8808
G01 X15.9516 Y-1.8123
G01 X15.9094 Y-1.7457
G01 X15.8660 Y-1.6842
G01 X15.8186 Y-1.6234
G01 X15.7671 Y-1.5638
G01 X15.7152 Y-1.5092
G01 X15.6600 Y-1.4567
G01 X15.6010 Y-1.4058
G01 X15.5402 Y-1.3584
G01 X15.4772 Y-1.3140
G01 X15.4121 Y-1.2728
G01 X15.3451 Y-1.2348
G01 X15.2763 Y-1.2001
G01 X15.2058 Y-1.1689
G01 X15.1339 Y-1.1412
G01 X15.0607 Y-1.1170
G01 X14.9865 Y-1.0965
G01 X14.9113 Y-1.0796
G01 X14.8354 Y-1.0664
G01 X14.7589 Y-1.0570
G01 X14.6820 Y-1.0513
G01 X14.6050 Y-1.0494
G01 X14.5280 Y-1.0513
G01 X14.4511 Y-1.0570
G01 X14.3746 Y-1.0664
G01 X14.2987 Y-1.0796
G01 X14.2235 Y-1.0965
G01 X14.1493 Y-1.1170
G01 X14.0761 Y-1.1412
G01 X14.0042 Y-1.1689
G01 X13.9337 Y-1.2001
G01 X13.8649 Y-1.2348
G01 X13.7979 Y-1.2728
G01 X13.7328 Y-1.3140
G01 X13.6698 Y-1.3584
G01 X13.6090 Y-1.4058
G01 X13.5507 Y-1.4561
G01 X13.4948 Y-1.5092
G01 X13.4423 Y-1.5644
G01 X13.3914 Y-1.6234
G01 X13.3440 Y-1.6842
G01 X13.2996 Y-1.7472
G01 X13.2575 Y-1.8137
G01 X13.2204 Y-1.8793
G01 X13.1850 Y-1.9497
G01 X13.1545 Y-2.0186
G01 X13.1274 Y-2.0889
G01 X13.1031 Y-2.1620
G01 X13.0821 Y-2.2379
G01 X13.0652 Y-2.3131
G01 X13.0520 Y-2.3890
G01 X13.0426 Y-2.4655
G01 X13.0369 Y-2.5424
G01 X13.0350 Y-2.6194
G01 X13.0369 Y-2.6964
G01 X13.0426 Y-2.7741
G01 X13.0523 Y-2.8515
G01 X13.0652 Y-2.9257
G01 X13.0817 Y-2.9992
G01 X13.1026 Y-3.0751
G01 X13.1268 Y-3.1483
G01 X13.1552 Y-3.2218
G01 X13.1857 Y-3.2907
G01 X13.2196 Y-3.3580
G01 X13.2584 Y-3.4265
G01 X13.2996 Y-3.4916
G01 X13.3450 Y-3.5560
G01 X13.3914 Y-3.6154
G01 X13.4406 Y-3.6725
G01 X13.4948 Y-3.7296
G01 X13.5507 Y-3.7827
G01 X13.6103 Y-3.8341
G01 X13.6698 Y-3.8804
G01 X13.7313 Y-3.9238
G01 X13.7979 Y-3.9660
G01 X13.8642 Y-4.0036
G01 X13.8760 Y-4.0096
G01 X13.7905 Y-4.7148
G01 X9.7350 Y-5.9164
G01 X9.6992 Y-5.9293
G01 X9.6716 Y-5.9423
G01 X9.6549 Y-5.9515
G01 X9.6368 Y-5.9628
G01 X9.6212 Y-5.9738
G01 X9.6069 Y-5.9850
G01 X9.5886 Y-6.0013
G01 X9.4331 Y-6.0015
G01 X9.4229 Y-6.0030
G01 X9.4130 Y-6.0060
G01 X9.4037 Y-6.0104
G01 X9.3951 Y-6.0161
G01 X9.3841 Y-6.0269
G01 X9.3753 Y-6.0406
G01 X9.3701 Y-6.0551
G01 X9.3682 Y-6.0704
G01 X9.3682 Y-8.0730
G01 X9.3699 Y-8.0866
G01 X9.3742 Y-8.0997
G01 X9.3805 Y-8.1109
G01 X9.3893 Y-8.1214
G01 X9.4000 Y-8.1300
G01 X9.4122 Y-8.1363
G01 X9.4254 Y-8.1401
G01 X9.4382 Y-8.1413
G00 Z2.0000
G00 X8.3863 Y-4.6803
G01 F70.00
G01 Z-0.0600
G01 F120.00
G01 X8.4064 Y-4.6625
G01 X8.4068 Y-4.5385
G01 X8.4082 Y-4.5266
G01 X8.4110 Y-4.5131
G01 X8.4152 Y-4.5000
G01 X8.4199 Y-4.4888
G01 X8.3863 Y-4.4888
G01 X8.3863 Y-4.6803
G00 Z2.0000
G00 X7.8200 Y-4.4188
G01 F70.00
G01 Z-0.0600
G01 F120.00
G01 X7.8761 Y-4.4188
G01 X7.8761 Y-6.0389
G01 X7.8703 Y-6.0543
G01 X7.8687 Y-6.0627
G01 X7.8682 Y-6.0713
G01 X7.8686 Y-8.0790
G01 X7.8710 Y-8.0908
G01 X7.8749 Y-8.1012
G01 X7.8805 Y-8.1109
G01 X7.8875 Y-8.1196
G01 X7.8958 Y-8.1270
G01 X7.9060 Y-8.1334
G01 X7.9162 Y-8.1378
G01 X7.9271 Y-8.1404
G01 X7.9382 Y-8.1413
G01 X8.2459 Y-8.1409
G01 X8.2585 Y-8.1383
G01 X8.2697 Y-8.1338
G01 X8.2799 Y-8.1275
G01 X8.2895 Y-8.1189
G01 X8.2973 Y-8.1087
G01 X8.3032 Y-8.0973
G01 X8.3067 Y-8.0858
G01 X8.3082 Y-8.0730
G01 X8.3082 Y-7.1233
G01 X8.3140 Y-7.0958
G01 X8.3159 Y-7.0769
G01 X8.3163 Y-7.0644
G01 X8.3163 Y-4.4188
G01 X9.4217 Y-4.4188
G01 X9.4370 Y-4.4167
G01 X9.4507 Y-4.4117
G01 X9.4631 Y-4.4040
G01 X9.4741 Y-4.3932
G01 X9.4809 Y-4.3833
G01 X9.4859 Y-4.3724
G01 X9.4888 Y-4.3616
G01 X9.4900 Y-4.3497
G01 X9.4900 Y-3.0488
G01 X9.4888 Y-3.0360
G01 X9.4856 Y-3.0244
G01 X9.4805 Y-3.0136
G01 X9.4730 Y-3.0031
G01 X9.4617 Y-2.9926
G01 X9.4491 Y-2.9852
G01 X9.4353 Y-2.9805
G01 X9.4200 Y-2.9788
G01 X7.8191 Y-2.9788
G01 X7.8072 Y-2.9800
G01 X7.7956 Y-2.9832
G01 X7.7840 Y-2.9888
G01 X7.7743 Y-2.9958
G01 X7.7638 Y-3.0071
G01 X7.7564 Y-3.0197
G01 X7.7517 Y-3.0335
G01 X7.7500 Y-3.0479
G01 X7.7500 Y-4.3514
G01 X7.7519 Y-4.3650
G01 X7.7564 Y-4.3779
G01 X7.7633 Y-4.3898
G01 X7.7717 Y-4.3995
G01 X7.7818 Y-4.4075
G01 X7.7940 Y-4.4138
G01 X7.8063 Y-4.4175
G01 X7.8200 Y-4.4188
G00 Z2.0000
G00 X7.6900 Y-4.4944
G01 F70.00
G01 Z-0.0600
G01 F120.00
G01 X7.7006 Y-4.5051
G01 X7.7089 Y-4.5181
G01 X7.7141 Y-4.5326
G01 X7.7160 Y-4.5479
G01 X7.7160 Y-5.3366
G01 X7.7146 Y-5.3485
G01 X7.7113 Y-5.3601
G01 X7.7060 Y-5.3709
G01 X7.6990 Y-5.3806
G01 X7.6870 Y-5.3916
G01 X7.6728 Y-5.3995
G01 X7.6571 Y-5.4040
G01 X7.6408 Y-5.4047
G01 X7.6315 Y-5.4033
G01 X7.6216 Y-5.4005
G01 X7.5848 Y-5.3839
G01 X7.5605 Y-5.3745
G01 X7.5358 Y-5.3664
G01 X7.5107 Y-5.3594
G01 X7.4854 Y-5.3537
G01 X7.4597 Y-5.3493
G01 X7.4339 Y-5.3461
G01 X7.4079 Y-5.3442
G01 X7.3819 Y-5.3435
G01 X7.3559 Y-5.3442
G01 X7.3299 Y-5.3461
G01 X7.3041 Y-5.3493
G01 X7.2784 Y-5.3537
G01 X7.2351 Y-5.3640
G01 X7.2206 Y-5.3650
G01 X7.2087 Y-5.3635
G01 X7.1679 Y-5.3537
G01 X7.1422 Y-5.3493
G01 X7.1164 Y-5.3461
G01 X7.0904 Y-5.3442
G01 X7.0644 Y-5.3435
G01 X7.0248 Y-5.3450
G01 X7.0136 Y-5.3443
G01 X7.0044 Y-5.3422
G01 X6.9954 Y-5.3390
G01 X6.9871 Y-5.3345
G01 X6.9787 Y-5.3284
G01 X6.9696 Y-5.3192
G01 X5.2389 Y-3.1891
G01 X5.2340 Y-3.1822
G01 X5.2285 Y-3.1716
G01 X5.2248 Y-3.1593
G01 X5.2233 Y-3.1466
G01 X5.2240 Y-3.1347
G01 X5.2499 Y-3.0398
G01 X5.2685 Y-2.9569
G01 X5.2831 Y-2.8732
G01 X5.2934 Y-2.7890
G01 X5.2997 Y-2.7043
G01 X5.3018 Y-2.6194
G01 X5.2997 Y-2.5345
G01 X5.2934 Y-2.4498
G01 X5.2831 Y-2.3656
G01 X5.2685 Y-2.2819
G01 X5.2499 Y-2.1990
G01 X5.2273 Y-2.1172
G01 X5.2007 Y-2.0366
G01 X5.1701 Y-1.9574
G01 X5.1357 Y-1.8797
G01 X5.0975 Y-1.8039
G01 X5.0557 Y-1.7300
G01 X5.0102 Y-1.6583
G01 X4.9613 Y-1.5889
G01 X4.9091 Y-1.5219
G01 X4.8536 Y-1.4576
G01 X4.7951 Y-1.3961
G01 X4.7336 Y-1.3376
G01 X4.6693 Y-1.2821
G01 X4.6023 Y-1.2299
G01 X4.5329 Y-1.1810
G01 X4.4612 Y-1.1355
G01 X4.3873 Y-1.0937
G01 X4.3115 Y-1.0555
G01 X4.2338 Y-1.0211
G01 X4.1546 Y-0.9905
G01 X4.0740 Y-0.9639
G01 X3.9922 Y-0.9413
G01 X3.9093 Y-0.9227
G01 X3.8256 Y-0.9081
G01 X3.7414 Y-0.8978
G01 X3.6567 Y-0.8915
G01 X3.5718 Y-0.8894
G01 X3.4869 Y-0.8915
G01 X3.4022 Y-0.8978
G01 X3.3180 Y-0.9081
G01 X3.2343 Y-0.9227
G01 X3.1514 Y-0.9413
G01 X3.0696 Y-0.9639
G01 X2.9890 Y-0.9905
G01 X2.9098 Y-1.0211
G01 X2.8321 Y-1.0555
G01 X2.7563 Y-1.0937
G01 X2.6824 Y-1.1355
G01 X2.6107 Y-1.1810
G01 X2.5413 Y-1.2299
G01 X2.4743 Y-1.2821
G01 X2.4100 Y-1.3376
G01 X2.3485 Y-1.3961
G01 X2.2900 Y-1.4576
G01 X2.2345 Y-1.5219
G01 X2.1823 Y-1.5889
G01 X2.1334 Y-1.6583
G01 X2.0879 Y-1.7300
G01 X2.0461 Y-1.8039
G01 X2.0079 Y-1.8797
G01 X1.9735 Y-1.9574
G01 X1.9429 Y-2.0366
G01 X1.9163 Y-2.1172
G01 X1.8937 Y-2.1990
G01 X1.8751 Y-2.2819
G01 X1.8605 Y-2.3656
G01 X1.8502 Y-2.4498
G01 X1.8439 Y-2.5345
G01 X1.8418 Y-2.6194
G01 X1.8439 Y-2.7043
G01 X1.8502 Y-2.7890
G01 X1.8605 Y-2.8732
G01 X1.8751 Y-2.9569
G01 X1.8937 Y-3.0398
G01 X1.9163 Y-3.1216
G01 X1.9429 Y-3.2022
G01 X1.9735 Y-3.2814
G01 X2.0079 Y-3.3591
G01 X2.0461 Y-3.4349
G01 X2.0879 Y-3.5088
G01 X2.1334 Y-3.5805
G01 X2.1823 Y-3.6499
G01 X2.2345 Y-3.7169
G01 X2.2900 Y-3.7812
G01 X2.3485 Y-3.8427
G01 X2.4100 Y-3.9012
G01 X2.4743 Y-3.9567
G01 X2.5413 Y-4.0089
G01 X2.6107 Y-4.0578
G01 X2.6824 Y-4.1033
G01 X2.7563 Y-4.1451
G01 X2.8321 Y-4.1833
G01 X2.9098 Y-4.2177
G01 X2.9890 Y-4.2483
G01 X3.0696 Y-4.2749
G01 X3.1514 Y-4.2975
G01 X3.2343 Y-4.3161
G01 X3.3180 Y-4.3307
G01 X3.4022 Y-4.3410
G01 X3.4869 Y-4.3473
G01 X3.5718 Y-4.3494
G01 X3.6567 Y-4.3473
G01 X3.7414 Y-4.3410
G01 X3.8256 Y-4.3307
G01 X3.9093 Y-4.3161
G01 X3.9922 Y-4.2975
G01 X4.0740 Y-4.2749
G01 X4.1546 Y-4.2483
G01 X4.2338 Y-4.2177
G01 X4.3115 Y-4.1833
G01 X4.3873 Y-4.1451
G01 X4.4612 Y-4.1033
G01 X4.5125 Y-4.0708
G01 X4.5258 Y-4.0648
G01 X4.5350 Y-4.0625
G01 X4.5453 Y-4.0614
G01 X4.5547 Y-4.0617
G01 X4.5641 Y-4.0632
G01 X4.5731 Y-4.0661
G01 X4.5817 Y-4.0701
G01 X4.5896 Y-4.0753
G01 X4.5968 Y-4.0814
G01 X6.5184 Y-6.4457
G01 X6.5251 Y-6.4556
G01 X6.5288 Y-6.4633
G01 X6.5318 Y-6.4722
G01 X6.5335 Y-6.4805
G01 X6.5341 Y-6.4890
G01 X6.5341 Y-7.7779
G01 X6.5348 Y-7.8048
G01 X6.5367 Y-7.8308
G01 X6.5399 Y-7.8566
G01 X6.5443 Y-7.8823
G01 X6.5500 Y-7.9076
G01 X6.5570 Y-7.9327
G01 X6.5651 Y-7.9574
G01 X6.5745 Y-7.9817
G01 X6.5850 Y-8.0055
G01 X6.5967 Y-8.0288
G01 X6.6096 Y-8.0514
G01 X6.6235 Y-8.0734
G01 X6.6385 Y-8.0947
G01 X6.6545 Y-8.1152
G01 X6.6715 Y-8.1349
G01 X6.6894 Y-8.1538
G01 X6.7083 Y-8.1717
G01 X6.7280 Y-8.1887
G01 X6.7485 Y-8.2047
G01 X6.7698 Y-8.2197
G01 X6.7918 Y-8.2336
G01 X6.8144 Y-8.2465
G01 X6.8377 Y-8.2582
G01 X6.8615 Y-8.2687
G01 X6.8858 Y-8.2781
G01 X6.9105 Y-8.2862
G01 X6.9356 Y-8.2932
G01 X6.9609 Y-8.2989
G01 X6.9866 Y-8.3033
G01 X7.0124 Y-8.3065
G01 X7.0384 Y-8.3084
G01 X7.0644 Y-8.3091
G01 X7.0904 Y-8.3084
G01 X7.1164 Y-8.3065
G01 X7.1600 Y-8.3013
G01 X7.2889 Y-8.3013
G01 X7.3299 Y-8.3065
G01 X7.3559 Y-8.3084
G01 X7.3819 Y-8.3091
G01 X7.4079 Y-8.3084
G01 X7.4339 Y-8.3065
G01 X7.4766 Y-8.3013
G01 X8.3682 Y-8.3013
G01 X8.3681 Y-4.8885
G01 X8.3692 Y-4.8670
G01 X8.3727 Y-4.8439
G01 X8.3781 Y-4.8230
G01 X8.3885 Y-4.7960
G01 X8.3994 Y-4.7754
G01 X8.4109 Y-4.7581
G01 X8.4251 Y-4.7407
G01 X8.4404 Y-4.7255
G01 X8.4571 Y-4.7117
G01 X8.4764 Y-4.6989
G01 X8.4764 Y-4.5479
G01 X8.4781 Y-4.5335
G01 X8.4808 Y-4.5244
G01 X8.4847 Y-4.5158
G01 X8.4897 Y-4.5078
G01 X8.4951 Y-4.5012
G01 X8.5020 Y-4.4947
G01 X8.5090 Y-4.4897
G01 X8.5173 Y-4.4852
G01 X8.5253 Y-4.4821
G01 X8.5362 Y-4.4796
G01 X8.5464 Y-4.4788
G01 X9.5500 Y-4.4788
G01 X9.5500 Y-2.9188
G01 X7.6900 Y-2.9188
G01 X7.6900 Y-4.4944
G00 Z2.0000
G00 X7.8200 Y-2.5188
G01 F70.00
G01 Z-0.0600
G01 F120.00
G01 X9.4200 Y-2.5188
G01 X9.4345 Y-2.5173
G01 X9.4444 Y-2.5144
G01 X9.4538 Y-2.5101
G01 X9.4624 Y-2.5045
G01 X9.4707 Y-2.4971
G01 X9.4777 Y-2.4884
G01 X9.4829 Y-2.4795
G01 X9.4867 Y-2.4699
G01 X9.4891 Y-2.4599
G01 X9.4900 Y-2.4488
G01 X9.4900 Y-2.1689
G01 X10.0725 Y-2.1690
G01 X10.0725 Y-2.4488
G01 X10.0735 Y-2.4608
G01 X10.0763 Y-2.4716
G01 X10.0804 Y-2.4810
G01 X10.0863 Y-2.4905
G01 X10.0930 Y-2.4983
G01 X10.1015 Y-2.5055
G01 X10.1110 Y-2.5113
G01 X10.1214 Y-2.5155
G01 X10.1314 Y-2.5179
G01 X10.1425 Y-2.5188
G01 X11.5425 Y-2.5188
G01 X11.5553 Y-2.5176
G01 X11.5669 Y-2.5144
G01 X11.5763 Y-2.5101
G01 X11.5849 Y-2.5045
G01 X11.5926 Y-2.4977
G01 X11.5992 Y-2.4898
G01 X11.6050 Y-2.4803
G01 X11.6090 Y-2.4708
G01 X11.6115 Y-2.4608
G01 X11.6125 Y-2.4505
G01 X11.6125 Y-1.1488
G01 X11.6115 Y-1.1368
G01 X11.6081 Y-1.1244
G01 X11.6038 Y-1.1150
G01 X11.5982 Y-1.1064
G01 X11.5914 Y-1.0987
G01 X11.5835 Y-1.0921
G01 X11.5747 Y-1.0867
G01 X11.5653 Y-1.0826
G01 X11.5553 Y-1.0800
G01 X11.5442 Y-1.0788
G01 X10.1425 Y-1.0788
G01 X10.1322 Y-1.0796
G01 X10.1214 Y-1.0821
G01 X10.1118 Y-1.0859
G01 X10.1022 Y-1.0916
G01 X10.0936 Y-1.0987
G01 X10.0863 Y-1.1071
G01 X10.0804 Y-1.1166
G01 X10.0763 Y-1.1260
G01 X10.0735 Y-1.1368
G01 X10.0725 Y-1.1488
G01 X10.0725 Y-1.4287
G01 X9.4900 Y-1.4286
G01 X9.4900 Y-1.1488
G01 X9.4891 Y-1.1377
G01 X9.4865 Y-1.1268
G01 X9.4825 Y-1.1173
G01 X9.4772 Y-1.1085
G01 X9.4701 Y-1.0999
G01 X9.4624 Y-1.0931
G01 X9.4530 Y-1.0871
G01 X9.4436 Y-1.0829
G01 X9.4337 Y-1.0801
G01 X9.4200 Y-1.0788
G01 X7.8200 Y-1.0788
G01 X7.8072 Y-1.0800
G01 X7.7956 Y-1.0832
G01 X7.7862 Y-1.0875
G01 X7.7776 Y-1.0931
G01 X7.7699 Y-1.0999
G01 X7.7633 Y-1.1078
G01 X7.7579 Y-1.1166
G01 X7.7538 Y-1.1260
G01 X7.7512 Y-1.1360
G01 X7.7500 Y-1.1462
G01 X7.7500 Y-2.4497
G01 X7.7515 Y-2.4633
G01 X7.7553 Y-2.4756
G01 X7.7618 Y-2.4877
G01 X7.7705 Y-2.4983
G01 X7.7811 Y-2.5070
G01 X7.7932 Y-2.5135
G01 X7.8063 Y-2.5175
G01 X7.8200 Y-2.5188
G00 Z2.0000
G00 X10.0125 Y-1.2985
G01 F70.00
G01 Z-0.0600
G01 F120.00
G01 X10.0115 Y-1.3105
G01 X10.0081 Y-1.3229
G01 X10.0030 Y-1.3338
G01 X9.9955 Y-1.3443
G01 X9.9862 Y-1.3532
G01 X9.9763 Y-1.3599
G01 X9.9645 Y-1.3650
G01 X9.9519 Y-1.3679
G01 X9.9425 Y-1.3685
G01 X9.6183 Y-1.3685
G01 X9.6097 Y-1.3678
G01 X9.6005 Y-1.3658
G01 X9.5924 Y-1.3629
G01 X9.5840 Y-1.3586
G01 X9.5711 Y-1.3487
G01 X9.5609 Y-1.3360
G01 X9.5538 Y-1.3213
G01 X9.5503 Y-1.3054
G01 X9.5500 Y-1.0188
G01 X7.6900 Y-1.0188
G01 X7.6900 Y-2.5788
G01 X9.5500 Y-2.5788
G01 X9.5502 Y-2.2939
G01 X9.5523 Y-2.2812
G01 X9.5571 Y-2.2683
G01 X9.5643 Y-2.2567
G01 X9.5736 Y-2.2466
G01 X9.5826 Y-2.2399
G01 X9.5932 Y-2.2344
G01 X9.6047 Y-2.2308
G01 X9.6166 Y-2.2291
G01 X9.9425 Y-2.2291
G01 X9.9545 Y-2.2301
G01 X9.9661 Y-2.2331
G01 X9.9770 Y-2.2381
G01 X9.9869 Y-2.2449
G01 X9.9955 Y-2.2533
G01 X10.0025 Y-2.2631
G01 X10.0078 Y-2.2739
G01 X10.0112 Y-2.2854
G01 X10.0125 Y-2.2991
G01 X10.0125 Y-2.5788
G01 X11.6725 Y-2.5788
G01 X11.6725 Y-1.0188
G01 X10.0125 Y-1.0188
G01 X10.0125 Y-1.2985
G00 Z2.0000
G00 X11.6725 Y-3.3298
G01 F70.00
G01 Z-0.0600
G01 F120.00
G01 X11.6725 Y-2.9188
G01 X10.0125 Y-2.9188
G01 X10.0125 Y-3.3298
G01 X10.0725 Y-3.3298
G01 X10.0725 Y-3.0488
G01 X10.0734 Y-3.0377
G01 X10.0758 Y-3.0277
G01 X10.0796 Y-3.0181
G01 X10.0848 Y-3.0092
G01 X10.0912 Y-3.0012
G01 X10.0994 Y-2.9936
G01 X10.1080 Y-2.9879
G01 X10.1173 Y-2.9835
G01 X10.1272 Y-2.9805
G01 X10.1425 Y-2.9788
G01 X11.5425 Y-2.9788
G01 X11.5545 Y-2.9798
G01 X11.5661 Y-2.9829
G01 X11.5770 Y-2.9879
G01 X11.5869 Y-2.9947
G01 X11.5955 Y-3.0031
G01 X11.6025 Y-3.0128
G01 X11.6078 Y-3.0236
G01 X11.6112 Y-3.0351
G01 X11.6125 Y-3.0488
G01 X11.6125 Y-3.3298
G01 X11.6725 Y-3.3298
G00 Z2.0000
G00 X11.6725 Y-4.4788
G01 F70.00
G01 Z-0.0600
G01 F120.00
G01 X11.6725 Y-4.0678
G01 X11.6125 Y-4.0678
G01 X11.6122 Y-4.3548
G01 X11.6095 Y-4.3691
G01 X11.6038 Y-4.3826
G01 X11.5955 Y-4.3945
G01 X11.5849 Y-4.4045
G01 X11.5763 Y-4.4101
G01 X11.5661 Y-4.4147
G01 X11.5553 Y-4.4176
G01 X11.5451 Y-4.4188
G01 X11.2115 Y-4.4188
G01 X11.2115 Y-4.4788
G01 X11.6725 Y-4.4788
G00 Z2.0000
G00 X10.0125 Y-4.0678
G01 F70.00
G01 Z-0.0600
G01 F120.00
G01 X10.0125 Y-4.4788
G01 X10.4735 Y-4.4788
G01 X10.4735 Y-4.4188
G01 X10.1391 Y-4.4187
G01 X10.1272 Y-4.4171
G01 X10.1157 Y-4.4135
G01 X10.1058 Y-4.4084
G01 X10.0961 Y-4.4012
G01 X10.0868 Y-4.3912
G01 X10.0796 Y-4.3795
G01 X10.0748 Y-4.3666
G01 X10.0727 Y-4.3539
G01 X10.0725 Y-4.0678
G01 X10.0125 Y-4.0678
G00 Z2.0000
G00 X5.1603 Y-3.1013
G01 F70.00
G01 Z-0.0600
G01 F120.00
G01 X5.1820 Y-3.0227
G01 X5.1999 Y-2.9432
G01 X5.2138 Y-2.8630
G01 X5.2238 Y-2.7821
G01 X5.2298 Y-2.7009
G01 X5.2318 Y-2.6194
G01 X5.2298 Y-2.5379
G01 X5.2238 Y-2.4567
G01 X5.2138 Y-2.3758
G01 X5.1999 Y-2.2956
G01 X5.1820 Y-2.2161
G01 X5.1603 Y-2.1375
G01 X5.1347 Y-2.0602
G01 X5.1054 Y-1.9842
G01 X5.0724 Y-1.9097
G01 X5.0358 Y-1.8369
G01 X4.9956 Y-1.7660
G01 X4.9520 Y-1.6972
G01 X4.9051 Y-1.6306
G01 X4.8550 Y-1.5663
G01 X4.8017 Y-1.5046
G01 X4.7456 Y-1.4456
G01 X4.6866 Y-1.3895
G01 X4.6249 Y-1.3362
G01 X4.5606 Y-1.2861
G01 X4.4940 Y-1.2392
G01 X4.4252 Y-1.1956
G01 X4.3543 Y-1.1554
G01 X4.2815 Y-1.1188
