(G-CODE GENERATED BY FLATCAM v8.95 - www.flatcam.org - Version Date: 2019/08/17)

(Name: si5351_Ф1_верх.gbr_ncc_cnc)
(Type: G-code from Geometry)
(Units: MM)

(Created on Friday, 07 August 2020 at 21:11)

(TOOL DIAMETER: 0.14 mm)
(Feedrate: 50.0 mm/min)
(Feedrate_Z: 79.9998 mm/min)
(Feedrate rapids 79.9998 mm/min)

(Z_Cut: -0.0746 mm)
(Z_Move: 3.0 mm)
(Z Toolchange: 12.7 mm)
(X,Y Toolchange: 0.0000, 0.0000 mm)
(Z Start: None mm)
(Z End: 12.7 mm)
(Steps per circle: 128)
(Postprocessor Geometry: default)

(X range:    0.0000 ...    0.0000  mm)
(Y range:    0.0000 ...    0.0000  mm)

(Spindle Speed: None RPM)

G21
G90
G94

G01 F50.00
G00 Z3.0000

M03
G00 X1.9539 Y-3.5864
G01 F80.00
G01 Z-0.0746
G01 F50.00
G01 X2.0034 Y-3.6084
G01 X2.0525 Y-3.6273
G01 X2.1024 Y-3.6438
G01 X2.1530 Y-3.6578
G01 X2.2043 Y-3.6693
G01 X2.2560 Y-3.6783
G01 X2.3082 Y-3.6847
G01 X2.3606 Y-3.6886
G01 X2.4131 Y-3.6899
G01 X4.3269 Y-3.6899
G01 X6.8529 Y-6.7989
G01 X6.8529 Y-7.7788
G01 X6.8535 Y-7.7985
G01 X6.8567 Y-7.8314
G01 X6.8601 Y-7.8510
G01 X6.8684 Y-7.8846
G01 X6.8746 Y-7.9035
G01 X6.8818 Y-7.9220
G01 X6.8967 Y-7.9533
G01 X6.9065 Y-7.9706
G01 X6.9258 Y-7.9993
G01 X6.9488 Y-8.0274
G01 X6.9745 Y-8.0531
G01 X7.0026 Y-8.0761
G01 X7.0313 Y-8.0954
G01 X7.0633 Y-8.1127
G01 X7.0830 Y-8.1214
G01 X7.1157 Y-8.1330
G01 X7.1509 Y-8.1418
G01 X7.1868 Y-8.1472
G01 X7.2231 Y-8.1490
G01 X7.2594 Y-8.1472
G01 X7.2774 Y-8.1449
G01 X7.2978 Y-8.1413
G01 X7.5820 Y-8.1413
G01 X7.5897 Y-8.1406
G01 X7.5997 Y-8.1383
G01 X7.6094 Y-8.1346
G01 X7.6156 Y-8.1312
G01 X7.6237 Y-8.1256
G01 X7.6290 Y-8.1208
G01 X7.6356 Y-8.1131
G01 X7.6395 Y-8.1073
G01 X7.6427 Y-8.1013
G01 X7.6465 Y-8.0915
G01 X7.6487 Y-8.0818
G01 X7.6495 Y-8.0725
G01 X7.6495 Y-6.0700
G01 X7.6481 Y-6.0573
G01 X7.6454 Y-6.0478
G01 X7.6395 Y-6.0353
G01 X7.6335 Y-6.0268
G01 X7.6240 Y-6.0173
G01 X7.6155 Y-6.0113
G01 X7.6062 Y-6.0066
G01 X7.5933 Y-6.0027
G01 X7.5932 Y-5.8729
G01 X7.5914 Y-5.8369
G01 X7.5865 Y-5.8033
G01 X7.5822 Y-5.7839
G01 X7.5768 Y-5.7647
G01 X7.5651 Y-5.7321
G01 X7.5570 Y-5.7140
G01 X7.5406 Y-5.6835
G01 X7.5299 Y-5.6667
G01 X7.5103 Y-5.6403
G01 X7.4974 Y-5.6252
G01 X7.4836 Y-5.6109
G01 X7.4592 Y-5.5888
G01 X7.4422 Y-5.5755
G01 X7.4149 Y-5.5572
G01 X7.3976 Y-5.5474
G01 X7.3663 Y-5.5325
G01 X7.3478 Y-5.5253
G01 X7.3289 Y-5.5191
G01 X7.2953 Y-5.5108
G01 X7.2757 Y-5.5074
G01 X7.2428 Y-5.5042
G01 X7.2214 Y-5.5037
G01 X7.1885 Y-5.5053
G01 X7.1688 Y-5.5077
G01 X7.1492 Y-5.5111
G01 X7.1173 Y-5.5191
G01 X7.0984 Y-5.5253
G01 X7.0664 Y-5.5385
G01 X7.0483 Y-5.5475
G01 X7.0189 Y-5.5651
G01 X7.0027 Y-5.5764
G01 X6.9870 Y-5.5888
G01 X6.9626 Y-5.6109
G01 X6.9477 Y-5.6265
G01 X6.9268 Y-5.6519
G01 X6.9153 Y-5.6682
G01 X6.9035 Y-5.6872
G01 X5.0868 Y-3.4512
G01 X5.1320 Y-3.4126
G01 X5.1701 Y-3.3764
G01 X5.2063 Y-3.3383
G01 X5.2417 Y-3.2972
G01 X5.2729 Y-3.2571
G01 X5.3022 Y-3.2156
G01 X5.3304 Y-3.1712
G01 X5.3572 Y-3.1240
G01 X5.3808 Y-3.0771
G01 X5.4021 Y-3.0291
G01 X5.4216 Y-2.9784
G01 X5.4380 Y-2.9285
G01 X5.4515 Y-2.8795
G01 X5.4627 Y-2.8299
G01 X5.4720 Y-2.7765
G01 X5.4784 Y-2.7243
G01 X5.4823 Y-2.6719
G01 X5.4836 Y-2.6177
G01 X5.4822 Y-2.5652
G01 X5.4784 Y-2.5145
G01 X5.4722 Y-2.4640
G01 X5.4630 Y-2.4106
G01 X5.4515 Y-2.3593
G01 X5.4375 Y-2.3087
G01 X5.4204 Y-2.2571
G01 X5.4021 Y-2.2097
G01 X5.3815 Y-2.1633
G01 X5.3580 Y-2.1163
G01 X5.3313 Y-2.0691
G01 X5.3032 Y-2.0247
G01 X5.2729 Y-1.9817
G01 X5.2395 Y-1.9390
G01 X5.2063 Y-1.9005
G01 X5.1713 Y-1.8637
G01 X5.1333 Y-1.8274
G01 X5.0922 Y-1.7919
G01 X5.0508 Y-1.7596
G01 X5.0064 Y-1.7284
G01 X4.9634 Y-1.7012
G01 X4.9177 Y-1.6753
G01 X4.8692 Y-1.6510
G01 X4.8228 Y-1.6304
G01 X4.7737 Y-1.6115
G01 X4.7238 Y-1.5950
G01 X4.6749 Y-1.5814
G01 X4.6219 Y-1.5695
G01 X4.5702 Y-1.5605
G01 X4.5197 Y-1.5542
G01 X4.4656 Y-1.5502
G01 X4.4131 Y-1.5489
G01 X2.4118 Y-1.5489
G01 X2.3606 Y-1.5502
G01 X2.3099 Y-1.5539
G01 X2.2560 Y-1.5605
G01 X2.2043 Y-1.5695
G01 X2.1547 Y-1.5806
G01 X2.1009 Y-1.5954
G01 X2.0525 Y-1.6115
G01 X2.0034 Y-1.6304
G01 X1.9554 Y-1.6517
G01 X1.9085 Y-1.6753
G01 X1.8628 Y-1.7012
G01 X1.8184 Y-1.7293
G01 X1.7754 Y-1.7596
G01 X1.7340 Y-1.7919
G01 X1.6942 Y-1.8262
G01 X1.6561 Y-1.8624
G01 X1.6199 Y-1.9005
G01 X1.5856 Y-1.9403
G01 X1.5533 Y-1.9817
G01 X1.5230 Y-2.0247
G01 X1.4949 Y-2.0691
G01 X1.4690 Y-2.1148
G01 X1.4454 Y-2.1617
G01 X1.4241 Y-2.2097
G01 X1.4052 Y-2.2588
G01 X1.3887 Y-2.3087
G01 X1.3747 Y-2.3593
G01 X1.3632 Y-2.4106
G01 X1.3542 Y-2.4623
G01 X1.3478 Y-2.5145
G01 X1.3439 Y-2.5669
G01 X1.3426 Y-2.6194
G01 X1.3439 Y-2.6719
G01 X1.3478 Y-2.7243
G01 X1.3542 Y-2.7765
G01 X1.3632 Y-2.8282
G01 X1.3747 Y-2.8795
G01 X1.3891 Y-2.9316
G01 X1.4052 Y-2.9800
G01 X1.4248 Y-3.0306
G01 X1.4461 Y-3.0786
G01 X1.4690 Y-3.1240
G01 X1.4940 Y-3.1683
G01 X1.5230 Y-3.2141
G01 X1.5532 Y-3.2570
G01 X1.5856 Y-3.2985
G01 X1.6195 Y-3.3378
G01 X1.6561 Y-3.3764
G01 X1.6942 Y-3.4126
G01 X1.7340 Y-3.4469
G01 X1.7754 Y-3.4792
G01 X1.8184 Y-3.5095
G01 X1.8628 Y-3.5376
G01 X1.9085 Y-3.5635
G01 X1.9539 Y-3.5864
G01 X1.9231 Y-3.6493
G01 X1.9769 Y-3.6732
G01 X2.0257 Y-3.6920
G01 X2.0847 Y-3.7116
G01 X2.1357 Y-3.7257
G01 X2.1873 Y-3.7373
G01 X2.2458 Y-3.7476
G01 X2.3047 Y-3.7547
G01 X2.3570 Y-3.7585
G01 X2.4097 Y-3.7599
G01 X4.2936 Y-3.7599
G01 X6.7829 Y-6.8238
G01 X6.7829 Y-7.7788
G01 X6.7848 Y-7.8194
G01 X6.7883 Y-7.8468
G01 X6.7959 Y-7.8849
G01 X6.8029 Y-7.9098
G01 X6.8168 Y-7.9479
G01 X6.8333 Y-7.9832
G01 X6.8460 Y-8.0058
G01 X6.8676 Y-8.0382
G01 X6.8851 Y-8.0607
G01 X6.9125 Y-8.0906
G01 X6.9433 Y-8.1186
G01 X6.9602 Y-8.1318
G01 X6.9786 Y-8.1448
G01 X7.0126 Y-8.1653
G01 X7.0344 Y-8.1764
G01 X7.0515 Y-8.1841
G01 X7.0781 Y-8.1943
G01 X7.1170 Y-8.2060
G01 X7.1381 Y-8.2107
G01 X7.1594 Y-8.2143
G01 X7.1983 Y-8.2182
G01 X7.2240 Y-8.2189
G01 X7.2654 Y-8.2169
G01 X7.3046 Y-8.2113
G01 X7.5907 Y-8.2108
G01 X7.6017 Y-8.2095
G01 X7.6153 Y-8.2066
G01 X7.6377 Y-8.1986
G01 X7.6472 Y-8.1938
G01 X7.6590 Y-8.1865
G01 X7.6693 Y-8.1787
G01 X7.6795 Y-8.1693
G01 X7.6897 Y-8.1787
G01 X7.7000 Y-8.1865
G01 X7.7118 Y-8.1938
G01 X7.7213 Y-8.1986
G01 X7.7342 Y-8.2037
G01 X7.7468 Y-8.2074
G01 X7.7573 Y-8.2095
G01 X7.7712 Y-8.2110
G01 X8.0850 Y-8.2112
G01 X8.0979 Y-8.2101
G01 X8.1122 Y-8.2074
G01 X8.1248 Y-8.2037
G01 X8.1395 Y-8.1978
G01 X8.1395 Y-8.2313
G01 X7.3187 Y-8.2313
G01 X7.3028 Y-8.2322
G01 X7.2682 Y-8.2368
G01 X7.2457 Y-8.2385
G01 X7.2231 Y-8.2391
G01 X7.2005 Y-8.2385
G01 X7.1780 Y-8.2368
G01 X7.1348 Y-8.2315
G01 X7.0814 Y-8.2313
G01 X7.0688 Y-8.2194
G01 X7.0531 Y-8.2082
G01 X7.0433 Y-8.2026
G01 X7.0061 Y-8.1847
G01 X6.9865 Y-8.1736
G01 X6.9674 Y-8.1615
G01 X6.9489 Y-8.1485
G01 X6.9311 Y-8.1346
G01 X6.9140 Y-8.1198
G01 X6.8976 Y-8.1043
G01 X6.8821 Y-8.0879
G01 X6.8673 Y-8.0708
G01 X6.8534 Y-8.0530
G01 X6.8404 Y-8.0345
G01 X6.8283 Y-8.0154
G01 X6.8172 Y-7.9958
G01 X6.8070 Y-7.9756
G01 X6.7979 Y-7.9549
G01 X6.7897 Y-7.9339
G01 X6.7827 Y-7.9124
G01 X6.7766 Y-7.8906
G01 X6.7717 Y-7.8686
G01 X6.7678 Y-7.8463
G01 X6.7651 Y-7.8239
G01 X6.7634 Y-7.8014
G01 X6.7628 Y-7.7771
G01 X6.7628 Y-6.8790
G01 X6.7610 Y-6.8584
G01 X6.7572 Y-6.8414
G01 X6.7504 Y-6.8231
G01 X6.7425 Y-6.8080
G01 X6.7315 Y-6.7923
G01 X4.3260 Y-3.8318
G01 X4.3131 Y-3.8179
G01 X4.2998 Y-3.8069
G01 X4.2819 Y-3.7958
G01 X4.2602 Y-3.7868
G01 X4.2398 Y-3.7819
G01 X4.2191 Y-3.7801
G01 X2.4148 Y-3.7801
G01 X2.3562 Y-3.7786
G01 X2.2993 Y-3.7744
G01 X2.2428 Y-3.7674
G01 X2.1867 Y-3.7577
G01 X2.1311 Y-3.7452
G01 X2.0762 Y-3.7300
G01 X2.0221 Y-3.7122
G01 X1.9690 Y-3.6917
G01 X1.9169 Y-3.6686
G01 X1.8660 Y-3.6430
G01 X1.8164 Y-3.6149
G01 X1.7683 Y-3.5844
G01 X1.7217 Y-3.5516
G01 X1.6768 Y-3.5166
G01 X1.6337 Y-3.4794
G01 X1.5924 Y-3.4401
G01 X1.5531 Y-3.3988
G01 X1.5159 Y-3.3557
G01 X1.4809 Y-3.3108
G01 X1.4481 Y-3.2642
G01 X1.4176 Y-3.2161
G01 X1.3895 Y-3.1665
G01 X1.3639 Y-3.1156
G01 X1.3408 Y-3.0635
G01 X1.3203 Y-3.0104
G01 X1.3025 Y-2.9563
G01 X1.2873 Y-2.9014
G01 X1.2748 Y-2.8458
G01 X1.2651 Y-2.7897
G01 X1.2581 Y-2.7332
G01 X1.2539 Y-2.6763
G01 X1.2525 Y-2.6194
G01 X1.2539 Y-2.5625
G01 X1.2581 Y-2.5056
G01 X1.2651 Y-2.4491
G01 X1.2748 Y-2.3930
G01 X1.2873 Y-2.3374
G01 X1.3025 Y-2.2825
G01 X1.3203 Y-2.2284
G01 X1.3408 Y-2.1753
G01 X1.3639 Y-2.1232
G01 X1.3895 Y-2.0723
G01 X1.4176 Y-2.0227
G01 X1.4481 Y-1.9746
G01 X1.4809 Y-1.9280
G01 X1.5159 Y-1.8831
G01 X1.5531 Y-1.8400
G01 X1.5924 Y-1.7987
G01 X1.6337 Y-1.7594
G01 X1.6768 Y-1.7222
G01 X1.7217 Y-1.6872
G01 X1.7683 Y-1.6544
G01 X1.8164 Y-1.6239
G01 X1.8660 Y-1.5958
G01 X1.9169 Y-1.5702
G01 X1.9690 Y-1.5471
G01 X2.0221 Y-1.5266
G01 X2.0762 Y-1.5088
G01 X2.1311 Y-1.4936
G01 X2.1867 Y-1.4811
G01 X2.2428 Y-1.4714
G01 X2.2993 Y-1.4644
G01 X2.3562 Y-1.4602
G01 X2.4148 Y-1.4587
G01 X4.4114 Y-1.4587
G01 X4.4700 Y-1.4602
G01 X4.5269 Y-1.4644
G01 X4.5834 Y-1.4714
G01 X4.6395 Y-1.4811
G01 X4.6951 Y-1.4936
G01 X4.7500 Y-1.5088
G01 X4.8041 Y-1.5266
G01 X4.8572 Y-1.5471
G01 X4.9093 Y-1.5702
G01 X4.9602 Y-1.5958
G01 X5.0098 Y-1.6239
G01 X5.0579 Y-1.6544
G01 X5.1045 Y-1.6872
G01 X5.1494 Y-1.7222
G01 X5.1925 Y-1.7594
G01 X5.2338 Y-1.7987
G01 X5.2731 Y-1.8400
G01 X5.3103 Y-1.8831
G01 X5.3453 Y-1.9280
G01 X5.3781 Y-1.9746
G01 X5.4086 Y-2.0227
G01 X5.4367 Y-2.0723
G01 X5.4623 Y-2.1232
G01 X5.4854 Y-2.1753
G01 X5.5059 Y-2.2284
G01 X5.5237 Y-2.2825
G01 X5.5389 Y-2.3374
G01 X5.5514 Y-2.3930
G01 X5.5611 Y-2.4491
G01 X5.5681 Y-2.5056
G01 X5.5723 Y-2.5625
G01 X5.5737 Y-2.6194
G01 X5.5723 Y-2.6763
G01 X5.5681 Y-2.7332
G01 X5.5611 Y-2.7897
G01 X5.5514 Y-2.8458
G01 X5.5389 Y-2.9014
G01 X5.5237 Y-2.9563
G01 X5.5059 Y-3.0104
G01 X5.4854 Y-3.0635
G01 X5.4623 Y-3.1156
G01 X5.4367 Y-3.1665
G01 X5.4086 Y-3.2161
G01 X5.3781 Y-3.2642
G01 X5.3453 Y-3.3108
G01 X5.3103 Y-3.3557
G01 X5.2839 Y-3.3872
G01 X5.2746 Y-3.4019
G01 X5.2674 Y-3.4173
G01 X5.2620 Y-3.4340
G01 X5.2588 Y-3.4506
G01 X5.2577 Y-3.4652
G01 X5.2583 Y-3.4824
G01 X5.2610 Y-3.4995
G01 X5.2649 Y-3.5132
G01 X5.2713 Y-3.5292
G01 X5.2797 Y-3.5443
G01 X5.2890 Y-3.5570
G01 X6.8187 Y-5.4399
G01 X6.8270 Y-5.4491
G01 X6.8371 Y-5.4585
G01 X6.8485 Y-5.4672
G01 X6.8601 Y-5.4743
G01 X6.8728 Y-5.4805
G01 X6.8864 Y-5.4855
G01 X6.9029 Y-5.4894
G01 X6.9169 Y-5.4912
G01 X6.9310 Y-5.4915
G01 X6.9453 Y-5.4904
G01 X6.9618 Y-5.4873
G01 X6.9797 Y-5.4814
G01 X6.9912 Y-5.4762
G01 X7.0263 Y-5.4577
G01 X7.0470 Y-5.4486
G01 X7.0680 Y-5.4404
G01 X7.0895 Y-5.4334
G01 X7.1113 Y-5.4273
G01 X7.1333 Y-5.4224
G01 X7.1556 Y-5.4185
G01 X7.1780 Y-5.4158
G01 X7.2005 Y-5.4141
G01 X7.2231 Y-5.4135
G01 X7.2457 Y-5.4141
G01 X7.2682 Y-5.4158
G01 X7.2906 Y-5.4185
G01 X7.3129 Y-5.4224
G01 X7.3349 Y-5.4273
G01 X7.3567 Y-5.4334
G01 X7.3782 Y-5.4404
G01 X7.3992 Y-5.4486
G01 X7.4355 Y-5.4650
G01 X7.4509 Y-5.4701
G01 X7.4648 Y-5.4731
G01 X7.4778 Y-5.4746
G01 X7.4918 Y-5.4748
G01 X7.5055 Y-5.4737
G01 X7.5280 Y-5.4688
G01 X7.5407 Y-5.4643
G01 X7.5503 Y-5.4599
G01 X7.5681 Y-5.4492
G01 X7.5859 Y-5.4343
G01 X7.6010 Y-5.4166
G01 X7.6121 Y-5.3984
G01 X7.6208 Y-5.3771
G01 X7.6255 Y-5.3570
G01 X7.6273 Y-5.3349
G01 X7.6272 Y-4.7469
G01 X7.6260 Y-4.7302
G01 X7.6226 Y-4.7129
G01 X7.6161 Y-4.6939
G01 X7.6082 Y-4.6783
G01 X7.5983 Y-4.6635
G01 X7.5875 Y-4.6511
G01 X7.5750 Y-4.6397
G01 X7.5608 Y-4.6297
G01 X7.5484 Y-4.6229
G01 X7.5358 Y-4.6175
G01 X7.5198 Y-4.6126
G01 X7.5059 Y-4.6100
G01 X7.4873 Y-4.6088
G01 X7.4012 Y-4.6088
G01 X7.4012 Y-0.8888
G01 X11.6437 Y-0.8888
G01 X11.6437 Y-3.2598
G01 X11.5237 Y-3.2598
G01 X11.5236 Y-3.0433
G01 X11.5213 Y-3.0229
G01 X11.5150 Y-3.0002
G01 X11.5064 Y-2.9813
G01 X11.4950 Y-2.9640
G01 X11.4816 Y-2.9487
G01 X11.4660 Y-2.9356
G01 X11.4509 Y-2.9260
G01 X11.4326 Y-2.9176
G01 X11.4127 Y-2.9118
G01 X11.3923 Y-2.9091
G01 X9.9837 Y-2.9088
G01 X9.9681 Y-2.9097
G01 X9.9547 Y-2.9118
G01 X9.9382 Y-2.9164
G01 X9.9195 Y-2.9244
G01 X9.9044 Y-2.9335
G01 X9.8905 Y-2.9444
G01 X9.8788 Y-2.9561
G01 X9.8666 Y-2.9721
G01 X9.8578 Y-2.9876
G01 X9.8502 Y-3.0066
G01 X9.8455 Y-3.0266
G01 X9.8438 Y-3.0450
G01 X9.8437 Y-3.2598
G01 X9.5328 Y-3.2598
G01 X9.5181 Y-3.2607
G01 X9.5047 Y-3.2628
G01 X9.4882 Y-3.2674
G01 X9.4695 Y-3.2754
G01 X9.4544 Y-3.2845
G01 X9.4405 Y-3.2954
G01 X9.4288 Y-3.3071
G01 X9.4166 Y-3.3231
G01 X9.4078 Y-3.3386
G01 X9.4012 Y-3.3546
G01 X9.4012 Y-3.0475
G01 X9.4000 Y-3.0304
G01 X9.3973 Y-3.0161
G01 X9.3913 Y-2.9971
G01 X9.3821 Y-2.9782
G01 X9.3725 Y-2.9640
G01 X9.3591 Y-2.9487
G01 X9.3435 Y-2.9356
G01 X9.3284 Y-2.9260
G01 X9.3101 Y-2.9176
G01 X9.2902 Y-2.9118
G01 X9.2768 Y-2.9097
G01 X9.2612 Y-2.9088
G01 X7.6566 Y-2.9089
G01 X7.6424 Y-2.9101
G01 X7.6285 Y-2.9127
G01 X7.6127 Y-2.9175
G01 X7.6001 Y-2.9228
G01 X7.5879 Y-2.9295
G01 X7.5761 Y-2.9377
G01 X7.5634 Y-2.9487
G01 X7.5540 Y-2.9588
G01 X7.5404 Y-2.9780
G01 X7.5354 Y-2.9875
G01 X7.5299 Y-3.0003
G01 X7.5237 Y-3.0227
G01 X7.5213 Y-3.0452
G01 X7.5213 Y-4.3524
G01 X7.5221 Y-4.3645
G01 X7.5244 Y-4.3783
G01 X7.5311 Y-4.4005
G01 X7.5368 Y-4.4129
G01 X7.5421 Y-4.4224
G01 X7.5500 Y-4.4338
G01 X7.5587 Y-4.4441
G01 X7.5684 Y-4.4536
G01 X7.5788 Y-4.4620
G01 X7.5908 Y-4.4698
G01 X7.6001 Y-4.4748
G01 X7.6223 Y-4.4833
G01 X7.6350 Y-4.4863
G01 X7.6474 Y-4.4881
G01 X7.6474 Y-5.7572
G01 X7.6382 Y-5.7274
G01 X7.6294 Y-5.7047
G01 X7.6195 Y-5.6825
G01 X7.6017 Y-5.6493
G01 X7.5889 Y-5.6290
G01 X7.5746 Y-5.6089
G01 X7.5515 Y-5.5808
G01 X7.5337 Y-5.5620
G01 X7.5050 Y-5.5358
G01 X7.4853 Y-5.5202
G01 X7.4648 Y-5.5060
G01 X7.4336 Y-5.4873
G01 X7.4115 Y-5.4760
G01 X7.3883 Y-5.4659
G01 X7.3541 Y-5.4536
G01 X7.3292 Y-5.4466
G01 X7.2911 Y-5.4390
G01 X7.2665 Y-5.4358
G01 X7.2417 Y-5.4341
G01 X7.2049 Y-5.4341
G01 X7.1797 Y-5.4358
G01 X7.1551 Y-5.4390
G01 X7.1195 Y-5.4460
G01 X7.0960 Y-5.4524
G01 X7.0717 Y-5.4606
G01 X7.0380 Y-5.4745
G01 X7.0154 Y-5.4857
G01 X6.9946 Y-5.4976
G01 X6.9637 Y-5.5183
G01 X6.9445 Y-5.5330
G01 X6.9257 Y-5.5493
G01 X6.9014 Y-5.5735
G01 X5.1840 Y-3.4598
G01 X5.2199 Y-3.4255
G01 X5.2558 Y-3.3878
G01 X5.2948 Y-3.3428
G01 X5.3312 Y-3.2960
G01 X5.3616 Y-3.2527
G01 X5.3895 Y-3.2087
G01 X5.4190 Y-3.1569
G01 X5.4455 Y-3.1039
G01 X5.4681 Y-3.0527
G01 X5.4871 Y-3.0031
G01 X5.5035 Y-2.9537
G01 X5.5194 Y-2.8968
G01 X5.5323 Y-2.8385
G01 X5.5414 Y-2.7859
G01 X5.5477 Y-2.7346
G01 X5.5522 Y-2.6749
G01 X5.5536 Y-2.6185
G01 X5.5520 Y-2.5600
G01 X5.5481 Y-2.5072
G01 X5.5417 Y-2.4555
G01 X5.5318 Y-2.3974
G01 X5.5185 Y-2.3390
G01 X5.5045 Y-2.2884
G01 X5.4880 Y-2.2384
G01 X5.4666 Y-2.1825
G01 X5.4439 Y-2.1313
G01 X5.4173 Y-2.0788
G01 X5.3916 Y-2.0334
G01 X5.3633 Y-1.9887
G01 X5.3297 Y-1.9407
G01 X5.2925 Y-1.8932
G01 X5.2577 Y-1.8530
G01 X5.2220 Y-1.8154
G01 X5.1794 Y-1.7747
G01 X5.1339 Y-1.7356
G01 X5.0928 Y-1.7036
G01 X5.0496 Y-1.6731
G01 X4.9991 Y-1.6409
G01 X4.9478 Y-1.6121
G01 X4.9009 Y-1.5885
G01 X4.8526 Y-1.5670
G01 X4.7980 Y-1.5458
G01 X4.7409 Y-1.5271
G01 X4.6896 Y-1.5129
G01 X4.6361 Y-1.5009
G01 X4.5801 Y-1.4912
G01 X4.5283 Y-1.4848
G01 X4.4656 Y-1.4801
G01 X4.4131 Y-1.4789
G01 X2.4131 Y-1.4789
G01 X2.3567 Y-1.4803
G01 X2.3009 Y-1.4844
G01 X2.2492 Y-1.4908
G01 X2.1901 Y-1.5009
G01 X2.1366 Y-1.5129
G01 X2.0853 Y-1.5271
G01 X2.0284 Y-1.5457
G01 X1.9772 Y-1.5655
G01 X1.9286 Y-1.5870
G01 X1.8752 Y-1.6137
G01 X1.8238 Y-1.6430
G01 X1.7790 Y-1.6714
G01 X1.7348 Y-1.7026
G01 X1.6893 Y-1.7380
G01 X1.6447 Y-1.7767
G01 X1.6062 Y-1.8134
G01 X1.5704 Y-1.8510
G01 X1.5312 Y-1.8962
G01 X1.4950 Y-1.9428
G01 X1.4646 Y-1.9861
G01 X1.4367 Y-2.0301
G01 X1.4073 Y-2.0816
G01 X1.3807 Y-2.1349
G01 X1.3596 Y-2.1825
G01 X1.3405 Y-2.2320
G01 X1.3215 Y-2.2890
G01 X1.3060 Y-2.3456
G01 X1.2944 Y-2.3974
G01 X1.2855 Y-2.4487
G01 X1.2781 Y-2.5072
G01 X1.2738 Y-2.5669
G01 X1.2726 Y-2.6200
G01 X1.2738 Y-2.6719
G01 X1.2780 Y-2.7306
G01 X1.2850 Y-2.7873
G01 X1.2952 Y-2.8453
G01 X1.3069 Y-2.8971
G01 X1.3208 Y-2.9474
G01 X1.3394 Y-3.0041
G01 X1.3608 Y-3.0590
G01 X1.3819 Y-3.1067
G01 X1.4057 Y-3.1540
G01 X1.4346 Y-3.2054
G01 X1.4668 Y-3.2559
G01 X1.4970 Y-3.2987
G01 X1.5295 Y-3.3404
G01 X1.5682 Y-3.3854
G01 X1.6091 Y-3.4283
G01 X1.6472 Y-3.4645
G01 X1.6869 Y-3.4988
G01 X1.7332 Y-3.5350
G01 X1.7821 Y-3.5694
G01 X1.8270 Y-3.5978
G01 X1.8725 Y-3.6236
G01 X1.9231 Y-3.6492
G00 Z3.0000
G00 X2.8115 Y-6.4113
G01 F80.00
G01 Z-0.0746
G01 F50.00
G01 X2.8115 Y-6.6713
G01 X2.3792 Y-6.6713
G01 X2.3634 Y-6.6734
G01 X2.3507 Y-6.6780
G01 X2.3414 Y-6.6833
G01 X2.3335 Y-6.6894
G01 X2.3266 Y-6.6966
G01 X2.3223 Y-6.7024
G01 X2.3187 Y-6.7085
G01 X2.3146 Y-6.7178
G01 X2.3119 Y-6.7273
G01 X2.3108 Y-6.7346
G01 X2.3105 Y-7.0223
G01 X2.0505 Y-7.0223
G01 X2.0505 Y-6.4113
G01 X2.8115 Y-6.4113
G01 X2.7415 Y-6.4813
G01 X2.7415 Y-6.6013
G01 X2.3719 Y-6.6016
G01 X2.3511 Y-6.6044
G01 X2.3290 Y-6.6111
G01 X2.3097 Y-6.6205
G01 X2.2931 Y-6.6320
G01 X2.2827 Y-6.6411
G01 X2.2738 Y-6.6507
G01 X2.2651 Y-6.6620
G01 X2.2594 Y-6.6710
G01 X2.2545 Y-6.6802
G01 X2.2492 Y-6.6928
G01 X2.2452 Y-6.7055
G01 X2.2423 Y-6.7188
G01 X2.2405 Y-6.7403
G01 X2.2405 Y-6.9523
G01 X2.1205 Y-6.9523
G01 X2.1205 Y-6.4813
G01 X2.7415 Y-6.4813
G01 X2.1905 Y-6.6519
G01 X2.1905 Y-6.5513
G01 X2.2911 Y-6.5513
G01 X2.2751 Y-6.5597
G01 X2.2605 Y-6.5690
G01 X2.2448 Y-6.5810
G01 X2.2309 Y-6.5939
G01 X2.2199 Y-6.6061
G01 X2.2080 Y-6.6216
G01 X2.1984 Y-6.6367
G01 X2.1905 Y-6.6519
G00 Z3.0000
G00 X2.2605 Y-8.3883
G01 F80.00
G01 Z-0.0746
G01 F50.00
G01 X2.2605 Y-8.2943
G01 X2.2904 Y-8.3064
G01 X2.3200 Y-8.3147
G01 X2.3503 Y-8.3196
G01 X2.3805 Y-8.3213
G01 X3.9840 Y-8.3213
G01 X4.0154 Y-8.3191
G01 X4.0442 Y-8.3139
G01 X4.0722 Y-8.3059
G01 X4.1005 Y-8.2943
G01 X4.1005 Y-8.3883
G01 X4.0722 Y-8.3767
G01 X4.0442 Y-8.3687
G01 X4.0154 Y-8.3635
G01 X3.9840 Y-8.3613
G01 X2.3805 Y-8.3613
G01 X2.3624 Y-8.3619
G01 X2.3428 Y-8.3639
G01 X2.3209 Y-8.3677
G01 X2.3008 Y-8.3729
G01 X2.2817 Y-8.3793
G01 X2.2605 Y-8.3883
G01 X2.1905 Y-8.5519
G01 X2.1905 Y-8.1307
G01 X2.1967 Y-8.1428
G01 X2.2050 Y-8.1565
G01 X2.2134 Y-8.1685
G01 X2.2233 Y-8.1805
G01 X2.2333 Y-8.1911
G01 X2.2448 Y-8.2016
G01 X2.2565 Y-8.2108
G01 X2.2692 Y-8.2194
G01 X2.2942 Y-8.2327
G01 X2.3084 Y-8.2385
G01 X2.3227 Y-8.2432
G01 X2.3373 Y-8.2468
G01 X2.3520 Y-8.2493
G01 X2.3805 Y-8.2513
G01 X3.9937 Y-8.2509
G01 X4.0090 Y-8.2493
G01 X4.0237 Y-8.2468
G01 X4.0494 Y-8.2396
G01 X4.0637 Y-8.2341
G01 X4.0762 Y-8.2282
G01 X4.0991 Y-8.2146
G01 X4.1201 Y-8.1981
G01 X4.1312 Y-8.1875
G01 X4.1409 Y-8.1768
G01 X4.1570 Y-8.1550
G01 X4.1705 Y-8.1307
G01 X4.1705 Y-8.5519
G01 X4.1643 Y-8.5398
G01 X4.1560 Y-8.5261
G01 X4.1476 Y-8.5141
G01 X4.1377 Y-8.5021
G01 X4.1277 Y-8.4915
G01 X4.1162 Y-8.4810
G01 X4.1045 Y-8.4718
G01 X4.0918 Y-8.4632
G01 X4.0668 Y-8.4499
G01 X4.0526 Y-8.4441
G01 X4.0383 Y-8.4394
G01 X4.0237 Y-8.4358
G01 X4.0090 Y-8.4333
G01 X3.9805 Y-8.4313
G01 X2.3673 Y-8.4317
G01 X2.3520 Y-8.4333
G01 X2.3373 Y-8.4358
G01 X2.3116 Y-8.4430
G01 X2.2973 Y-8.4485
G01 X2.2848 Y-8.4544
G01 X2.2619 Y-8.4680
G01 X2.2409 Y-8.4845
G01 X2.2298 Y-8.4951
G01 X2.2201 Y-8.5058
G01 X2.2040 Y-8.5276
G01 X2.1905 Y-8.5519
G00 Z3.0000
G00 X4.1905 Y-8.8211
G01 F80.00
G01 Z-0.0746
G01 F50.00
G01 X4.1908 Y-8.8218
G01 X4.1916 Y-8.8234
G01 X4.1905 Y-8.8234
G01 X4.1905 Y-8.8211
G00 Z3.0000
G00 X4.3105 Y-7.0223
G01 F80.00
G01 Z-0.0746
G01 F50.00
G01 X4.3105 Y-6.4113
G01 X3.5495 Y-6.4113
G01 X3.5495 Y-6.6713
G01 X3.9818 Y-6.6713
G01 X3.9976 Y-6.6734
G01 X4.0103 Y-6.6780
G01 X4.0196 Y-6.6833
G01 X4.0275 Y-6.6894
G01 X4.0344 Y-6.6966
G01 X4.0387 Y-6.7024
G01 X4.0423 Y-6.7085
G01 X4.0464 Y-6.7178
G01 X4.0491 Y-6.7273
G01 X4.0502 Y-6.7346
G01 X4.0505 Y-7.0223
G01 X4.3105 Y-7.0223
G01 X4.2405 Y-6.9523
G01 X4.2405 Y-6.4813
G01 X3.6195 Y-6.4813
G01 X3.6195 Y-6.6013
G01 X3.9891 Y-6.6016
G01 X4.0099 Y-6.6044
G01 X4.0290 Y-6.6100
G01 X4.0482 Y-6.6188
G01 X4.0653 Y-6.6300
G01 X4.0757 Y-6.6387
G01 X4.0851 Y-6.6482
G01 X4.0938 Y-6.6591
G01 X4.0998 Y-6.6680
G01 X4.1065 Y-6.6802
G01 X4.1118 Y-6.6928
G01 X4.1158 Y-6.7055
G01 X4.1187 Y-6.7188
G01 X4.1205 Y-6.7403
G01 X4.1205 Y-6.9523
G01 X4.2405 Y-6.9523
G01 X4.0699 Y-6.5513
G01 X4.0859 Y-6.5597
G01 X4.1005 Y-6.5690
G01 X4.1162 Y-6.5810
G01 X4.1301 Y-6.5939
G01 X4.1411 Y-6.6061
G01 X4.1530 Y-6.6216
G01 X4.1626 Y-6.6367
G01 X4.1705 Y-6.6519
G01 X4.1705 Y-6.5513
G01 X4.0699 Y-6.5513
G00 Z3.0000
G00 X7.0445 Y-8.3013
G01 F80.00
G01 Z-0.0746
G01 F50.00
G01 X7.0402 Y-8.2924
G01 X7.0343 Y-8.2837
G01 X7.0274 Y-8.2762
G01 X7.0197 Y-8.2699
G01 X7.0105 Y-8.2645
G01 X6.9731 Y-8.2465
G01 X6.9505 Y-8.2336
G01 X6.9285 Y-8.2197
G01 X6.9072 Y-8.2047
G01 X6.8867 Y-8.1887
G01 X6.8670 Y-8.1717
G01 X6.8481 Y-8.1538
G01 X6.8302 Y-8.1349
G01 X6.8132 Y-8.1152
G01 X6.7972 Y-8.0947
G01 X6.7822 Y-8.0734
G01 X6.7683 Y-8.0514
G01 X6.7554 Y-8.0288
G01 X6.7437 Y-8.0055
G01 X6.7332 Y-7.9817
G01 X6.7238 Y-7.9574
G01 X6.7157 Y-7.9327
G01 X6.7087 Y-7.9076
G01 X6.7030 Y-7.8823
G01 X6.6986 Y-7.8566
G01 X6.6954 Y-7.8308
G01 X6.6935 Y-7.8048
G01 X6.6928 Y-7.7779
G01 X6.6928 Y-6.8806
G01 X6.6920 Y-6.8704
G01 X6.6898 Y-6.8602
G01 X6.6863 Y-6.8511
G01 X6.6812 Y-6.8420
G01 X4.2695 Y-3.8733
G01 X4.2592 Y-3.8640
G01 X4.2471 Y-3.8567
G01 X4.2310 Y-3.8514
G01 X4.2173 Y-3.8501
G01 X2.4140 Y-3.8501
G01 X2.3527 Y-3.8485
G01 X2.2925 Y-3.8441
G01 X2.2325 Y-3.8367
G01 X2.1730 Y-3.8264
G01 X2.1141 Y-3.8131
G01 X2.0559 Y-3.7970
G01 X1.9985 Y-3.7781
G01 X1.9422 Y-3.7564
G01 X1.8869 Y-3.7319
G01 X1.8330 Y-3.7047
G01 X1.7804 Y-3.6749
G01 X1.7294 Y-3.6426
G01 X1.6800 Y-3.6079
G01 X1.6324 Y-3.5707
G01 X1.5867 Y-3.5312
G01 X1.5429 Y-3.4896
G01 X1.5013 Y-3.4458
G01 X1.4618 Y-3.4001
G01 X1.4246 Y-3.3525
G01 X1.3899 Y-3.3031
G01 X1.3576 Y-3.2521
G01 X1.3278 Y-3.1995
G01 X1.3006 Y-3.1456
G01 X1.2761 Y-3.0903
G01 X1.2544 Y-3.0340
G01 X1.2355 Y-2.9766
G01 X1.2194 Y-2.9184
G01 X1.2061 Y-2.8595
G01 X1.1958 Y-2.8000
G01 X1.1884 Y-2.7400
G01 X1.1840 Y-2.6798
G01 X1.1825 Y-2.6194
G01 X1.1840 Y-2.5590
G01 X1.1884 Y-2.4988
G01 X1.1958 Y-2.4388
G01 X1.2061 Y-2.3793
G01 X1.2194 Y-2.3204
G01 X1.2355 Y-2.2622
G01 X1.2544 Y-2.2048
G01 X1.2761 Y-2.1485
G01 X1.3006 Y-2.0932
G01 X1.3278 Y-2.0393
G01 X1.3576 Y-1.9867
G01 X1.3899 Y-1.9357
G01 X1.4246 Y-1.8863
G01 X1.4618 Y-1.8387
G01 X1.5013 Y-1.7930
G01 X1.5429 Y-1.7492
G01 X1.5867 Y-1.7076
G01 X1.6324 Y-1.6681
G01 X1.6800 Y-1.6309
G01 X1.7294 Y-1.5962
G01 X1.7804 Y-1.5639
G01 X1.8330 Y-1.5341
G01 X1.8869 Y-1.5069
G01 X1.9422 Y-1.4824
G01 X1.9985 Y-1.4607
G01 X2.0559 Y-1.4418
G01 X2.1141 Y-1.4257
G01 X2.1730 Y-1.4124
G01 X2.2325 Y-1.4021
G01 X2.2925 Y-1.3947
G01 X2.3527 Y-1.3903
G01 X2.4140 Y-1.3887
G01 X4.4122 Y-1.3887
G01 X4.4735 Y-1.3903
G01 X4.5337 Y-1.3947
G01 X4.5937 Y-1.4021
G01 X4.6532 Y-1.4124
G01 X4.7121 Y-1.4257
G01 X4.7703 Y-1.4418
G01 X4.8277 Y-1.4607
G01 X4.8840 Y-1.4824
G01 X4.9393 Y-1.5069
G01 X4.9932 Y-1.5341
G01 X5.0458 Y-1.5639
G01 X5.0968 Y-1.5962
G01 X5.1462 Y-1.6309
G01 X5.1938 Y-1.6681
G01 X5.2395 Y-1.7076
G01 X5.2833 Y-1.7492
G01 X5.3249 Y-1.7930
G01 X5.3644 Y-1.8387
G01 X5.4016 Y-1.8863
G01 X5.4363 Y-1.9357
G01 X5.4686 Y-1.9867
G01 X5.4984 Y-2.0393
G01 X5.5256 Y-2.0932
G01 X5.5501 Y-2.1485
G01 X5.5718 Y-2.2048
G01 X5.5907 Y-2.2622
G01 X5.6068 Y-2.3204
G01 X5.6201 Y-2.3793
G01 X5.6304 Y-2.4388
G01 X5.6378 Y-2.4988
G01 X5.6422 Y-2.5590
G01 X5.6437 Y-2.6194
G01 X5.6422 Y-2.6798
G01 X5.6378 Y-2.7400
G01 X5.6304 Y-2.8000
G01 X5.6201 Y-2.8595
G01 X5.6068 Y-2.9184
G01 X5.5907 Y-2.9766
G01 X5.5718 Y-3.0340
G01 X5.5501 Y-3.0903
G01 X5.5256 Y-3.1456
G01 X5.4984 Y-3.1995
G01 X5.4686 Y-3.2521
G01 X5.4363 Y-3.3031
G01 X5.4016 Y-3.3525
G01 X5.3644 Y-3.4001
G01 X5.3424 Y-3.4257
G01 X5.3381 Y-3.4318
G01 X5.3335 Y-3.4406
G01 X5.3310 Y-3.4472
G01 X5.3286 Y-3.4569
G01 X5.3277 Y-3.4644
G01 X5.3279 Y-3.4747
G01 X5.3295 Y-3.4850
G01 X5.3315 Y-3.4918
G01 X5.3356 Y-3.5013
G01 X5.3391 Y-3.5072
G01 X6.8731 Y-5.3957
G01 X6.8801 Y-5.4032
G01 X6.8859 Y-5.4080
G01 X6.8945 Y-5.4134
G01 X6.9078 Y-5.4188
G01 X6.9175 Y-5.4209
G01 X6.9249 Y-5.4215
G01 X6.9391 Y-5.4206
G01 X6.9492 Y-5.4181
G01 X6.9557 Y-5.4156
G01 X6.9964 Y-5.3944
G01 X7.0202 Y-5.3839
G01 X7.0445 Y-5.3745
G01 X7.0692 Y-5.3664
G01 X7.0943 Y-5.3594
G01 X7.1196 Y-5.3537
G01 X7.1453 Y-5.3493
G01 X7.1711 Y-5.3461
G01 X7.1971 Y-5.3442
G01 X7.2231 Y-5.3435
G01 X7.2491 Y-5.3442
G01 X7.2751 Y-5.3461
G01 X7.3009 Y-5.3493
G01 X7.3266 Y-5.3537
G01 X7.3519 Y-5.3594
G01 X7.3770 Y-5.3664
G01 X7.4017 Y-5.3745
G01 X7.4260 Y-5.3839
G01 X7.4591 Y-5.3990
G01 X7.4683 Y-5.4023
G01 X7.4818 Y-5.4047
G01 X7.4956 Y-5.4044
G01 X7.5084 Y-5.4016
G01 X7.5181 Y-5.3978
G01 X7.5269 Y-5.3926
G01 X7.5373 Y-5.3839
G01 X7.5457 Y-5.3734
G01 X7.5508 Y-5.3644
G01 X7.5553 Y-5.3516
G01 X7.5569 Y-5.3417
G01 X7.5573 Y-4.7488
G01 X7.5565 Y-4.7387
G01 X7.5551 Y-4.7317
G01 X7.5520 Y-4.7221
G01 X7.5473 Y-4.7128
G01 X7.5433 Y-4.7068
G01 X7.5368 Y-4.6993
G01 X7.5293 Y-4.6928
G01 X7.5233 Y-4.6888
G01 X7.5139 Y-4.6841
G01 X7.5044 Y-4.6809
G01 X7.4974 Y-4.6795
G01 X7.4873 Y-4.6788
G01 X7.3312 Y-4.6788
G01 X7.3312 Y-0.8188
G01 X11.7137 Y-0.8188
G01 X11.7137 Y-3.3298
G01 X11.4537 Y-3.3298
G01 X11.4537 Y-3.0488
G01 X11.4530 Y-3.0387
G01 X11.4507 Y-3.0285
G01 X11.4470 Y-3.0190
G01 X11.4417 Y-3.0097
G01 X11.4356 Y-3.0018
G01 X11.4285 Y-2.9950
G01 X11.4196 Y-2.9887
G01 X11.4073 Y-2.9829
G01 X11.3974 Y-2.9801
G01 X11.3837 Y-2.9788
G01 X9.9837 Y-2.9788
G01 X9.9734 Y-2.9796
G01 X9.9601 Y-2.9829
G01 X9.9478 Y-2.9887
G01 X9.9389 Y-2.9950
G01 X9.9295 Y-3.0045
G01 X9.9237 Y-3.0127
G01 X9.9190 Y-3.0221
G01 X9.9151 Y-3.0349
G01 X9.9137 Y-3.0488
G01 X9.9137 Y-3.3298
G01 X9.5303 Y-3.3299
G01 X9.5167 Y-3.3319
G01 X9.5038 Y-3.3365
G01 X9.4918 Y-3.3437
G01 X9.4818 Y-3.3528
G01 X9.4737 Y-3.3637
G01 X9.4690 Y-3.3731
G01 X9.4651 Y-3.3859
G01 X9.4637 Y-3.3998
G01 X9.4637 Y-3.9978
G01 X9.4644 Y-4.0079
G01 X9.4658 Y-4.0149
G01 X9.4690 Y-4.0245
G01 X9.4737 Y-4.0339
G01 X9.4795 Y-4.0421
G01 X9.4842 Y-4.0473
G01 X9.4948 Y-4.0560
G01 X9.5009 Y-4.0596
G01 X9.5101 Y-4.0637
G01 X9.5167 Y-4.0657
G01 X9.5267 Y-4.0675
G01 X9.9137 Y-4.0678
G01 X9.9137 Y-4.3513
G01 X9.9144 Y-4.3590
G01 X9.9167 Y-4.3690
G01 X9.9204 Y-4.3787
G01 X9.9257 Y-4.3879
G01 X9.9365 Y-4.4005
G01 X9.9477 Y-4.4088
G01 X9.9602 Y-4.4147
G01 X9.9767 Y-4.4185
G01 X10.3147 Y-4.4188
G01 X10.3147 Y-4.6788
G01 X8.4962 Y-4.6788
G01 X8.4813 Y-4.6746
G01 X8.4601 Y-4.6706
G01 X8.4403 Y-4.6687
G01 X8.4196 Y-4.6687
G01 X8.3972 Y-4.6708
G01 X8.3760 Y-4.6750
G01 X8.3553 Y-4.6813
G01 X8.3354 Y-4.6896
G01 X8.3163 Y-4.6997
G01 X8.2984 Y-4.7117
G01 X8.2817 Y-4.7255
G01 X8.2664 Y-4.7407
G01 X8.2527 Y-4.7574
G01 X8.2416 Y-4.7739
G01 X8.2346 Y-4.7863
G01 X8.2255 Y-4.8059
G01 X8.2188 Y-4.8251
G01 X8.2136 Y-4.8456
G01 X8.2105 Y-4.8670
G01 X8.2094 Y-4.8877
G01 X8.2095 Y-8.3013
G01 X7.3187 Y-8.3013
G01 X7.2751 Y-8.3065
G01 X7.2491 Y-8.3084
G01 X7.2231 Y-8.3091
G01 X7.1971 Y-8.3084
G01 X7.1711 Y-8.3065
G01 X7.1304 Y-8.3014
G01 X7.0445 Y-8.3013
G00 Z3.0000
G00 X9.2096 Y-8.0747
G01 F80.00
G01 Z-0.0746
G01 F50.00
G01 X9.2109 Y-8.0853
G01 X9.2148 Y-8.0980
G01 X9.2197 Y-8.1076
G01 X9.2275 Y-8.1182
G01 X9.2375 Y-8.1273
G01 X9.2467 Y-8.1331
G01 X9.2593 Y-8.1383
G01 X9.2693 Y-8.1406
G01 X9.2795 Y-8.1413
G01 X9.5795 Y-8.1413
G01 X9.5897 Y-8.1406
G01 X9.5979 Y-8.1388
G01 X9.6298 Y-8.1450
G01 X9.6655 Y-8.1485
G01 X9.7019 Y-8.1485
G01 X9.7380 Y-8.1449
G01 X9.7753 Y-8.1374
G01 X9.7928 Y-8.1325
G01 X9.8238 Y-8.1214
G01 X9.8582 Y-8.1052
G01 X9.8908 Y-8.0856
G01 X9.9056 Y-8.0751
G01 X9.9310 Y-8.0542
G01 X9.9580 Y-8.0274
G01 X9.9820 Y-7.9979
G01 X9.9924 Y-7.9830
G01 X10.0093 Y-7.9548
G01 X10.0257 Y-7.9205
G01 X10.0384 Y-7.8846
G01 X10.0432 Y-7.8671
G01 X10.0496 Y-7.8348
G01 X10.0521 Y-7.8151
G01 X10.0535 Y-7.7952
G01 X10.0539 Y-6.5470
G01 X13.3695 Y-5.5645
G01 X13.4099 Y-5.6032
G01 X13.4497 Y-5.6375
G01 X13.4911 Y-5.6698
G01 X13.5341 Y-5.7001
G01 X13.5785 Y-5.7282
G01 X13.6242 Y-5.7541
G01 X13.6711 Y-5.7777
G01 X13.7191 Y-5.7990
G01 X13.7682 Y-5.8179
G01 X13.8181 Y-5.8344
G01 X13.8687 Y-5.8484
G01 X13.9200 Y-5.8599
G01 X13.9717 Y-5.8689
G01 X14.0239 Y-5.8753
G01 X14.0763 Y-5.8792
G01 X14.1305 Y-5.8805
G01 X14.1813 Y-5.8792
G01 X14.2337 Y-5.8753
G01 X14.2859 Y-5.8689
G01 X14.3376 Y-5.8599
G01 X14.3889 Y-5.8484
G01 X14.4395 Y-5.8344
G01 X14.4894 Y-5.8179
G01 X14.5400 Y-5.7983
G01 X14.5865 Y-5.7777
G01 X14.6334 Y-5.7541
G01 X14.6791 Y-5.7282
G01 X14.7250 Y-5.6991
G01 X14.7665 Y-5.6698
G01 X14.8092 Y-5.6364
G01 X14.8490 Y-5.6020
G01 X14.8858 Y-5.5670
G01 X14.9208 Y-5.5302
G01 X14.9574 Y-5.4878
G01 X14.9886 Y-5.4477
G01 X15.0189 Y-5.4047
G01 X15.0470 Y-5.3603
G01 X15.0721 Y-5.3161
G01 X15.0972 Y-5.2661
G01 X15.1178 Y-5.2197
G01 X15.1367 Y-5.1706
G01 X15.1532 Y-5.1208
G01 X15.1668 Y-5.0718
G01 X15.1790 Y-5.0172
G01 X15.1877 Y-4.9671
G01 X15.1941 Y-4.9149
G01 X15.1980 Y-4.8625
G01 X15.1993 Y-4.8100
G01 X15.1993 Y-2.8083
G01 X15.1980 Y-2.7575
G01 X15.1941 Y-2.7051
G01 X15.1877 Y-2.6529
G01 X15.1784 Y-2.5995
G01 X15.1668 Y-2.5482
G01 X15.1532 Y-2.4992
G01 X15.1373 Y-2.4510
G01 X15.1178 Y-2.4003
G01 X15.0972 Y-2.3539
G01 X15.0729 Y-2.3054
G01 X15.0470 Y-2.2597
G01 X15.0189 Y-2.2153
G01 X14.9886 Y-2.1723
G01 X14.9563 Y-2.1309
G01 X14.9220 Y-2.0911
G01 X14.8858 Y-2.0530
G01 X14.8482 Y-2.0173
G01 X14.8079 Y-1.9825
G01 X14.7665 Y-1.9502
G01 X14.7235 Y-1.9199
G01 X14.6777 Y-1.8909
G01 X14.6334 Y-1.8659
G01 X14.5880 Y-1.8430
G01 X14.5400 Y-1.8217
G01 X14.4894 Y-1.8021
G01 X14.4396 Y-1.7856
G01 X14.3889 Y-1.7716
G01 X14.3376 Y-1.7601
G01 X14.2859 Y-1.7511
G01 X14.2320 Y-1.7445
G01 X14.1796 Y-1.7407
G01 X14.1288 Y-1.7395
G01 X14.0780 Y-1.7407
G01 X14.0239 Y-1.7447
G01 X13.9717 Y-1.7511
G01 X13.9200 Y-1.7601
G01 X13.8670 Y-1.7720
G01 X13.8164 Y-1.7861
G01 X13.7682 Y-1.8021
G01 X13.7207 Y-1.8203
G01 X13.6711 Y-1.8423
G01 X13.6242 Y-1.8659
G01 X13.5785 Y-1.8918
G01 X13.5341 Y-1.9199
G01 X13.4911 Y-1.9502
G01 X13.4497 Y-1.9825
G01 X13.4099 Y-2.0168
G01 X13.3706 Y-2.0543
G01 X13.3356 Y-2.0911
G01 X13.3024 Y-2.1296
G01 X13.2700 Y-2.1709
G01 X13.2387 Y-2.2153
G01 X13.2115 Y-2.2582
G01 X13.1847 Y-2.3054
G01 X13.1604 Y-2.3539
G01 X13.1398 Y-2.4003
G01 X13.1215 Y-2.4477
G01 X13.1044 Y-2.4992
G01 X13.0904 Y-2.5499
G01 X13.0786 Y-2.6028
G01 X13.0699 Y-2.6529
G01 X13.0636 Y-2.7034
G01 X13.0596 Y-2.7575
G01 X13.0583 Y-2.8100
G01 X13.0583 Y-4.8100
G01 X13.0596 Y-4.8625
G01 X13.0611 Y-4.8838
G01 X9.5763 Y-5.9164
G01 X9.5405 Y-5.9293
G01 X9.5129 Y-5.9423
G01 X9.4958 Y-5.9517
G01 X9.4800 Y-5.9615
G01 X9.4632 Y-5.9733
G01 X9.4489 Y-5.9845
G01 X9.4299 Y-6.0013
G01 X9.2725 Y-6.0016
G01 X9.2593 Y-6.0043
G01 X9.2495 Y-6.0081
G01 X9.2377 Y-6.0152
G01 X9.2275 Y-6.0244
G01 X9.2196 Y-6.0352
G01 X9.2148 Y-6.0446
G01 X9.2109 Y-6.0573
G01 X9.2095 Y-6.0713
G01 X9.2096 Y-8.0747
G00 Z3.0000
G00 X9.3506 Y-4.5388
G01 F80.00
G01 Z-0.0746
G01 F50.00
G01 X9.8943 Y-4.5388
G01 X9.8770 Y-4.5296
G01 X9.8598 Y-4.5183
G01 X9.8433 Y-4.5049
G01 X9.8290 Y-4.4908
G01 X9.8160 Y-4.4751
G01 X9.8048 Y-4.4587
G01 X9.7946 Y-4.4401
G01 X9.7864 Y-4.4208
G01 X9.7818 Y-4.4064
G01 X9.7782 Y-4.3921
G01 X9.7757 Y-4.3774
G01 X9.7741 Y-4.3611
G01 X9.7737 Y-4.2078
G01 X9.5274 Y-4.2077
G01 X9.4994 Y-4.2050
G01 X9.4960 Y-4.2044
G01 X9.4944 Y-4.2041
G01 X9.4910 Y-4.2034
G01 X9.4844 Y-4.2019
G01 X9.4712 Y-4.1983
G01 X9.4709 Y-4.3592
G01 X9.4695 Y-4.3755
G01 X9.4674 Y-4.3887
G01 X9.4640 Y-4.4033
G01 X9.4596 Y-4.4176
G01 X9.4518 Y-4.4369
G01 X9.4428 Y-4.4542
G01 X9.4317 Y-4.4713
G01 X9.4183 Y-4.4882
G01 X9.4040 Y-4.5028
G01 X9.3881 Y-4.5161
G01 X9.3706 Y-4.5280
G01 X9.3506 Y-4.5388
G01 X9.5142 Y-4.4688
G01 X9.7307 Y-4.4688
G01 X9.7217 Y-4.4475
G01 X9.7152 Y-4.4283
G01 X9.7102 Y-4.4086
G01 X9.7064 Y-4.3876
G01 X9.7038 Y-4.3564
G01 X9.7037 Y-4.2778
G01 X9.5412 Y-4.2778
G01 X9.5412 Y-4.3488
G01 X9.5411 Y-4.3564
G01 X9.5385 Y-4.3876
G01 X9.5347 Y-4.4086
G01 X9.5297 Y-4.4283
G01 X9.5232 Y-4.4475
G01 X9.5142 Y-4.4688
G01 X9.6076 Y-4.3988
G01 X9.6373 Y-4.3988
G01 X9.6347 Y-4.3747
G01 X9.6337 Y-4.3478
G01 X9.6112 Y-4.3478
G01 X9.6102 Y-4.3747
G01 X9.6076 Y-4.3988
G01 X9.4012 Y-4.0430
G01 X9.4012 Y-4.3488
G01 X9.3994 Y-4.3710
G01 X9.3965 Y-4.3846
G01 X9.3913 Y-4.4005
G01 X9.3854 Y-4.4134
G01 X9.3764 Y-4.4283
G01 X9.3663 Y-4.4413
G01 X9.3544 Y-4.4532
G01 X9.3433 Y-4.4622
G01 X9.3292 Y-4.4712
G01 X9.3129 Y-4.4789
G01 X9.2970 Y-4.4841
G01 X9.2804 Y-4.4875
G01 X9.2631 Y-4.4888
G01 X8.2276 Y-4.4888
G01 X8.2276 Y-4.6803
G01 X8.2463 Y-4.6636
G01 X8.2690 Y-4.6469
G01 X8.2920 Y-4.6331
G01 X8.3170 Y-4.6212
G01 X8.3444 Y-4.6112
G01 X8.3695 Y-4.6047
G01 X8.3903 Y-4.6011
G01 X8.4175 Y-4.5987
G01 X8.4414 Y-4.5987
G01 X8.4597 Y-4.6000
G01 X8.4854 Y-4.6039
G01 X8.5062 Y-4.6088
G01 X10.2447 Y-4.6088
G01 X10.2447 Y-4.4888
G01 X9.9831 Y-4.4888
G01 X9.9645 Y-4.4875
G01 X9.9510 Y-4.4849
G01 X9.9384 Y-4.4812
G01 X9.9253 Y-4.4760
G01 X9.9157 Y-4.4712
G01 X9.9048 Y-4.4644
G01 X9.8956 Y-4.4576
G01 X9.8858 Y-4.4489
G01 X9.8763 Y-4.4386
G01 X9.8647 Y-4.4226
G01 X9.8549 Y-4.4037
G01 X9.8484 Y-4.3846
G01 X9.8445 Y-4.3634
G01 X9.8437 Y-4.3488
G01 X9.8437 Y-4.1378
G01 X9.5328 Y-4.1378
G01 X9.5181 Y-4.1369
G01 X9.5047 Y-4.1348
G01 X9.4882 Y-4.1302
G01 X9.4724 Y-4.1237
G01 X9.4574 Y-4.1152
G01 X9.4429 Y-4.1043
G01 X9.4288 Y-4.0905
G01 X9.4265 Y-4.0878
G01 X9.4244 Y-4.0852
G01 X9.4185 Y-4.0774
G01 X9.4094 Y-4.0621
G01 X9.4024 Y-4.0464
G01 X9.4012 Y-4.0430
G01 X9.4414 Y-2.7488
G01 X9.4607 Y-2.7612
G01 X9.4795 Y-2.7753
G01 X9.4957 Y-2.7890
G01 X9.5124 Y-2.8051
G01 X9.5278 Y-2.8221
G01 X9.5410 Y-2.8386
G01 X9.5545 Y-2.8578
G01 X9.5665 Y-2.8778
G01 X9.5765 Y-2.8969
G01 X9.5859 Y-2.9182
G01 X9.5930 Y-2.9376
G01 X9.5998 Y-2.9603
G01 X9.6049 Y-2.9828
G01 X9.6083 Y-3.0043
G01 X9.6106 Y-3.0277
G01 X9.6112 Y-3.0498
G01 X9.6337 Y-3.0498
G01 X9.6345 Y-3.0258
G01 X9.6371 Y-3.0005
G01 X9.6417 Y-2.9745
G01 X9.6478 Y-2.9504
G01 X9.6559 Y-2.9261
G01 X9.6656 Y-2.9028
G01 X9.6766 Y-2.8809
G01 X9.6895 Y-2.8592
G01 X9.7000 Y-2.8439
G01 X9.7120 Y-2.8282
G01 X9.7257 Y-2.8123
G01 X9.7399 Y-2.7977
G01 X9.7551 Y-2.7838
G01 X9.7697 Y-2.7718
G01 X9.7865 Y-2.7597
G01 X9.8035 Y-2.7488
G01 X9.7842 Y-2.7364
G01 X9.7654 Y-2.7223
G01 X9.7492 Y-2.7086
G01 X9.7325 Y-2.6925
G01 X9.7171 Y-2.6755
G01 X9.7039 Y-2.6590
G01 X9.6904 Y-2.6398
G01 X9.6784 Y-2.6198
G01 X9.6684 Y-2.6007
G01 X9.6590 Y-2.5794
G01 X9.6519 Y-2.5600
G01 X9.6451 Y-2.5373
G01 X9.6400 Y-2.5148
G01 X9.6366 Y-2.4933
G01 X9.6344 Y-2.4708
G01 X9.6337 Y-2.4490
G01 X9.6112 Y-2.4490
G01 X9.6102 Y-2.4747
G01 X9.6078 Y-2.4976
G01 X9.6032 Y-2.5231
G01 X9.5969 Y-2.5476
G01 X9.5890 Y-2.5715
G01 X9.5793 Y-2.5948
G01 X9.5683 Y-2.6167
G01 X9.5554 Y-2.6384
G01 X9.5449 Y-2.6537
G01 X9.5329 Y-2.6694
G01 X9.5192 Y-2.6853
G01 X9.5050 Y-2.6999
G01 X9.4898 Y-2.7138
G01 X9.4752 Y-2.7258
G01 X9.4584 Y-2.7379
G01 X9.4414 Y-2.7488
G01 X9.5551 Y-2.7488
G01 X9.5742 Y-2.7687
G01 X9.5911 Y-2.7889
G01 X9.6074 Y-2.8111
G01 X9.6225 Y-2.8346
G01 X9.6375 Y-2.8111
G01 X9.6538 Y-2.7889
G01 X9.6707 Y-2.7687
G01 X9.6898 Y-2.7488
G01 X9.6707 Y-2.7289
G01 X9.6538 Y-2.7087
G01 X9.6375 Y-2.6865
G01 X9.6225 Y-2.6630
G01 X9.6074 Y-2.6865
G01 X9.5911 Y-2.7087
G01 X9.5742 Y-2.7289
G01 X9.5551 Y-2.7488
G00 Z3.0000
G00 X9.5142 Y-1.0288
G01 F80.00
G01 Z-0.0746
G01 F50.00
G01 X9.7307 Y-1.0288
G01 X9.7258 Y-1.0398
G01 X9.7255 Y-1.0405
G01 X9.7242 Y-1.0437
G01 X9.7239 Y-1.0445
G01 X9.7217 Y-1.0501
G01 X9.7153 Y-1.0692
G01 X9.7101 Y-1.0891
G01 X9.7064 Y-1.1101
G01 X9.7038 Y-1.1412
G01 X9.7037 Y-1.2186
G01 X9.5412 Y-1.2186
G01 X9.5411 Y-1.1412
G01 X9.5385 Y-1.1101
G01 X9.5348 Y-1.0891
G01 X9.5296 Y-1.0692
G01 X9.5232 Y-1.0501
G01 X9.5142 Y-1.0288
G01 X9.6076 Y-1.0988
G01 X9.6373 Y-1.0988
G01 X9.6347 Y-1.1229
G01 X9.6337 Y-1.1486
G01 X9.6112 Y-1.1486
G01 X9.6102 Y-1.1229
G01 X9.6076 Y-1.0988
G01 X9.8943 Y-0.9588
G01 X9.8775 Y-0.9676
G01 X9.8594 Y-0.9795
G01 X9.8432 Y-0.9928
G01 X9.8292 Y-1.0066
G01 X9.8164 Y-1.0219
G01 X9.8048 Y-1.0389
G01 X9.7945 Y-1.0577
G01 X9.7865 Y-1.0767
G01 X9.7818 Y-1.0911
G01 X9.7782 Y-1.1055
G01 X9.7757 Y-1.1202
G01 X9.7741 Y-1.1365
G01 X9.7737 Y-1.2886
G01 X9.4712 Y-1.2886
G01 X9.4708 Y-1.1365
G01 X9.4692 Y-1.1202
G01 X9.4667 Y-1.1055
G01 X9.4631 Y-1.0911
G01 X9.4584 Y-1.0767
G01 X9.4504 Y-1.0577
G01 X9.4401 Y-1.0389
G01 X9.4285 Y-1.0219
G01 X9.4157 Y-1.0066
G01 X9.4017 Y-0.9928
G01 X9.3855 Y-0.9795
G01 X9.3674 Y-0.9676
G01 X9.3506 Y-0.9588
G01 X9.8943 Y-0.9588
G00 Z3.0000
G00 X11.5737 Y-1.0594
G01 F80.00
G01 Z-0.0746
G01 F50.00
G01 X11.5654 Y-1.0436
G01 X11.5558 Y-1.0285
G01 X11.5438 Y-1.0130
G01 X11.5313 Y-0.9994
G01 X11.5166 Y-0.9862
G01 X11.5034 Y-0.9763
G01 X11.4883 Y-0.9667
G01 X11.4731 Y-0.9588
G01 X11.5737 Y-0.9588
G01 X11.5737 Y-1.0594
G00 Z3.0000
G00 X11.4731 Y-4.5388
G01 F80.00
G01 Z-0.0746
G01 F50.00
G01 X11.5737 Y-4.5388
G01 X11.5737 Y-4.4382
G01 X11.5644 Y-4.4557
G01 X11.5542 Y-4.4713
G01 X11.5443 Y-4.4841
G01 X11.5311 Y-4.4983
G01 X11.5165 Y-4.5114
G01 X11.5029 Y-4.5217
G01 X11.4891 Y-4.5304
G01 X11.4731 Y-4.5388
G01 X11.1227 Y-4.6088
G01 X11.6437 Y-4.6088
G01 X11.6437 Y-4.1378
G01 X11.5237 Y-4.1378
G01 X11.5237 Y-4.3488
G01 X11.5225 Y-4.3672
G01 X11.5205 Y-4.3783
G01 X11.5172 Y-4.3909
G01 X11.5125 Y-4.4037
G01 X11.5079 Y-4.4134
G01 X11.4952 Y-4.4335
G01 X11.4793 Y-4.4511
G01 X11.4626 Y-4.4644
G01 X11.4421 Y-4.4760
G01 X11.4226 Y-4.4833
G01 X11.3994 Y-4.4879
G01 X11.3837 Y-4.4888
G01 X11.1227 Y-4.4888
G01 X11.1227 Y-4.6088
G01 X11.0527 Y-4.6788
G01 X11.7137 Y-4.6788
G01 X11.7137 Y-4.0678
G01 X11.4537 Y-4.0678
G01 X11.4534 Y-4.3551
G01 X11.4523 Y-4.3628
G01 X11.4496 Y-4.3723
G01 X11.4454 Y-4.3819
G01 X11.4417 Y-4.3879
G01 X11.4309 Y-4.4005
G01 X11.4255 Y-4.4049
G01 X11.4170 Y-4.4104
G01 X11.4104 Y-4.4135
G01 X11.4008 Y-4.4167
G01 X11.3849 Y-4.4188
G01 X11.0527 Y-4.4188
G01 X11.0527 Y-4.6788
G00 Z3.0000
G00 X7.5913 Y-4.3522
G01 F80.00
G01 Z-0.0746
G01 F50.00
G01 X7.5920 Y-4.3593
G01 X7.5942 Y-4.3690
G01 X7.5978 Y-4.3786
G01 X7.6012 Y-4.3848
G01 X7.6072 Y-4.3933
G01 X7.6141 Y-4.4006
G01 X7.6221 Y-4.4068
G01 X7.6284 Y-4.4106
G01 X7.6410 Y-4.4158
G01 X7.6542 Y-4.4185
G01 X7.7174 Y-4.4188
G01 X7.7174 Y-6.0390
G01 X7.7116 Y-6.0542
G01 X7.7098 Y-6.0643
G01 X7.7095 Y-6.0713
G01 X7.7095 Y-8.0713
G01 X7.7103 Y-8.0818
G01 X7.7125 Y-8.0915
G01 X7.7163 Y-8.1013
G01 X7.7234 Y-8.1131
G01 X7.7300 Y-8.1208
G01 X7.7404 Y-8.1293
G01 X7.7496 Y-8.1346
G01 X7.7593 Y-8.1383
G01 X7.7693 Y-8.1406
G01 X7.7795 Y-8.1413
G01 X8.0795 Y-8.1413
G01 X8.0897 Y-8.1406
G01 X8.0997 Y-8.1383
G01 X8.1123 Y-8.1331
G01 X8.1215 Y-8.1273
G01 X8.1315 Y-8.1182
G01 X8.1393 Y-8.1076
G01 X8.1442 Y-8.0980
G01 X8.1481 Y-8.0853
G01 X8.1495 Y-8.0738
G01 X8.1495 Y-7.1233
G01 X8.1552 Y-7.0967
G01 X8.1572 Y-7.0769
G01 X8.1576 Y-7.0644
G01 X8.1576 Y-4.4188
G01 X9.2624 Y-4.4188
G01 X9.2783 Y-4.4167
G01 X9.2912 Y-4.4120
G01 X9.3030 Y-4.4049
G01 X9.3107 Y-4.3983
G01 X9.3155 Y-4.3930
G01 X9.3229 Y-4.3819
G01 X9.3271 Y-4.3723
G01 X9.3305 Y-4.3590
G01 X9.3312 Y-4.3488
G01 X9.3312 Y-3.0488
G01 X9.3298 Y-3.0349
G01 X9.3259 Y-3.0221
G01 X9.3212 Y-3.0127
G01 X9.3131 Y-3.0018
G01 X9.3060 Y-2.9950
G01 X9.3001 Y-2.9906
G01 X9.2881 Y-2.9842
G01 X9.2749 Y-2.9801
G01 X9.2612 Y-2.9788
G01 X7.6612 Y-2.9788
G01 X7.6472 Y-2.9802
G01 X7.6345 Y-2.9841
G01 X7.6223 Y-2.9906
G01 X7.6141 Y-2.9971
G01 X7.6050 Y-3.0070
G01 X7.5979 Y-3.0190
G01 X7.5933 Y-3.0317
G01 X7.5912 Y-3.0475
G01 X7.5913 Y-4.3522
G01 X7.5774 Y-4.5592
G01 X7.5514 Y-4.5488
G01 X7.5264 Y-4.5425
G01 X7.5019 Y-4.5393
G01 X7.4712 Y-4.5388
G01 X7.4712 Y-4.4382
G01 X7.4802 Y-4.4553
G01 X7.4909 Y-4.4717
G01 X7.5035 Y-4.4874
G01 X7.5151 Y-4.4997
G01 X7.5303 Y-4.5130
G01 X7.5454 Y-4.5240
G01 X7.5611 Y-4.5334
G01 X7.5774 Y-4.5413
G01 X7.5774 Y-4.5592
G00 Z3.0000
G00 X7.4712 Y-2.9594
G01 F80.00
G01 Z-0.0746
G01 F50.00
G01 X7.4712 Y-2.5382
G01 X7.4851 Y-2.5632
G01 X7.5009 Y-2.5845
G01 X7.5210 Y-2.6051
G01 X7.5260 Y-2.6094
G01 X7.5299 Y-2.6127
G01 X7.5328 Y-2.6149
G01 X7.5430 Y-2.6224
G01 X7.5658 Y-2.6359
G01 X7.5924 Y-2.6472
G01 X7.6067 Y-2.6516
G01 X7.6212 Y-2.6549
G01 X7.6477 Y-2.6584
G01 X9.2612 Y-2.6588
G01 X9.2855 Y-2.6574
G01 X9.3105 Y-2.6529
G01 X9.3354 Y-2.6453
G01 X9.3582 Y-2.6350
G01 X9.3795 Y-2.6223
G01 X9.4004 Y-2.6060
G01 X9.4180 Y-2.5884
G01 X9.4335 Y-2.5688
G01 X9.4473 Y-2.5461
G01 X9.4560 Y-2.5272
G01 X9.4626 Y-2.5082
G01 X9.4674 Y-2.4885
G01 X9.4701 Y-2.4699
G01 X9.4712 Y-2.4494
G01 X9.4712 Y-2.3090
G01 X9.7737 Y-2.3090
G01 X9.7737 Y-2.4494
G01 X9.7750 Y-2.4716
G01 X9.7782 Y-2.4920
G01 X9.7833 Y-2.5114
G01 X9.7902 Y-2.5304
G01 X9.7993 Y-2.5492
G01 X9.8114 Y-2.5688
G01 X9.8269 Y-2.5884
G01 X9.8445 Y-2.6060
G01 X9.8654 Y-2.6223
G01 X9.8882 Y-2.6358
G01 X9.9112 Y-2.6459
G01 X9.9361 Y-2.6533
G01 X9.9612 Y-2.6576
G01 X9.9837 Y-2.6588
G01 X11.3975 Y-2.6583
G01 X11.4113 Y-2.6570
G01 X11.4264 Y-2.6544
G01 X11.4528 Y-2.6471
G01 X11.4792 Y-2.6358
G01 X11.5020 Y-2.6223
G01 X11.5241 Y-2.6049
G01 X11.5440 Y-2.5845
G01 X11.5598 Y-2.5631
G01 X11.5737 Y-2.5382
G01 X11.5737 Y-2.9594
G01 X11.5598 Y-2.9345
G01 X11.5440 Y-2.9131
G01 X11.5241 Y-2.8927
G01 X11.5020 Y-2.8753
G01 X11.4792 Y-2.8618
G01 X11.4528 Y-2.8505
G01 X11.4264 Y-2.8432
G01 X11.4113 Y-2.8406
G01 X11.3975 Y-2.8393
G01 X9.9837 Y-2.8388
G01 X9.9594 Y-2.8402
G01 X9.9344 Y-2.8447
G01 X9.9095 Y-2.8523
G01 X9.8867 Y-2.8626
G01 X9.8654 Y-2.8753
G01 X9.8445 Y-2.8916
G01 X9.8269 Y-2.9092
G01 X9.8114 Y-2.9288
G01 X9.7976 Y-2.9515
G01 X9.7889 Y-2.9704
G01 X9.7823 Y-2.9894
G01 X9.7775 Y-3.0091
G01 X9.7748 Y-3.0277
G01 X9.7737 Y-3.0482
G01 X9.7737 Y-3.1898
G01 X9.5274 Y-3.1899
G01 X9.4994 Y-3.1926
G01 X9.4712 Y-3.1993
G01 X9.4712 Y-3.0482
G01 X9.4704 Y-3.0310
G01 X9.4677 Y-3.0108
G01 X9.4631 Y-2.9910
G01 X9.4566 Y-2.9720
G01 X9.4481 Y-2.9531
G01 X9.4345 Y-2.9302
G01 X9.4192 Y-2.9105
G01 X9.4016 Y-2.8927
G01 X9.3809 Y-2.8763
G01 X9.3582 Y-2.8626
G01 X9.3354 Y-2.8523
G01 X9.3105 Y-2.8447
G01 X9.2855 Y-2.8402
G01 X9.2612 Y-2.8388
G01 X7.6477 Y-2.8392
G01 X7.6212 Y-2.8427
G01 X7.6067 Y-2.8460
G01 X7.5924 Y-2.8504
G01 X7.5658 Y-2.8617
G01 X7.5430 Y-2.8752
G01 X7.5210 Y-2.8925
G01 X7.5009 Y-2.9131
G01 X7.4851 Y-2.9344
G01 X7.4712 Y-2.9594
G01 X7.5412 Y-2.7958
G01 X7.5412 Y-2.7018
G01 X7.5689 Y-2.7131
G01 X7.5974 Y-2.7214
G01 X7.6291 Y-2.7269
G01 X7.6591 Y-2.7288
G01 X9.2621 Y-2.7288
G01 X9.2802 Y-2.7281
G01 X9.3000 Y-2.7261
G01 X9.3183 Y-2.7229
G01 X9.3372 Y-2.7183
G01 X9.3639 Y-2.7093
G01 X9.3881 Y-2.6984
G01 X9.4123 Y-2.6845
G01 X9.4325 Y-2.6702
G01 X9.4518 Y-2.6539
G01 X9.4705 Y-2.6348
G01 X9.4873 Y-2.6139
G01 X9.5021 Y-2.5916
G01 X9.5137 Y-2.5697
G01 X9.5235 Y-2.5468
G01 X9.5314 Y-2.5221
G01 X9.5365 Y-2.4997
G01 X9.5395 Y-2.4790
G01 X9.5410 Y-2.4599
G01 X9.5412 Y-2.3790
G01 X9.7037 Y-2.3790
G01 X9.7040 Y-2.4617
G01 X9.7060 Y-2.4846
G01 X9.7096 Y-2.5058
G01 X9.7163 Y-2.5317
G01 X9.7242 Y-2.5539
G01 X9.7355 Y-2.5783
G01 X9.7485 Y-2.6008
G01 X9.7645 Y-2.6230
G01 X9.7826 Y-2.6437
G01 X9.8028 Y-2.6625
G01 X9.8243 Y-2.6790
G01 X9.8478 Y-2.6936
G01 X9.8723 Y-2.7057
G01 X9.8985 Y-2.7155
G01 X9.9249 Y-2.7225
G01 X9.9534 Y-2.7271
G01 X9.9830 Y-2.7288
G01 X11.3865 Y-2.7288
G01 X11.4166 Y-2.7268
G01 X11.4466 Y-2.7216
G01 X11.4756 Y-2.7133
G01 X11.5037 Y-2.7018
G01 X11.5037 Y-2.7958
G01 X11.4756 Y-2.7843
G01 X11.4475 Y-2.7762
G01 X11.4166 Y-2.7708
G01 X11.3884 Y-2.7688
G01 X9.9835 Y-2.7688
G01 X9.9603 Y-2.7698
G01 X9.9382 Y-2.7725
G01 X9.9109 Y-2.7784
G01 X9.8843 Y-2.7871
G01 X9.8568 Y-2.7992
G01 X9.8326 Y-2.8131
G01 X9.8087 Y-2.8302
G01 X9.7885 Y-2.8481
G01 X9.7688 Y-2.8694
G01 X9.7523 Y-2.8911
G01 X9.7380 Y-2.9146
G01 X9.7258 Y-2.9397
G01 X9.7165 Y-2.9651
G01 X9.7098 Y-2.9909
G01 X9.7060 Y-3.0130
G01 X9.7040 Y-3.0359
G01 X9.7037 Y-3.1198
G01 X9.5412 Y-3.1198
G01 X9.5409 Y-3.0359
G01 X9.5389 Y-3.0130
G01 X9.5351 Y-2.9909
G01 X9.5284 Y-2.9651
G01 X9.5191 Y-2.9397
G01 X9.5069 Y-2.9146
G01 X9.4926 Y-2.8911
G01 X9.4761 Y-2.8694
G01 X9.4564 Y-2.8481
G01 X9.4362 Y-2.8302
G01 X9.4123 Y-2.8131
G01 X9.3881 Y-2.7992
G01 X9.3606 Y-2.7871
G01 X9.3340 Y-2.7784
G01 X9.3067 Y-2.7725
G01 X9.2846 Y-2.7698
G01 X9.2614 Y-2.7688
G01 X7.6583 Y-2.7688
G01 X7.6291 Y-2.7707
G01 X7.5974 Y-2.7762
G01 X7.5689 Y-2.7845
G01 X7.5412 Y-2.7958
G01 X7.5214 Y-2.4557
G01 X7.5225 Y-2.4680
G01 X7.5251 Y-2.4815
G01 X7.5324 Y-2.5035
G01 X7.5370 Y-2.5133
G01 X7.5441 Y-2.5256
G01 X7.5519 Y-2.5362
G01 X7.5610 Y-2.5466
G01 X7.5706 Y-2.5555
G01 X7.5790 Y-2.5621
G01 X7.5879 Y-2.5681
G01 X7.6001 Y-2.5748
G01 X7.6127 Y-2.5801
G01 X7.6254 Y-2.5841
G01 X7.6387 Y-2.5870
G01 X7.6495 Y-2.5883
G01 X9.2612 Y-2.5888
G01 X9.2734 Y-2.5883
G01 X9.2935 Y-2.5850
G01 X9.3134 Y-2.5787
G01 X9.3315 Y-2.5699
G01 X9.3465 Y-2.5598
G01 X9.3614 Y-2.5466
G01 X9.3745 Y-2.5310
G01 X9.3839 Y-2.5163
G01 X9.3925 Y-2.4974
G01 X9.3988 Y-2.4747
G01 X9.4011 Y-2.4543
G01 X9.4012 Y-2.2390
G01 X9.8437 Y-2.2390
G01 X9.8438 Y-2.4526
G01 X9.8455 Y-2.4710
G01 X9.8502 Y-2.4910
G01 X9.8578 Y-2.5100
G01 X9.8666 Y-2.5255
G01 X9.8788 Y-2.5415
G01 X9.8905 Y-2.5532
G01 X9.9044 Y-2.5641
G01 X9.9195 Y-2.5732
G01 X9.9382 Y-2.5812
G01 X9.9547 Y-2.5858
G01 X9.9681 Y-2.5879
G01 X9.9837 Y-2.5888
G01 X11.3837 Y-2.5888
G01 X11.4060 Y-2.5870
G01 X11.4193 Y-2.5842
G01 X11.4292 Y-2.5812
G01 X11.4479 Y-2.5732
G01 X11.4660 Y-2.5620
G01 X11.4816 Y-2.5489
G01 X11.4950 Y-2.5336
G01 X11.5064 Y-2.5163
G01 X11.5150 Y-2.4974
G01 X11.5206 Y-2.4782
G01 X11.5234 Y-2.4571
G01 X11.5237 Y-1.1488
G01 X11.5219 Y-1.1266
G01 X11.5198 Y-1.1161
G01 X11.5161 Y-1.1034
G01 X11.5080 Y-1.0845
G01 X11.4969 Y-1.0664
G01 X11.4840 Y-1.0512
G01 X11.4690 Y-1.0378
G01 X11.4509 Y-1.0260
G01 X11.4326 Y-1.0176
G01 X11.4127 Y-1.0118
G01 X11.3923 Y-1.0091
G01 X9.9837 Y-1.0088
G01 X9.9681 Y-1.0097
G01 X9.9481 Y-1.0134
G01 X9.9315 Y-1.0189
G01 X9.9134 Y-1.0277
G01 X9.8984 Y-1.0378
G01 X9.8834 Y-1.0512
G01 X9.8705 Y-1.0664
G01 X9.8611 Y-1.0813
G01 X9.8524 Y-1.1002
G01 X9.8461 Y-1.1228
G01 X9.8438 Y-1.1433
G01 X9.8437 Y-1.3586
G01 X9.4012 Y-1.3586
G01 X9.4011 Y-1.1450
G01 X9.3994 Y-1.1266
G01 X9.3947 Y-1.1066
G01 X9.3871 Y-1.0876
G01 X9.3782 Y-1.0719
G01 X9.3683 Y-1.0587
G01 X9.3545 Y-1.0444
G01 X9.3405 Y-1.0335
G01 X9.3225 Y-1.0229
G01 X9.3067 Y-1.0164
G01 X9.2869 Y-1.0112
G01 X9.2734 Y-1.0093
G01 X9.2612 Y-1.0088
G01 X7.6612 Y-1.0088
G01 X7.6390 Y-1.0106
G01 X7.6256 Y-1.0134
G01 X7.6158 Y-1.0164
G01 X7.5968 Y-1.0245
G01 X7.5792 Y-1.0354
G01 X7.5634 Y-1.0486
G01 X7.5499 Y-1.0639
G01 X7.5386 Y-1.0813
G01 X7.5299 Y-1.1003
G01 X7.5243 Y-1.1193
G01 X7.5215 Y-1.1402
G01 X7.5212 Y-2.4507
G01 X7.5214 Y-2.4557
G01 X7.5913 Y-2.4522
G01 X7.5926 Y-2.4627
G01 X7.5952 Y-2.4723
G01 X7.5995 Y-2.4819
G01 X7.6050 Y-2.4906
G01 X7.6117 Y-2.4983
G01 X7.6193 Y-2.5049
G01 X7.6284 Y-2.5106
G01 X7.6377 Y-2.5147
G01 X7.6509 Y-2.5180
G01 X7.6612 Y-2.5188
G01 X9.2612 Y-2.5188
G01 X9.2749 Y-2.5175
G01 X9.2848 Y-2.5147
G01 X9.2971 Y-2.5089
G01 X9.3060 Y-2.5026
G01 X9.3131 Y-2.4958
G01 X9.3192 Y-2.4879
G01 X9.3245 Y-2.4786
G01 X9.3282 Y-2.4691
G01 X9.3305 Y-2.4589
G01 X9.3312 Y-2.4488
G01 X9.3312 Y-2.1690
G01 X9.9137 Y-2.1690
G01 X9.9137 Y-2.4488
G01 X9.9144 Y-2.4589
G01 X9.9167 Y-2.4691
G01 X9.9219 Y-2.4817
G01 X9.9275 Y-2.4906
G01 X9.9342 Y-2.4983
G01 X9.9418 Y-2.5049
G01 X9.9509 Y-2.5106
G01 X9.9635 Y-2.5158
G01 X9.9734 Y-2.5180
G01 X9.9837 Y-2.5188
G01 X11.3871 Y-2.5187
G01 X11.4007 Y-2.5167
G01 X11.4106 Y-2.5134
G01 X11.4226 Y-2.5070
G01 X11.4332 Y-2.4983
G01 X11.4417 Y-2.4879
G01 X11.4484 Y-2.4755
G01 X11.4523 Y-2.4627
G01 X11.4537 Y-2.4488
G01 X11.4537 Y-1.1463
G01 X11.4523 Y-1.1349
G01 X11.4496 Y-1.1253
G01 X11.4455 Y-1.1159
G01 X11.4398 Y-1.1069
G01 X11.4333 Y-1.0994
G01 X11.4256 Y-1.0927
G01 X11.4165 Y-1.0870
G01 X11.4073 Y-1.0829
G01 X11.3940 Y-1.0796
G01 X11.3837 Y-1.0788
G01 X9.9837 Y-1.0788
G01 X9.9734 Y-1.0796
G01 X9.9635 Y-1.0818
G01 X9.9509 Y-1.0870
G01 X9.9418 Y-1.0927
G01 X9.9341 Y-1.0994
G01 X9.9257 Y-1.1096
G01 X9.9204 Y-1.1190
G01 X9.9167 Y-1.1285
G01 X9.9144 Y-1.1386
G01 X9.9137 Y-1.1488
G01 X9.9137 Y-1.4286
G01 X9.3312 Y-1.4286
G01 X9.3312 Y-1.1488
G01 X9.3305 Y-1.1386
G01 X9.3282 Y-1.1285
G01 X9.3245 Y-1.1190
G01 X9.3192 Y-1.1096
G01 X9.3108 Y-1.0994
G01 X9.3031 Y-1.0927
G01 X9.2940 Y-1.0870
G01 X9.2848 Y-1.0829
G01 X9.2749 Y-1.0801
G01 X9.2612 Y-1.0788
G01 X7.6612 Y-1.0788
G01 X7.6475 Y-1.0801
G01 X7.6344 Y-1.0841
G01 X7.6224 Y-1.0905
G01 X7.6141 Y-1.0970
G01 X7.6051 Y-1.1070
G01 X7.5979 Y-1.1190
G01 X7.5933 Y-1.1317
G01 X7.5913 Y-1.1454
G01 X7.5913 Y-2.4522
G00 Z3.0000
G00 X7.5718 Y-0.9588
G01 F80.00
G01 Z-0.0746
G01 F50.00
G01 X7.5564 Y-0.9668
G01 X7.5418 Y-0.9760
G01 X7.5262 Y-0.9880
G01 X7.5139 Y-0.9992
G01 X7.5009 Y-1.0131
G01 X7.4890 Y-1.0286
G01 X7.4795 Y-1.0436
G01 X7.4712 Y-1.0594
G01 X7.4712 Y-0.9588
G01 X7.5718 Y-0.9588
G00 Z3.0000
G00 X17.4408 Y0.3329
G01 F80.00
G01 Z-0.0746
G01 F50.00
G01 X17.4198 Y0.3581
G01 X17.3968 Y0.3826
G01 X17.3708 Y0.4071
G01 X17.3454 Y0.4283
G01 X17.4408 Y0.4283
G01 X17.4408 Y0.3329
G00 Z3.0000
G00 X9.2096 Y-12.4747
G01 F80.00
G01 Z-0.0746
G01 F50.00
G01 X9.2109 Y-12.4853
G01 X9.2136 Y-12.4948
G01 X9.2177 Y-12.5041
G01 X9.2235 Y-12.5133
G01 X9.2300 Y-12.5208
G01 X9.2375 Y-12.5273
G01 X9.2467 Y-12.5331
G01 X9.2560 Y-12.5372
G01 X9.2655 Y-12.5399
G01 X9.2770 Y-12.5413
G01 X9.3906 Y-12.5413
G01 X9.4137 Y-12.5602
G01 X9.4398 Y-12.5777
G01 X9.4675 Y-12.5925
G01 X9.4966 Y-12.6045
G01 X9.5266 Y-12.6136
G01 X9.5578 Y-12.6198
G01 X9.5887 Y-12.6228
G01 X9.6218 Y-12.6227
G01 X9.6497 Y-12.6200
G01 X9.6669 Y-12.6171
G01 X9.6838 Y-12.6132
G01 X9.7106 Y-12.6051
G01 X9.7428 Y-12.5917
G01 X9.7675 Y-12.5785
G01 X9.7837 Y-12.5683
G01 X9.8061 Y-12.5516
G01 X9.8194 Y-12.5403
G01 X9.8320 Y-12.5282
G01 X9.8519 Y-12.5062
G01 X9.8696 Y-12.4824
G01 X9.8790 Y-12.4677
G01 X9.8875 Y-12.4525
G01 X9.8995 Y-12.4272
G01 X9.9107 Y-12.3960
G01 X9.9184 Y-12.3656
G01 X9.9230 Y-12.3345
G01 X9.9245 Y-12.3040
G01 X9.9245 Y-10.8096
G01 X12.2022 Y-9.3242
G01 X12.2556 Y-9.3255
G01 X14.2556 Y-9.3255
G01 X14.3081 Y-9.3242
G01 X14.3605 Y-9.3203
G01 X14.4144 Y-9.3136
G01 X14.4644 Y-9.3049
G01 X14.5157 Y-9.2934
G01 X14.5663 Y-9.2794
G01 X14.6146 Y-9.2635
G01 X14.6653 Y-9.2440
G01 X14.7133 Y-9.2227
G01 X14.7587 Y-9.1999
G01 X14.8059 Y-9.1732
G01 X14.8518 Y-9.1441
G01 X14.8933 Y-9.1148
G01 X14.9347 Y-9.0825
G01 X14.9745 Y-9.0482
G01 X15.0126 Y-9.0120
G01 X15.0488 Y-8.9739
G01 X15.0831 Y-8.9341
G01 X15.1154 Y-8.8927
G01 X15.1457 Y-8.8497
G01 X15.1738 Y-8.8053
G01 X15.1997 Y-8.7596
G01 X15.2233 Y-8.7127
G01 X15.2446 Y-8.6647
G01 X15.2635 Y-8.6156
G01 X15.2800 Y-8.5657
G01 X15.2940 Y-8.5151
G01 X15.3055 Y-8.4638
G01 X15.3145 Y-8.4121
G01 X15.3209 Y-8.3599
G01 X15.3248 Y-8.3075
G01 X15.3261 Y-8.2550
G01 X15.3248 Y-8.2025
G01 X15.3209 Y-8.1501
G01 X15.3145 Y-8.0979
G01 X15.3055 Y-8.0462
G01 X15.2940 Y-7.9949
G01 X15.2800 Y-7.9442
G01 X15.2635 Y-7.8944
G01 X15.2446 Y-7.8453
G01 X15.2233 Y-7.7973
G01 X15.1997 Y-7.7504
G01 X15.1738 Y-7.7047
G01 X15.1457 Y-7.6603
G01 X15.1154 Y-7.6173
G01 X15.0831 Y-7.5759
G01 X15.0488 Y-7.5361
G01 X15.0126 Y-7.4980
G01 X14.9745 Y-7.4618
G01 X14.9334 Y-7.4264
G01 X14.8933 Y-7.3952
G01 X14.8518 Y-7.3659
G01 X14.8074 Y-7.3377
G01 X14.7602 Y-7.3109
G01 X14.7148 Y-7.2880
G01 X14.6653 Y-7.2660
G01 X14.6162 Y-7.2471
G01 X14.5663 Y-7.2306
G01 X14.5157 Y-7.2166
G01 X14.4644 Y-7.2051
G01 X14.4127 Y-7.1961
G01 X14.3605 Y-7.1897
G01 X14.3072 Y-7.1857
G01 X14.2556 Y-7.1845
G01 X12.2556 Y-7.1845
G01 X12.2031 Y-7.1858
G01 X12.1507 Y-7.1897
G01 X12.0968 Y-7.1964
G01 X12.0468 Y-7.2051
G01 X11.9955 Y-7.2166
G01 X11.9432 Y-7.2311
G01 X11.8950 Y-7.2471
G01 X11.8459 Y-7.2660
G01 X11.7964 Y-7.2880
G01 X11.7510 Y-7.3109
G01 X11.7053 Y-7.3368
G01 X11.6594 Y-7.3659
G01 X11.6179 Y-7.3952
G01 X11.5765 Y-7.4275
G01 X11.5367 Y-7.4618
G01 X11.4986 Y-7.4980
G01 X11.4624 Y-7.5361
G01 X11.4281 Y-7.5759
G01 X11.3958 Y-7.6173
G01 X11.3655 Y-7.6603
G01 X11.3374 Y-7.7047
G01 X11.3107 Y-7.7519
G01 X11.2879 Y-7.7973
G01 X11.2659 Y-7.8469
G01 X11.2471 Y-7.8960
G01 X11.2312 Y-7.9442
G01 X11.2176 Y-7.9932
G01 X11.2057 Y-8.0462
G01 X11.1967 Y-8.0979
G01 X11.1903 Y-8.1501
G01 X11.1864 Y-8.2025
G01 X11.1851 Y-8.2550
G01 X11.1864 Y-8.3075
G01 X11.1903 Y-8.3599
G01 X11.1970 Y-8.4138
G01 X11.2057 Y-8.4638
G01 X11.2176 Y-8.5168
G01 X11.2312 Y-8.5657
G01 X11.2471 Y-8.6140
G01 X11.2659 Y-8.6631
G01 X11.2879 Y-8.7127
G01 X11.3115 Y-8.7596
G01 X11.3374 Y-8.8053
G01 X11.3655 Y-8.8497
G01 X11.3958 Y-8.8927
G01 X11.4281 Y-8.9341
G01 X11.4624 Y-8.9739
G01 X11.5028 Y-9.0159
G01 X9.4295 Y-10.3681
G01 X9.4052 Y-10.3856
G01 X9.3870 Y-10.4013
G01 X9.2795 Y-10.4013
G01 X9.2693 Y-10.4020
G01 X9.2624 Y-10.4034
G01 X9.2467 Y-10.4095
G01 X9.2353 Y-10.4170
G01 X9.2252 Y-10.4271
G01 X9.2197 Y-10.4350
G01 X9.2161 Y-10.4415
G01 X9.2109 Y-10.4573
G01 X9.2095 Y-10.4713
G01 X9.2096 Y-12.4747
G00 Z3.0000
G00 X8.7095 Y-12.4713
G01 F80.00
G01 Z-0.0746
G01 F50.00
G01 X8.7099 Y-13.5442
G01 X8.7120 Y-13.5653
G01 X8.7158 Y-13.5852
G01 X8.7196 Y-13.5989
G01 X8.7264 Y-13.6176
G01 X8.7348 Y-13.6356
G01 X8.7418 Y-13.6480
G01 X8.7529 Y-13.6645
G01 X8.7665 Y-13.6810
G01 X8.7819 Y-13.6965
G01 X8.7986 Y-13.7102
G01 X8.8166 Y-13.7222
G01 X8.8356 Y-13.7323
G01 X8.8556 Y-13.7406
G01 X8.8762 Y-13.7469
G01 X8.8970 Y-13.7510
G01 X8.9172 Y-13.7531
G01 X9.8028 Y-13.7535
G01 X9.8240 Y-13.7524
G01 X9.8467 Y-13.7490
G01 X9.8657 Y-13.7443
G01 X9.8858 Y-13.7372
G01 X9.9051 Y-13.7283
G01 X9.9234 Y-13.7175
G01 X12.0530 Y-12.3222
G01 X12.0985 Y-12.3301
G01 X12.1507 Y-12.3365
G01 X12.2031 Y-12.3404
G01 X12.2547 Y-12.3417
G01 X14.2556 Y-12.3417
G01 X14.3064 Y-12.3405
G01 X14.3605 Y-12.3365
G01 X14.4127 Y-12.3301
G01 X14.4644 Y-12.3211
G01 X14.5157 Y-12.3096
G01 X14.5663 Y-12.2956
G01 X14.6162 Y-12.2791
G01 X14.6653 Y-12.2602
G01 X14.7147 Y-12.2383
G01 X14.7602 Y-12.2153
G01 X14.8059 Y-12.1894
G01 X14.8503 Y-12.1613
G01 X14.8919 Y-12.1320
G01 X14.9360 Y-12.0976
G01 X14.9745 Y-12.0644
G01 X15.0126 Y-12.0282
G01 X15.0488 Y-11.9901
G01 X15.0820 Y-11.9516
G01 X15.1164 Y-11.9075
G01 X15.1457 Y-11.8659
G01 X15.1738 Y-11.8215
G01 X15.1997 Y-11.7758
G01 X15.2227 Y-11.7303
G01 X15.2446 Y-11.6809
G01 X15.2629 Y-11.6335
G01 X15.2805 Y-11.5803
G01 X15.2940 Y-11.5313
G01 X15.3055 Y-11.4800
G01 X15.3145 Y-11.4283
G01 X15.3208 Y-11.3778
G01 X15.3249 Y-11.3220
G01 X15.3261 Y-11.2712
G01 X15.3248 Y-11.2187
G01 X15.3209 Y-11.1663
G01 X15.3147 Y-11.1158
G01 X15.3052 Y-11.0607
G01 X15.2940 Y-11.0111
G01 X15.2805 Y-10.9621
G01 X15.2635 Y-10.9106
G01 X15.2439 Y-10.8600
G01 X15.2233 Y-10.8135
G01 X15.1997 Y-10.7666
G01 X15.1729 Y-10.7194
G01 X15.1457 Y-10.6765
G01 X15.1154 Y-10.6335
G01 X15.0820 Y-10.5908
G01 X15.0488 Y-10.5523
G01 X15.0138 Y-10.5155
G01 X14.9732 Y-10.4769
G01 X14.9347 Y-10.4437
G01 X14.8933 Y-10.4114
G01 X14.8489 Y-10.3802
G01 X14.8059 Y-10.3530
G01 X14.7617 Y-10.3279
G01 X14.7133 Y-10.3035
G01 X14.6637 Y-10.2815
G01 X14.6162 Y-10.2633
G01 X14.5680 Y-10.2473
G01 X14.5140 Y-10.2324
G01 X14.4628 Y-10.2210
G01 X14.4127 Y-10.2123
G01 X14.3622 Y-10.2060
G01 X14.3081 Y-10.2020
G01 X14.2565 Y-10.2007
G01 X12.2547 Y-10.2007
G01 X12.2031 Y-10.2020
G01 X12.1507 Y-10.2059
G01 X12.0985 Y-10.2123
G01 X12.0484 Y-10.2210
G01 X11.9938 Y-10.2332
G01 X11.9449 Y-10.2468
G01 X11.8950 Y-10.2633
G01 X11.8444 Y-10.2829
G01 X11.7979 Y-10.3035
G01 X11.7525 Y-10.3263
G01 X11.7053 Y-10.3530
G01 X11.6594 Y-10.3821
G01 X11.6179 Y-10.4114
G01 X11.5778 Y-10.4426
G01 X11.5367 Y-10.4780
G01 X11.4974 Y-10.5155
G01 X11.4624 Y-10.5523
G01 X11.4281 Y-10.5921
G01 X11.3948 Y-10.6349
G01 X11.3655 Y-10.6765
G01 X11.3383 Y-10.7194
G01 X11.3115 Y-10.7666
G01 X11.2872 Y-10.8151
G01 X11.2666 Y-10.8615
G01 X11.2483 Y-10.9090
G01 X11.2312 Y-10.9605
G01 X11.2168 Y-11.0128
G01 X11.2057 Y-11.0624
G01 X11.1970 Y-11.1124
G01 X11.1901 Y-11.1680
G01 X11.1864 Y-11.2187
G01 X11.1851 Y-11.2695
G01 X11.1864 Y-11.3237
G01 X11.1904 Y-11.3778
G01 X11.1967 Y-11.4283
G01 X11.2054 Y-11.4784
G01 X11.2172 Y-11.5313
G01 X11.2317 Y-11.5836
G01 X11.2477 Y-11.6318
G01 X11.2659 Y-11.6793
G01 X11.2879 Y-11.7289
G01 X11.3123 Y-11.7773
G01 X11.3374 Y-11.8215
G01 X11.3646 Y-11.8645
G01 X11.3958 Y-11.9089
G01 X11.4292 Y-11.9516
G01 X11.4624 Y-11.9901
G01 X11.4974 Y-12.0269
G01 X11.5369 Y-12.0646
G01 X11.5831 Y-12.1039
G01 X9.7371 Y-13.3133
G01 X9.1498 Y-13.3133
G01 X9.1495 Y-10.4713
G01 X9.1488 Y-10.4611
G01 X9.1465 Y-10.4511
G01 X9.1413 Y-10.4385
G01 X9.1355 Y-10.4293
G01 X9.1290 Y-10.4218
G01 X9.1215 Y-10.4153
G01 X9.1123 Y-10.4095
G01 X9.0997 Y-10.4043
G01 X9.0897 Y-10.4020
G01 X9.0795 Y-10.4013
G01 X8.7795 Y-10.4013
G01 X8.7655 Y-10.4027
G01 X8.7528 Y-10.4066
G01 X8.7432 Y-10.4115
G01 X8.7326 Y-10.4193
G01 X8.7252 Y-10.4271
G01 X8.7177 Y-10.4385
G01 X8.7136 Y-10.4478
G01 X8.7109 Y-10.4573
G01 X8.7095 Y-10.4688
G01 X8.7095 Y-12.4713
G00 Z3.0000
G00 X8.2095 Y-11.7845
G01 F80.00
G01 Z-0.0746
G01 F50.00
G01 X8.1937 Y-14.8820
G01 X8.1947 Y-14.9035
G01 X8.1982 Y-14.9268
G01 X8.2060 Y-14.9551
G01 X8.2146 Y-14.9763
G01 X8.2252 Y-14.9962
G01 X8.2374 Y-15.0144
G01 X8.2513 Y-15.0312
G01 X8.2655 Y-15.0454
G01 X8.2824 Y-15.0593
G01 X8.2942 Y-15.0675
G01 X8.3116 Y-15.0777
G01 X8.3325 Y-15.0873
G01 X9.8893 Y-15.6277
G01 X9.8856 Y-15.6580
G01 X9.8817 Y-15.7104
G01 X9.8804 Y-15.7629
G01 X9.8816 Y-15.8137
G01 X9.8857 Y-15.8695
G01 X9.8920 Y-15.9199
G01 X9.9006 Y-15.9700
G01 X9.9129 Y-16.0246
G01 X9.9265 Y-16.0735
G01 X9.9429 Y-16.1233
G01 X9.9625 Y-16.1740
G01 X9.9831 Y-16.2204
G01 X10.0060 Y-16.2658
G01 X10.0335 Y-16.3145
G01 X10.0607 Y-16.3574
G01 X10.0910 Y-16.4003
G01 X10.1244 Y-16.4430
G01 X10.1576 Y-16.4815
G01 X10.1938 Y-16.5195
G01 X10.2331 Y-16.5569
G01 X10.2716 Y-16.5900
G01 X10.3130 Y-16.6223
G01 X10.3574 Y-16.6535
G01 X10.4003 Y-16.6807
G01 X10.4445 Y-16.7057
G01 X10.4929 Y-16.7302
G01 X10.5425 Y-16.7521
G01 X10.5899 Y-16.7704
G01 X10.6382 Y-16.7863
G01 X10.6904 Y-16.8008
G01 X10.7417 Y-16.8123
G01 X10.7951 Y-16.8216
G01 X10.8455 Y-16.8277
G01 X10.8962 Y-16.8315
G01 X10.9504 Y-16.8329
G01 X11.0029 Y-16.8316
G01 X11.0553 Y-16.8277
G01 X11.1074 Y-16.8213
G01 X11.1608 Y-16.8120
G01 X11.2104 Y-16.8008
G01 X11.2626 Y-16.7863
G01 X11.3125 Y-16.7698
G01 X11.3599 Y-16.7515
G01 X11.4008 Y-16.7334
G01 X15.2867 Y-16.7334
G01 X15.3343 Y-16.7322
G01 X15.3801 Y-16.7288
G01 X15.4291 Y-16.7228
G01 X15.4777 Y-16.7143
G01 X15.5225 Y-16.7043
G01 X15.5668 Y-16.6920
G01 X15.6136 Y-16.6766
G01 X15.6581 Y-16.6595
G01 X15.7032 Y-16.6394
G01 X15.7442 Y-16.6188
G01 X15.7841 Y-16.5961
G01 X15.8258 Y-16.5698
G01 X15.8648 Y-16.5424
G01 X15.9037 Y-16.5120
G01 X15.9384 Y-16.4820
G01 X15.9717 Y-16.4503
G01 X16.0058 Y-16.4146
G01 X16.0369 Y-16.3785
G01 X16.0672 Y-16.3396
G01 X16.0945 Y-16.3006
G01 X16.1191 Y-16.2618
G01 X16.1417 Y-16.2219
G01 X16.1640 Y-16.1778
G01 X16.1833 Y-16.1343
G01 X16.2004 Y-16.0898
G01 X16.2158 Y-16.0430
G01 X16.2285 Y-15.9970
G01 X16.2385 Y-15.9522
G01 X16.2464 Y-15.9070
G01 X16.2525 Y-15.8580
G01 X16.2560 Y-15.8088
G01 X16.2572 Y-15.7629
G01 X16.2560 Y-15.7170
G01 X16.2526 Y-15.6695
G01 X16.2466 Y-15.6205
G01 X16.2385 Y-15.5736
G01 X16.2281 Y-15.5271
G01 X16.2148 Y-15.4796
G01 X16.2004 Y-15.4360
G01 X16.1839 Y-15.3931
G01 X16.1640 Y-15.3480
G01 X16.1426 Y-15.3054
G01 X16.1182 Y-15.2625
G01 X16.0936 Y-15.2237
G01 X16.0672 Y-15.1862
G01 X16.0369 Y-15.1473
G01 X16.0058 Y-15.1112
G01 X15.9717 Y-15.0755
G01 X15.9371 Y-15.0427
G01 X15.9023 Y-15.0127
G01 X15.8662 Y-14.9845
G01 X15.8259 Y-14.9560
G01 X15.7856 Y-14.9305
G01 X15.7442 Y-14.9070
G01 X15.7001 Y-14.8849
G01 X15.6565 Y-14.8657
G01 X15.6136 Y-14.8492
G01 X15.5700 Y-14.8348
G01 X15.5225 Y-14.8215
G01 X15.4760 Y-14.8111
G01 X15.4291 Y-14.8030
G01 X15.3818 Y-14.7971
G01 X15.3343 Y-14.7936
G01 X15.2867 Y-14.7924
G01 X11.4008 Y-14.7924
G01 X11.3599 Y-14.7743
G01 X11.3124 Y-14.7560
G01 X11.2626 Y-14.7395
G01 X11.2104 Y-14.7250
G01 X11.1591 Y-14.7135
G01 X11.1057 Y-14.7042
G01 X11.0553 Y-14.6981
G01 X11.0046 Y-14.6943
G01 X10.9504 Y-14.6929
G01 X10.8962 Y-14.6943
G01 X10.8455 Y-14.6981
G01 X10.7951 Y-14.7042
G01 X10.7433 Y-14.7131
G01 X10.6904 Y-14.7250
G01 X10.6398 Y-14.7390
G01 X10.5899 Y-14.7554
G01 X10.5393 Y-14.7750
G01 X10.4929 Y-14.7956
G01 X10.4475 Y-14.8185
G01 X10.4003 Y-14.8451
G01 X10.3559 Y-14.8732
G01 X10.3116 Y-14.9045
G01 X10.2716 Y-14.9358
G01 X10.2331 Y-14.9689
G01 X10.1938 Y-15.0063
G01 X10.1576 Y-15.0443
G01 X10.1222 Y-15.0854
G01 X10.0910 Y-15.1255
G01 X10.0617 Y-15.1670
G01 X10.0333 Y-15.2118
G01 X8.6347 Y-14.7265
G01 X8.6460 Y-12.4931
G01 X8.6488 Y-12.4815
G01 X8.6495 Y-12.4713
G01 X8.6495 Y-10.4713
G01 X8.6488 Y-10.4611
G01 X8.6454 Y-10.4478
G01 X8.6413 Y-10.4385
G01 X8.6355 Y-10.4293
G01 X8.6290 Y-10.4218
G01 X8.6192 Y-10.4137
G01 X8.6093 Y-10.4079
G01 X8.5997 Y-10.4043
G01 X8.5897 Y-10.4020
G01 X8.5795 Y-10.4013
G01 X8.2795 Y-10.4013
G01 X8.2693 Y-10.4020
G01 X8.2593 Y-10.4043
G01 X8.2497 Y-10.4079
G01 X8.2398 Y-10.4137
G01 X8.2326 Y-10.4193
G01 X8.2252 Y-10.4271
G01 X8.2197 Y-10.4350
G01 X8.2161 Y-10.4415
G01 X8.2125 Y-10.4511
G01 X8.2102 Y-10.4611
G01 X8.2095 Y-10.4713
G01 X8.2095 Y-11.7845
G00 Z3.0000
G00 X8.0025 Y-13.6754
G01 F80.00
G01 Z-0.0746
G01 F50.00
G01 X8.0603 Y-13.5919
G01 X8.0598 Y-13.6935
G01 X8.0445 Y-13.6868
G01 X8.0303 Y-13.6819
G01 X8.0025 Y-13.6754
G00 Z3.0000
G00 X5.7055 Y-11.0670
G01 F80.00
G01 Z-0.0746
G01 F50.00
G01 X5.7655 Y-11.0070
G01 X5.7655 Y-11.0918
G01 X5.7505 Y-11.0824
G01 X5.7361 Y-11.0756
G01 X5.7221 Y-11.0707
G01 X5.7055 Y-11.0670
G01 X5.0993 Y-11.5742
G01 X5.7668 Y-10.9067
G01 X5.7733 Y-10.9019
G01 X5.7806 Y-10.8985
G01 X5.7884 Y-10.8965
G01 X5.7964 Y-10.8961
G01 X5.8044 Y-10.8973
G01 X5.8119 Y-10.9000
G01 X5.8188 Y-10.9041
G01 X5.8248 Y-10.9095
G01 X5.8296 Y-10.9160
G01 X5.8330 Y-10.9233
G01 X5.8350 Y-10.9311
G01 X5.8355 Y-10.9380
G01 X5.8355 Y-12.7140
G01 X5.8342 Y-12.7249
G01 X5.8306 Y-12.7342
G01 X5.8234 Y-12.7439
G01 X5.8155 Y-12.7501
G01 X5.8063 Y-12.7542
G01 X5.7944 Y-12.7559
G01 X5.7844 Y-12.7547
G01 X5.7751 Y-12.7511
G01 X5.7654 Y-12.7439
G01 X5.7592 Y-12.7360
G01 X5.7551 Y-12.7268
G01 X5.7534 Y-12.7169
G01 X5.7533 Y-11.2052
G01 X5.7526 Y-11.1951
G01 X5.7503 Y-11.1848
G01 X5.7467 Y-11.1754
G01 X5.7415 Y-11.1663
G01 X5.7328 Y-11.1557
G01 X5.7222 Y-11.1470
G01 X5.7074 Y-11.1395
G01 X5.6934 Y-11.1359
G01 X5.6795 Y-11.1353
G01 X5.6630 Y-11.1382
G01 X5.6504 Y-11.1435
G01 X5.6388 Y-11.1512
G01 X5.1573 Y-11.6322
G01 X5.1505 Y-11.6379
G01 X5.1434 Y-11.6417
G01 X5.1357 Y-11.6440
G01 X5.1277 Y-11.6448
G01 X5.1217 Y-11.6444
G01 X5.1139 Y-11.6424
G01 X5.1066 Y-11.6390
G01 X5.1017 Y-11.6355
G01 X5.0960 Y-11.6298
G01 X5.0915 Y-11.6231
G01 X5.0884 Y-11.6157
G01 X5.0869 Y-11.6078
G01 X5.0867 Y-11.6018
G01 X5.0879 Y-11.5938
G01 X5.0906 Y-11.5863
G01 X5.0947 Y-11.5794
G01 X5.0993 Y-11.5742
G00 Z3.0000
G00 X1.7487 Y-12.1030
G01 F80.00
G01 Z-0.0746
G01 F50.00
G01 X1.7683 Y-12.1742
G01 X1.7909 Y-12.2427
G01 X1.8169 Y-12.3100
G01 X1.8469 Y-12.3775
G01 X1.8786 Y-12.4405
G01 X1.9133 Y-12.5017
G01 X1.9518 Y-12.5627
G01 X1.9943 Y-12.6232
G01 X2.0387 Y-12.6801
G01 X2.0858 Y-12.7347
G01 X2.1368 Y-12.7881
G01 X2.1878 Y-12.8367
G01 X2.2411 Y-12.8827
G01 X2.2980 Y-12.9272
G01 X2.3583 Y-12.9698
G01 X2.4193 Y-13.0084
G01 X2.4820 Y-13.0439
G01 X2.5465 Y-13.0764
G01 X2.6125 Y-13.1056
G01 X2.6814 Y-13.1321
G01 X2.7483 Y-13.1542
G01 X2.8162 Y-13.1730
G01 X2.8865 Y-13.1889
G01 X2.9593 Y-13.2016
G01 X3.0309 Y-13.2104
G01 X3.1029 Y-13.2157
G01 X3.1750 Y-13.2175
G01 X3.2471 Y-13.2157
G01 X3.3208 Y-13.2102
G01 X3.3907 Y-13.2016
G01 X3.4601 Y-13.1896
G01 X3.5305 Y-13.1738
G01 X3.6016 Y-13.1542
G01 X3.6702 Y-13.1316
G01 X3.7375 Y-13.1056
G01 X3.8044 Y-13.0759
G01 X3.8695 Y-13.0431
G01 X3.9307 Y-13.0084
G01 X3.9902 Y-12.9707
G01 X4.0507 Y-12.9282
G01 X4.1089 Y-12.8827
G01 X4.1622 Y-12.8367
G01 X4.2132 Y-12.7881
G01 X4.2642 Y-12.7347
G01 X4.3124 Y-12.6787
G01 X4.3557 Y-12.6232
G01 X4.3963 Y-12.5656
G01 X4.4359 Y-12.5032
G01 X4.4722 Y-12.4389
G01 X4.5039 Y-12.3760
G01 X4.5324 Y-12.3116
G01 X4.5591 Y-12.2427
G01 X4.5822 Y-12.1726
G01 X4.6009 Y-12.1047
G01 X4.6164 Y-12.0360
G01 X4.6291 Y-11.9632
G01 X4.6379 Y-11.8916
G01 X4.6432 Y-11.8196
G01 X4.6450 Y-11.7475
G01 X4.6432 Y-11.6754
G01 X4.6377 Y-11.6017
G01 X4.6288 Y-11.5301
G01 X4.6168 Y-11.4607
G01 X4.6013 Y-11.3920
G01 X4.5817 Y-11.3208
G01 X4.5593 Y-11.2530
G01 X4.5331 Y-11.1850
G01 X4.5039 Y-11.1190
G01 X4.4714 Y-11.0545
G01 X4.4352 Y-10.9907
G01 X4.3973 Y-10.9308
G01 X4.3557 Y-10.8718
G01 X4.3113 Y-10.8149
G01 X4.2642 Y-10.7603
G01 X4.2455 Y-10.7406
G01 X4.2455 Y-10.0797
G01 X4.2442 Y-10.0281
G01 X4.2403 Y-9.9757
G01 X4.2339 Y-9.9235
G01 X4.2249 Y-9.8718
G01 X4.2134 Y-9.8205
G01 X4.1999 Y-9.7715
G01 X4.1829 Y-9.7200
G01 X4.1647 Y-9.6725
G01 X4.1427 Y-9.6229
G01 X4.1333 Y-9.6041
G01 X6.9030 Y-9.5827
G01 X6.9030 Y-12.2238
G01 X6.9047 Y-12.2569
G01 X6.9088 Y-12.2846
G01 X6.9126 Y-12.3016
G01 X6.9223 Y-12.3332
G01 X6.9330 Y-12.3591
G01 X6.9408 Y-12.3747
G01 X6.9494 Y-12.3898
G01 X6.9650 Y-12.4131
G01 X6.9871 Y-12.4400
G01 X7.0069 Y-12.4598
G01 X7.0200 Y-12.4713
G01 X7.0338 Y-12.4819
G01 X7.0571 Y-12.4975
G01 X7.0878 Y-12.5139
G01 X7.1137 Y-12.5246
G01 X7.1299 Y-12.5301
G01 X7.1470 Y-12.5347
G01 X7.1744 Y-12.5402
G01 X7.2091 Y-12.5436
G01 X7.2388 Y-12.5435
G01 X7.2693 Y-12.5406
G01 X7.2795 Y-12.5413
G01 X7.5795 Y-12.5413
G01 X7.5897 Y-12.5406
G01 X7.6030 Y-12.5372
G01 X7.6126 Y-12.5330
G01 X7.6237 Y-12.5256
G01 X7.6290 Y-12.5208
G01 X7.6356 Y-12.5131
G01 X7.6427 Y-12.5013
G01 X7.6474 Y-12.4884
G01 X7.6495 Y-12.4725
G01 X7.6495 Y-10.4701
G01 X7.6474 Y-10.4542
G01 X7.6442 Y-10.4446
G01 X7.6411 Y-10.4380
G01 X7.6356 Y-10.4295
G01 X7.6312 Y-10.4241
G01 X7.6186 Y-10.4133
G01 X7.6062 Y-10.4066
G01 X7.5966 Y-10.4034
G01 X7.5897 Y-10.4020
G01 X7.5795 Y-10.4013
G01 X7.5432 Y-10.4013
G01 X7.5432 Y-9.5777
G01 X8.8925 Y-9.5673
G01 X8.9099 Y-9.5667
G01 X8.9394 Y-9.5635
G01 X8.9566 Y-9.5603
G01 X8.9853 Y-9.5528
G01 X9.0132 Y-9.5427
G01 X9.0291 Y-9.5355
G01 X9.0552 Y-9.5214
G01 X9.0699 Y-9.5120
G01 X9.0840 Y-9.5018
G01 X9.1068 Y-9.4827
G01 X9.1277 Y-9.4616
G01 X9.1390 Y-9.4484
G01 X9.1496 Y-9.4345
G01 X9.1658 Y-9.4097
G01 X9.1743 Y-9.3944
G01 X9.1867 Y-9.3674
G01 X9.1928 Y-9.3511
G01 X9.2011 Y-9.3226
G01 X9.2072 Y-9.2900
G01 X9.2090 Y-9.2744
G01 X9.2101 Y-9.2464
G01 X9.2083 Y-9.2134
G01 X9.2035 Y-9.1823
G01 X9.1956 Y-9.1519
G01 X9.1841 Y-9.1208
G01 X9.1703 Y-9.0926
G01 X9.1624 Y-9.0791
G01 X9.1498 Y-9.0602
G01 X9.1495 Y-6.0713
G01 X9.1488 Y-6.0611
G01 X9.1454 Y-6.0478
G01 X9.1412 Y-6.0382
G01 X9.1338 Y-6.0271
G01 X9.1290 Y-6.0218
G01 X9.1213 Y-6.0152
G01 X9.1095 Y-6.0081
G01 X9.0966 Y-6.0034
G01 X9.0829 Y-6.0014
G01 X8.7725 Y-6.0016
G01 X8.7593 Y-6.0043
G01 X8.7495 Y-6.0081
G01 X8.7408 Y-6.0130
G01 X8.7323 Y-6.0196
G01 X8.7252 Y-6.0271
G01 X8.7178 Y-6.0382
G01 X8.7136 Y-6.0478
G01 X8.7102 Y-6.0611
G01 X8.7095 Y-6.0713
G01 X8.7096 Y-8.9285
G01 X4.0505 Y-8.9644
G01 X4.0505 Y-8.6413
G01 X4.0497 Y-8.6310
G01 X4.0475 Y-8.6211
G01 X4.0438 Y-8.6114
G01 X4.0387 Y-8.6024
G01 X4.0322 Y-8.5941
G01 X4.0223 Y-8.5851
G01 X4.0134 Y-8.5795
G01 X4.0040 Y-8.5754
G01 X3.9944 Y-8.5727
G01 X3.9805 Y-8.5713
G01 X2.3805 Y-8.5713
G01 X2.3704 Y-8.5720
G01 X2.3570 Y-8.5754
G01 X2.3476 Y-8.5795
G01 X2.3362 Y-8.5871
G01 X2.3244 Y-8.5994
G01 X2.3172 Y-8.6114
G01 X2.3126 Y-8.6243
G01 X2.3105 Y-8.6394
G01 X2.3105 Y-9.4495
G01 X2.2849 Y-9.4859
G01 X2.2577 Y-9.5288
G01 X2.2309 Y-9.5760
G01 X2.2066 Y-9.6245
G01 X2.1860 Y-9.6709
G01 X2.1677 Y-9.7183
G01 X2.1506 Y-9.7699
G01 X2.1362 Y-9.8222
G01 X2.1251 Y-9.8718
G01 X2.1164 Y-9.9218
G01 X2.1097 Y-9.9751
G01 X2.1058 Y-10.0281
G01 X2.1045 Y-10.0797
G01 X2.1045 Y-10.7406
G01 X2.0858 Y-10.7603
G01 X2.0387 Y-10.8149
G01 X1.9939 Y-10.8723
G01 X1.9518 Y-10.9323
G01 X1.9141 Y-10.9918
G01 X1.8790 Y-11.0537
G01 X1.8461 Y-11.1190
G01 X1.8163 Y-11.1866
G01 X1.7909 Y-11.2523
G01 X1.7688 Y-11.3191
G01 X1.7491 Y-11.3903
G01 X1.7329 Y-11.4624
G01 X1.7209 Y-11.5318
G01 X1.7123 Y-11.6017
G01 X1.7068 Y-11.6754
G01 X1.7050 Y-11.7475
G01 X1.7068 Y-11.8196
G01 X1.7123 Y-11.8933
G01 X1.7209 Y-11.9632
G01 X1.7329 Y-12.0326
G01 X1.7487 Y-12.1030
G00 Z3.0000
G00 X0.9562 Y-15.9970
G01 F80.00
G01 Z-0.0746
G01 F50.00
G01 X0.9699 Y-16.0462
G01 X0.9843 Y-16.0898
G01 X1.0014 Y-16.1343
G01 X1.0215 Y-16.1794
G01 X1.0421 Y-16.2204
G01 X1.0656 Y-16.2618
G01 X1.0921 Y-16.3035
G01 X1.1185 Y-16.3410
G01 X1.1478 Y-16.3785
G01 X1.1789 Y-16.4146
G01 X1.2106 Y-16.4479
G01 X1.2476 Y-16.4831
G01 X1.2824 Y-16.5131
G01 X1.3185 Y-16.5413
G01 X1.3603 Y-16.5707
G01 X1.3991 Y-16.5953
G01 X1.4405 Y-16.6188
G01 X1.4831 Y-16.6402
G01 X1.5250 Y-16.6588
G01 X1.5727 Y-16.6772
G01 X1.6164 Y-16.6916
G01 X1.6622 Y-16.7043
G01 X1.7104 Y-16.7150
G01 X1.7556 Y-16.7228
G01 X1.8029 Y-16.7287
G01 X1.8504 Y-16.7322
G01 X1.8980 Y-16.7334
G01 X5.6600 Y-16.7334
G01 X5.7009 Y-16.7515
G01 X5.7483 Y-16.7698
G01 X5.7982 Y-16.7863
G01 X5.8504 Y-16.8008
G01 X5.9017 Y-16.8123
G01 X5.9534 Y-16.8213
G01 X6.0072 Y-16.8279
G01 X6.0579 Y-16.8316
G01 X6.1087 Y-16.8329
G01 X6.1612 Y-16.8317
G01 X6.2170 Y-16.8276
G01 X6.2674 Y-16.8213
G01 X6.3191 Y-16.8123
G01 X6.3704 Y-16.8008
G01 X6.4194 Y-16.7873
G01 X6.4725 Y-16.7698
G01 X6.5199 Y-16.7515
G01 X6.5679 Y-16.7302
G01 X6.6148 Y-16.7066
G01 X6.6590 Y-16.6815
G01 X6.7063 Y-16.6516
G01 X6.7478 Y-16.6223
G01 X6.7879 Y-16.5911
G01 X6.8290 Y-16.5557
G01 X6.8670 Y-16.5195
G01 X6.9032 Y-16.4815
G01 X6.9375 Y-16.4417
G01 X6.9698 Y-16.4003
G01 X7.0001 Y-16.3574
G01 X7.0282 Y-16.3130
G01 X7.0548 Y-16.2658
G01 X7.0777 Y-16.2204
G01 X7.0990 Y-16.1724
G01 X7.1179 Y-16.1234
G01 X7.1348 Y-16.0719
G01 X7.1483 Y-16.0229
G01 X7.1602 Y-15.9700
G01 X7.1691 Y-15.9182
G01 X7.1752 Y-15.8678
G01 X7.1790 Y-15.8171
G01 X7.1804 Y-15.7629
G01 X7.1791 Y-15.7104
G01 X7.1752 Y-15.6580
G01 X7.1688 Y-15.6059
G01 X7.1598 Y-15.5542
G01 X7.1483 Y-15.5029
G01 X7.1343 Y-15.4523
G01 X7.1179 Y-15.4024
G01 X7.0990 Y-15.3534
G01 X7.0777 Y-15.3054
G01 X7.0541 Y-15.2585
G01 X7.0282 Y-15.2128
G01 X7.0001 Y-15.1684
G01 X6.9698 Y-15.1255
G01 X6.9375 Y-15.0841
G01 X6.9044 Y-15.0456
G01 X6.8924 Y-15.0330
G01 X8.1190 Y-13.2611
G01 X8.1303 Y-13.2428
G01 X8.1401 Y-13.2226
G01 X8.1478 Y-13.2016
G01 X8.1531 Y-13.1808
G01 X8.1566 Y-13.1577
G01 X8.1576 Y-13.1357
G01 X8.1495 Y-11.7845
G01 X8.1495 Y-10.4688
G01 X8.1481 Y-10.4573
G01 X8.1442 Y-10.4446
G01 X8.1371 Y-10.4316
G01 X8.1290 Y-10.4218
G01 X8.1192 Y-10.4137
G01 X8.1062 Y-10.4066
G01 X8.0935 Y-10.4027
G01 X8.0820 Y-10.4013
G01 X7.7795 Y-10.4013
G01 X7.7693 Y-10.4020
G01 X7.7593 Y-10.4043
G01 X7.7496 Y-10.4080
G01 X7.7404 Y-10.4133
G01 X7.7300 Y-10.4218
G01 X7.7234 Y-10.4295
G01 X7.7163 Y-10.4413
G01 X7.7125 Y-10.4511
G01 X7.7103 Y-10.4608
G01 X7.7095 Y-10.4713
G01 X7.7095 Y-12.4713
G01 X7.7103 Y-12.4818
G01 X7.7136 Y-12.4949
G01 X7.7170 Y-13.0685
G01 X6.5323 Y-14.7799
G01 X6.5183 Y-14.7737
G01 X6.4709 Y-14.7554
G01 X6.4213 Y-14.7391
G01 X6.3704 Y-14.7250
G01 X6.3191 Y-14.7135
G01 X6.2674 Y-14.7045
G01 X6.2153 Y-14.6981
G01 X6.1629 Y-14.6942
G01 X6.1104 Y-14.6929
G01 X6.0579 Y-14.6942
G01 X6.0055 Y-14.6981
G01 X5.9534 Y-14.7045
G01 X5.9001 Y-14.7138
G01 X5.8504 Y-14.7250
G01 X5.7982 Y-14.7395
G01 X5.7484 Y-14.7560
G01 X5.7009 Y-14.7743
G01 X5.6600 Y-14.7924
G01 X1.8971 Y-14.7925
G01 X1.8504 Y-14.7936
G01 X1.8046 Y-14.7970
G01 X1.7556 Y-14.8030
G01 X1.7070 Y-14.8115
G01 X1.6622 Y-14.8215
G01 X1.6163 Y-14.8342
G01 X1.5711 Y-14.8492
G01 X1.5250 Y-14.8670
G01 X1.4831 Y-14.8856
G01 X1.4421 Y-14.9062
G01 X1.3991 Y-14.9305
G01 X1.3588 Y-14.9560
G01 X1.3185 Y-14.9845
G01 X1.2824 Y-15.0127
G01 X1.2476 Y-15.0427
G01 X1.2118 Y-15.0767
G01 X1.1789 Y-15.1112
G01 X1.1468 Y-15.1486
G01 X1.1185 Y-15.1848
G01 X1.0921 Y-15.2223
G01 X1.0656 Y-15.2640
G01 X1.0421 Y-15.3054
G01 X1.0200 Y-15.3495
G01 X1.0014 Y-15.3915
G01 X0.9849 Y-15.4344
G01 X0.9693 Y-15.4812
G01 X0.9562 Y-15.5288
G01 X0.9462 Y-15.5736
G01 X0.9383 Y-15.6188
G01 X0.9322 Y-15.6678
G01 X0.9287 Y-15.7170
G01 X0.9275 Y-15.7629
G01 X0.9287 Y-15.8088
G01 X0.9322 Y-15.8580
G01 X0.9383 Y-15.9070
G01 X0.9462 Y-15.9522
G01 X0.9562 Y-15.9970
G01 X0.8881 Y-16.0132
G01 X0.8881 Y-16.0132
G01 X0.9026 Y-16.0657
G01 X0.9196 Y-16.1166
G01 X0.9371 Y-16.1619
G01 X0.9560 Y-16.2046
G01 X0.9803 Y-16.2531
G01 X1.0058 Y-16.2981
G01 X1.0348 Y-16.3438
G01 X1.0644 Y-16.3854
G01 X1.0932 Y-16.4223
G01 X1.1248 Y-16.4590
G01 X1.1618 Y-16.4981
G01 X1.1986 Y-16.5332
G01 X1.2373 Y-16.5666
G01 X1.2406 Y-16.5693
G01 X1.2755 Y-16.5965
G01 X1.2775 Y-16.5981
G01 X1.3193 Y-16.6275
G01 X1.3624 Y-16.6549
G01 X1.4068 Y-16.6801
G01 X1.4528 Y-16.7033
G01 X1.4990 Y-16.7238
G01 X1.5467 Y-16.7422
G01 X1.5960 Y-16.7586
G01 X1.6444 Y-16.7720
G01 X1.6942 Y-16.7832
G01 X1.7454 Y-16.7921
G01 X1.7952 Y-16.7983
G01 X1.8444 Y-16.8019
G01 X1.8980 Y-16.8034
G01 X5.6452 Y-16.8034
G01 X5.6749 Y-16.8164
G01 X5.7239 Y-16.8354
G01 X5.7769 Y-16.8530
G01 X5.8326 Y-16.8685
G01 X5.8855 Y-16.8805
G01 X5.9431 Y-16.8906
G01 X5.9978 Y-16.8973
G01 X6.0536 Y-16.9015
G01 X6.1095 Y-16.9029
G01 X6.1655 Y-16.9016
G01 X6.2230 Y-16.8973
G01 X6.2777 Y-16.8906
G01 X6.3336 Y-16.8808
G01 X6.3882 Y-16.8685
G01 X6.4417 Y-16.8537
G01 X6.4953 Y-16.8360
G01 X6.5498 Y-16.8148
G01 X6.5980 Y-16.7934
G01 X6.6447 Y-16.7699
G01 X6.6935 Y-16.7424
G01 X6.7437 Y-16.7108
G01 X6.7902 Y-16.6780
G01 X6.8343 Y-16.6436
G01 X6.8785 Y-16.6052
G01 X6.9165 Y-16.5690
G01 X6.9527 Y-16.5310
G01 X6.9896 Y-16.4885
G01 X7.0255 Y-16.4427
G01 X7.0587 Y-16.3955
G01 X7.0884 Y-16.3486
G01 X7.1174 Y-16.2972
G01 X7.1424 Y-16.2472
G01 X7.1639 Y-16.1984
G01 X7.1826 Y-16.1502
G01 X7.2015 Y-16.0933
G01 X7.2164 Y-16.0391
G01 X7.2291 Y-15.9819
G01 X7.2382 Y-15.9293
G01 X7.2445 Y-15.8781
G01 X7.2490 Y-15.8184
G01 X7.2504 Y-15.7633
G01 X7.2490 Y-15.7074
G01 X7.2445 Y-15.6477
G01 X7.2382 Y-15.5965
G01 X7.2291 Y-15.5439
G01 X7.2168 Y-15.4884
G01 X7.2011 Y-15.4312
G01 X7.1826 Y-15.3757
G01 X7.1635 Y-15.3264
G01 X7.1424 Y-15.2786
G01 X7.1170 Y-15.2278
G01 X7.0884 Y-15.1772
G01 X7.0577 Y-15.1287
G01 X7.0255 Y-15.0831
G01 X6.9933 Y-15.0417
G01 X6.9813 Y-15.0276
G01 X8.1314 Y-13.3661
G01 X8.1239 Y-14.8923
G01 X8.1251 Y-14.9110
G01 X8.1273 Y-14.9278
G01 X8.1317 Y-14.9501
G01 X8.1371 Y-14.9699
G01 X8.1448 Y-14.9913
G01 X8.1519 Y-15.0076
G01 X8.1634 Y-15.0293
G01 X8.1744 Y-15.0466
G01 X8.1884 Y-15.0654
G01 X8.2002 Y-15.0790
G01 X8.2175 Y-15.0963
G01 X8.2317 Y-15.1086
G01 X8.2514 Y-15.1231
G01 X8.2669 Y-15.1329
G01 X8.2889 Y-15.1446
G01 X8.3076 Y-15.1527
G01 X9.8140 Y-15.6757
G01 X9.8117 Y-15.7078
G01 X9.8104 Y-15.7638
G01 X9.8117 Y-15.8180
G01 X9.8157 Y-15.8721
G01 X9.8233 Y-15.9336
G01 X9.8325 Y-15.9861
G01 X9.8440 Y-16.0374
G01 X9.8605 Y-16.0971
G01 X9.8770 Y-16.1469
G01 X9.8972 Y-16.1992
G01 X9.9195 Y-16.2495
G01 X9.9434 Y-16.2972
G01 X9.9730 Y-16.3497
G01 X10.0021 Y-16.3955
G01 X10.0327 Y-16.4392
G01 X10.0714 Y-16.4887
G01 X10.1056 Y-16.5284
G01 X10.1449 Y-16.5696
G01 X10.1842 Y-16.6070
G01 X10.2246 Y-16.6419
G01 X10.2741 Y-16.6806
G01 X10.3171 Y-16.7108
G01 X10.3636 Y-16.7403
G01 X10.4123 Y-16.7679
G01 X10.4600 Y-16.7920
G01 X10.5173 Y-16.8174
G01 X10.5672 Y-16.8365
G01 X10.6203 Y-16.8541
G01 X10.6742 Y-16.8689
G01 X10.7288 Y-16.8812
G01 X10.7833 Y-16.8906
G01 X10.8395 Y-16.8975
G01 X10.8953 Y-16.9016
G01 X10.9513 Y-16.9029
G01 X11.0072 Y-16.9015
G01 X11.0630 Y-16.8973
G01 X11.1179 Y-16.8905
G01 X11.1753 Y-16.8805
G01 X11.2282 Y-16.8685
G01 X11.2838 Y-16.8530
G01 X11.3369 Y-16.8354
G01 X11.3859 Y-16.8164
G01 X11.4156 Y-16.8034
G01 X15.2867 Y-16.8034
G01 X15.3403 Y-16.8019
G01 X15.3895 Y-16.7983
G01 X15.4396 Y-16.7921
G01 X15.4905 Y-16.7832
G01 X15.5403 Y-16.7720
G01 X15.5895 Y-16.7583
G01 X15.6380 Y-16.7422
G01 X15.6857 Y-16.7238
G01 X15.7313 Y-16.7036
G01 X15.7764 Y-16.6809
G01 X15.8209 Y-16.6558
G01 X15.8647 Y-16.6281
G01 X15.9062 Y-16.5988
G01 X15.9461 Y-16.5677
G01 X15.9848 Y-16.5344
G01 X16.0218 Y-16.4992
G01 X16.0570 Y-16.4623
G01 X16.0931 Y-16.4203
G01 X16.1229 Y-16.3820
G01 X16.1499 Y-16.3438
G01 X16.1796 Y-16.2971
G01 X16.2059 Y-16.2503
G01 X16.2276 Y-16.2070
G01 X16.2466 Y-16.1642
G01 X16.2666 Y-16.1126
G01 X16.2833 Y-16.0616
G01 X16.2962 Y-16.0149
G01 X16.3064 Y-15.9692
G01 X16.3159 Y-15.9154
G01 X16.3224 Y-15.8615
G01 X16.3259 Y-15.8131
G01 X16.3271 Y-15.7663
G01 X16.3259 Y-15.7127
G01 X16.3218 Y-15.6575
G01 X16.3159 Y-15.6104
G01 X16.3078 Y-15.5633
G01 X16.2962 Y-15.5109
G01 X16.2821 Y-15.4601
G01 X16.2651 Y-15.4092
G01 X16.2476 Y-15.3639
G01 X16.2287 Y-15.3212
G01 X16.2047 Y-15.2732
G01 X16.1773 Y-15.2251
G01 X16.1518 Y-15.1849
G01 X16.1244 Y-15.1459
G01 X16.0910 Y-15.1029
G01 X16.0553 Y-15.0617
G01 X16.0218 Y-15.0266
G01 X15.9879 Y-14.9943
G01 X15.9467 Y-14.9586
G01 X15.9037 Y-14.9252
G01 X15.8647 Y-14.8978
G01 X15.8245 Y-14.8723
G01 X15.7779 Y-14.8457
G01 X15.7284 Y-14.8209
G01 X15.6841 Y-14.8013
G01 X15.6404 Y-14.7845
G01 X15.5895 Y-14.7675
G01 X15.5387 Y-14.7534
G01 X15.4888 Y-14.7423
G01 X15.4360 Y-14.7332
G01 X15.3895 Y-14.7275
G01 X15.3412 Y-14.7239
G01 X15.2880 Y-14.7225
G01 X11.4156 Y-14.7224
G01 X11.3859 Y-14.7094
G01 X11.3368 Y-14.6904
G01 X11.2838 Y-14.6728
G01 X11.2282 Y-14.6573
G01 X11.1720 Y-14.6446
G01 X11.1143 Y-14.6348
G01 X11.0630 Y-14.6285
G01 X11.0098 Y-14.6245
G01 X10.9513 Y-14.6229
G01 X10.8919 Y-14.6244
G01 X10.8378 Y-14.6285
G01 X10.7797 Y-14.6358
G01 X10.7246 Y-14.6455
G01 X10.6726 Y-14.6573
G01 X10.6228 Y-14.6710
G01 X10.5672 Y-14.6893
G01 X10.5149 Y-14.7094
G01 X10.4633 Y-14.7322
G01 X10.4100 Y-14.7592
G01 X10.3614 Y-14.7869
G01 X10.3171 Y-14.8150
G01 X10.2741 Y-14.8452
G01 X10.2273 Y-14.8816
G01 X10.1849 Y-14.9181
G01 X10.1437 Y-14.9574
G01 X10.1034 Y-14.9999
G01 X10.0691 Y-15.0397
G01 X10.0368 Y-15.0811
G01 X10.0042 Y-15.1271
G01 X8.7049 Y-14.6768
G01 X8.7098 Y-13.7225
G01 X8.7324 Y-13.7460
G01 X8.7542 Y-13.7643
G01 X8.7798 Y-13.7818
G01 X8.8028 Y-13.7942
G01 X8.8312 Y-13.8062
G01 X8.8584 Y-13.8146
G01 X8.8866 Y-13.8203
G01 X8.9129 Y-13.8230
G01 X9.8058 Y-13.8234
G01 X9.8316 Y-13.8220
G01 X9.8594 Y-13.8179
G01 X9.8860 Y-13.8113
G01 X9.9114 Y-13.8024
G01 X9.9369 Y-13.7906
G01 X9.9618 Y-13.7760
G01 X12.0682 Y-12.3959
G01 X12.0897 Y-12.3996
G01 X12.1464 Y-12.4064
G01 X12.2005 Y-12.4104
G01 X12.2556 Y-12.4117
G01 X14.2560 Y-12.4117
G01 X14.3150 Y-12.4101
G01 X14.3682 Y-12.4061
G01 X14.4202 Y-12.3997
G01 X14.4773 Y-12.3899
G01 X14.5319 Y-12.3777
G01 X14.5858 Y-12.3628
G01 X14.6366 Y-12.3461
G01 X14.6952 Y-12.3235
G01 X14.7429 Y-12.3023
G01 X14.7962 Y-12.2754
G01 X14.8416 Y-12.2497
G01 X14.8892 Y-12.2195
G01 X14.9347 Y-12.1875
G01 X14.9791 Y-12.1529
G01 X15.0214 Y-12.1163
G01 X15.0614 Y-12.0783
G01 X15.1007 Y-12.0370
G01 X15.1356 Y-11.9967
G01 X15.1719 Y-11.9503
G01 X15.2039 Y-11.9048
G01 X15.2341 Y-11.8572
G01 X15.2630 Y-11.8058
G01 X15.2867 Y-11.7585
G01 X15.3106 Y-11.7045
G01 X15.3305 Y-11.6522
G01 X15.3467 Y-11.6031
G01 X15.3610 Y-11.5516
G01 X15.3740 Y-11.4945
G01 X15.3837 Y-11.4387
G01 X15.3905 Y-11.3838
G01 X15.3947 Y-11.3280
G01 X15.3961 Y-11.2703
G01 X15.3947 Y-11.2144
G01 X15.3905 Y-11.1586
G01 X15.3832 Y-11.1005
G01 X15.3740 Y-11.0479
G01 X15.3610 Y-10.9908
G01 X15.3460 Y-10.9369
G01 X15.3291 Y-10.8862
G01 X15.3106 Y-10.8379
G01 X15.2867 Y-10.7839
G01 X15.2618 Y-10.7343
G01 X15.2341 Y-10.6852
G01 X15.2039 Y-10.6376
G01 X15.1719 Y-10.5921
G01 X15.1350 Y-10.5450
G01 X15.0983 Y-10.5028
G01 X15.0614 Y-10.4641
G01 X15.0240 Y-10.4285
G01 X14.9791 Y-10.3895
G01 X14.9347 Y-10.3549
G01 X14.8892 Y-10.3229
G01 X14.8416 Y-10.2927
G01 X14.7925 Y-10.2650
G01 X14.7401 Y-10.2388
G01 X14.6913 Y-10.2172
G01 X14.6429 Y-10.1985
G01 X14.5875 Y-10.1801
G01 X14.5319 Y-10.1647
G01 X14.4747 Y-10.1520
G01 X14.4228 Y-10.1430
G01 X14.3708 Y-10.1366
G01 X14.3124 Y-10.1321
G01 X14.2556 Y-10.1307
G01 X12.2543 Y-10.1307
G01 X12.1988 Y-10.1321
G01 X12.1430 Y-10.1363
G01 X12.0881 Y-10.1431
G01 X12.0323 Y-10.1528
G01 X11.9752 Y-10.1658
G01 X11.9237 Y-10.1801
G01 X11.8722 Y-10.1971
G01 X11.8160 Y-10.2189
G01 X11.7683 Y-10.2401
G01 X11.7210 Y-10.2638
G01 X11.6696 Y-10.2927
G01 X11.6191 Y-10.3249
G01 X11.5765 Y-10.3549
G01 X11.5348 Y-10.3874
G01 X11.4898 Y-10.4261
G01 X11.4467 Y-10.4672
G01 X11.4105 Y-10.5054
G01 X11.3739 Y-10.5477
G01 X11.3375 Y-10.5946
G01 X11.3073 Y-10.6376
G01 X11.2792 Y-10.6819
G01 X11.2494 Y-10.7343
G01 X11.2232 Y-10.7867
G01 X11.2016 Y-10.8355
G01 X11.1829 Y-10.8839
G01 X11.1640 Y-10.9410
G01 X11.1495 Y-10.9932
G01 X11.1377 Y-11.0453
G01 X11.1275 Y-11.1037
G01 X11.1203 Y-11.1628
G01 X11.1165 Y-11.2144
G01 X11.1151 Y-11.2678
G01 X11.1165 Y-11.3280
G01 X11.1210 Y-11.3864
G01 X11.1274 Y-11.4384
G01 X11.1364 Y-11.4903
G01 X11.1495 Y-11.5492
G01 X11.1640 Y-11.6014
G01 X11.1807 Y-11.6522
G01 X11.2016 Y-11.7069
G01 X11.2261 Y-11.7618
G01 X11.2502 Y-11.8096
G01 X11.2763 Y-11.8557
G01 X11.3093 Y-11.9077
G01 X11.3393 Y-11.9503
G01 X11.3723 Y-11.9927
G01 X11.4111 Y-12.0377
G01 X11.4485 Y-12.0770
G01 X11.4680 Y-12.0956
G01 X9.7162 Y-13.2433
G01 X9.2198 Y-13.2433
G01 X9.2198 Y-12.5979
G01 X9.2310 Y-12.6026
G01 X9.2437 Y-12.6066
G01 X9.2573 Y-12.6095
G01 X9.2683 Y-12.6108
G01 X9.3653 Y-12.6113
G01 X9.3855 Y-12.6260
G01 X9.4031 Y-12.6373
G01 X9.4213 Y-12.6476
G01 X9.4402 Y-12.6570
G01 X9.4698 Y-12.6692
G01 X9.4887 Y-12.6757
G01 X9.5104 Y-12.6817
G01 X9.5317 Y-12.6864
G01 X9.5506 Y-12.6895
G01 X9.5818 Y-12.6925
G01 X9.6201 Y-12.6929
G01 X9.6418 Y-12.6914
G01 X9.6611 Y-12.6891
G01 X9.6967 Y-12.6821
G01 X9.7185 Y-12.6762
G01 X9.7390 Y-12.6692
G01 X9.7681 Y-12.6572
G01 X9.7875 Y-12.6476
G01 X9.8079 Y-12.6359
G01 X9.8340 Y-12.6185
G01 X9.8518 Y-12.6048
G01 X9.8683 Y-12.5904
G01 X9.8827 Y-12.5765
G01 X9.9043 Y-12.5526
G01 X9.9179 Y-12.5352
G01 X9.9307 Y-12.5170
G01 X9.9468 Y-12.4900
G01 X9.9572 Y-12.4696
G01 X9.9661 Y-12.4492
G01 X9.9770 Y-12.4188
G01 X9.9836 Y-12.3945
G01 X9.9902 Y-12.3609
G01 X9.9929 Y-12.3379
G01 X9.9945 Y-12.3044
G01 X9.9945 Y-10.8475
G01 X12.2222 Y-9.3947
G01 X12.2556 Y-9.3955
G01 X14.2556 Y-9.3955
G01 X14.3124 Y-9.3941
G01 X14.3708 Y-9.3896
G01 X14.4231 Y-9.3831
G01 X14.4789 Y-9.3734
G01 X14.5319 Y-9.3615
G01 X14.5834 Y-9.3473
G01 X14.6430 Y-9.3277
G01 X14.6928 Y-9.3084
G01 X14.7429 Y-9.2861
G01 X14.7925 Y-9.2612
G01 X14.8416 Y-9.2335
G01 X14.8891 Y-9.2034
G01 X14.9322 Y-9.1731
G01 X14.9818 Y-9.1344
G01 X15.0214 Y-9.1001
G01 X15.0639 Y-9.0596
G01 X15.1009 Y-9.0206
G01 X15.1394 Y-8.9758
G01 X15.1719 Y-8.9341
G01 X15.2019 Y-8.8915
G01 X15.2320 Y-8.8443
G01 X15.2610 Y-8.7934
G01 X15.2867 Y-8.7423
G01 X15.3090 Y-8.6922
G01 X15.3291 Y-8.6400
G01 X15.3472 Y-8.5852
G01 X15.3621 Y-8.5313
G01 X15.3743 Y-8.4767
G01 X15.3842 Y-8.4189
G01 X15.3905 Y-8.3676
G01 X15.3945 Y-8.3144
G01 X15.3961 Y-8.2584
G01 X15.3948 Y-8.1999
G01 X15.3909 Y-8.1466
G01 X15.3838 Y-8.0878
G01 X15.3743 Y-8.0333
G01 X15.3621 Y-7.9787
G01 X15.3470 Y-7.9238
G01 X15.3291 Y-7.8700
G01 X15.3090 Y-7.8178
G01 X15.2865 Y-7.7672
G01 X15.2598 Y-7.7144
G01 X15.2337 Y-7.6685
G01 X15.2019 Y-7.6185
G01 X15.1696 Y-7.5729
G01 X15.1367 Y-7.5309
G01 X15.1029 Y-7.4917
G01 X15.0627 Y-7.4492
G01 X15.0221 Y-7.4105
G01 X14.9791 Y-7.3733
G01 X14.9343 Y-7.3384
G01 X14.8895 Y-7.3069
G01 X14.8449 Y-7.2786
G01 X14.7934 Y-7.2493
G01 X14.7439 Y-7.2243
G01 X14.6952 Y-7.2027
G01 X14.6395 Y-7.1810
G01 X14.5875 Y-7.1639
G01 X14.5360 Y-7.1496
G01 X14.4774 Y-7.1363
G01 X14.4238 Y-7.1270
G01 X14.3708 Y-7.1204
G01 X14.3111 Y-7.1159
G01 X14.2556 Y-7.1145
G01 X12.2556 Y-7.1145
G01 X12.2019 Y-7.1158
G01 X12.1435 Y-7.1200
G01 X12.0917 Y-7.1264
G01 X12.0297 Y-7.1371
G01 X11.9785 Y-7.1487
G01 X11.9237 Y-7.1639
G01 X11.8717 Y-7.1810
G01 X11.8189 Y-7.2014
G01 X11.7673 Y-7.2243
G01 X11.7150 Y-7.2508
G01 X11.6696 Y-7.2765
G01 X11.6249 Y-7.3048
G01 X11.5769 Y-7.3384
G01 X11.5321 Y-7.3733
G01 X11.4873 Y-7.4122
G01 X11.4467 Y-7.4510
G01 X11.4100 Y-7.4897
G01 X11.3761 Y-7.5289
G01 X11.3401 Y-7.5749
G01 X11.3073 Y-7.6214
G01 X11.2771 Y-7.6690
G01 X11.2482 Y-7.7204
G01 X11.2247 Y-7.7672
G01 X11.2033 Y-7.8154
G01 X11.1829 Y-7.8677
G01 X11.1642 Y-7.9238
G01 X11.1487 Y-7.9804
G01 X11.1364 Y-8.0359
G01 X11.1274 Y-8.0878
G01 X11.1210 Y-8.1398
G01 X11.1165 Y-8.1982
G01 X11.1151 Y-8.2559
G01 X11.1165 Y-8.3118
G01 X11.1210 Y-8.3702
G01 X11.1274 Y-8.4222
G01 X11.1364 Y-8.4741
G01 X11.1491 Y-8.5313
G01 X11.1645 Y-8.5869
G01 X11.1829 Y-8.6424
G01 X11.2016 Y-8.6907
G01 X11.2232 Y-8.7395
G01 X11.2494 Y-8.7919
G01 X11.2771 Y-8.8410
G01 X11.3088 Y-8.8908
G01 X11.3411 Y-8.9364
G01 X11.3739 Y-8.9784
G01 X11.3948 Y-9.0028
G01 X9.3913 Y-10.3094
G01 X9.3610 Y-10.3313
G01 X9.2740 Y-10.3314
G01 X9.2611 Y-10.3325
G01 X9.2468 Y-10.3352
G01 X9.2278 Y-10.3412
G01 X9.2121 Y-10.3486
G01 X9.1944 Y-10.3601
G01 X9.1795 Y-10.3733
G01 X9.1693 Y-10.3639
G01 X9.1601 Y-10.3568
G01 X9.1469 Y-10.3486
G01 X9.1344 Y-10.3425
G01 X9.1216 Y-10.3378
G01 X9.1090 Y-10.3345
G01 X9.0979 Y-10.3325
G01 X9.0832 Y-10.3314
G01 X8.7795 Y-10.3313
G01 X8.7649 Y-10.3321
G01 X8.7535 Y-10.3338
G01 X8.7406 Y-10.3368
G01 X8.7184 Y-10.3453
G01 X8.7086 Y-10.3506
G01 X8.6967 Y-10.3584
G01 X8.6795 Y-10.3733
G01 X8.6693 Y-10.3639
G01 X8.6601 Y-10.3568
G01 X8.6504 Y-10.3506
G01 X8.6375 Y-10.3439
G01 X8.6248 Y-10.3389
G01 X8.6122 Y-10.3352
G01 X8.5979 Y-10.3325
G01 X8.5850 Y-10.3314
G01 X8.2795 Y-10.3313
G01 X8.2649 Y-10.3321
G01 X8.2535 Y-10.3338
G01 X8.2406 Y-10.3368
G01 X8.2184 Y-10.3453
G01 X8.2086 Y-10.3506
G01 X8.1967 Y-10.3584
G01 X8.1795 Y-10.3733
G01 X8.1693 Y-10.3639
G01 X8.1601 Y-10.3568
G01 X8.1504 Y-10.3506
G01 X8.1375 Y-10.3439
G01 X8.1248 Y-10.3389
G01 X8.1122 Y-10.3352
G01 X8.1017 Y-10.3331
G01 X8.0878 Y-10.3316
G01 X7.7795 Y-10.3313
G01 X7.7649 Y-10.3321
G01 X7.7535 Y-10.3338
G01 X7.7406 Y-10.3368
G01 X7.7278 Y-10.3412
G01 X7.7181 Y-10.3455
G01 X7.7087 Y-10.3505
G01 X7.6974 Y-10.3579
G01 X7.6795 Y-10.3733
G01 X7.6666 Y-10.3617
G01 X7.6503 Y-10.3505
G01 X7.6312 Y-10.3412
G01 X7.6132 Y-10.3354
G01 X7.6132 Y-9.6472
G01 X8.8930 Y-9.6373
G01 X8.9321 Y-9.6350
G01 X8.9511 Y-9.6325
G01 X8.9724 Y-9.6285
G01 X8.9910 Y-9.6240
G01 X9.0210 Y-9.6146
G01 X9.0413 Y-9.6068
G01 X9.0590 Y-9.5988
G01 X9.0926 Y-9.5806
G01 X9.1099 Y-9.5694
G01 X9.1255 Y-9.5582
G01 X9.1405 Y-9.5463
G01 X9.1567 Y-9.5319
G01 X9.1788 Y-9.5095
G01 X9.1913 Y-9.4950
G01 X9.2046 Y-9.4779
G01 X9.2156 Y-9.4621
G01 X9.2279 Y-9.4422
G01 X9.2436 Y-9.4120
G01 X9.2528 Y-9.3905
G01 X9.2641 Y-9.3580
G01 X9.2699 Y-9.3357
G01 X9.2763 Y-9.3017
G01 X9.2788 Y-9.2792
G01 X9.2801 Y-9.2459
G01 X9.2793 Y-9.2220
G01 X9.2755 Y-9.1874
G01 X9.2714 Y-9.1654
G01 X9.2634 Y-9.1343
G01 X9.2554 Y-9.1106
G01 X9.2425 Y-9.0801
G01 X9.2322 Y-9.0599
G01 X9.2198 Y-9.0389
G01 X9.2197 Y-8.1979
G01 X9.2342 Y-8.2037
G01 X9.2468 Y-8.2074
G01 X9.2611 Y-8.2101
G01 X9.2731 Y-8.2112
G01 X9.5795 Y-8.2113
G01 X9.5966 Y-8.2102
G01 X9.6189 Y-8.2142
G01 X9.6397 Y-8.2167
G01 X9.6811 Y-8.2189
G01 X9.7062 Y-8.2184
G01 X9.7303 Y-8.2165
G01 X9.7662 Y-8.2111
G01 X9.7898 Y-8.2060
G01 X9.8106 Y-8.2002
G01 X9.8312 Y-8.1935
G01 X9.8513 Y-8.1858
G01 X9.8716 Y-8.1768
G01 X9.8919 Y-8.1666
G01 X9.9107 Y-8.1559
G01 X9.9282 Y-8.1448
G01 X9.9486 Y-8.1303
G01 X9.9799 Y-8.1043
G01 X9.9955 Y-8.0894
G01 X10.0121 Y-8.0718
G01 X10.0352 Y-8.0437
G01 X10.0477 Y-8.0262
G01 X10.0609 Y-8.0057
G01 X10.0702 Y-7.9893
G01 X10.0813 Y-7.9675
G01 X10.0907 Y-7.9464
G01 X10.0984 Y-7.9263
G01 X10.1059 Y-7.9033
G01 X10.1115 Y-7.8824
G01 X10.1185 Y-7.8468
G01 X10.1216 Y-7.8228
G01 X10.1234 Y-7.7995
G01 X10.1239 Y-6.5992
G01 X13.3504 Y-5.6432
G01 X13.3648 Y-5.6568
G01 X13.4046 Y-5.6911
G01 X13.4515 Y-5.7276
G01 X13.4949 Y-5.7581
G01 X13.5395 Y-5.7864
G01 X13.5907 Y-5.8156
G01 X13.6420 Y-5.8414
G01 X13.6955 Y-5.8650
G01 X13.7449 Y-5.8840
G01 X13.7945 Y-5.9004
G01 X13.8499 Y-5.9159
G01 X13.9070 Y-5.9287
G01 X13.9649 Y-5.9386
G01 X14.0167 Y-5.9450
G01 X14.0694 Y-5.9489
G01 X14.1279 Y-5.9505
G01 X14.1843 Y-5.9491
G01 X14.2440 Y-5.9446
G01 X14.2995 Y-5.9376
G01 X14.3506 Y-5.9287
G01 X14.4026 Y-5.9171
G01 X14.4631 Y-5.9004
G01 X14.5127 Y-5.8840
G01 X14.5684 Y-5.8623
G01 X14.6171 Y-5.8407
G01 X14.6666 Y-5.8157
G01 X14.7148 Y-5.7885
G01 X14.7627 Y-5.7581
G01 X14.8075 Y-5.7266
G01 X14.8496 Y-5.6938
G01 X14.8972 Y-5.6527
G01 X14.9359 Y-5.6158
G01 X14.9744 Y-5.5753
G01 X15.0099 Y-5.5341
G01 X15.0443 Y-5.4901
G01 X15.0790 Y-5.4407
G01 X15.1069 Y-5.3965
G01 X15.1342 Y-5.3484
G01 X15.1612 Y-5.2945
G01 X15.1828 Y-5.2457
G01 X15.2023 Y-5.1950
G01 X15.2211 Y-5.1378
G01 X15.2353 Y-5.0863
G01 X15.2472 Y-5.0333
G01 X15.2574 Y-4.9739
G01 X15.2639 Y-4.9209
G01 X15.2678 Y-4.8683
G01 X15.2693 Y-4.8100
G01 X15.2693 Y-2.8079
G01 X15.2677 Y-2.7506
G01 X15.2637 Y-2.6974
G01 X15.2574 Y-2.6461
G01 X15.2475 Y-2.5883
G01 X15.2349 Y-2.5320
G01 X15.2202 Y-2.4790
G01 X15.2029 Y-2.4266
G01 X15.1828 Y-2.3743
G01 X15.1612 Y-2.3255
G01 X15.1330 Y-2.2694
G01 X15.1073 Y-2.2240
G01 X15.0767 Y-2.1758
G01 X15.0451 Y-2.1309
G01 X15.0105 Y-2.0866
G01 X14.9742 Y-2.0445
G01 X14.9377 Y-2.0060
G01 X14.8921 Y-1.9627
G01 X14.8517 Y-1.9278
G01 X14.8079 Y-1.8937
G01 X14.7617 Y-1.8612
G01 X14.7152 Y-1.8318
G01 X14.6663 Y-1.8041
G01 X14.6195 Y-1.7805
G01 X14.5621 Y-1.7550
G01 X14.5127 Y-1.7360
G01 X14.4599 Y-1.7186
G01 X14.4068 Y-1.7039
G01 X14.3520 Y-1.6916
G01 X14.2957 Y-1.6818
G01 X14.2440 Y-1.6754
G01 X14.1813 Y-1.6707
G01 X14.1282 Y-1.6695
G01 X14.0696 Y-1.6711
G01 X14.0167 Y-1.6750
G01 X13.9649 Y-1.6814
G01 X13.9056 Y-1.6916
G01 X13.8525 Y-1.7035
G01 X13.8010 Y-1.7177
G01 X13.7444 Y-1.7362
G01 X13.6921 Y-1.7564
G01 X13.6443 Y-1.7776
G01 X13.5913 Y-1.8041
G01 X13.5395 Y-1.8336
G01 X13.4945 Y-1.8622
G01 X13.4497 Y-1.8937
G01 X13.4026 Y-1.9306
G01 X13.3626 Y-1.9652
G01 X13.3227 Y-2.0032
G01 X13.2815 Y-2.0467
G01 X13.2471 Y-2.0866
G01 X13.2125 Y-2.1309
G01 X13.1809 Y-2.1758
G01 X13.1524 Y-2.2207
G01 X13.1226 Y-2.2731
G01 X13.0980 Y-2.3219
G01 X13.0765 Y-2.3704
G01 X13.0541 Y-2.4282
G01 X13.0374 Y-2.4790
G01 X13.0234 Y-2.5296
G01 X13.0101 Y-2.5883
G01 X13.0006 Y-2.6427
G01 X12.9942 Y-2.6948
G01 X12.9895 Y-2.7575
G01 X12.9883 Y-2.8100
G01 X12.9888 Y-4.8322
G01 X9.5563 Y-5.8493
G01 X9.5358 Y-5.8561
G01 X9.5150 Y-5.8641
G01 X9.4948 Y-5.8730
G01 X9.4760 Y-5.8825
G01 X9.4578 Y-5.8929
G01 X9.4389 Y-5.9048
G01 X9.4208 Y-5.9176
G01 X9.4033 Y-5.9313
G01 X9.2776 Y-5.9313
G01 X9.2638 Y-5.9322
G01 X9.2533 Y-5.9338
G01 X9.2342 Y-5.9389
G01 X9.2145 Y-5.9473
G01 X9.1974 Y-5.9579
G01 X9.1887 Y-5.9648
G01 X9.1795 Y-5.9733
G01 X9.1703 Y-5.9648
G01 X9.1616 Y-5.9579
G01 X9.1502 Y-5.9505
G01 X9.1379 Y-5.9441
G01 X9.1248 Y-5.9389
G01 X9.1122 Y-5.9352
G01 X9.0987 Y-5.9326
G01 X9.0881 Y-5.9316
G01 X8.7737 Y-5.9314
G01 X8.7603 Y-5.9326
G01 X8.7468 Y-5.9352
G01 X8.7342 Y-5.9389
G01 X8.7197 Y-5.9447
G01 X8.7197 Y-5.9113
G01 X9.3505 Y-5.9113
G01 X9.3688 Y-5.9101
G01 X9.3878 Y-5.9062
G01 X9.4032 Y-5.9010
G01 X9.4157 Y-5.8952
G01 X9.4492 Y-5.8746
G01 X9.4672 Y-5.8644
G01 X9.4889 Y-5.8536
G01 X9.5078 Y-5.8453
G01 X9.5290 Y-5.8371
G01 X9.5504 Y-5.8300
G01 X12.8679 Y-4.8470
G01 X12.8795 Y-4.8430
G01 X12.8921 Y-4.8373
G01 X12.9043 Y-4.8303
G01 X12.9149 Y-4.8226
G01 X12.9258 Y-4.8131
G01 X12.9371 Y-4.8007
G01 X12.9468 Y-4.7871
G01 X12.9536 Y-4.7750
G01 X12.9599 Y-4.7601
G01 X12.9641 Y-4.7464
G01 X12.9669 Y-4.7314
G01 X12.9681 Y-4.7147
G01 X12.9681 Y-2.8117
G01 X12.9696 Y-2.7531
G01 X12.9738 Y-2.6962
G01 X12.9808 Y-2.6397
G01 X12.9905 Y-2.5836
G01 X13.0030 Y-2.5280
G01 X13.0182 Y-2.4731
G01 X13.0360 Y-2.4190
G01 X13.0565 Y-2.3659
G01 X13.0796 Y-2.3138
G01 X13.1052 Y-2.2629
G01 X13.1333 Y-2.2133
G01 X13.1638 Y-2.1652
G01 X13.1966 Y-2.1186
G01 X13.2316 Y-2.0737
G01 X13.2688 Y-2.0306
G01 X13.3081 Y-1.9893
G01 X13.3494 Y-1.9500
G01 X13.3925 Y-1.9128
G01 X13.4374 Y-1.8778
G01 X13.4840 Y-1.8450
G01 X13.5321 Y-1.8145
G01 X13.5817 Y-1.7864
G01 X13.6326 Y-1.7608
G01 X13.6847 Y-1.7377
G01 X13.7378 Y-1.7172
G01 X13.7919 Y-1.6994
G01 X13.8468 Y-1.6842
G01 X13.9024 Y-1.6717
G01 X13.9585 Y-1.6620
G01 X14.0150 Y-1.6550
G01 X14.0719 Y-1.6508
G01 X14.1288 Y-1.6494
G01 X14.1857 Y-1.6508
G01 X14.2426 Y-1.6550
G01 X14.2991 Y-1.6620
G01 X14.3552 Y-1.6717
G01 X14.4108 Y-1.6842
G01 X14.4657 Y-1.6994
G01 X14.5198 Y-1.7172
G01 X14.5729 Y-1.7377
G01 X14.6250 Y-1.7608
G01 X14.6759 Y-1.7864
G01 X14.7255 Y-1.8145
G01 X14.7736 Y-1.8450
G01 X14.8202 Y-1.8778
G01 X14.8651 Y-1.9128
G01 X14.9082 Y-1.9500
G01 X14.9495 Y-1.9893
G01 X14.9888 Y-2.0306
G01 X15.0260 Y-2.0737
G01 X15.0610 Y-2.1186
G01 X15.0938 Y-2.1652
G01 X15.1243 Y-2.2133
G01 X15.1524 Y-2.2629
G01 X15.1780 Y-2.3138
G01 X15.2011 Y-2.3659
G01 X15.2216 Y-2.4190
G01 X15.2394 Y-2.4731
G01 X15.2546 Y-2.5280
G01 X15.2671 Y-2.5836
G01 X15.2768 Y-2.6397
G01 X15.2838 Y-2.6962
G01 X15.2880 Y-2.7531
G01 X15.2895 Y-2.8117
G01 X15.2895 Y-4.8083
G01 X15.2880 Y-4.8669
G01 X15.2838 Y-4.9238
G01 X15.2768 Y-4.9803
G01 X15.2671 Y-5.0364
G01 X15.2546 Y-5.0920
G01 X15.2394 Y-5.1469
G01 X15.2216 Y-5.2010
G01 X15.2011 Y-5.2541
G01 X15.1780 Y-5.3062
G01 X15.1524 Y-5.3571
G01 X15.1243 Y-5.4067
G01 X15.0938 Y-5.4548
G01 X15.0610 Y-5.5014
G01 X15.0260 Y-5.5463
G01 X14.9888 Y-5.5894
G01 X14.9495 Y-5.6307
G01 X14.9082 Y-5.6700
G01 X14.8651 Y-5.7072
G01 X14.8202 Y-5.7422
G01 X14.7736 Y-5.7750
G01 X14.7255 Y-5.8055
G01 X14.6759 Y-5.8336
G01 X14.6250 Y-5.8592
G01 X14.5729 Y-5.8823
G01 X14.5198 Y-5.9028
G01 X14.4657 Y-5.9206
G01 X14.4108 Y-5.9358
G01 X14.3552 Y-5.9483
G01 X14.2991 Y-5.9580
G01 X14.2426 Y-5.9650
G01 X14.1857 Y-5.9692
G01 X14.1288 Y-5.9706
G01 X14.0719 Y-5.9692
G01 X14.0150 Y-5.9650
G01 X13.9585 Y-5.9580
G01 X13.9024 Y-5.9483
G01 X13.8468 Y-5.9358
G01 X13.7919 Y-5.9206
G01 X13.7378 Y-5.9028
G01 X13.6847 Y-5.8823
G01 X13.6326 Y-5.8592
G01 X13.5817 Y-5.8336
G01 X13.5321 Y-5.8055
G01 X13.4840 Y-5.7750
G01 X13.4374 Y-5.7422
G01 X13.3938 Y-5.7083
G01 X13.3830 Y-5.7012
G01 X13.3707 Y-5.6947
G01 X13.3522 Y-5.6877
G01 X13.3330 Y-5.6833
G01 X13.3128 Y-5.6817
G01 X13.2905 Y-5.6833
G01 X13.2720 Y-5.6875
G01 X10.2442 Y-6.5846
G01 X10.2268 Y-6.5910
G01 X10.2102 Y-6.5999
G01 X10.1972 Y-6.6090
G01 X10.1843 Y-6.6205
G01 X10.1751 Y-6.6309
G01 X10.1653 Y-6.6445
G01 X10.1569 Y-6.6601
G01 X10.1512 Y-6.6747
G01 X10.1472 Y-6.6891
G01 X10.1445 Y-6.7065
G01 X10.1440 Y-6.7188
G01 X10.1440 Y-7.7771
G01 X10.1434 Y-7.8014
G01 X10.1417 Y-7.8239
G01 X10.1390 Y-7.8463
G01 X10.1351 Y-7.8686
G01 X10.1302 Y-7.8906
G01 X10.1241 Y-7.9124
G01 X10.1171 Y-7.9339
G01 X10.1089 Y-7.9549
G01 X10.0998 Y-7.9756
G01 X10.0896 Y-7.9958
G01 X10.0785 Y-8.0154
G01 X10.0664 Y-8.0345
G01 X10.0534 Y-8.0530
G01 X10.0395 Y-8.0708
G01 X10.0247 Y-8.0879
G01 X10.0092 Y-8.1043
G01 X9.9928 Y-8.1198
G01 X9.9757 Y-8.1346
G01 X9.9579 Y-8.1485
G01 X9.9394 Y-8.1615
G01 X9.9203 Y-8.1736
G01 X9.9007 Y-8.1847
G01 X9.8805 Y-8.1949
G01 X9.8598 Y-8.2040
G01 X9.8215 Y-8.2187
G01 X9.8097 Y-8.2248
G01 X9.7995 Y-8.2313
G01 X9.7691 Y-8.2317
G01 X9.7288 Y-8.2368
G01 X9.7063 Y-8.2385
G01 X9.6837 Y-8.2391
G01 X9.6611 Y-8.2385
G01 X9.6386 Y-8.2368
G01 X9.6040 Y-8.2322
G01 X9.5896 Y-8.2313
G01 X9.3799 Y-8.2313
G01 X9.3580 Y-8.2330
G01 X9.3373 Y-8.2379
G01 X9.3208 Y-8.2444
G01 X9.3042 Y-8.2535
G01 X9.2897 Y-8.2642
G01 X9.2749 Y-8.2787
G01 X9.2643 Y-8.2922
G01 X9.2555 Y-8.3069
G01 X9.2477 Y-8.3251
G01 X9.2421 Y-8.3462
G01 X9.2404 Y-8.3590
G01 X9.2399 Y-8.3713
G01 X9.2402 Y-9.0062
G01 X9.2428 Y-9.0251
G01 X9.2469 Y-9.0407
G01 X9.2515 Y-9.0528
G01 X9.2678 Y-9.0873
G01 X9.2752 Y-9.1060
G01 X9.2872 Y-9.1445
G01 X9.2917 Y-9.1641
G01 X9.2953 Y-9.1839
G01 X9.2996 Y-9.2239
G01 X9.2999 Y-9.2642
G01 X9.2962 Y-9.3043
G01 X9.2930 Y-9.3241
G01 X9.2887 Y-9.3438
G01 X9.2773 Y-9.3824
G01 X9.2702 Y-9.4013
G01 X9.2533 Y-9.4378
G01 X9.2435 Y-9.4554
G01 X9.2214 Y-9.4890
G01 X9.1961 Y-9.5203
G01 X9.1678 Y-9.5490
G01 X9.1369 Y-9.5748
G01 X9.1036 Y-9.5974
G01 X9.0683 Y-9.6167
G01 X9.0312 Y-9.6324
G01 X8.9927 Y-9.6444
G01 X8.9731 Y-9.6489
G01 X8.9334 Y-9.6551
G01 X8.9133 Y-9.6568
G01 X8.8915 Y-9.6575
G01 X7.7723 Y-9.6661
G01 X7.7561 Y-9.6672
G01 X7.7428 Y-9.6695
G01 X7.7306 Y-9.6728
G01 X7.7170 Y-9.6780
G01 X7.7030 Y-9.6851
G01 X7.6879 Y-9.6953
G01 X7.6758 Y-9.7057
G01 X7.6637 Y-9.7191
G01 X7.6539 Y-9.7331
G01 X7.6460 Y-9.7480
G01 X7.6399 Y-9.7639
G01 X7.6353 Y-9.7830
G01 X7.6334 Y-9.8061
G01 X7.6334 Y-10.1713
G01 X7.6346 Y-10.1899
G01 X7.6365 Y-10.2005
G01 X7.6399 Y-10.2136
G01 X7.6489 Y-10.2354
G01 X7.6560 Y-10.2476
G01 X7.6623 Y-10.2566
G01 X7.6783 Y-10.2740
G01 X7.6881 Y-10.2823
G01 X7.6973 Y-10.2888
G01 X7.7174 Y-10.2996
G01 X7.7309 Y-10.3047
G01 X7.7419 Y-10.3077
G01 X7.7642 Y-10.3110
G01 X9.3099 Y-10.3113
G01 X9.3299 Y-10.3098
G01 X9.3513 Y-10.3050
G01 X9.3707 Y-10.2974
G01 X9.3864 Y-10.2886
G01 X11.2464 Y-9.0753
G01 X11.2606 Y-9.0635
G01 X11.2741 Y-9.0488
G01 X11.2858 Y-9.0314
G01 X11.2947 Y-9.0127
G01 X11.3008 Y-8.9930
G01 X11.3037 Y-8.9737
G01 X11.3039 Y-8.9520
G01 X11.3011 Y-8.9326
G01 X11.2956 Y-8.9136
G01 X11.2887 Y-8.8979
G01 X11.2601 Y-8.8517
G01 X11.2320 Y-8.8021
G01 X11.2064 Y-8.7512
G01 X11.1833 Y-8.6991
G01 X11.1628 Y-8.6460
G01 X11.1450 Y-8.5919
G01 X11.1298 Y-8.5370
G01 X11.1173 Y-8.4814
G01 X11.1076 Y-8.4253
G01 X11.1006 Y-8.3688
G01 X11.0964 Y-8.3119
G01 X11.0950 Y-8.2550
G01 X11.0964 Y-8.1981
G01 X11.1006 Y-8.1412
G01 X11.1076 Y-8.0847
G01 X11.1173 Y-8.0286
G01 X11.1298 Y-7.9730
G01 X11.1450 Y-7.9181
G01 X11.1628 Y-7.8640
G01 X11.1833 Y-7.8109
G01 X11.2064 Y-7.7588
G01 X11.2320 Y-7.7079
G01 X11.2601 Y-7.6583
G01 X11.2906 Y-7.6102
G01 X11.3234 Y-7.5636
G01 X11.3584 Y-7.5187
G01 X11.3956 Y-7.4756
G01 X11.4349 Y-7.4343
G01 X11.4762 Y-7.3950
G01 X11.5193 Y-7.3578
G01 X11.5642 Y-7.3228
G01 X11.6108 Y-7.2900
G01 X11.6589 Y-7.2595
G01 X11.7085 Y-7.2314
G01 X11.7594 Y-7.2058
G01 X11.8115 Y-7.1827
G01 X11.8646 Y-7.1622
G01 X11.9187 Y-7.1444
G01 X11.9736 Y-7.1292
G01 X12.0292 Y-7.1167
G01 X12.0853 Y-7.1070
G01 X12.1418 Y-7.1000
G01 X12.1987 Y-7.0958
G01 X12.2573 Y-7.0943
G01 X14.2539 Y-7.0943
G01 X14.3125 Y-7.0958
G01 X14.3694 Y-7.1000
G01 X14.4259 Y-7.1070
G01 X14.4820 Y-7.1167
G01 X14.5376 Y-7.1292
G01 X14.5925 Y-7.1444
G01 X14.6466 Y-7.1622
G01 X14.6997 Y-7.1827
G01 X14.7518 Y-7.2058
G01 X14.8027 Y-7.2314
G01 X14.8523 Y-7.2595
G01 X14.9004 Y-7.2900
G01 X14.9470 Y-7.3228
G01 X14.9919 Y-7.3578
G01 X15.0350 Y-7.3950
G01 X15.0763 Y-7.4343
G01 X15.1156 Y-7.4756
G01 X15.1528 Y-7.5187
G01 X15.1878 Y-7.5636
G01 X15.2206 Y-7.6102
G01 X15.2511 Y-7.6583
G01 X15.2792 Y-7.7079
G01 X15.3048 Y-7.7588
G01 X15.3279 Y-7.8109
G01 X15.3484 Y-7.8640
G01 X15.3662 Y-7.9181
G01 X15.3814 Y-7.9730
G01 X15.3939 Y-8.0286
G01 X15.4036 Y-8.0847
G01 X15.4106 Y-8.1412
G01 X15.4148 Y-8.1981
G01 X15.4162 Y-8.2550
G01 X15.4148 Y-8.3119
G01 X15.4106 Y-8.3688
G01 X15.4036 Y-8.4253
G01 X15.3939 Y-8.4814
G01 X15.3814 Y-8.5370
G01 X15.3662 Y-8.5919
G01 X15.3484 Y-8.6460
G01 X15.3279 Y-8.6991
G01 X15.3048 Y-8.7512
G01 X15.2792 Y-8.8021
G01 X15.2511 Y-8.8517
G01 X15.2206 Y-8.8998
G01 X15.1878 Y-8.9464
G01 X15.1528 Y-8.9913
G01 X15.1156 Y-9.0344
G01 X15.0763 Y-9.0757
G01 X15.0350 Y-9.1150
G01 X14.9919 Y-9.1522
G01 X14.9470 Y-9.1872
G01 X14.9004 Y-9.2200
G01 X14.8523 Y-9.2505
G01 X14.8027 Y-9.2786
G01 X14.7518 Y-9.3042
G01 X14.6997 Y-9.3273
G01 X14.6466 Y-9.3478
G01 X14.5925 Y-9.3656
G01 X14.5376 Y-9.3808
G01 X14.4820 Y-9.3933
G01 X14.4259 Y-9.4030
G01 X14.3694 Y-9.4100
G01 X14.3125 Y-9.4142
G01 X14.2539 Y-9.4157
G01 X12.2686 Y-9.4157
G01 X12.2446 Y-9.4177
G01 X12.2243 Y-9.4229
G01 X12.2078 Y-9.4295
G01 X12.1921 Y-9.4384
G01 X10.0766 Y-10.8181
G01 X10.0633 Y-10.8282
G01 X10.0526 Y-10.8385
G01 X10.0427 Y-10.8503
G01 X10.0340 Y-10.8633
G01 X10.0262 Y-10.8786
G01 X10.0204 Y-10.8946
G01 X10.0171 Y-10.9085
G01 X10.0150 Y-10.9252
G01 X10.0147 Y-12.3014
G01 X10.0141 Y-12.3232
G01 X10.0102 Y-12.3633
G01 X10.0023 Y-12.4028
G01 X9.9907 Y-12.4413
G01 X9.9752 Y-12.4785
G01 X9.9563 Y-12.5140
G01 X9.9339 Y-12.5475
G01 X9.9084 Y-12.5786
G01 X9.8945 Y-12.5932
G01 X9.8646 Y-12.6202
G01 X9.8323 Y-12.6442
G01 X9.7978 Y-12.6649
G01 X9.7798 Y-12.6739
G01 X9.7426 Y-12.6894
G01 X9.7041 Y-12.7010
G01 X9.6646 Y-12.7089
G01 X9.6245 Y-12.7128
G01 X9.5843 Y-12.7128
G01 X9.5442 Y-12.7089
G01 X9.5047 Y-12.7010
G01 X9.4662 Y-12.6894
G01 X9.4318 Y-12.6753
G01 X9.4190 Y-12.6709
G01 X9.3978 Y-12.6665
G01 X9.3768 Y-12.6654
G01 X9.3641 Y-12.6662
G01 X9.3529 Y-12.6680
G01 X9.3395 Y-12.6713
G01 X9.3270 Y-12.6757
G01 X9.3142 Y-12.6817
G01 X9.3047 Y-12.6873
G01 X9.2861 Y-12.7015
G01 X9.2785 Y-12.7089
G01 X9.2693 Y-12.7195
G01 X9.2630 Y-12.7283
G01 X9.2560 Y-12.7403
G01 X9.2501 Y-12.7530
G01 X9.2457 Y-12.7656
G01 X9.2423 Y-12.7795
G01 X9.2408 Y-12.7899
G01 X9.2399 Y-12.8053
G01 X9.2399 Y-13.0832
G01 X9.2405 Y-13.0955
G01 X9.2422 Y-13.1083
G01 X9.2478 Y-13.1294
G01 X9.2556 Y-13.1475
G01 X9.2667 Y-13.1655
G01 X9.2797 Y-13.1809
G01 X9.2947 Y-13.1942
G01 X9.3131 Y-13.2062
G01 X9.3303 Y-13.2141
G01 X9.3515 Y-13.2202
G01 X9.3645 Y-13.2223
G01 X9.3799 Y-13.2232
G01 X9.6704 Y-13.2231
G01 X9.6842 Y-13.2223
G01 X9.7002 Y-13.2195
G01 X9.7127 Y-13.2160
G01 X9.7262 Y-13.2107
G01 X9.7452 Y-13.2003
G01 X11.3014 Y-12.1807
G01 X11.3142 Y-12.1711
G01 X11.3263 Y-12.1598
G01 X11.3389 Y-12.1445
G01 X11.3480 Y-12.1297
G01 X11.3552 Y-12.1141
G01 X11.3612 Y-12.0946
G01 X11.3641 Y-12.0754
G01 X11.3645 Y-12.0568
G01 X11.3622 Y-12.0376
G01 X11.3582 Y-12.0216
G01 X11.3520 Y-12.0055
G01 X11.3434 Y-11.9895
G01 X11.3234 Y-11.9626
G01 X11.2906 Y-11.9160
G01 X11.2601 Y-11.8679
G01 X11.2320 Y-11.8183
G01 X11.2064 Y-11.7674
G01 X11.1833 Y-11.7153
G01 X11.1628 Y-11.6622
G01 X11.1450 Y-11.6081
G01 X11.1298 Y-11.5532
G01 X11.1173 Y-11.4976
G01 X11.1076 Y-11.4415
G01 X11.1006 Y-11.3850
G01 X11.0964 Y-11.3281
G01 X11.0950 Y-11.2712
G01 X11.0964 Y-11.2143
G01 X11.1006 Y-11.1574
G01 X11.1076 Y-11.1009
G01 X11.1173 Y-11.0448
G01 X11.1298 Y-10.9892
G01 X11.1450 Y-10.9343
G01 X11.1628 Y-10.8802
G01 X11.1833 Y-10.8271
G01 X11.2064 Y-10.7750
G01 X11.2320 Y-10.7241
G01 X11.2601 Y-10.6745
G01 X11.2906 Y-10.6264
G01 X11.3234 Y-10.5798
G01 X11.3584 Y-10.5349
G01 X11.3956 Y-10.4918
G01 X11.4349 Y-10.4505
G01 X11.4762 Y-10.4112
G01 X11.5193 Y-10.3740
G01 X11.5642 Y-10.3390
G01 X11.6108 Y-10.3062
G01 X11.6589 Y-10.2757
G01 X11.7085 Y-10.2476
G01 X11.7594 Y-10.2220
G01 X11.8115 Y-10.1989
G01 X11.8646 Y-10.1784
G01 X11.9187 Y-10.1606
G01 X11.9736 Y-10.1454
G01 X12.0292 Y-10.1329
G01 X12.0853 Y-10.1232
