(G-CODE GENERATED BY FLATCAM v8.95 - www.flatcam.org - Version Date: 2019/08/17)

(Name: si5351_Ф1_верх.gbr_ncc_cnc)
(Type: G-code from Geometry)
(Units: MM)

(Created on Tuesday, 28 July 2020 at 01:08)

(TOOL DIAMETER: 0.14 mm)
(Feedrate: 50.0 mm/min)
(Feedrate_Z: 79.9998 mm/min)
(Feedrate rapids 79.9998 mm/min)

(Z_Cut: -0.0746 mm)
(Z_Move: 3.0 mm)
(Z Toolchange: 12.7 mm)
(X,Y Toolchange: 0.0000, 0.0000 mm)
(Z Start: None mm)
(Z End: 12.7 mm)
(Steps per circle: 128)
(Postprocessor Geometry: default)

(X range:    0.0000 ...    0.0000  mm)
(Y range:    0.0000 ...    0.0000  mm)

(Spindle Speed: None RPM)

G21
G90
G94

G01 F50.00
G00 Z3.0000

M03
G00 X2.0977 Y-1.7325
G01 F80.00
G01 Z-0.0746
G01 F50.00
G01 X2.0725 Y-1.7892
G01 X2.0535 Y-1.8386
G01 X2.0363 Y-1.8909
G01 X2.0213 Y-1.9450
G01 X2.0096 Y-1.9969
G01 X1.9989 Y-2.0586
G01 X1.9925 Y-2.1110
G01 X1.9884 Y-2.1664
G01 X1.9870 Y-2.2219
G01 X1.9882 Y-2.2750
G01 X1.9929 Y-2.3377
G01 X1.9993 Y-2.3898
G01 X2.0088 Y-2.4445
G01 X2.0221 Y-2.5029
G01 X2.0363 Y-2.5543
G01 X2.0538 Y-2.6072
G01 X2.0737 Y-2.6587
G01 X2.0951 Y-2.7070
G01 X2.1233 Y-2.7631
G01 X2.1495 Y-2.8092
G01 X2.1793 Y-2.8562
G01 X2.2112 Y-2.9016
G01 X2.2437 Y-2.9433
G01 X2.2848 Y-2.9909
G01 X2.3217 Y-3.0296
G01 X2.3610 Y-3.0670
G01 X2.4067 Y-3.1063
G01 X2.4484 Y-3.1388
G01 X2.4938 Y-3.1707
G01 X2.5441 Y-3.2025
G01 X2.5895 Y-3.2281
G01 X2.6368 Y-3.2520
G01 X2.6913 Y-3.2763
G01 X2.7465 Y-3.2974
G01 X2.7971 Y-3.3141
G01 X2.8471 Y-3.3279
G01 X2.9080 Y-3.3416
G01 X2.9602 Y-3.3507
G01 X3.0160 Y-3.3575
G01 X3.0714 Y-3.3616
G01 X3.1245 Y-3.3630
G01 X4.0156 Y-3.3630
G01 X6.7829 Y-6.0595
G01 X6.7834 Y-7.7983
G01 X6.7854 Y-7.8248
G01 X6.7908 Y-7.8613
G01 X6.7963 Y-7.8863
G01 X6.8027 Y-7.9092
G01 X6.8152 Y-7.9440
G01 X6.8253 Y-7.9672
G01 X6.8366 Y-7.9893
G01 X6.8553 Y-8.0205
G01 X6.8695 Y-8.0409
G01 X6.8823 Y-8.0574
G01 X6.8969 Y-8.0744
G01 X6.9125 Y-8.0906
G01 X6.9282 Y-8.1055
G01 X6.9445 Y-8.1196
G01 X6.9616 Y-8.1328
G01 X6.9814 Y-8.1466
G01 X7.0126 Y-8.1653
G01 X7.0318 Y-8.1752
G01 X7.0539 Y-8.1851
G01 X7.0717 Y-8.1921
G01 X7.0949 Y-8.1999
G01 X7.1153 Y-8.2055
G01 X7.1365 Y-8.2103
G01 X7.1594 Y-8.2143
G01 X7.1983 Y-8.2182
G01 X7.2240 Y-8.2189
G01 X7.2654 Y-8.2169
G01 X7.3046 Y-8.2113
G01 X7.5907 Y-8.2108
G01 X7.6017 Y-8.2095
G01 X7.6153 Y-8.2066
G01 X7.6377 Y-8.1986
G01 X7.6472 Y-8.1938
G01 X7.6590 Y-8.1865
G01 X7.6693 Y-8.1787
G01 X7.6795 Y-8.1693
G01 X7.6897 Y-8.1787
G01 X7.7000 Y-8.1865
G01 X7.7118 Y-8.1938
G01 X7.7213 Y-8.1986
G01 X7.7342 Y-8.2037
G01 X7.7468 Y-8.2074
G01 X7.7573 Y-8.2095
G01 X7.7712 Y-8.2110
G01 X8.0850 Y-8.2112
G01 X8.0979 Y-8.2101
G01 X8.1122 Y-8.2074
G01 X8.1248 Y-8.2037
G01 X8.1395 Y-8.1978
G01 X8.1395 Y-8.2313
G01 X7.3187 Y-8.2313
G01 X7.3056 Y-8.2319
G01 X7.2682 Y-8.2368
G01 X7.2457 Y-8.2385
G01 X7.2231 Y-8.2391
G01 X7.2005 Y-8.2385
G01 X7.1780 Y-8.2368
G01 X7.1348 Y-8.2315
G01 X7.0814 Y-8.2313
G01 X7.0688 Y-8.2194
G01 X7.0531 Y-8.2082
G01 X7.0433 Y-8.2026
G01 X7.0061 Y-8.1847
G01 X6.9865 Y-8.1736
G01 X6.9674 Y-8.1615
G01 X6.9489 Y-8.1485
G01 X6.9311 Y-8.1346
G01 X6.9140 Y-8.1198
G01 X6.8976 Y-8.1043
G01 X6.8821 Y-8.0879
G01 X6.8673 Y-8.0708
G01 X6.8534 Y-8.0530
G01 X6.8404 Y-8.0345
G01 X6.8283 Y-8.0154
G01 X6.8172 Y-7.9958
G01 X6.8070 Y-7.9756
G01 X6.7979 Y-7.9549
G01 X6.7897 Y-7.9339
G01 X6.7827 Y-7.9124
G01 X6.7766 Y-7.8906
G01 X6.7717 Y-7.8686
G01 X6.7678 Y-7.8463
G01 X6.7651 Y-7.8239
G01 X6.7634 Y-7.8014
G01 X6.7628 Y-7.7771
G01 X6.7628 Y-6.1252
G01 X6.7620 Y-6.1117
G01 X6.7597 Y-6.0977
G01 X6.7569 Y-6.0869
G01 X6.7524 Y-6.0742
G01 X6.7468 Y-6.0620
G01 X6.7409 Y-6.0518
G01 X6.7334 Y-6.0412
G01 X6.7243 Y-6.0306
G01 X4.0482 Y-3.4229
G01 X4.0314 Y-3.4089
G01 X4.0138 Y-3.3983
G01 X3.9953 Y-3.3905
G01 X3.9755 Y-3.3854
G01 X3.9558 Y-3.3833
G01 X3.1292 Y-3.3832
G01 X3.0706 Y-3.3817
G01 X3.0137 Y-3.3775
G01 X2.9572 Y-3.3705
G01 X2.9011 Y-3.3608
G01 X2.8455 Y-3.3483
G01 X2.7906 Y-3.3331
G01 X2.7365 Y-3.3153
G01 X2.6834 Y-3.2948
G01 X2.6313 Y-3.2717
G01 X2.5804 Y-3.2461
G01 X2.5308 Y-3.2180
G01 X2.4827 Y-3.1875
G01 X2.4361 Y-3.1547
G01 X2.3912 Y-3.1197
G01 X2.3481 Y-3.0825
G01 X2.3068 Y-3.0432
G01 X2.2675 Y-3.0019
G01 X2.2303 Y-2.9588
G01 X2.1953 Y-2.9139
G01 X2.1625 Y-2.8673
G01 X2.1320 Y-2.8192
G01 X2.1039 Y-2.7696
G01 X2.0783 Y-2.7187
G01 X2.0552 Y-2.6666
G01 X2.0347 Y-2.6135
G01 X2.0169 Y-2.5594
G01 X2.0017 Y-2.5045
G01 X1.9892 Y-2.4489
G01 X1.9795 Y-2.3928
G01 X1.9725 Y-2.3363
G01 X1.9683 Y-2.2794
G01 X1.9669 Y-2.2225
G01 X1.9683 Y-2.1656
G01 X1.9725 Y-2.1087
G01 X1.9795 Y-2.0522
G01 X1.9892 Y-1.9961
G01 X2.0017 Y-1.9405
G01 X2.0169 Y-1.8856
G01 X2.0347 Y-1.8315
G01 X2.0552 Y-1.7784
G01 X2.0783 Y-1.7263
G01 X2.1039 Y-1.6754
G01 X2.1320 Y-1.6258
G01 X2.1625 Y-1.5777
G01 X2.1953 Y-1.5311
G01 X2.2303 Y-1.4862
G01 X2.2675 Y-1.4431
G01 X2.3068 Y-1.4018
G01 X2.3481 Y-1.3625
G01 X2.3912 Y-1.3253
G01 X2.4361 Y-1.2903
G01 X2.4827 Y-1.2575
G01 X2.5308 Y-1.2270
G01 X2.5804 Y-1.1989
G01 X2.6313 Y-1.1733
G01 X2.6834 Y-1.1502
G01 X2.7365 Y-1.1297
G01 X2.7906 Y-1.1119
G01 X2.8455 Y-1.0967
G01 X2.9011 Y-1.0842
G01 X2.9572 Y-1.0745
G01 X3.0137 Y-1.0675
G01 X3.0706 Y-1.0633
G01 X3.1292 Y-1.0618
G01 X5.1258 Y-1.0618
G01 X5.1844 Y-1.0633
G01 X5.2413 Y-1.0675
G01 X5.2978 Y-1.0745
G01 X5.3539 Y-1.0842
G01 X5.4095 Y-1.0967
G01 X5.4644 Y-1.1119
G01 X5.5185 Y-1.1297
G01 X5.5716 Y-1.1502
G01 X5.6237 Y-1.1733
G01 X5.6746 Y-1.1989
G01 X5.7242 Y-1.2270
G01 X5.7723 Y-1.2575
G01 X5.8189 Y-1.2903
G01 X5.8638 Y-1.3253
G01 X5.9069 Y-1.3625
G01 X5.9482 Y-1.4018
G01 X5.9875 Y-1.4431
G01 X6.0247 Y-1.4862
G01 X6.0597 Y-1.5311
G01 X6.0925 Y-1.5777
G01 X6.1230 Y-1.6258
G01 X6.1511 Y-1.6754
G01 X6.1767 Y-1.7263
G01 X6.1998 Y-1.7784
G01 X6.2203 Y-1.8315
G01 X6.2381 Y-1.8856
G01 X6.2533 Y-1.9405
G01 X6.2658 Y-1.9961
G01 X6.2755 Y-2.0522
G01 X6.2825 Y-2.1087
G01 X6.2867 Y-2.1656
G01 X6.2881 Y-2.2225
G01 X6.2867 Y-2.2794
G01 X6.2825 Y-2.3363
G01 X6.2755 Y-2.3928
G01 X6.2658 Y-2.4489
G01 X6.2533 Y-2.5045
G01 X6.2381 Y-2.5594
G01 X6.2203 Y-2.6135
G01 X6.1998 Y-2.6666
G01 X6.1767 Y-2.7187
G01 X6.1511 Y-2.7696
G01 X6.1230 Y-2.8192
G01 X6.0925 Y-2.8673
G01 X6.0597 Y-2.9139
G01 X6.0247 Y-2.9588
G01 X5.9875 Y-3.0019
G01 X5.9482 Y-3.0432
G01 X5.9069 Y-3.0825
G01 X5.8638 Y-3.1197
G01 X5.8189 Y-3.1547
G01 X5.7723 Y-3.1875
G01 X5.7242 Y-3.2180
G01 X5.6746 Y-3.2461
G01 X5.6237 Y-3.2717
G01 X5.5716 Y-3.2948
G01 X5.5236 Y-3.3139
G01 X5.5057 Y-3.3243
G01 X5.4887 Y-3.3381
G01 X5.4753 Y-3.3528
G01 X5.4632 Y-3.3708
G01 X5.4543 Y-3.3897
G01 X5.4483 Y-3.4099
G01 X5.4454 Y-3.4304
G01 X5.4456 Y-3.4514
G01 X5.4491 Y-3.4728
G01 X5.4553 Y-3.4920
G01 X5.4614 Y-3.5052
G01 X5.4686 Y-3.5172
G01 X5.4766 Y-3.5280
G01 X5.4874 Y-3.5399
G01 X7.3896 Y-5.3933
G01 X7.3983 Y-5.4012
G01 X7.4095 Y-5.4094
G01 X7.4208 Y-5.4163
G01 X7.4303 Y-5.4209
G01 X7.4432 Y-5.4259
G01 X7.4537 Y-5.4290
G01 X7.4761 Y-5.4326
G01 X7.4896 Y-5.4330
G01 X7.5036 Y-5.4321
G01 X7.5142 Y-5.4304
G01 X7.5278 Y-5.4270
G01 X7.5401 Y-5.4227
G01 X7.5521 Y-5.4171
G01 X7.5642 Y-5.4100
G01 X7.5753 Y-5.4019
G01 X7.5854 Y-5.3929
G01 X7.5946 Y-5.3830
G01 X7.6030 Y-5.3718
G01 X7.6102 Y-5.3601
G01 X7.6159 Y-5.3482
G01 X7.6207 Y-5.3353
G01 X7.6242 Y-5.3222
G01 X7.6264 Y-5.3083
G01 X7.6273 Y-5.2931
G01 X7.6277 Y-3.9536
G01 X7.6307 Y-3.9233
G01 X7.6366 Y-3.8934
G01 X7.6407 Y-3.8788
G01 X7.6509 Y-3.8501
G01 X7.6639 Y-3.8226
G01 X7.6714 Y-3.8093
G01 X7.6884 Y-3.7840
G01 X7.6977 Y-3.7720
G01 X7.7194 Y-3.7482
G01 X9.4632 Y-2.0044
G01 X9.4870 Y-1.9827
G01 X9.5115 Y-1.9646
G01 X9.5376 Y-1.9489
G01 X9.5651 Y-1.9359
G01 X9.5938 Y-1.9257
G01 X9.6233 Y-1.9183
G01 X9.6534 Y-1.9138
G01 X9.6686 Y-1.9127
G01 X10.7975 Y-1.9123
G01 X10.8099 Y-1.9117
G01 X10.8235 Y-1.9098
G01 X10.8370 Y-1.9066
G01 X10.8473 Y-1.9031
G01 X10.8666 Y-1.8940
G01 X10.8781 Y-1.8868
G01 X10.8866 Y-1.8803
G01 X10.9007 Y-1.8669
G01 X10.9150 Y-1.8484
G01 X10.9261 Y-1.8276
G01 X10.9452 Y-1.7784
G01 X10.9683 Y-1.7263
G01 X10.9939 Y-1.6754
G01 X11.0220 Y-1.6258
G01 X11.0525 Y-1.5777
G01 X11.0853 Y-1.5311
G01 X11.1203 Y-1.4862
G01 X11.1575 Y-1.4431
G01 X11.1968 Y-1.4018
G01 X11.2381 Y-1.3625
G01 X11.2812 Y-1.3253
G01 X11.3261 Y-1.2903
G01 X11.3727 Y-1.2575
G01 X11.4208 Y-1.2270
G01 X11.4704 Y-1.1989
G01 X11.5213 Y-1.1733
G01 X11.5734 Y-1.1502
G01 X11.6265 Y-1.1297
G01 X11.6806 Y-1.1119
G01 X11.7355 Y-1.0967
G01 X11.7911 Y-1.0842
G01 X11.8472 Y-1.0745
G01 X11.9037 Y-1.0675
G01 X11.9606 Y-1.0633
G01 X12.0192 Y-1.0618
G01 X14.0158 Y-1.0618
G01 X14.0744 Y-1.0633
G01 X14.1313 Y-1.0675
G01 X14.1878 Y-1.0745
G01 X14.2439 Y-1.0842
G01 X14.2995 Y-1.0967
G01 X14.3544 Y-1.1119
G01 X14.4085 Y-1.1297
G01 X14.4616 Y-1.1502
G01 X14.5137 Y-1.1733
G01 X14.5646 Y-1.1989
G01 X14.6142 Y-1.2270
G01 X14.6623 Y-1.2575
G01 X14.7089 Y-1.2903
G01 X14.7538 Y-1.3253
G01 X14.7969 Y-1.3625
G01 X14.8382 Y-1.4018
G01 X14.8775 Y-1.4431
G01 X14.9147 Y-1.4862
G01 X14.9497 Y-1.5311
G01 X14.9825 Y-1.5777
G01 X15.0130 Y-1.6258
G01 X15.0411 Y-1.6754
G01 X15.0667 Y-1.7263
G01 X15.0898 Y-1.7784
G01 X15.1103 Y-1.8315
G01 X15.1281 Y-1.8856
G01 X15.1433 Y-1.9405
G01 X15.1558 Y-1.9961
G01 X15.1655 Y-2.0522
G01 X15.1725 Y-2.1087
G01 X15.1767 Y-2.1656
G01 X15.1781 Y-2.2225
G01 X15.1767 Y-2.2794
G01 X15.1725 Y-2.3363
G01 X15.1655 Y-2.3928
G01 X15.1558 Y-2.4489
G01 X15.1433 Y-2.5045
G01 X15.1281 Y-2.5594
G01 X15.1103 Y-2.6135
G01 X15.0898 Y-2.6666
G01 X15.0667 Y-2.7187
G01 X15.0411 Y-2.7696
G01 X15.0130 Y-2.8192
G01 X14.9825 Y-2.8673
G01 X14.9497 Y-2.9139
G01 X14.9147 Y-2.9588
G01 X14.8775 Y-3.0019
G01 X14.8382 Y-3.0432
G01 X14.7969 Y-3.0825
G01 X14.7538 Y-3.1197
G01 X14.7089 Y-3.1547
G01 X14.6623 Y-3.1875
G01 X14.6142 Y-3.2180
G01 X14.5646 Y-3.2461
G01 X14.5137 Y-3.2717
G01 X14.4616 Y-3.2948
G01 X14.4085 Y-3.3153
G01 X14.3544 Y-3.3331
G01 X14.2995 Y-3.3483
G01 X14.2439 Y-3.3608
G01 X14.1878 Y-3.3705
G01 X14.1313 Y-3.3775
G01 X14.0744 Y-3.3817
G01 X14.0158 Y-3.3832
G01 X12.0192 Y-3.3832
G01 X11.9606 Y-3.3817
G01 X11.9037 Y-3.3775
G01 X11.8472 Y-3.3705
G01 X11.7911 Y-3.3608
G01 X11.7355 Y-3.3483
G01 X11.6806 Y-3.3331
G01 X11.6265 Y-3.3153
G01 X11.5734 Y-3.2948
G01 X11.5213 Y-3.2717
G01 X11.4704 Y-3.2461
G01 X11.4208 Y-3.2180
G01 X11.3727 Y-3.1875
G01 X11.3261 Y-3.1547
G01 X11.2812 Y-3.1197
G01 X11.2381 Y-3.0825
G01 X11.1968 Y-3.0432
G01 X11.1575 Y-3.0019
G01 X11.1203 Y-2.9588
G01 X11.0853 Y-2.9139
G01 X11.0525 Y-2.8673
G01 X11.0220 Y-2.8192
G01 X10.9939 Y-2.7696
G01 X10.9683 Y-2.7187
G01 X10.9452 Y-2.6666
G01 X10.9262 Y-2.6175
G01 X10.9166 Y-2.5991
G01 X10.9043 Y-2.5822
G01 X10.8885 Y-2.5664
G01 X10.8694 Y-2.5526
G01 X10.8509 Y-2.5433
G01 X10.8373 Y-2.5385
G01 X10.8236 Y-2.5352
G01 X10.8097 Y-2.5333
G01 X10.7975 Y-2.5327
G01 X9.8703 Y-2.5327
G01 X9.8518 Y-2.5340
G01 X9.8341 Y-2.5375
G01 X9.8182 Y-2.5428
G01 X9.8003 Y-2.5515
G01 X9.7853 Y-2.5615
G01 X9.7713 Y-2.5737
G01 X8.2875 Y-4.0576
G01 X8.2767 Y-4.0700
G01 X8.2681 Y-4.0825
G01 X8.2608 Y-4.0962
G01 X8.2543 Y-4.1128
G01 X8.2506 Y-4.1270
G01 X8.2483 Y-4.1430
G01 X8.2477 Y-4.1862
G01 X8.2276 Y-4.2040
G01 X8.2276 Y-4.0890
G01 X9.8040 Y-2.5126
G01 X10.9147 Y-2.5126
G01 X10.9262 Y-2.5540
G01 X10.9426 Y-2.6035
G01 X10.9641 Y-2.6597
G01 X10.9867 Y-2.7106
G01 X11.0101 Y-2.7571
G01 X11.0397 Y-2.8096
G01 X11.0696 Y-2.8567
G01 X11.0994 Y-2.8991
G01 X11.1358 Y-2.9459
G01 X11.1748 Y-2.9909
G01 X11.2114 Y-3.0293
G01 X11.2494 Y-3.0656
G01 X11.2967 Y-3.1063
G01 X11.3384 Y-3.1388
G01 X11.3810 Y-3.1688
G01 X11.4311 Y-3.2007
G01 X11.4829 Y-3.2299
G01 X11.5307 Y-3.2539
G01 X11.5779 Y-3.2748
G01 X11.6336 Y-3.2965
G01 X11.6864 Y-3.3139
G01 X11.7371 Y-3.3279
G01 X11.7957 Y-3.3412
G01 X11.8503 Y-3.3507
G01 X11.9054 Y-3.3575
G01 X11.9612 Y-3.3616
G01 X12.0162 Y-3.3630
G01 X14.0175 Y-3.3630
G01 X14.0730 Y-3.3616
G01 X14.1290 Y-3.3575
G01 X14.1847 Y-3.3507
G01 X14.2393 Y-3.3412
G01 X14.2913 Y-3.3296
G01 X14.3518 Y-3.3129
G01 X14.4019 Y-3.2963
G01 X14.4571 Y-3.2748
G01 X14.5059 Y-3.2531
G01 X14.5548 Y-3.2285
G01 X14.6039 Y-3.2007
G01 X14.6518 Y-3.1703
G01 X14.6966 Y-3.1388
G01 X14.7417 Y-3.1036
G01 X14.7837 Y-3.0673
G01 X14.8236 Y-3.0293
G01 X14.8629 Y-2.9880
G01 X14.8992 Y-2.9460
G01 X14.9338 Y-2.9016
G01 X14.9638 Y-2.8590
G01 X14.9975 Y-2.8059
G01 X15.0237 Y-2.7594
G01 X15.0499 Y-2.7070
G01 X15.0715 Y-2.6582
G01 X15.0916 Y-2.6059
G01 X15.1089 Y-2.5534
G01 X15.1240 Y-2.4988
G01 X15.1359 Y-2.4458
G01 X15.1457 Y-2.3898
G01 X15.1524 Y-2.3351
G01 X15.1566 Y-2.2792
G01 X15.1580 Y-2.2216
G01 X15.1566 Y-2.1658
G01 X15.1524 Y-2.1099
G01 X15.1457 Y-2.0552
G01 X15.1359 Y-1.9992
G01 X15.1240 Y-1.9462
G01 X15.1089 Y-1.8916
G01 X15.0916 Y-1.8391
G01 X15.0714 Y-1.7867
G01 X15.0484 Y-1.7346
G01 X15.0229 Y-1.6841
G01 X14.9959 Y-1.6364
G01 X14.9663 Y-1.5896
G01 X14.9340 Y-1.5437
G01 X14.8988 Y-1.4986
G01 X14.8629 Y-1.4570
G01 X14.8235 Y-1.4156
G01 X14.7838 Y-1.3778
G01 X14.7404 Y-1.3404
G01 X14.6968 Y-1.3064
G01 X14.6518 Y-1.2747
G01 X14.6039 Y-1.2443
G01 X14.5550 Y-1.2166
G01 X14.5058 Y-1.1918
G01 X14.4542 Y-1.1689
G01 X14.4019 Y-1.1487
G01 X14.3486 Y-1.1311
G01 X14.2955 Y-1.1164
G01 X14.2393 Y-1.1038
G01 X14.1844 Y-1.0943
G01 X14.1296 Y-1.0875
G01 X14.0741 Y-1.0834
G01 X14.0175 Y-1.0820
G01 X12.0162 Y-1.0820
G01 X11.9620 Y-1.0834
G01 X11.9054 Y-1.0875
G01 X11.8506 Y-1.0943
G01 X11.7957 Y-1.1038
G01 X11.7371 Y-1.1171
G01 X11.6864 Y-1.1311
G01 X11.6336 Y-1.1485
G01 X11.5779 Y-1.1702
G01 X11.5292 Y-1.1918
G01 X11.4829 Y-1.2151
G01 X11.4311 Y-1.2443
G01 X11.3810 Y-1.2762
G01 X11.3382 Y-1.3064
G01 X11.2965 Y-1.3389
G01 X11.2497 Y-1.3792
G01 X11.2115 Y-1.4156
G01 X11.1748 Y-1.4541
G01 X11.1362 Y-1.4986
G01 X11.0994 Y-1.5459
G01 X11.0687 Y-1.5896
G01 X11.0397 Y-1.6354
G01 X11.0101 Y-1.6879
G01 X10.9866 Y-1.7346
G01 X10.9641 Y-1.7853
G01 X10.9426 Y-1.8415
G01 X10.9261 Y-1.8915
G01 X10.9147 Y-1.9324
G01 X9.6808 Y-1.9325
G01 X9.6520 Y-1.9342
G01 X9.6306 Y-1.9374
G01 X9.6164 Y-1.9404
G01 X9.5871 Y-1.9490
G01 X9.5606 Y-1.9599
G01 X9.5373 Y-1.9722
G01 X9.5198 Y-1.9833
G01 X9.4991 Y-1.9988
G01 X9.4787 Y-2.0174
G01 X7.7321 Y-3.7640
G01 X7.7155 Y-3.7821
G01 X7.7040 Y-3.7967
G01 X7.6900 Y-3.8175
G01 X7.6801 Y-3.8351
G01 X7.6709 Y-3.8546
G01 X7.6656 Y-3.8679
G01 X7.6562 Y-3.8980
G01 X7.6501 Y-3.9296
G01 X7.6480 Y-3.9514
G01 X7.6474 Y-3.9667
G01 X7.6474 Y-5.7572
G01 X7.6375 Y-5.7256
G01 X7.6284 Y-5.7022
G01 X7.6181 Y-5.6796
G01 X7.6002 Y-5.6468
G01 X7.5865 Y-5.6255
G01 X7.5720 Y-5.6056
G01 X7.5480 Y-5.5769
G01 X7.5319 Y-5.5601
G01 X5.2678 Y-3.3540
G01 X5.2957 Y-3.3505
G01 X5.3480 Y-3.3415
G01 X5.4064 Y-3.3284
G01 X5.4593 Y-3.3137
G01 X5.5085 Y-3.2974
G01 X5.5652 Y-3.2757
G01 X5.6148 Y-3.2537
G01 X5.6621 Y-3.2299
G01 X5.7135 Y-3.2010
G01 X5.7604 Y-3.1713
G01 X5.8041 Y-3.1406
G01 X5.8528 Y-3.1027
G01 X5.8937 Y-3.0673
G01 X5.9315 Y-3.0314
G01 X5.9723 Y-2.9887
G01 X6.0092 Y-2.9460
G01 X6.0415 Y-2.9046
G01 X6.0760 Y-2.8558
G01 X6.1075 Y-2.8059
G01 X6.1334 Y-2.7600
G01 X6.1583 Y-2.7106
G01 X6.1810 Y-2.6594
G01 X6.2001 Y-2.6099
G01 X6.2192 Y-2.5526
G01 X6.2338 Y-2.4999
G01 X6.2454 Y-2.4484
G01 X6.2558 Y-2.3890
G01 X6.2625 Y-2.3347
G01 X6.2664 Y-2.2818
G01 X6.2680 Y-2.2216
G01 X6.2666 Y-2.1670
G01 X6.2628 Y-2.1141
G01 X6.2555 Y-2.0543
G01 X6.2462 Y-2.0005
G01 X6.2346 Y-1.9487
G01 X6.2189 Y-1.8916
G01 X6.2015 Y-1.8386
G01 X6.1825 Y-1.7892
G01 X6.1584 Y-1.7346
G01 X6.1317 Y-1.6819
G01 X6.1059 Y-1.6364
G01 X6.0761 Y-1.5893
G01 X6.0441 Y-1.5438
G01 X6.0113 Y-1.5017
G01 X5.9721 Y-1.4561
G01 X5.9315 Y-1.4136
G01 X5.8938 Y-1.3778
G01 X5.8534 Y-1.3429
G01 X5.8072 Y-1.3067
G01 X5.7640 Y-1.2762
G01 X5.7109 Y-1.2425
G01 X5.6655 Y-1.2169
G01 X5.6148 Y-1.1913
G01 X5.5634 Y-1.1686
G01 X5.5119 Y-1.1487
G01 X5.4593 Y-1.1313
G01 X5.4079 Y-1.1171
G01 X5.3466 Y-1.1033
G01 X5.2945 Y-1.0943
G01 X5.2396 Y-1.0875
G01 X5.1839 Y-1.0834
G01 X5.1294 Y-1.0820
G01 X3.1275 Y-1.0820
G01 X3.0720 Y-1.0834
G01 X3.0183 Y-1.0873
G01 X2.9571 Y-1.0948
G01 X2.9055 Y-1.1038
G01 X2.8537 Y-1.1154
G01 X2.7971 Y-1.1309
G01 X2.7401 Y-1.1499
G01 X2.6906 Y-1.1690
G01 X2.6430 Y-1.1901
G01 X2.5897 Y-1.2167
G01 X2.5382 Y-1.2461
G01 X2.4935 Y-1.2744
G01 X2.4483 Y-1.3063
G01 X2.4036 Y-1.3412
G01 X2.3591 Y-1.3798
G01 X2.3212 Y-1.4159
G01 X2.2848 Y-1.4541
G01 X2.2462 Y-1.4986
G01 X2.2110 Y-1.5437
G01 X2.1773 Y-1.5918
G01 X2.1491 Y-1.6364
G01 X2.1233 Y-1.6819
G01 X2.0977 Y-1.7325
G01 X2.1605 Y-1.7633
G01 X2.1378 Y-1.8144
G01 X2.1196 Y-1.8619
G01 X2.1031 Y-1.9118
G01 X2.0891 Y-1.9624
G01 X2.0779 Y-2.0120
G01 X2.0686 Y-2.0654
G01 X2.0622 Y-2.1176
G01 X2.0584 Y-2.1683
G01 X2.0570 Y-2.2225
G01 X2.0584 Y-2.2767
G01 X2.0622 Y-2.3274
G01 X2.0684 Y-2.3779
G01 X2.0776 Y-2.4313
G01 X2.0895 Y-2.4843
G01 X2.1036 Y-2.5349
G01 X2.1196 Y-2.5831
G01 X2.1378 Y-2.6306
G01 X2.1598 Y-2.6802
G01 X2.1834 Y-2.7271
G01 X2.2093 Y-2.7728
G01 X2.2384 Y-2.8187
G01 X2.2677 Y-2.8602
G01 X2.3000 Y-2.9016
G01 X2.3343 Y-2.9414
G01 X2.3705 Y-2.9795
G01 X2.4086 Y-3.0157
G01 X2.4484 Y-3.0500
G01 X2.4898 Y-3.0823
G01 X2.5313 Y-3.1116
G01 X2.5772 Y-3.1407
G01 X2.6214 Y-3.1658
G01 X2.6714 Y-3.1909
G01 X2.7178 Y-3.2115
G01 X2.7669 Y-3.2304
G01 X2.8168 Y-3.2469
G01 X2.8668 Y-3.2608
G01 X2.9187 Y-3.2724
G01 X2.9704 Y-3.2814
G01 X3.0226 Y-3.2878
G01 X3.0767 Y-3.2918
G01 X3.1275 Y-3.2930
G01 X4.0441 Y-3.2930
G01 X6.8529 Y-6.0299
G01 X6.8529 Y-7.7788
G01 X6.8546 Y-7.8134
G01 X6.8572 Y-7.8348
G01 X6.8640 Y-7.8687
G01 X6.8740 Y-7.9019
G01 X6.8817 Y-7.9219
G01 X6.8967 Y-7.9533
G01 X6.9153 Y-7.9844
G01 X6.9359 Y-8.0123
G01 X6.9500 Y-8.0286
G01 X6.9745 Y-8.0531
G01 X7.0012 Y-8.0751
G01 X7.0189 Y-8.0875
G01 X7.0486 Y-8.1052
G01 X7.0814 Y-8.1208
G01 X7.1140 Y-8.1325
G01 X7.1348 Y-8.1383
G01 X7.1688 Y-8.1449
G01 X7.2049 Y-8.1485
G01 X7.2248 Y-8.1489
G01 X7.2577 Y-8.1473
G01 X7.2774 Y-8.1449
G01 X7.2978 Y-8.1413
G01 X7.5795 Y-8.1413
G01 X7.5897 Y-8.1406
G01 X7.5997 Y-8.1383
G01 X7.6094 Y-8.1346
G01 X7.6186 Y-8.1293
G01 X7.6290 Y-8.1208
G01 X7.6356 Y-8.1131
G01 X7.6427 Y-8.1013
G01 X7.6465 Y-8.0915
G01 X7.6487 Y-8.0818
G01 X7.6495 Y-8.0713
G01 X7.6494 Y-6.0679
G01 X7.6481 Y-6.0573
G01 X7.6442 Y-6.0446
G01 X7.6395 Y-6.0353
G01 X7.6335 Y-6.0268
G01 X7.6240 Y-6.0173
G01 X7.6155 Y-6.0113
G01 X7.6062 Y-6.0066
G01 X7.5933 Y-6.0027
G01 X7.5932 Y-5.8729
G01 X7.5914 Y-5.8364
G01 X7.5862 Y-5.8021
G01 X7.5817 Y-5.7821
G01 X7.5715 Y-5.7488
G01 X7.5637 Y-5.7289
G01 X7.5481 Y-5.6967
G01 X7.5289 Y-5.6652
G01 X7.5065 Y-5.6357
G01 X7.4820 Y-5.6093
G01 X5.1048 Y-3.2930
G01 X5.1792 Y-3.2917
G01 X5.2330 Y-3.2878
G01 X5.2846 Y-3.2814
G01 X5.3347 Y-3.2727
G01 X5.3888 Y-3.2606
G01 X5.4382 Y-3.2469
G01 X5.4865 Y-3.2310
G01 X5.5372 Y-3.2115
G01 X5.5852 Y-3.1902
G01 X5.6306 Y-3.1674
G01 X5.6792 Y-3.1399
G01 X5.7222 Y-3.1126
G01 X5.7638 Y-3.0833
G01 X5.8066 Y-3.0500
G01 X5.8477 Y-3.0145
G01 X5.8845 Y-2.9795
G01 X5.9207 Y-2.9414
G01 X5.9561 Y-2.9003
G01 X5.9873 Y-2.8602
G01 X6.0176 Y-2.8172
G01 X6.0466 Y-2.7714
G01 X6.0716 Y-2.7271
G01 X6.0948 Y-2.6811
G01 X6.1172 Y-2.6306
G01 X6.1354 Y-2.5831
G01 X6.1519 Y-2.5332
G01 X6.1663 Y-2.4809
G01 X6.1774 Y-2.4313
G01 X6.1861 Y-2.3813
G01 X6.1928 Y-2.3274
G01 X6.1968 Y-2.2733
G01 X6.1980 Y-2.2225
G01 X6.1968 Y-2.1717
G01 X6.1927 Y-2.1159
G01 X6.1864 Y-2.0654
G01 X6.1777 Y-2.0153
G01 X6.1659 Y-1.9624
G01 X6.1519 Y-1.9118
G01 X6.1360 Y-1.8635
G01 X6.1165 Y-1.8128
G01 X6.0952 Y-1.7648
G01 X6.0724 Y-1.7194
G01 X6.0457 Y-1.6722
G01 X6.0166 Y-1.6263
G01 X5.9873 Y-1.5848
G01 X5.9561 Y-1.5447
G01 X5.9207 Y-1.5036
G01 X5.8845 Y-1.4655
G01 X5.8464 Y-1.4293
G01 X5.8079 Y-1.3961
G01 X5.7638 Y-1.3617
G01 X5.7222 Y-1.3324
G01 X5.6764 Y-1.3034
G01 X5.6321 Y-1.2784
G01 X5.5852 Y-1.2548
G01 X5.5372 Y-1.2335
G01 X5.4881 Y-1.2146
G01 X5.4382 Y-1.1981
G01 X5.3876 Y-1.1841
G01 X5.3363 Y-1.1726
G01 X5.2839 Y-1.1635
G01 X5.2324 Y-1.1572
G01 X5.1817 Y-1.1534
G01 X5.1275 Y-1.1520
G01 X3.1275 Y-1.1520
G01 X3.0740 Y-1.1533
G01 X3.0226 Y-1.1572
G01 X2.9721 Y-1.1634
G01 X2.9187 Y-1.1726
G01 X2.8657 Y-1.1845
G01 X2.8168 Y-1.1981
G01 X2.7685 Y-1.2140
G01 X2.7178 Y-1.2335
G01 X2.6683 Y-1.2555
G01 X2.6229 Y-1.2784
G01 X2.5786 Y-1.3034
G01 X2.5328 Y-1.3324
G01 X2.4884 Y-1.3637
G01 X2.4484 Y-1.3950
G01 X2.4099 Y-1.4282
G01 X2.3705 Y-1.4655
G01 X2.3332 Y-1.5049
G01 X2.3000 Y-1.5434
G01 X2.2687 Y-1.5834
G01 X2.2374 Y-1.6278
G01 X2.2084 Y-1.6736
G01 X2.1834 Y-1.7179
G01 X2.1605 Y-1.7633
G00 Z3.0000
G00 X2.8518 Y-6.0101
G01 F80.00
G01 Z-0.0746
G01 F50.00
G01 X2.8518 Y-6.1701
G01 X1.8305 Y-6.1701
G01 X1.8166 Y-6.1715
G01 X1.8007 Y-6.1768
G01 X1.7944 Y-6.1801
G01 X1.7862 Y-6.1859
G01 X1.7810 Y-6.1906
G01 X1.7743 Y-6.1984
G01 X1.7704 Y-6.2042
G01 X1.7658 Y-6.2133
G01 X1.7626 Y-6.2231
G01 X1.7608 Y-6.2333
G01 X1.7605 Y-6.5863
G01 X1.6005 Y-6.5863
G01 X1.6005 Y-6.0101
G01 X2.8518 Y-6.0101
G01 X2.7818 Y-6.0801
G01 X2.7818 Y-6.1001
G01 X1.8286 Y-6.1001
G01 X1.8148 Y-6.1010
G01 X1.8010 Y-6.1032
G01 X1.7884 Y-6.1066
G01 X1.7757 Y-6.1113
G01 X1.7630 Y-6.1175
G01 X1.7482 Y-6.1269
G01 X1.7353 Y-6.1375
G01 X1.7237 Y-6.1496
G01 X1.7150 Y-6.1610
G01 X1.7062 Y-6.1757
G01 X1.6993 Y-6.1914
G01 X1.6951 Y-6.2045
G01 X1.6918 Y-6.2213
G01 X1.6905 Y-6.2372
G01 X1.6905 Y-6.5163
G01 X1.6705 Y-6.5163
G01 X1.6705 Y-6.0801
G01 X2.7818 Y-6.0801
G00 Z3.0000
G00 X4.6905 Y-6.5163
G01 F80.00
G01 Z-0.0746
G01 F50.00
G01 X4.6705 Y-6.5163
G01 X4.6705 Y-6.2382
G01 X4.6692 Y-6.2209
G01 X4.6658 Y-6.2043
G01 X4.6606 Y-6.1884
G01 X4.6533 Y-6.1729
G01 X4.6456 Y-6.1605
G01 X4.6353 Y-6.1473
G01 X4.6233 Y-6.1353
G01 X4.6101 Y-6.1250
G01 X4.5977 Y-6.1173
G01 X4.5822 Y-6.1100
G01 X4.5694 Y-6.1056
G01 X4.5567 Y-6.1026
G01 X4.5462 Y-6.1010
G01 X4.5324 Y-6.1001
G01 X3.5793 Y-6.1001
G01 X3.5793 Y-6.0801
G01 X4.6905 Y-6.0801
G01 X4.6905 Y-6.5163
G01 X4.7605 Y-6.5863
G01 X4.6005 Y-6.5863
G01 X4.6002 Y-6.2331
G01 X4.5964 Y-6.2166
G01 X4.5923 Y-6.2073
G01 X4.5885 Y-6.2010
G01 X4.5823 Y-6.1930
G01 X4.5750 Y-6.1861
G01 X4.5665 Y-6.1801
G01 X4.5603 Y-6.1767
G01 X4.5445 Y-6.1715
G01 X4.5305 Y-6.1701
G01 X3.5093 Y-6.1701
G01 X3.5093 Y-6.0101
G01 X4.7605 Y-6.0101
G01 X4.7605 Y-6.5863
G00 Z3.0000
G00 X7.0445 Y-8.3013
G01 F80.00
G01 Z-0.0746
G01 F50.00
G01 X7.0402 Y-8.2924
G01 X7.0343 Y-8.2837
G01 X7.0274 Y-8.2762
G01 X7.0197 Y-8.2699
G01 X7.0105 Y-8.2645
G01 X6.9731 Y-8.2465
G01 X6.9505 Y-8.2336
G01 X6.9285 Y-8.2197
G01 X6.9072 Y-8.2047
G01 X6.8867 Y-8.1887
G01 X6.8670 Y-8.1717
G01 X6.8481 Y-8.1538
G01 X6.8302 Y-8.1349
G01 X6.8132 Y-8.1152
G01 X6.7972 Y-8.0947
G01 X6.7822 Y-8.0734
G01 X6.7683 Y-8.0514
G01 X6.7554 Y-8.0288
G01 X6.7437 Y-8.0055
G01 X6.7332 Y-7.9817
G01 X6.7238 Y-7.9574
G01 X6.7157 Y-7.9327
G01 X6.7087 Y-7.9076
G01 X6.7030 Y-7.8823
G01 X6.6986 Y-7.8566
G01 X6.6954 Y-7.8308
G01 X6.6935 Y-7.8048
G01 X6.6928 Y-7.7779
G01 X6.6928 Y-6.1270
G01 X6.6914 Y-6.1133
G01 X6.6884 Y-6.1027
G01 X6.6823 Y-6.0901
G01 X6.6741 Y-6.0794
G01 X3.9993 Y-3.4730
G01 X3.9916 Y-3.4665
G01 X3.9829 Y-3.4611
G01 X3.9737 Y-3.4571
G01 X3.9639 Y-3.4544
G01 X3.9505 Y-3.4532
G01 X3.1284 Y-3.4532
G01 X3.0671 Y-3.4516
G01 X3.0069 Y-3.4472
G01 X2.9469 Y-3.4398
G01 X2.8874 Y-3.4295
G01 X2.8285 Y-3.4162
G01 X2.7703 Y-3.4001
G01 X2.7129 Y-3.3812
G01 X2.6566 Y-3.3595
G01 X2.6013 Y-3.3350
G01 X2.5474 Y-3.3078
G01 X2.4948 Y-3.2780
G01 X2.4438 Y-3.2457
G01 X2.3944 Y-3.2110
G01 X2.3468 Y-3.1738
G01 X2.3011 Y-3.1343
G01 X2.2573 Y-3.0927
G01 X2.2157 Y-3.0489
G01 X2.1762 Y-3.0032
G01 X2.1390 Y-2.9556
G01 X2.1043 Y-2.9062
G01 X2.0720 Y-2.8552
G01 X2.0422 Y-2.8026
G01 X2.0150 Y-2.7487
G01 X1.9905 Y-2.6934
G01 X1.9688 Y-2.6371
G01 X1.9499 Y-2.5797
G01 X1.9338 Y-2.5215
G01 X1.9205 Y-2.4626
G01 X1.9102 Y-2.4031
G01 X1.9028 Y-2.3431
G01 X1.8984 Y-2.2829
G01 X1.8969 Y-2.2225
G01 X1.8984 Y-2.1621
G01 X1.9028 Y-2.1019
G01 X1.9102 Y-2.0419
G01 X1.9205 Y-1.9824
G01 X1.9338 Y-1.9235
G01 X1.9499 Y-1.8653
G01 X1.9688 Y-1.8079
G01 X1.9905 Y-1.7516
G01 X2.0150 Y-1.6963
G01 X2.0422 Y-1.6424
G01 X2.0720 Y-1.5898
G01 X2.1043 Y-1.5388
G01 X2.1390 Y-1.4894
G01 X2.1762 Y-1.4418
G01 X2.2157 Y-1.3961
G01 X2.2573 Y-1.3523
G01 X2.3011 Y-1.3107
G01 X2.3468 Y-1.2712
G01 X2.3944 Y-1.2340
G01 X2.4438 Y-1.1993
G01 X2.4948 Y-1.1670
G01 X2.5474 Y-1.1372
G01 X2.6013 Y-1.1100
G01 X2.6566 Y-1.0855
G01 X2.7129 Y-1.0638
G01 X2.7703 Y-1.0449
G01 X2.8285 Y-1.0288
G01 X2.8874 Y-1.0155
G01 X2.9469 Y-1.0052
G01 X3.0069 Y-0.9978
G01 X3.0671 Y-0.9934
G01 X3.1284 Y-0.9918
G01 X5.1266 Y-0.9918
G01 X5.1879 Y-0.9934
G01 X5.2481 Y-0.9978
G01 X5.3081 Y-1.0052
G01 X5.3676 Y-1.0155
G01 X5.4265 Y-1.0288
G01 X5.4847 Y-1.0449
G01 X5.5421 Y-1.0638
G01 X5.5984 Y-1.0855
G01 X5.6537 Y-1.1100
G01 X5.7076 Y-1.1372
G01 X5.7602 Y-1.1670
G01 X5.8112 Y-1.1993
G01 X5.8606 Y-1.2340
G01 X5.9082 Y-1.2712
G01 X5.9539 Y-1.3107
G01 X5.9977 Y-1.3523
G01 X6.0393 Y-1.3961
G01 X6.0788 Y-1.4418
G01 X6.1160 Y-1.4894
G01 X6.1507 Y-1.5388
G01 X6.1830 Y-1.5898
G01 X6.2128 Y-1.6424
G01 X6.2400 Y-1.6963
G01 X6.2645 Y-1.7516
G01 X6.2862 Y-1.8079
G01 X6.3051 Y-1.8653
G01 X6.3212 Y-1.9235
G01 X6.3345 Y-1.9824
G01 X6.3448 Y-2.0419
G01 X6.3522 Y-2.1019
G01 X6.3566 Y-2.1621
G01 X6.3581 Y-2.2225
G01 X6.3566 Y-2.2829
G01 X6.3522 Y-2.3431
G01 X6.3448 Y-2.4031
G01 X6.3345 Y-2.4626
G01 X6.3212 Y-2.5215
G01 X6.3051 Y-2.5797
G01 X6.2862 Y-2.6371
G01 X6.2645 Y-2.6934
G01 X6.2400 Y-2.7487
G01 X6.2128 Y-2.8026
G01 X6.1830 Y-2.8552
G01 X6.1507 Y-2.9062
G01 X6.1160 Y-2.9556
G01 X6.0788 Y-3.0032
G01 X6.0393 Y-3.0489
G01 X5.9977 Y-3.0927
G01 X5.9539 Y-3.1343
G01 X5.9082 Y-3.1738
G01 X5.8606 Y-3.2110
G01 X5.8112 Y-3.2457
G01 X5.7602 Y-3.2780
G01 X5.7076 Y-3.3078
G01 X5.6537 Y-3.3350
G01 X5.5984 Y-3.3595
G01 X5.5568 Y-3.3756
G01 X5.5475 Y-3.3806
G01 X5.5416 Y-3.3848
G01 X5.5341 Y-3.3917
G01 X5.5275 Y-3.3999
G01 X5.5221 Y-3.4091
G01 X5.5183 Y-3.4188
G01 X5.5159 Y-3.4290
G01 X5.5152 Y-3.4427
G01 X5.5165 Y-3.4536
G01 X5.5192 Y-3.4632
G01 X5.5255 Y-3.4763
G01 X5.5314 Y-3.4845
G01 X5.5363 Y-3.4898
G01 X7.4384 Y-5.3432
G01 X7.4490 Y-5.3517
G01 X7.4612 Y-5.3580
G01 X7.4745 Y-5.3619
G01 X7.4876 Y-5.3631
G01 X7.4981 Y-5.3622
G01 X7.5115 Y-5.3587
G01 X7.5236 Y-5.3529
G01 X7.5345 Y-5.3447
G01 X7.5436 Y-5.3346
G01 X7.5505 Y-5.3231
G01 X7.5551 Y-5.3102
G01 X7.5570 Y-5.2998
G01 X7.5578 Y-3.9501
G01 X7.5614 Y-3.9130
G01 X7.5687 Y-3.8764
G01 X7.5737 Y-3.8584
G01 X7.5862 Y-3.8233
G01 X7.6022 Y-3.7896
G01 X7.6114 Y-3.7733
G01 X7.6321 Y-3.7423
G01 X7.6436 Y-3.7276
G01 X7.6692 Y-3.6993
G01 X9.4143 Y-1.9542
G01 X9.4285 Y-1.9408
G01 X9.4573 Y-1.9171
G01 X9.4726 Y-1.9064
G01 X9.5046 Y-1.8872
G01 X9.5383 Y-1.8712
G01 X9.5734 Y-1.8587
G01 X9.6096 Y-1.8496
G01 X9.6280 Y-1.8464
G01 X9.6651 Y-1.8428
G01 X10.7975 Y-1.8423
G01 X10.8114 Y-1.8409
G01 X10.8216 Y-1.8380
G01 X10.8314 Y-1.8336
G01 X10.8427 Y-1.8257
G01 X10.8524 Y-1.8157
G01 X10.8583 Y-1.8070
G01 X10.8628 Y-1.7975
G01 X10.8805 Y-1.7516
G01 X10.9050 Y-1.6963
G01 X10.9322 Y-1.6424
G01 X10.9620 Y-1.5898
G01 X10.9943 Y-1.5388
G01 X11.0290 Y-1.4894
G01 X11.0662 Y-1.4418
G01 X11.1057 Y-1.3961
G01 X11.1473 Y-1.3523
G01 X11.1911 Y-1.3107
G01 X11.2368 Y-1.2712
G01 X11.2844 Y-1.2340
G01 X11.3338 Y-1.1993
G01 X11.3848 Y-1.1670
G01 X11.4374 Y-1.1372
G01 X11.4913 Y-1.1100
G01 X11.5466 Y-1.0855
G01 X11.6029 Y-1.0638
G01 X11.6603 Y-1.0449
G01 X11.7185 Y-1.0288
G01 X11.7774 Y-1.0155
G01 X11.8369 Y-1.0052
G01 X11.8969 Y-0.9978
G01 X11.9571 Y-0.9934
G01 X12.0184 Y-0.9918
G01 X14.0166 Y-0.9918
G01 X14.0779 Y-0.9934
G01 X14.1381 Y-0.9978
G01 X14.1981 Y-1.0052
G01 X14.2576 Y-1.0155
G01 X14.3165 Y-1.0288
G01 X14.3747 Y-1.0449
G01 X14.4321 Y-1.0638
G01 X14.4884 Y-1.0855
G01 X14.5437 Y-1.1100
G01 X14.5976 Y-1.1372
G01 X14.6502 Y-1.1670
G01 X14.7012 Y-1.1993
G01 X14.7506 Y-1.2340
G01 X14.7982 Y-1.2712
G01 X14.8439 Y-1.3107
G01 X14.8877 Y-1.3523
G01 X14.9293 Y-1.3961
G01 X14.9688 Y-1.4418
G01 X15.0060 Y-1.4894
G01 X15.0407 Y-1.5388
G01 X15.0730 Y-1.5898
G01 X15.1028 Y-1.6424
G01 X15.1300 Y-1.6963
G01 X15.1545 Y-1.7516
G01 X15.1762 Y-1.8079
G01 X15.1951 Y-1.8653
G01 X15.2112 Y-1.9235
G01 X15.2245 Y-1.9824
G01 X15.2348 Y-2.0419
G01 X15.2422 Y-2.1019
G01 X15.2466 Y-2.1621
G01 X15.2481 Y-2.2225
G01 X15.2466 Y-2.2829
G01 X15.2422 Y-2.3431
G01 X15.2348 Y-2.4031
G01 X15.2245 Y-2.4626
G01 X15.2112 Y-2.5215
G01 X15.1951 Y-2.5797
G01 X15.1762 Y-2.6371
G01 X15.1545 Y-2.6934
G01 X15.1300 Y-2.7487
G01 X15.1028 Y-2.8026
G01 X15.0730 Y-2.8552
G01 X15.0407 Y-2.9062
G01 X15.0060 Y-2.9556
G01 X14.9688 Y-3.0032
G01 X14.9293 Y-3.0489
G01 X14.8877 Y-3.0927
G01 X14.8439 Y-3.1343
G01 X14.7982 Y-3.1738
G01 X14.7506 Y-3.2110
G01 X14.7012 Y-3.2457
G01 X14.6502 Y-3.2780
G01 X14.5976 Y-3.3078
G01 X14.5437 Y-3.3350
G01 X14.4884 Y-3.3595
G01 X14.4321 Y-3.3812
G01 X14.3747 Y-3.4001
G01 X14.3165 Y-3.4162
G01 X14.2576 Y-3.4295
G01 X14.1981 Y-3.4398
G01 X14.1381 Y-3.4472
G01 X14.0779 Y-3.4516
G01 X14.0166 Y-3.4532
G01 X12.0184 Y-3.4532
G01 X11.9571 Y-3.4516
G01 X11.8969 Y-3.4472
G01 X11.8369 Y-3.4398
G01 X11.7774 Y-3.4295
G01 X11.7185 Y-3.4162
G01 X11.6603 Y-3.4001
G01 X11.6029 Y-3.3812
G01 X11.5466 Y-3.3595
G01 X11.4913 Y-3.3350
G01 X11.4374 Y-3.3078
G01 X11.3848 Y-3.2780
G01 X11.3338 Y-3.2457
G01 X11.2844 Y-3.2110
G01 X11.2368 Y-3.1738
G01 X11.1911 Y-3.1343
G01 X11.1473 Y-3.0927
G01 X11.1057 Y-3.0489
G01 X11.0662 Y-3.0032
G01 X11.0290 Y-2.9556
G01 X10.9943 Y-2.9062
G01 X10.9620 Y-2.8552
G01 X10.9322 Y-2.8026
G01 X10.9050 Y-2.7487
G01 X10.8805 Y-2.6934
G01 X10.8628 Y-2.6475
G01 X10.8582 Y-2.6379
G01 X10.8527 Y-2.6297
G01 X10.8448 Y-2.6211
G01 X10.8342 Y-2.6131
G01 X10.8251 Y-2.6084
G01 X10.8114 Y-2.6041
G01 X10.7975 Y-2.6027
G01 X9.8703 Y-2.6027
G01 X9.8566 Y-2.6041
G01 X9.8465 Y-2.6069
G01 X9.8346 Y-2.6125
G01 X9.8232 Y-2.6209
G01 X8.3358 Y-4.1084
G01 X8.3295 Y-4.1165
G01 X8.3246 Y-4.1250
G01 X8.3207 Y-4.1350
G01 X8.3185 Y-4.1452
G01 X8.3177 Y-4.1553
G01 X8.3177 Y-4.2226
G01 X8.2984 Y-4.2354
G01 X8.2819 Y-4.2490
G01 X8.2664 Y-4.2644
G01 X8.2538 Y-4.2798
G01 X8.2410 Y-4.2987
G01 X8.2313 Y-4.3166
G01 X8.2229 Y-4.3365
G01 X8.2184 Y-4.3500
G01 X8.2140 Y-4.3678
G01 X8.2118 Y-4.3799
G01 X8.2098 Y-4.3997
G01 X8.2094 Y-4.4122
G01 X8.2095 Y-8.3013
G01 X7.3187 Y-8.3013
G01 X7.2751 Y-8.3065
G01 X7.2491 Y-8.3084
G01 X7.2231 Y-8.3091
G01 X7.1971 Y-8.3084
G01 X7.1711 Y-8.3065
G01 X7.1304 Y-8.3014
G01 X7.0445 Y-8.3013
G00 Z3.0000
G00 X7.7096 Y-8.0747
G01 F80.00
G01 Z-0.0746
G01 F50.00
G01 X7.7116 Y-8.0884
G01 X7.7163 Y-8.1013
G01 X7.7234 Y-8.1131
G01 X7.7300 Y-8.1208
G01 X7.7404 Y-8.1293
G01 X7.7528 Y-8.1360
G01 X7.7655 Y-8.1399
G01 X7.7795 Y-8.1413
G01 X8.0795 Y-8.1413
G01 X8.0897 Y-8.1406
G01 X8.0997 Y-8.1383
G01 X8.1123 Y-8.1331
G01 X8.1215 Y-8.1273
G01 X8.1315 Y-8.1182
G01 X8.1393 Y-8.1076
G01 X8.1442 Y-8.0980
G01 X8.1474 Y-8.0884
G01 X8.1492 Y-8.0776
G01 X8.1495 Y-7.1233
G01 X8.1552 Y-7.0967
G01 X8.1572 Y-7.0769
G01 X8.1576 Y-7.0644
G01 X8.1576 Y-4.0600
G01 X9.7750 Y-2.4426
G01 X10.9701 Y-2.4426
G01 X10.9791 Y-2.4826
G01 X10.9926 Y-2.5316
G01 X11.0096 Y-2.5831
G01 X11.0285 Y-2.6322
G01 X11.0491 Y-2.6786
G01 X11.0734 Y-2.7271
G01 X11.0993 Y-2.7728
G01 X11.1265 Y-2.8158
G01 X11.1577 Y-2.8602
G01 X11.1900 Y-2.9016
G01 X11.2232 Y-2.9401
G01 X11.2605 Y-2.9795
G01 X11.2986 Y-3.0157
G01 X11.3371 Y-3.0489
G01 X11.3798 Y-3.0823
G01 X11.4242 Y-3.1135
G01 X11.4672 Y-3.1407
G01 X11.5129 Y-3.1666
G01 X11.5614 Y-3.1909
G01 X11.6078 Y-3.2115
G01 X11.6569 Y-3.2304
G01 X11.7067 Y-3.2469
G01 X11.7557 Y-3.2605
G01 X11.8100 Y-3.2727
G01 X11.8604 Y-3.2814
G01 X11.9126 Y-3.2878
G01 X11.9650 Y-3.2917
G01 X12.0175 Y-3.2930
G01 X14.0184 Y-3.2930
G01 X14.0700 Y-3.2917
G01 X14.1224 Y-3.2878
G01 X14.1746 Y-3.2814
G01 X14.2250 Y-3.2727
G01 X14.2793 Y-3.2605
G01 X14.3282 Y-3.2469
G01 X14.3765 Y-3.2310
G01 X14.4272 Y-3.2115
G01 X14.4767 Y-3.1895
G01 X14.5221 Y-3.1666
G01 X14.5664 Y-3.1416
G01 X14.6122 Y-3.1126
G01 X14.6566 Y-3.0813
G01 X14.6966 Y-3.0500
G01 X14.7351 Y-3.0168
G01 X14.7745 Y-2.9795
G01 X14.8118 Y-2.9401
G01 X14.8450 Y-2.9016
G01 X14.8763 Y-2.8616
G01 X14.9076 Y-2.8172
G01 X14.9366 Y-2.7714
G01 X14.9616 Y-2.7271
G01 X14.9845 Y-2.6817
G01 X15.0065 Y-2.6322
G01 X15.0260 Y-2.5815
G01 X15.0419 Y-2.5333
G01 X15.0555 Y-2.4843
G01 X15.0674 Y-2.4313
G01 X15.0766 Y-2.3779
G01 X15.0828 Y-2.3274
G01 X15.0866 Y-2.2767
G01 X15.0880 Y-2.2225
G01 X15.0866 Y-2.1683
G01 X15.0828 Y-2.1176
G01 X15.0766 Y-2.0671
G01 X15.0674 Y-2.0137
G01 X15.0555 Y-1.9607
G01 X15.0419 Y-1.9118
G01 X15.0254 Y-1.8619
G01 X15.0058 Y-1.8113
G01 X14.9852 Y-1.7648
G01 X14.9624 Y-1.7194
G01 X14.9357 Y-1.6722
G01 X14.9066 Y-1.6264
G01 X14.8773 Y-1.5848
G01 X14.8461 Y-1.5447
G01 X14.8107 Y-1.5036
G01 X14.7745 Y-1.4655
G01 X14.7364 Y-1.4293
G01 X14.6966 Y-1.3950
G01 X14.6566 Y-1.3637
G01 X14.6108 Y-1.3315
G01 X14.5678 Y-1.3043
G01 X14.5206 Y-1.2776
G01 X14.4752 Y-1.2548
G01 X14.4272 Y-1.2335
G01 X14.3781 Y-1.2146
G01 X14.3282 Y-1.1981
G01 X14.2776 Y-1.1841
G01 X14.2263 Y-1.1726
G01 X14.1746 Y-1.1636
G01 X14.1241 Y-1.1573
G01 X14.0700 Y-1.1533
G01 X14.0175 Y-1.1520
G01 X12.0175 Y-1.1520
G01 X11.9650 Y-1.1533
G01 X11.9120 Y-1.1572
G01 X11.8604 Y-1.1636
G01 X11.8103 Y-1.1723
G01 X11.7557 Y-1.1845
G01 X11.7067 Y-1.1981
G01 X11.6569 Y-1.2146
G01 X11.6078 Y-1.2335
G01 X11.6063 Y-1.2342
G01 X11.5614 Y-1.2541
G01 X11.5114 Y-1.2792
G01 X11.4672 Y-1.3043
G01 X11.4228 Y-1.3324
G01 X11.3784 Y-1.3637
G01 X11.3384 Y-1.3950
G01 X11.2986 Y-1.4293
G01 X11.2593 Y-1.4668
G01 X11.2243 Y-1.5036
G01 X11.1900 Y-1.5434
G01 X11.1577 Y-1.5848
G01 X11.1284 Y-1.6264
G01 X11.0984 Y-1.6736
G01 X11.0734 Y-1.7179
G01 X11.0505 Y-1.7633
G01 X11.0280 Y-1.8141
G01 X11.0096 Y-1.8619
G01 X10.9931 Y-1.9118
G01 X10.9791 Y-1.9624
G01 X10.9701 Y-2.0024
G01 X9.6739 Y-2.0027
G01 X9.6532 Y-2.0046
G01 X9.6392 Y-2.0070
G01 X9.6199 Y-2.0119
G01 X9.5996 Y-2.0192
G01 X9.5801 Y-2.0284
G01 X9.5630 Y-2.0386
G01 X9.5516 Y-2.0466
G01 X9.5355 Y-2.0599
G01 X7.7813 Y-3.8138
G01 X7.7618 Y-3.8363
G01 X7.7487 Y-3.8557
G01 X7.7378 Y-3.8763
G01 X7.7309 Y-3.8930
G01 X7.7269 Y-3.9049
G01 X7.7236 Y-3.9170
G01 X7.7198 Y-3.9365
G01 X7.7183 Y-3.9489
G01 X7.7174 Y-3.9688
G01 X7.7174 Y-6.0390
G01 X7.7116 Y-6.0542
G01 X7.7098 Y-6.0643
G01 X7.7095 Y-6.0713
G01 X7.7096 Y-8.0747
G00 Z3.0000
G00 X9.2096 Y-8.0747
G01 F80.00
G01 Z-0.0746
G01 F50.00
G01 X9.2116 Y-8.0884
G01 X9.2161 Y-8.1011
G01 X9.2219 Y-8.1110
G01 X9.2300 Y-8.1208
G01 X9.2398 Y-8.1289
G01 X9.2528 Y-8.1360
G01 X9.2655 Y-8.1399
G01 X9.2770 Y-8.1413
G01 X9.5795 Y-8.1413
G01 X9.5897 Y-8.1406
G01 X9.5997 Y-8.1383
G01 X9.6093 Y-8.1347
G01 X9.6192 Y-8.1289
G01 X9.6264 Y-8.1233
G01 X9.6338 Y-8.1155
G01 X9.6393 Y-8.1076
G01 X9.6442 Y-8.0980
G01 X9.6481 Y-8.0853
G01 X9.6495 Y-8.0713
G01 X9.6495 Y-6.0688
G01 X9.6481 Y-6.0573
G01 X9.6454 Y-6.0478
G01 X9.6412 Y-6.0382
G01 X9.6338 Y-6.0271
G01 X9.6243 Y-6.0175
G01 X9.6155 Y-6.0113
G01 X9.6062 Y-6.0066
G01 X9.5935 Y-6.0027
G01 X9.5795 Y-6.0013
G01 X9.2795 Y-6.0013
G01 X9.2690 Y-6.0021
G01 X9.2593 Y-6.0043
G01 X9.2495 Y-6.0081
G01 X9.2408 Y-6.0130
G01 X9.2323 Y-6.0196
G01 X9.2252 Y-6.0271
G01 X9.2178 Y-6.0382
G01 X9.2136 Y-6.0478
G01 X9.2109 Y-6.0573
G01 X9.2095 Y-6.0713
G01 X9.2096 Y-8.0747
G00 Z3.0000
G00 X7.5602 Y-5.4900
G01 F80.00
G01 Z-0.0746
G01 F50.00
G01 X7.5774 Y-5.4827
G01 X7.5774 Y-5.5068
G01 X7.5602 Y-5.4900
G00 Z3.0000
G00 X5.7055 Y-11.0670
G01 F80.00
G01 Z-0.0746
G01 F50.00
G01 X5.7655 Y-11.0070
G01 X5.7655 Y-11.0918
G01 X5.7505 Y-11.0824
G01 X5.7361 Y-11.0756
G01 X5.7221 Y-11.0707
G01 X5.7055 Y-11.0670
G01 X5.0993 Y-11.5742
G01 X5.7668 Y-10.9067
G01 X5.7733 Y-10.9019
G01 X5.7806 Y-10.8985
G01 X5.7884 Y-10.8965
G01 X5.7964 Y-10.8961
G01 X5.8044 Y-10.8973
G01 X5.8119 Y-10.9000
G01 X5.8188 Y-10.9041
G01 X5.8248 Y-10.9095
G01 X5.8296 Y-10.9160
G01 X5.8330 Y-10.9233
G01 X5.8350 Y-10.9311
G01 X5.8355 Y-10.9380
G01 X5.8355 Y-12.7140
G01 X5.8342 Y-12.7249
G01 X5.8306 Y-12.7342
G01 X5.8234 Y-12.7439
G01 X5.8155 Y-12.7501
G01 X5.8063 Y-12.7542
G01 X5.7944 Y-12.7559
G01 X5.7844 Y-12.7547
G01 X5.7751 Y-12.7511
G01 X5.7654 Y-12.7439
G01 X5.7592 Y-12.7360
G01 X5.7551 Y-12.7268
G01 X5.7534 Y-12.7169
G01 X5.7533 Y-11.2052
G01 X5.7526 Y-11.1951
G01 X5.7503 Y-11.1848
G01 X5.7467 Y-11.1754
G01 X5.7415 Y-11.1663
G01 X5.7328 Y-11.1557
G01 X5.7222 Y-11.1470
G01 X5.7074 Y-11.1395
G01 X5.6934 Y-11.1359
G01 X5.6795 Y-11.1353
G01 X5.6630 Y-11.1382
G01 X5.6504 Y-11.1435
G01 X5.6388 Y-11.1512
G01 X5.1573 Y-11.6322
G01 X5.1505 Y-11.6379
G01 X5.1434 Y-11.6417
G01 X5.1357 Y-11.6440
G01 X5.1277 Y-11.6448
G01 X5.1217 Y-11.6444
G01 X5.1139 Y-11.6424
G01 X5.1066 Y-11.6390
G01 X5.1017 Y-11.6355
G01 X5.0960 Y-11.6298
G01 X5.0915 Y-11.6231
G01 X5.0884 Y-11.6157
G01 X5.0869 Y-11.6078
G01 X5.0867 Y-11.6018
G01 X5.0879 Y-11.5938
G01 X5.0906 Y-11.5863
G01 X5.0947 Y-11.5794
G01 X5.0993 Y-11.5742
G00 Z3.0000
G00 X8.2095 Y-11.7845
G01 F80.00
G01 Z-0.0746
G01 F50.00
G01 X8.1937 Y-14.8820
G01 X8.1947 Y-14.9035
G01 X8.1982 Y-14.9268
G01 X8.2060 Y-14.9551
G01 X8.2146 Y-14.9763
G01 X8.2252 Y-14.9962
G01 X8.2374 Y-15.0144
G01 X8.2513 Y-15.0312
G01 X8.2655 Y-15.0454
G01 X8.2824 Y-15.0593
G01 X8.2942 Y-15.0675
G01 X8.3116 Y-15.0777
G01 X8.3325 Y-15.0873
G01 X9.8893 Y-15.6277
G01 X9.8856 Y-15.6580
G01 X9.8817 Y-15.7104
G01 X9.8804 Y-15.7629
G01 X9.8816 Y-15.8137
G01 X9.8857 Y-15.8695
G01 X9.8920 Y-15.9199
G01 X9.9006 Y-15.9700
G01 X9.9129 Y-16.0246
G01 X9.9265 Y-16.0735
G01 X9.9429 Y-16.1233
G01 X9.9625 Y-16.1740
G01 X9.9831 Y-16.2204
G01 X10.0060 Y-16.2658
G01 X10.0335 Y-16.3145
G01 X10.0607 Y-16.3574
G01 X10.0910 Y-16.4003
G01 X10.1244 Y-16.4430
G01 X10.1576 Y-16.4815
G01 X10.1938 Y-16.5195
G01 X10.2331 Y-16.5569
G01 X10.2716 Y-16.5900
G01 X10.3130 Y-16.6223
G01 X10.3574 Y-16.6535
G01 X10.4003 Y-16.6807
G01 X10.4445 Y-16.7057
G01 X10.4929 Y-16.7302
G01 X10.5425 Y-16.7521
G01 X10.5899 Y-16.7704
G01 X10.6382 Y-16.7863
G01 X10.6904 Y-16.8008
G01 X10.7417 Y-16.8123
G01 X10.7951 Y-16.8216
G01 X10.8455 Y-16.8277
G01 X10.8962 Y-16.8315
G01 X10.9504 Y-16.8329
G01 X11.0029 Y-16.8316
G01 X11.0553 Y-16.8277
G01 X11.1074 Y-16.8213
G01 X11.1608 Y-16.8120
G01 X11.2104 Y-16.8008
G01 X11.2626 Y-16.7863
G01 X11.3125 Y-16.7698
G01 X11.3599 Y-16.7515
G01 X11.4008 Y-16.7334
G01 X15.2867 Y-16.7334
G01 X15.3343 Y-16.7322
G01 X15.3801 Y-16.7288
G01 X15.4291 Y-16.7228
G01 X15.4777 Y-16.7143
G01 X15.5225 Y-16.7043
G01 X15.5668 Y-16.6920
G01 X15.6136 Y-16.6766
G01 X15.6581 Y-16.6595
G01 X15.7032 Y-16.6394
G01 X15.7442 Y-16.6188
G01 X15.7841 Y-16.5961
G01 X15.8258 Y-16.5698
G01 X15.8648 Y-16.5424
G01 X15.9037 Y-16.5120
G01 X15.9384 Y-16.4820
G01 X15.9717 Y-16.4503
G01 X16.0058 Y-16.4146
G01 X16.0369 Y-16.3785
G01 X16.0672 Y-16.3396
G01 X16.0945 Y-16.3006
G01 X16.1191 Y-16.2618
G01 X16.1417 Y-16.2219
G01 X16.1640 Y-16.1778
G01 X16.1833 Y-16.1343
G01 X16.2004 Y-16.0898
G01 X16.2158 Y-16.0430
G01 X16.2285 Y-15.9970
G01 X16.2385 Y-15.9522
G01 X16.2464 Y-15.9070
G01 X16.2525 Y-15.8580
G01 X16.2560 Y-15.8088
G01 X16.2572 Y-15.7629
G01 X16.2560 Y-15.7170
G01 X16.2526 Y-15.6695
G01 X16.2466 Y-15.6205
G01 X16.2385 Y-15.5736
G01 X16.2281 Y-15.5271
G01 X16.2148 Y-15.4796
G01 X16.2004 Y-15.4360
G01 X16.1839 Y-15.3931
G01 X16.1640 Y-15.3480
G01 X16.1426 Y-15.3054
G01 X16.1182 Y-15.2625
G01 X16.0936 Y-15.2237
G01 X16.0672 Y-15.1862
G01 X16.0369 Y-15.1473
G01 X16.0058 Y-15.1112
G01 X15.9717 Y-15.0755
G01 X15.9371 Y-15.0427
G01 X15.9023 Y-15.0127
G01 X15.8662 Y-14.9845
G01 X15.8259 Y-14.9560
G01 X15.7856 Y-14.9305
G01 X15.7442 Y-14.9070
G01 X15.7001 Y-14.8849
G01 X15.6565 Y-14.8657
G01 X15.6136 Y-14.8492
G01 X15.5700 Y-14.8348
G01 X15.5225 Y-14.8215
G01 X15.4760 Y-14.8111
G01 X15.4291 Y-14.8030
G01 X15.3818 Y-14.7971
G01 X15.3343 Y-14.7936
G01 X15.2867 Y-14.7924
G01 X11.4008 Y-14.7924
G01 X11.3599 Y-14.7743
G01 X11.3124 Y-14.7560
G01 X11.2626 Y-14.7395
G01 X11.2104 Y-14.7250
G01 X11.1591 Y-14.7135
G01 X11.1057 Y-14.7042
G01 X11.0553 Y-14.6981
G01 X11.0046 Y-14.6943
G01 X10.9504 Y-14.6929
G01 X10.8962 Y-14.6943
G01 X10.8455 Y-14.6981
G01 X10.7951 Y-14.7042
G01 X10.7433 Y-14.7131
G01 X10.6904 Y-14.7250
G01 X10.6398 Y-14.7390
G01 X10.5899 Y-14.7554
G01 X10.5393 Y-14.7750
G01 X10.4929 Y-14.7956
G01 X10.4475 Y-14.8185
G01 X10.4003 Y-14.8451
G01 X10.3559 Y-14.8732
G01 X10.3116 Y-14.9045
G01 X10.2716 Y-14.9358
G01 X10.2331 Y-14.9689
G01 X10.1938 Y-15.0063
G01 X10.1576 Y-15.0443
G01 X10.1222 Y-15.0854
G01 X10.0910 Y-15.1255
G01 X10.0617 Y-15.1670
G01 X10.0333 Y-15.2118
G01 X8.6347 Y-14.7265
G01 X8.6460 Y-12.4931
G01 X8.6488 Y-12.4815
G01 X8.6495 Y-12.4713
G01 X8.6495 Y-10.4713
G01 X8.6488 Y-10.4611
G01 X8.6454 Y-10.4478
G01 X8.6413 Y-10.4385
G01 X8.6355 Y-10.4293
G01 X8.6290 Y-10.4218
G01 X8.6192 Y-10.4137
G01 X8.6093 Y-10.4079
G01 X8.5997 Y-10.4043
G01 X8.5897 Y-10.4020
G01 X8.5795 Y-10.4013
G01 X8.2795 Y-10.4013
G01 X8.2693 Y-10.4020
G01 X8.2593 Y-10.4043
G01 X8.2497 Y-10.4079
G01 X8.2398 Y-10.4137
G01 X8.2326 Y-10.4193
G01 X8.2252 Y-10.4271
G01 X8.2197 Y-10.4350
G01 X8.2161 Y-10.4415
G01 X8.2125 Y-10.4511
G01 X8.2102 Y-10.4611
G01 X8.2095 Y-10.4713
G01 X8.2095 Y-11.7845
G00 Z3.0000
G00 X8.7095 Y-12.4713
G01 F80.00
G01 Z-0.0746
G01 F50.00
G01 X8.7099 Y-13.5442
G01 X8.7120 Y-13.5653
G01 X8.7158 Y-13.5852
G01 X8.7196 Y-13.5989
G01 X8.7264 Y-13.6176
G01 X8.7348 Y-13.6356
G01 X8.7418 Y-13.6480
G01 X8.7529 Y-13.6645
G01 X8.7655 Y-13.6799
G01 X8.7819 Y-13.6965
G01 X8.7986 Y-13.7102
G01 X8.8166 Y-13.7222
G01 X8.8356 Y-13.7323
G01 X8.8556 Y-13.7406
G01 X8.8762 Y-13.7469
G01 X8.8970 Y-13.7510
G01 X8.9172 Y-13.7531
G01 X9.8028 Y-13.7535
G01 X9.8226 Y-13.7526
G01 X9.8362 Y-13.7509
G01 X9.8553 Y-13.7471
G01 X9.8757 Y-13.7411
G01 X9.8953 Y-13.7331
G01 X9.9134 Y-13.7237
G01 X11.9438 Y-12.5335
G01 X11.9972 Y-12.5482
G01 X12.0468 Y-12.5593
G01 X12.0985 Y-12.5683
G01 X12.1524 Y-12.5749
G01 X12.2031 Y-12.5786
G01 X12.2539 Y-12.5799
G01 X14.2565 Y-12.5799
G01 X14.3081 Y-12.5786
G01 X14.3605 Y-12.5747
G01 X14.4127 Y-12.5683
G01 X14.4644 Y-12.5593
G01 X14.5157 Y-12.5478
G01 X14.5663 Y-12.5338
G01 X14.6162 Y-12.5173
G01 X14.6668 Y-12.4977
G01 X14.7133 Y-12.4771
G01 X14.7602 Y-12.4535
G01 X14.8059 Y-12.4276
G01 X14.8489 Y-12.4004
G01 X14.8947 Y-12.3682
G01 X14.9347 Y-12.3369
G01 X14.9745 Y-12.3026
G01 X15.0126 Y-12.2664
G01 X15.0476 Y-12.2296
G01 X15.0842 Y-12.1872
G01 X15.1154 Y-12.1471
G01 X15.1457 Y-12.1041
G01 X15.1738 Y-12.0597
G01 X15.1989 Y-12.0155
G01 X15.2233 Y-11.9671
G01 X15.2439 Y-11.9206
G01 X15.2641 Y-11.8684
G01 X15.2800 Y-11.8201
G01 X15.2940 Y-11.7695
G01 X15.3055 Y-11.7182
G01 X15.3142 Y-11.6682
G01 X15.3211 Y-11.6126
G01 X15.3248 Y-11.5619
G01 X15.3261 Y-11.5094
G01 X15.3248 Y-11.4569
G01 X15.3211 Y-11.4062
G01 X15.3142 Y-11.3506
G01 X15.3055 Y-11.3006
G01 X15.2944 Y-11.2510
G01 X15.2800 Y-11.1987
G01 X15.2635 Y-11.1488
G01 X15.2453 Y-11.1013
G01 X15.2233 Y-11.0517
G01 X15.1989 Y-11.0033
G01 X15.1738 Y-10.9591
G01 X15.1457 Y-10.9147
G01 X15.1144 Y-10.8703
G01 X15.0831 Y-10.8303
G01 X15.0488 Y-10.7905
G01 X15.0113 Y-10.7512
G01 X14.9745 Y-10.7162
G01 X14.9347 Y-10.6819
G01 X14.8933 Y-10.6496
G01 X14.8518 Y-10.6203
G01 X14.8059 Y-10.5912
G01 X14.7587 Y-10.5645
G01 X14.7133 Y-10.5417
G01 X14.6653 Y-10.5204
G01 X14.6146 Y-10.5009
G01 X14.5663 Y-10.4850
G01 X14.5157 Y-10.4710
G01 X14.4644 Y-10.4595
G01 X14.4110 Y-10.4503
G01 X14.3605 Y-10.4441
G01 X14.3098 Y-10.4403
G01 X14.2565 Y-10.4389
G01 X12.2556 Y-10.4389
G01 X12.2014 Y-10.4403
G01 X12.1507 Y-10.4441
G01 X12.0985 Y-10.4505
G01 X12.0468 Y-10.4595
G01 X11.9972 Y-10.4706
G01 X11.9432 Y-10.4855
G01 X11.8950 Y-10.5015
G01 X11.8475 Y-10.5197
G01 X11.7995 Y-10.5410
G01 X11.7510 Y-10.5653
G01 X11.7038 Y-10.5921
G01 X11.6609 Y-10.6193
G01 X11.6193 Y-10.6486
G01 X11.5765 Y-10.6819
G01 X11.5354 Y-10.7174
G01 X11.4986 Y-10.7524
G01 X11.4636 Y-10.7892
G01 X11.4281 Y-10.8303
G01 X11.3948 Y-10.8731
G01 X11.3655 Y-10.9147
G01 X11.3383 Y-10.9576
G01 X11.3115 Y-11.0048
G01 X11.2872 Y-11.0533
G01 X11.2666 Y-11.0997
G01 X11.2483 Y-11.1471
G01 X11.2312 Y-11.1987
G01 X11.2172 Y-11.2493
G01 X11.2054 Y-11.3022
G01 X11.1967 Y-11.3523
G01 X11.1904 Y-11.4028
G01 X11.1864 Y-11.4569
G01 X11.1851 Y-11.5111
G01 X11.1864 Y-11.5619
G01 X11.1901 Y-11.6126
G01 X11.1967 Y-11.6665
G01 X11.2060 Y-11.7199
G01 X11.2172 Y-11.7695
G01 X11.2307 Y-11.8185
G01 X11.2477 Y-11.8700
G01 X11.2673 Y-11.9206
G01 X11.2879 Y-11.9671
G01 X11.3107 Y-12.0125
G01 X11.3374 Y-12.0597
G01 X11.3665 Y-12.1056
G01 X11.3958 Y-12.1471
G01 X11.4270 Y-12.1872
G01 X11.4624 Y-12.2283
G01 X11.4974 Y-12.2651
G01 X11.5102 Y-12.2774
G01 X9.7431 Y-13.3133
G01 X9.1498 Y-13.3133
G01 X9.1495 Y-10.4713
G01 X9.1488 Y-10.4611
G01 X9.1465 Y-10.4511
G01 X9.1413 Y-10.4385
G01 X9.1355 Y-10.4293
G01 X9.1290 Y-10.4218
G01 X9.1215 Y-10.4153
G01 X9.1123 Y-10.4095
G01 X9.0997 Y-10.4043
G01 X9.0897 Y-10.4020
G01 X9.0795 Y-10.4013
G01 X8.7795 Y-10.4013
G01 X8.7693 Y-10.4020
G01 X8.7593 Y-10.4043
G01 X8.7467 Y-10.4095
G01 X8.7375 Y-10.4153
G01 X8.7275 Y-10.4244
G01 X8.7197 Y-10.4350
G01 X8.7148 Y-10.4446
G01 X8.7109 Y-10.4573
G01 X8.7095 Y-10.4688
G01 X8.7095 Y-12.4713
G00 Z3.0000
G00 X9.2096 Y-12.4747
G01 F80.00
G01 Z-0.0746
G01 F50.00
G01 X9.2109 Y-12.4853
G01 X9.2136 Y-12.4948
G01 X9.2177 Y-12.5041
G01 X9.2235 Y-12.5133
G01 X9.2300 Y-12.5208
G01 X9.2375 Y-12.5273
G01 X9.2467 Y-12.5331
G01 X9.2560 Y-12.5372
G01 X9.2655 Y-12.5399
G01 X9.2770 Y-12.5413
G01 X9.3906 Y-12.5413
G01 X9.4137 Y-12.5602
G01 X9.4398 Y-12.5777
G01 X9.4675 Y-12.5925
G01 X9.4966 Y-12.6045
G01 X9.5266 Y-12.6136
G01 X9.5578 Y-12.6198
G01 X9.5887 Y-12.6228
G01 X9.6218 Y-12.6227
G01 X9.6497 Y-12.6200
G01 X9.6669 Y-12.6171
G01 X9.6838 Y-12.6132
G01 X9.7106 Y-12.6051
G01 X9.7428 Y-12.5917
G01 X9.7675 Y-12.5785
G01 X9.7837 Y-12.5683
G01 X9.8061 Y-12.5516
G01 X9.8194 Y-12.5403
G01 X9.8320 Y-12.5282
G01 X9.8519 Y-12.5062
G01 X9.8696 Y-12.4824
G01 X9.8790 Y-12.4677
G01 X9.8875 Y-12.4525
G01 X9.8995 Y-12.4272
G01 X9.9107 Y-12.3960
G01 X9.9184 Y-12.3656
G01 X9.9230 Y-12.3345
G01 X9.9245 Y-12.3040
G01 X9.9245 Y-10.8195
G01 X12.0872 Y-9.5501
G01 X12.1524 Y-9.5586
G01 X12.2031 Y-9.5623
G01 X12.2556 Y-9.5636
G01 X14.2556 Y-9.5636
G01 X14.3081 Y-9.5623
G01 X14.3588 Y-9.5586
G01 X14.4144 Y-9.5517
G01 X14.4644 Y-9.5430
G01 X14.5157 Y-9.5315
G01 X14.5663 Y-9.5175
G01 X14.6146 Y-9.5016
G01 X14.6653 Y-9.4821
G01 X14.7133 Y-9.4608
G01 X14.7587 Y-9.4380
G01 X14.8059 Y-9.4113
G01 X14.8518 Y-9.3822
G01 X14.8933 Y-9.3529
G01 X14.9334 Y-9.3217
G01 X14.9745 Y-9.2863
G01 X15.0126 Y-9.2501
G01 X15.0488 Y-9.2120
G01 X15.0831 Y-9.1722
G01 X15.1154 Y-9.1308
G01 X15.1457 Y-9.0878
G01 X15.1738 Y-9.0434
G01 X15.1997 Y-8.9977
G01 X15.2233 Y-8.9508
G01 X15.2446 Y-8.9028
G01 X15.2635 Y-8.8537
G01 X15.2800 Y-8.8038
G01 X15.2940 Y-8.7532
G01 X15.3055 Y-8.7019
G01 X15.3145 Y-8.6502
G01 X15.3209 Y-8.5980
G01 X15.3248 Y-8.5456
G01 X15.3261 Y-8.4931
G01 X15.3248 Y-8.4406
G01 X15.3209 Y-8.3882
G01 X15.3145 Y-8.3360
G01 X15.3055 Y-8.2843
G01 X15.2940 Y-8.2330
G01 X15.2800 Y-8.1824
G01 X15.2635 Y-8.1325
G01 X15.2446 Y-8.0834
G01 X15.2233 Y-8.0354
G01 X15.1997 Y-7.9885
G01 X15.1738 Y-7.9428
G01 X15.1457 Y-7.8984
G01 X15.1154 Y-7.8554
G01 X15.0842 Y-7.8153
G01 X15.0488 Y-7.7742
G01 X15.0126 Y-7.7361
G01 X14.9745 Y-7.6999
G01 X14.9347 Y-7.6656
G01 X14.8933 Y-7.6333
G01 X14.8503 Y-7.6030
G01 X14.8059 Y-7.5749
G01 X14.7587 Y-7.5482
G01 X14.7133 Y-7.5254
G01 X14.6637 Y-7.5034
G01 X14.6162 Y-7.4852
G01 X14.5680 Y-7.4692
G01 X14.5174 Y-7.4551
G01 X14.4644 Y-7.4432
G01 X14.4127 Y-7.4342
G01 X14.3605 Y-7.4278
G01 X14.3081 Y-7.4239
G01 X14.2556 Y-7.4226
G01 X12.2556 Y-7.4226
G01 X12.2031 Y-7.4239
G01 X12.1507 Y-7.4278
G01 X12.0968 Y-7.4345
G01 X12.0468 Y-7.4432
G01 X11.9955 Y-7.4547
G01 X11.9432 Y-7.4692
G01 X11.8950 Y-7.4852
G01 X11.8459 Y-7.5041
G01 X11.7964 Y-7.5261
G01 X11.7510 Y-7.5490
G01 X11.7053 Y-7.5749
G01 X11.6594 Y-7.6040
G01 X11.6179 Y-7.6333
G01 X11.5778 Y-7.6645
G01 X11.5367 Y-7.6999
G01 X11.4986 Y-7.7361
G01 X11.4624 Y-7.7742
G01 X11.4281 Y-7.8140
G01 X11.3958 Y-7.8554
G01 X11.3655 Y-7.8984
G01 X11.3374 Y-7.9428
G01 X11.3115 Y-7.9885
G01 X11.2879 Y-8.0354
G01 X11.2666 Y-8.0834
G01 X11.2477 Y-8.1325
G01 X11.2312 Y-8.1824
G01 X11.2172 Y-8.2330
G01 X11.2057 Y-8.2843
G01 X11.1967 Y-8.3360
G01 X11.1903 Y-8.3882
G01 X11.1864 Y-8.4406
G01 X11.1851 Y-8.4931
G01 X11.1864 Y-8.5456
G01 X11.1903 Y-8.5980
G01 X11.1967 Y-8.6502
G01 X11.2057 Y-8.7019
G01 X11.2172 Y-8.7532
G01 X11.2312 Y-8.8038
G01 X11.2477 Y-8.8537
G01 X11.2666 Y-8.9028
G01 X11.2879 Y-8.9508
G01 X11.3115 Y-8.9977
G01 X11.3374 Y-9.0434
G01 X11.3655 Y-9.0878
G01 X11.3958 Y-9.1308
G01 X11.4280 Y-9.1721
G01 X11.4409 Y-9.1871
G01 X9.4424 Y-10.3601
G01 X9.4158 Y-10.3775
G01 X9.4033 Y-10.3871
G01 X9.3870 Y-10.4013
G01 X9.2795 Y-10.4013
G01 X9.2693 Y-10.4020
G01 X9.2624 Y-10.4034
G01 X9.2467 Y-10.4095
G01 X9.2353 Y-10.4170
G01 X9.2252 Y-10.4271
G01 X9.2197 Y-10.4350
G01 X9.2161 Y-10.4415
G01 X9.2109 Y-10.4573
G01 X9.2095 Y-10.4713
G01 X9.2096 Y-12.4747
G00 Z3.0000
G00 X8.0025 Y-13.6754
G01 F80.00
G01 Z-0.0746
G01 F50.00
G01 X8.0603 Y-13.5919
G01 X8.0598 Y-13.6935
G01 X8.0445 Y-13.6868
G01 X8.0303 Y-13.6819
G01 X8.0025 Y-13.6754
G00 Z3.0000
G00 X1.3650 Y-16.7600
G01 F80.00
G01 Z-0.0746
G01 F50.00
G01 X1.4146 Y-16.7849
G01 X1.4653 Y-16.8074
G01 X1.5171 Y-16.8274
G01 X1.5698 Y-16.8448
G01 X1.6233 Y-16.8596
G01 X1.6774 Y-16.8718
G01 X1.7321 Y-16.8812
G01 X1.7872 Y-16.8880
G01 X1.8425 Y-16.8921
G01 X1.8989 Y-16.8935
G01 X5.6143 Y-16.8935
G01 X5.6238 Y-16.8945
G01 X5.6349 Y-16.8974
G01 X5.6960 Y-16.9210
G01 X5.7534 Y-16.9399
G01 X5.8115 Y-16.9560
G01 X5.8704 Y-16.9692
G01 X5.9299 Y-16.9796
G01 X5.9898 Y-16.9870
G01 X6.0500 Y-16.9914
G01 X6.1104 Y-16.9929
G01 X6.1708 Y-16.9914
G01 X6.2310 Y-16.9870
G01 X6.2909 Y-16.9796
G01 X6.3504 Y-16.9692
G01 X6.4093 Y-16.9560
G01 X6.4674 Y-16.9399
G01 X6.5248 Y-16.9210
G01 X6.5811 Y-16.8993
G01 X6.6363 Y-16.8748
G01 X6.6902 Y-16.8476
G01 X6.7427 Y-16.8179
G01 X6.7937 Y-16.7856
G01 X6.8431 Y-16.7508
G01 X6.8907 Y-16.7137
G01 X6.9364 Y-16.6743
G01 X6.9801 Y-16.6326
G01 X7.0218 Y-16.5889
G01 X7.0612 Y-16.5432
G01 X7.0983 Y-16.4956
G01 X7.1331 Y-16.4462
G01 X7.1654 Y-16.3952
G01 X7.1951 Y-16.3427
G01 X7.2223 Y-16.2888
G01 X7.2468 Y-16.2336
G01 X7.2685 Y-16.1773
G01 X7.2874 Y-16.1199
G01 X7.3035 Y-16.0618
G01 X7.3167 Y-16.0029
G01 X7.3271 Y-15.9434
G01 X7.3345 Y-15.8835
G01 X7.3389 Y-15.8233
G01 X7.3404 Y-15.7629
G01 X7.3389 Y-15.7025
G01 X7.3345 Y-15.6423
G01 X7.3271 Y-15.5824
G01 X7.3167 Y-15.5229
G01 X7.3035 Y-15.4640
G01 X7.2874 Y-15.4059
G01 X7.2685 Y-15.3485
G01 X7.2468 Y-15.2922
G01 X7.2223 Y-15.2370
G01 X7.1951 Y-15.1831
G01 X7.1654 Y-15.1306
G01 X7.1331 Y-15.0796
G01 X7.1200 Y-15.0608
G01 X7.1136 Y-15.0480
G01 X7.1099 Y-15.0342
G01 X7.1091 Y-15.0202
G01 X7.1112 Y-15.0063
G01 X7.1147 Y-14.9957
G01 X7.1215 Y-14.9834
G01 X7.9111 Y-13.8428
G01 X7.9176 Y-13.8348
G01 X7.9225 Y-13.8300
G01 X7.9362 Y-13.8206
G01 X7.9457 Y-13.8165
G01 X7.9533 Y-13.8143
G01 X7.9693 Y-13.8126
G01 X7.9800 Y-13.8136
G01 X7.9929 Y-13.8170
G01 X8.0054 Y-13.8231
G01 X8.0159 Y-13.8310
G01 X8.0232 Y-13.8388
G01 X8.0306 Y-13.8501
G01 X8.0357 Y-13.8627
G01 X8.0384 Y-13.8762
G01 X8.0340 Y-14.8998
G01 X8.0375 Y-14.9373
G01 X8.0448 Y-14.9744
G01 X8.0498 Y-14.9926
G01 X8.0625 Y-15.0282
G01 X8.0786 Y-15.0623
G01 X8.0880 Y-15.0787
G01 X8.1090 Y-15.1101
G01 X8.1207 Y-15.1249
G01 X8.1461 Y-15.1528
G01 X8.1599 Y-15.1658
G01 X8.1892 Y-15.1896
G01 X8.2207 Y-15.2103
G01 X8.2372 Y-15.2195
G01 X8.2715 Y-15.2354
G01 X9.6740 Y-15.7225
G01 X9.6833 Y-15.7265
G01 X9.6929 Y-15.7326
G01 X9.7029 Y-15.7417
G01 X9.7098 Y-15.7506
G01 X9.7147 Y-15.7595
G01 X9.7191 Y-15.7725
G01 X9.7209 Y-15.7837
G01 X9.7219 Y-15.8233
G01 X9.7263 Y-15.8835
G01 X9.7337 Y-15.9434
G01 X9.7441 Y-16.0029
G01 X9.7573 Y-16.0618
G01 X9.7734 Y-16.1199
G01 X9.7923 Y-16.1773
G01 X9.8140 Y-16.2336
G01 X9.8385 Y-16.2888
G01 X9.8657 Y-16.3427
G01 X9.8954 Y-16.3952
G01 X9.9277 Y-16.4462
G01 X9.9625 Y-16.4956
G01 X9.9996 Y-16.5432
G01 X10.0390 Y-16.5889
G01 X10.0807 Y-16.6326
G01 X10.1244 Y-16.6743
G01 X10.1701 Y-16.7137
G01 X10.2177 Y-16.7508
G01 X10.2671 Y-16.7856
G01 X10.3181 Y-16.8179
G01 X10.3706 Y-16.8476
G01 X10.4245 Y-16.8748
G01 X10.4797 Y-16.8993
G01 X10.5360 Y-16.9210
G01 X10.5934 Y-16.9399
G01 X10.6515 Y-16.9560
G01 X10.7104 Y-16.9692
G01 X10.7699 Y-16.9796
G01 X10.8298 Y-16.9870
G01 X10.8900 Y-16.9914
G01 X10.9504 Y-16.9929
G01 X11.0108 Y-16.9914
G01 X11.0710 Y-16.9870
G01 X11.1309 Y-16.9796
G01 X11.1904 Y-16.9692
G01 X11.2493 Y-16.9560
G01 X11.3074 Y-16.9399
G01 X11.3648 Y-16.9210
G01 X11.4259 Y-16.8974
G01 X11.4370 Y-16.8945
G01 X11.4465 Y-16.8935
G01 X15.2858 Y-16.8935
G01 X15.3422 Y-16.8921
G01 X15.3975 Y-16.8880
G01 X15.4526 Y-16.8812
G01 X15.5073 Y-16.8718
G01 X15.5614 Y-16.8596
G01 X15.6149 Y-16.8448
G01 X15.6676 Y-16.8274
G01 X15.7194 Y-16.8074
G01 X15.7701 Y-16.7849
G01 X15.8197 Y-16.7600
G01 X15.8679 Y-16.7326
G01 X15.9148 Y-16.7029
G01 X15.9602 Y-16.6710
G01 X16.0039 Y-16.6368
G01 X16.0460 Y-16.6006
G01 X16.0861 Y-16.5623
G01 X16.1244 Y-16.5222
G01 X16.1606 Y-16.4801
G01 X16.1948 Y-16.4364
G01 X16.2267 Y-16.3910
G01 X16.2564 Y-16.3441
G01 X16.2838 Y-16.2959
G01 X16.3087 Y-16.2463
G01 X16.3312 Y-16.1956
G01 X16.3512 Y-16.1438
G01 X16.3686 Y-16.0911
G01 X16.3834 Y-16.0376
G01 X16.3956 Y-15.9835
G01 X16.4050 Y-15.9288
G01 X16.4118 Y-15.8737
G01 X16.4159 Y-15.8184
G01 X16.4173 Y-15.7629
G01 X16.4159 Y-15.7074
G01 X16.4118 Y-15.6521
G01 X16.4050 Y-15.5970
G01 X16.3956 Y-15.5423
G01 X16.3834 Y-15.4882
G01 X16.3686 Y-15.4347
G01 X16.3512 Y-15.3820
G01 X16.3312 Y-15.3302
G01 X16.3087 Y-15.2795
G01 X16.2838 Y-15.2299
G01 X16.2564 Y-15.1817
G01 X16.2267 Y-15.1348
G01 X16.1948 Y-15.0894
G01 X16.1606 Y-15.0457
G01 X16.1244 Y-15.0036
G01 X16.0861 Y-14.9635
G01 X16.0460 Y-14.9252
G01 X16.0039 Y-14.8890
G01 X15.9602 Y-14.8548
G01 X15.9148 Y-14.8229
G01 X15.8679 Y-14.7932
G01 X15.8197 Y-14.7658
G01 X15.7701 Y-14.7409
G01 X15.7194 Y-14.7184
G01 X15.6676 Y-14.6984
G01 X15.6149 Y-14.6810
G01 X15.5614 Y-14.6662
G01 X15.5073 Y-14.6540
G01 X15.4526 Y-14.6446
G01 X15.3975 Y-14.6378
G01 X15.3422 Y-14.6337
G01 X15.2858 Y-14.6323
G01 X11.4453 Y-14.6322
G01 X11.4380 Y-14.6314
G01 X11.4275 Y-14.6289
G01 X11.3648 Y-14.6048
G01 X11.3074 Y-14.5859
G01 X11.2493 Y-14.5698
G01 X11.1904 Y-14.5566
G01 X11.1309 Y-14.5462
G01 X11.0710 Y-14.5388
G01 X11.0108 Y-14.5344
G01 X10.9504 Y-14.5329
G01 X10.8900 Y-14.5344
G01 X10.8298 Y-14.5388
G01 X10.7699 Y-14.5462
G01 X10.7104 Y-14.5566
G01 X10.6515 Y-14.5698
G01 X10.5934 Y-14.5859
G01 X10.5360 Y-14.6048
G01 X10.4797 Y-14.6265
G01 X10.4245 Y-14.6510
G01 X10.3706 Y-14.6782
G01 X10.3181 Y-14.7079
G01 X10.2671 Y-14.7402
G01 X10.2177 Y-14.7750
G01 X10.1701 Y-14.8121
G01 X10.1244 Y-14.8515
G01 X10.0807 Y-14.8932
G01 X10.0390 Y-14.9369
G01 X9.9988 Y-14.9835
G01 X9.9921 Y-14.9903
G01 X9.9828 Y-14.9973
G01 X9.9709 Y-15.0031
G01 X9.9570 Y-15.0069
G01 X9.9433 Y-15.0078
G01 X9.9321 Y-15.0064
G01 X9.9229 Y-15.0039
G01 X8.8397 Y-14.6280
G01 X8.8305 Y-14.6236
G01 X8.8216 Y-14.6174
G01 X8.8152 Y-14.6115
G01 X8.8084 Y-14.6033
G01 X8.8030 Y-14.5943
G01 X8.7996 Y-14.5863
G01 X8.7969 Y-14.5761
G01 X8.7957 Y-14.5656
G01 X8.7987 Y-13.9756
G01 X8.7995 Y-13.9681
G01 X8.8017 Y-13.9588
G01 X8.8055 Y-13.9491
G01 X8.8096 Y-13.9417
G01 X8.8197 Y-13.9292
G01 X8.8251 Y-13.9245
G01 X8.8339 Y-13.9186
G01 X8.8427 Y-13.9143
G01 X8.8499 Y-13.9119
G01 X8.8598 Y-13.9099
G01 X8.8699 Y-13.9094
G01 X8.9110 Y-13.9131
G01 X8.9306 Y-13.9136
G01 X9.8211 Y-13.9132
G01 X9.8576 Y-13.9096
G01 X9.8935 Y-13.9026
G01 X9.9287 Y-13.8922
G01 X9.9458 Y-13.8857
G01 X9.9790 Y-13.8703
G01 X9.9958 Y-13.8610
G01 X11.9432 Y-12.7194
G01 X11.9547 Y-12.7140
G01 X11.9707 Y-12.7103
G01 X11.9852 Y-12.7101
G01 X12.0155 Y-12.7164
G01 X12.0750 Y-12.7267
G01 X12.1350 Y-12.7341
G01 X12.1952 Y-12.7385
G01 X12.2565 Y-12.7401
G01 X14.2547 Y-12.7401
G01 X14.3160 Y-12.7385
G01 X14.3762 Y-12.7341
G01 X14.4362 Y-12.7267
G01 X14.4957 Y-12.7164
G01 X14.5546 Y-12.7031
G01 X14.6128 Y-12.6870
G01 X14.6702 Y-12.6681
G01 X14.7265 Y-12.6464
G01 X14.7818 Y-12.6219
G01 X14.8357 Y-12.5947
G01 X14.8883 Y-12.5649
G01 X14.9393 Y-12.5326
G01 X14.9887 Y-12.4979
G01 X15.0363 Y-12.4607
G01 X15.0820 Y-12.4212
G01 X15.1258 Y-12.3796
G01 X15.1674 Y-12.3358
G01 X15.2069 Y-12.2901
G01 X15.2441 Y-12.2425
G01 X15.2788 Y-12.1931
G01 X15.3111 Y-12.1421
G01 X15.3409 Y-12.0895
G01 X15.3681 Y-12.0356
G01 X15.3926 Y-11.9803
G01 X15.4143 Y-11.9240
G01 X15.4332 Y-11.8666
G01 X15.4493 Y-11.8084
G01 X15.4626 Y-11.7495
G01 X15.4729 Y-11.6900
G01 X15.4803 Y-11.6300
G01 X15.4847 Y-11.5698
G01 X15.4862 Y-11.5094
G01 X15.4847 Y-11.4490
G01 X15.4803 Y-11.3888
G01 X15.4729 Y-11.3288
G01 X15.4626 Y-11.2693
G01 X15.4493 Y-11.2104
G01 X15.4332 Y-11.1522
G01 X15.4143 Y-11.0948
G01 X15.3926 Y-11.0385
G01 X15.3681 Y-10.9832
G01 X15.3409 Y-10.9293
G01 X15.3111 Y-10.8767
G01 X15.2788 Y-10.8257
G01 X15.2441 Y-10.7763
G01 X15.2069 Y-10.7287
G01 X15.1674 Y-10.6830
G01 X15.1258 Y-10.6392
G01 X15.0820 Y-10.5976
G01 X15.0363 Y-10.5581
G01 X14.9887 Y-10.5209
G01 X14.9393 Y-10.4862
G01 X14.8883 Y-10.4539
G01 X14.8357 Y-10.4241
G01 X14.7818 Y-10.3969
G01 X14.7265 Y-10.3724
G01 X14.6702 Y-10.3507
G01 X14.6128 Y-10.3318
G01 X14.5546 Y-10.3157
G01 X14.4957 Y-10.3024
G01 X14.4362 Y-10.2921
G01 X14.3762 Y-10.2847
G01 X14.3160 Y-10.2803
G01 X14.2547 Y-10.2787
G01 X12.2565 Y-10.2787
G01 X12.1952 Y-10.2803
G01 X12.1350 Y-10.2847
G01 X12.0750 Y-10.2921
G01 X12.0155 Y-10.3024
G01 X11.9566 Y-10.3157
G01 X11.8984 Y-10.3318
G01 X11.8410 Y-10.3507
G01 X11.7847 Y-10.3724
G01 X11.7294 Y-10.3969
G01 X11.6755 Y-10.4241
G01 X11.6229 Y-10.4539
G01 X11.5719 Y-10.4862
G01 X11.5225 Y-10.5209
G01 X11.4749 Y-10.5581
G01 X11.4292 Y-10.5976
G01 X11.3854 Y-10.6392
G01 X11.3438 Y-10.6830
G01 X11.3043 Y-10.7287
G01 X11.2671 Y-10.7763
G01 X11.2324 Y-10.8257
G01 X11.2001 Y-10.8767
G01 X11.1703 Y-10.9293
G01 X11.1431 Y-10.9832
G01 X11.1186 Y-11.0385
G01 X11.0969 Y-11.0948
G01 X11.0780 Y-11.1522
G01 X11.0619 Y-11.2104
G01 X11.0486 Y-11.2693
G01 X11.0383 Y-11.3288
G01 X11.0309 Y-11.3888
G01 X11.0265 Y-11.4490
G01 X11.0250 Y-11.5094
G01 X11.0265 Y-11.5698
G01 X11.0309 Y-11.6300
G01 X11.0383 Y-11.6900
G01 X11.0486 Y-11.7495
G01 X11.0619 Y-11.8084
G01 X11.0780 Y-11.8666
G01 X11.0969 Y-11.9240
G01 X11.1186 Y-11.9803
G01 X11.1431 Y-12.0356
G01 X11.1703 Y-12.0895
G01 X11.2001 Y-12.1421
G01 X11.2237 Y-12.1795
G01 X11.2274 Y-12.1870
G01 X11.2304 Y-12.1957
G01 X11.2320 Y-12.2030
G01 X11.2329 Y-12.2130
G01 X11.2326 Y-12.2205
G01 X11.2309 Y-12.2310
G01 X11.2278 Y-12.2405
G01 X11.2245 Y-12.2475
G01 X11.2190 Y-12.2560
G01 X11.2124 Y-12.2637
G01 X11.2044 Y-12.2706
G01 X11.1983 Y-12.2746
G01 X9.7093 Y-13.1470
G01 X9.6953 Y-13.1516
G01 X9.6806 Y-13.1532
G01 X9.3799 Y-13.1532
G01 X9.3698 Y-13.1524
G01 X9.3595 Y-13.1501
G01 X9.3496 Y-13.1463
G01 X9.3379 Y-13.1392
G01 X9.3304 Y-13.1327
G01 X9.3239 Y-13.1252
G01 X9.3168 Y-13.1135
G01 X9.3130 Y-13.1036
G01 X9.3103 Y-13.0901
G01 X9.3100 Y-12.8016
G01 X9.3122 Y-12.7878
G01 X9.3183 Y-12.7720
G01 X9.3263 Y-12.7604
G01 X9.3360 Y-12.7508
G01 X9.3479 Y-12.7431
G01 X9.3605 Y-12.7381
G01 X9.3743 Y-12.7356
G01 X9.3881 Y-12.7358
G01 X9.4019 Y-12.7389
G01 X9.4426 Y-12.7553
G01 X9.4650 Y-12.7627
G01 X9.4877 Y-12.7690
G01 X9.5107 Y-12.7741
G01 X9.5339 Y-12.7782
G01 X9.5573 Y-12.7810
G01 X9.5808 Y-12.7828
G01 X9.6044 Y-12.7834
G01 X9.6280 Y-12.7828
G01 X9.6515 Y-12.7810
G01 X9.6749 Y-12.7782
G01 X9.6981 Y-12.7741
G01 X9.7211 Y-12.7690
G01 X9.7438 Y-12.7627
G01 X9.7662 Y-12.7553
G01 X9.7882 Y-12.7468
G01 X9.8097 Y-12.7372
G01 X9.8308 Y-12.7266
G01 X9.8513 Y-12.7150
G01 X9.8712 Y-12.7024
G01 X9.8905 Y-12.6888
G01 X9.9091 Y-12.6743
G01 X9.9269 Y-12.6589
G01 X9.9440 Y-12.6427
G01 X9.9602 Y-12.6256
G01 X9.9756 Y-12.6078
G01 X9.9901 Y-12.5892
G01 X10.0037 Y-12.5699
G01 X10.0163 Y-12.5500
G01 X10.0279 Y-12.5295
G01 X10.0385 Y-12.5084
G01 X10.0481 Y-12.4869
G01 X10.0566 Y-12.4649
G01 X10.0640 Y-12.4425
G01 X10.0703 Y-12.4198
G01 X10.0754 Y-12.3968
G01 X10.0795 Y-12.3736
G01 X10.0823 Y-12.3502
G01 X10.0841 Y-12.3267
G01 X10.0847 Y-12.3022
G01 X10.0847 Y-10.9513
G01 X10.0859 Y-10.9380
G01 X10.0910 Y-10.9221
G01 X10.0993 Y-10.9084
G01 X10.1086 Y-10.8986
G01 X10.1192 Y-10.8909
G01 X12.1009 Y-9.7277
G01 X12.1106 Y-9.7230
G01 X12.1176 Y-9.7207
G01 X12.1271 Y-9.7187
G01 X12.1388 Y-9.7181
G01 X12.1952 Y-9.7222
G01 X12.2565 Y-9.7238
G01 X14.2547 Y-9.7238
G01 X14.3160 Y-9.7222
G01 X14.3762 Y-9.7178
G01 X14.4362 Y-9.7104
G01 X14.4957 Y-9.7001
G01 X14.5546 Y-9.6868
G01 X14.6128 Y-9.6707
G01 X14.6702 Y-9.6518
G01 X14.7265 Y-9.6301
G01 X14.7818 Y-9.6056
G01 X14.8357 Y-9.5784
G01 X14.8883 Y-9.5486
G01 X14.9393 Y-9.5163
G01 X14.9887 Y-9.4816
G01 X15.0363 Y-9.4444
G01 X15.0820 Y-9.4049
G01 X15.1258 Y-9.3633
G01 X15.1674 Y-9.3195
G01 X15.2069 Y-9.2738
G01 X15.2441 Y-9.2262
G01 X15.2788 Y-9.1768
G01 X15.3111 Y-9.1258
G01 X15.3409 Y-9.0732
G01 X15.3681 Y-9.0193
G01 X15.3926 Y-8.9640
G01 X15.4143 Y-8.9077
G01 X15.4332 Y-8.8503
G01 X15.4493 Y-8.7921
G01 X15.4626 Y-8.7332
G01 X15.4729 Y-8.6737
G01 X15.4803 Y-8.6137
G01 X15.4847 Y-8.5535
G01 X15.4862 Y-8.4931
G01 X15.4847 Y-8.4327
G01 X15.4803 Y-8.3725
G01 X15.4729 Y-8.3125
G01 X15.4626 Y-8.2530
G01 X15.4493 Y-8.1941
G01 X15.4332 Y-8.1359
G01 X15.4143 Y-8.0785
G01 X15.3926 Y-8.0222
G01 X15.3681 Y-7.9669
G01 X15.3409 Y-7.9130
G01 X15.3111 Y-7.8604
G01 X15.2788 Y-7.8094
G01 X15.2441 Y-7.7600
G01 X15.2069 Y-7.7124
G01 X15.1674 Y-7.6667
G01 X15.1258 Y-7.6229
G01 X15.0820 Y-7.5813
G01 X15.0363 Y-7.5418
G01 X14.9887 Y-7.5046
G01 X14.9393 Y-7.4699
G01 X14.8883 Y-7.4376
G01 X14.8357 Y-7.4078
G01 X14.7818 Y-7.3806
G01 X14.7265 Y-7.3561
G01 X14.6702 Y-7.3344
G01 X14.6128 Y-7.3155
G01 X14.5546 Y-7.2994
G01 X14.4957 Y-7.2861
G01 X14.4362 Y-7.2758
G01 X14.3762 Y-7.2684
G01 X14.3160 Y-7.2640
G01 X14.2547 Y-7.2624
G01 X12.2565 Y-7.2624
G01 X12.1952 Y-7.2640
G01 X12.1350 Y-7.2684
G01 X12.0750 Y-7.2758
G01 X12.0155 Y-7.2861
G01 X11.9566 Y-7.2994
G01 X11.8984 Y-7.3155
G01 X11.8410 Y-7.3344
G01 X11.7847 Y-7.3561
G01 X11.7294 Y-7.3806
G01 X11.6755 Y-7.4078
G01 X11.6229 Y-7.4376
G01 X11.5719 Y-7.4699
G01 X11.5225 Y-7.5046
G01 X11.4749 Y-7.5418
G01 X11.4292 Y-7.5813
G01 X11.3854 Y-7.6229
G01 X11.3438 Y-7.6667
G01 X11.3043 Y-7.7124
G01 X11.2671 Y-7.7600
G01 X11.2324 Y-7.8094
G01 X11.2001 Y-7.8604
G01 X11.1703 Y-7.9130
G01 X11.1431 Y-7.9669
G01 X11.1186 Y-8.0222
G01 X11.0969 Y-8.0785
G01 X11.0780 Y-8.1359
G01 X11.0619 Y-8.1941
G01 X11.0486 Y-8.2530
G01 X11.0383 Y-8.3125
G01 X11.0309 Y-8.3725
G01 X11.0265 Y-8.4327
G01 X11.0250 Y-8.4931
G01 X11.0265 Y-8.5535
G01 X11.0309 Y-8.6137
G01 X11.0383 Y-8.6737
G01 X11.0486 Y-8.7332
G01 X11.0619 Y-8.7921
G01 X11.0780 Y-8.8503
G01 X11.0969 Y-8.9077
G01 X11.1186 Y-8.9640
G01 X11.1431 Y-9.0193
G01 X11.1765 Y-9.0848
G01 X11.1806 Y-9.0975
G01 X11.1821 Y-9.1067
G01 X11.1822 Y-9.1181
G01 X11.1809 Y-9.1272
G01 X11.1778 Y-9.1380
G01 X11.1739 Y-9.1464
G01 X11.1681 Y-9.1553
G01 X11.1612 Y-9.1632
G01 X11.1532 Y-9.1698
G01 X9.3453 Y-10.2319
G01 X9.3316 Y-10.2380
G01 X9.3209 Y-10.2405
G01 X9.3103 Y-10.2413
G01 X7.7696 Y-10.2412
G01 X7.7568 Y-10.2393
G01 X7.7462 Y-10.2358
G01 X7.7345 Y-10.2295
G01 X7.7239 Y-10.2208
G01 X7.7152 Y-10.2102
G01 X7.7100 Y-10.2011
G01 X7.7055 Y-10.1886
G01 X7.7035 Y-10.1751
G01 X7.7037 Y-9.7905
G01 X7.7074 Y-9.7740
G01 X7.7115 Y-9.7647
G01 X7.7152 Y-9.7585
G01 X7.7214 Y-9.7506
G01 X7.7265 Y-9.7455
G01 X7.7345 Y-9.7392
G01 X7.7404 Y-9.7357
G01 X7.7494 Y-9.7317
G01 X7.7568 Y-9.7295
G01 X7.7734 Y-9.7275
G01 X8.8891 Y-9.7275
G01 X8.9136 Y-9.7269
G01 X8.9371 Y-9.7251
G01 X8.9605 Y-9.7223
G01 X8.9837 Y-9.7182
G01 X9.0067 Y-9.7131
G01 X9.0294 Y-9.7068
G01 X9.0518 Y-9.6994
G01 X9.0738 Y-9.6909
G01 X9.0953 Y-9.6813
G01 X9.1164 Y-9.6707
G01 X9.1369 Y-9.6591
G01 X9.1568 Y-9.6465
G01 X9.1761 Y-9.6329
G01 X9.1947 Y-9.6184
G01 X9.2125 Y-9.6030
G01 X9.2296 Y-9.5868
G01 X9.2458 Y-9.5697
G01 X9.2612 Y-9.5519
G01 X9.2757 Y-9.5333
G01 X9.2893 Y-9.5140
G01 X9.3019 Y-9.4941
G01 X9.3135 Y-9.4736
G01 X9.3241 Y-9.4525
G01 X9.3337 Y-9.4310
G01 X9.3422 Y-9.4090
G01 X9.3496 Y-9.3866
G01 X9.3559 Y-9.3639
G01 X9.3610 Y-9.3409
G01 X9.3651 Y-9.3177
G01 X9.3679 Y-9.2943
G01 X9.3697 Y-9.2708
G01 X9.3703 Y-9.2472
G01 X9.3697 Y-9.2236
G01 X9.3679 Y-9.2001
G01 X9.3651 Y-9.1767
G01 X9.3610 Y-9.1535
G01 X9.3559 Y-9.1305
G01 X9.3496 Y-9.1078
G01 X9.3422 Y-9.0854
G01 X9.3337 Y-9.0634
G01 X9.3136 Y-9.0195
G01 X9.3112 Y-9.0103
G01 X9.3100 Y-8.9997
G01 X9.3099 Y-8.3713
G01 X9.3111 Y-8.3579
G01 X9.3154 Y-8.3441
G01 X9.3194 Y-8.3360
G01 X9.3239 Y-8.3293
G01 X9.3304 Y-8.3218
G01 X9.3379 Y-8.3153
G01 X9.3470 Y-8.3095
G01 X9.3558 Y-8.3056
G01 X9.3632 Y-8.3033
G01 X9.3729 Y-8.3016
G01 X9.8095 Y-8.3013
G01 X9.8095 Y-5.8413
G01 X8.6497 Y-5.8413
G01 X8.6495 Y-8.5436
G01 X8.6476 Y-8.5634
G01 X8.6456 Y-8.5757
G01 X8.6408 Y-8.5950
G01 X8.6369 Y-8.6069
G01 X8.6294 Y-8.6253
G01 X8.6238 Y-8.6365
G01 X8.6176 Y-8.6474
G01 X8.6075 Y-8.6625
G01 X8.5929 Y-8.6804
G01 X8.5775 Y-8.6958
G01 X8.5608 Y-8.7095
G01 X8.5455 Y-8.7199
G01 X8.5425 Y-8.7272
G01 X8.5378 Y-8.7356
G01 X8.5335 Y-8.7414
G01 X8.5263 Y-8.7489
G01 X8.5181 Y-8.7553
G01 X8.5097 Y-8.7600
G01 X8.4998 Y-8.7639
G01 X8.4928 Y-8.7656
G01 X8.4794 Y-8.7669
G01 X4.8305 Y-8.7669
G01 X4.8140 Y-8.7649
G01 X4.8033 Y-8.7614
G01 X4.7950 Y-8.7572
G01 X4.7860 Y-8.7510
G01 X4.7765 Y-8.7414
G01 X4.7703 Y-8.7327
G01 X4.7658 Y-8.7236
G01 X4.7619 Y-8.7106
G01 X4.7606 Y-8.7007
G01 X4.7605 Y-7.2438
G01 X4.6005 Y-7.2438
G01 X4.6005 Y-7.5901
G01 X4.5997 Y-7.6006
G01 X4.5964 Y-7.6136
G01 X4.5923 Y-7.6229
G01 X4.5866 Y-7.6320
G01 X4.5800 Y-7.6396
G01 X4.5724 Y-7.6462
G01 X4.5633 Y-7.6519
G01 X4.5540 Y-7.6560
G01 X4.5410 Y-7.6593
G01 X4.5305 Y-7.6601
G01 X1.8305 Y-7.6601
G01 X1.8166 Y-7.6587
G01 X1.8039 Y-7.6549
G01 X1.7944 Y-7.6501
G01 X1.7835 Y-7.6420
G01 X1.7743 Y-7.6318
G01 X1.7687 Y-7.6230
G01 X1.7646 Y-7.6136
G01 X1.7613 Y-7.6004
G01 X1.7605 Y-7.5901
G01 X1.7605 Y-7.2438
G01 X1.6005 Y-7.2438
G01 X1.6005 Y-9.7201
G01 X1.8787 Y-9.7201
G01 X1.8889 Y-9.7208
G01 X1.8990 Y-9.7231
G01 X1.9090 Y-9.7270
G01 X1.9205 Y-9.7339
G01 X1.9282 Y-9.7406
G01 X1.9353 Y-9.7488
G01 X1.9404 Y-9.7570
G01 X1.9446 Y-9.7665
G01 X1.9474 Y-9.7766
G01 X1.9487 Y-9.7903
G01 X1.9468 Y-10.6725
G01 X1.9443 Y-10.7484
G01 X1.9443 Y-12.7466
G01 X1.9459 Y-12.8079
G01 X1.9503 Y-12.8681
G01 X1.9577 Y-12.9281
G01 X1.9680 Y-12.9876
G01 X1.9813 Y-13.0465
G01 X1.9974 Y-13.1047
G01 X2.0163 Y-13.1621
G01 X2.0380 Y-13.2184
G01 X2.0625 Y-13.2737
G01 X2.0897 Y-13.3276
G01 X2.1195 Y-13.3802
G01 X2.1518 Y-13.4312
G01 X2.1865 Y-13.4806
G01 X2.2237 Y-13.5282
G01 X2.2632 Y-13.5739
G01 X2.3048 Y-13.6177
G01 X2.3486 Y-13.6593
G01 X2.3943 Y-13.6988
G01 X2.4419 Y-13.7360
G01 X2.4913 Y-13.7707
G01 X2.5423 Y-13.8030
G01 X2.5949 Y-13.8328
G01 X2.6488 Y-13.8600
G01 X2.7041 Y-13.8845
G01 X2.7604 Y-13.9062
G01 X2.8178 Y-13.9251
G01 X2.8760 Y-13.9412
G01 X2.9349 Y-13.9545
G01 X2.9944 Y-13.9648
G01 X3.0544 Y-13.9722
G01 X3.1146 Y-13.9766
G01 X3.1750 Y-13.9781
G01 X3.2354 Y-13.9766
G01 X3.2956 Y-13.9722
G01 X3.3556 Y-13.9648
G01 X3.4151 Y-13.9545
G01 X3.4740 Y-13.9412
G01 X3.5322 Y-13.9251
G01 X3.5896 Y-13.9062
G01 X3.6459 Y-13.8845
G01 X3.7012 Y-13.8600
G01 X3.7551 Y-13.8328
G01 X3.8077 Y-13.8030
G01 X3.8587 Y-13.7707
G01 X3.9081 Y-13.7360
G01 X3.9557 Y-13.6988
G01 X4.0014 Y-13.6593
G01 X4.0452 Y-13.6177
G01 X4.0868 Y-13.5739
G01 X4.1263 Y-13.5282
G01 X4.1635 Y-13.4806
G01 X4.1982 Y-13.4312
G01 X4.2305 Y-13.3802
G01 X4.2603 Y-13.3276
G01 X4.2875 Y-13.2737
G01 X4.3120 Y-13.2184
G01 X4.3337 Y-13.1621
G01 X4.3526 Y-13.1047
G01 X4.3687 Y-13.0465
G01 X4.3820 Y-12.9876
G01 X4.3923 Y-12.9281
G01 X4.3997 Y-12.8681
G01 X4.4041 Y-12.8079
G01 X4.4057 Y-12.7466
G01 X4.4057 Y-11.7488
G01 X4.4100 Y-9.7973
G01 X4.4114 Y-9.7838
G01 X4.4154 Y-9.7706
G01 X4.4217 Y-9.7588
G01 X4.4290 Y-9.7496
G01 X4.4383 Y-9.7412
G01 X4.4508 Y-9.7339
G01 X4.4635 Y-9.7295
G01 X4.4730 Y-9.7278
G01 X6.6728 Y-9.7275
G01 X6.6861 Y-9.7288
G01 X6.7000 Y-9.7330
G01 X6.7084 Y-9.7372
G01 X6.7148 Y-9.7415
G01 X6.7248 Y-9.7506
G01 X6.7330 Y-9.7617
G01 X6.7376 Y-9.7708
G01 X6.7415 Y-9.7838
G01 X6.7428 Y-9.7975
G01 X6.7428 Y-12.2229
G01 X6.7434 Y-12.2474
G01 X6.7452 Y-12.2709
G01 X6.7480 Y-12.2943
G01 X6.7521 Y-12.3175
G01 X6.7572 Y-12.3405
G01 X6.7635 Y-12.3632
G01 X6.7709 Y-12.3856
G01 X6.7794 Y-12.4076
G01 X6.7890 Y-12.4291
G01 X6.7996 Y-12.4502
G01 X6.8112 Y-12.4707
G01 X6.8238 Y-12.4906
G01 X6.8374 Y-12.5099
G01 X6.8519 Y-12.5285
G01 X6.8673 Y-12.5463
G01 X6.8835 Y-12.5634
G01 X6.9006 Y-12.5796
G01 X6.9184 Y-12.5950
G01 X6.9370 Y-12.6095
G01 X6.9563 Y-12.6231
G01 X6.9762 Y-12.6357
G01 X7.0142 Y-12.6563
G01 X7.0252 Y-12.6640
G01 X7.0329 Y-12.6717
G01 X7.0391 Y-12.6804
G01 X7.0440 Y-12.6898
G01 X7.0477 Y-12.7013
G01 X7.1681 Y-12.7013
G01 X7.1995 Y-12.7035
G01 X7.2231 Y-12.7041
G01 X7.2467 Y-12.7035
G01 X7.2781 Y-12.7013
G01 X7.4889 Y-12.7014
G01 X7.4985 Y-12.7026
G01 X7.5093 Y-12.7056
G01 X7.5206 Y-12.7110
G01 X7.5296 Y-12.7173
G01 X7.5391 Y-12.7268
G01 X7.5467 Y-12.7380
G01 X7.5520 Y-12.7508
G01 X7.5547 Y-12.7639
G01 X7.5561 Y-13.0039
G01 X7.5543 Y-13.0144
G01 X7.5521 Y-13.0215
G01 X7.5478 Y-13.0309
G01 X7.5440 Y-13.0370
G01 X6.4994 Y-14.5460
G01 X6.4933 Y-14.5537
G01 X6.4859 Y-14.5606
G01 X6.4773 Y-14.5665
G01 X6.4693 Y-14.5706
G01 X6.4589 Y-14.5741
G01 X6.4497 Y-14.5757
G01 X6.4425 Y-14.5762
G01 X6.4327 Y-14.5756
G01 X6.3504 Y-14.5566
G01 X6.2909 Y-14.5462
G01 X6.2310 Y-14.5388
G01 X6.1708 Y-14.5344
G01 X6.1104 Y-14.5329
G01 X6.0500 Y-14.5344
G01 X5.9898 Y-14.5388
G01 X5.9299 Y-14.5462
G01 X5.8704 Y-14.5566
G01 X5.8115 Y-14.5698
G01 X5.7534 Y-14.5859
G01 X5.6960 Y-14.6048
G01 X5.6334 Y-14.6289
G01 X5.6226 Y-14.6315
G01 X5.6119 Y-14.6323
G01 X1.8989 Y-14.6323
G01 X1.8425 Y-14.6337
G01 X1.7872 Y-14.6378
G01 X1.7321 Y-14.6446
G01 X1.6774 Y-14.6540
G01 X1.6233 Y-14.6662
G01 X1.5698 Y-14.6810
G01 X1.5171 Y-14.6984
G01 X1.4653 Y-14.7184
G01 X1.4146 Y-14.7409
G01 X1.3650 Y-14.7658
G01 X1.3168 Y-14.7932
G01 X1.2699 Y-14.8229
G01 X1.2245 Y-14.8548
G01 X1.1808 Y-14.8890
G01 X1.1387 Y-14.9252
G01 X1.0986 Y-14.9635
G01 X1.0603 Y-15.0036
G01 X1.0241 Y-15.0457
G01 X0.9899 Y-15.0894
G01 X0.9580 Y-15.1348
G01 X0.9283 Y-15.1817
G01 X0.9009 Y-15.2299
G01 X0.8760 Y-15.2795
G01 X0.8535 Y-15.3302
G01 X0.8335 Y-15.3820
G01 X0.8161 Y-15.4347
G01 X0.8013 Y-15.4882
G01 X0.7891 Y-15.5423
G01 X0.7797 Y-15.5970
G01 X0.7729 Y-15.6521
G01 X0.7688 Y-15.7074
G01 X0.7674 Y-15.7629
G01 X0.7688 Y-15.8184
G01 X0.7729 Y-15.8737
G01 X0.7797 Y-15.9288
G01 X0.7891 Y-15.9835
G01 X0.8013 Y-16.0376
G01 X0.8161 Y-16.0911
G01 X0.8335 Y-16.1438
G01 X0.8535 Y-16.1956
G01 X0.8760 Y-16.2463
G01 X0.9009 Y-16.2959
G01 X0.9283 Y-16.3441
G01 X0.9580 Y-16.3910
G01 X0.9899 Y-16.4364
G01 X1.0241 Y-16.4801
G01 X1.0603 Y-16.5222
G01 X1.0986 Y-16.5623
G01 X1.1387 Y-16.6006
G01 X1.1808 Y-16.6368
G01 X1.2245 Y-16.6710
G01 X1.2699 Y-16.7029
G01 X1.3168 Y-16.7326
G01 X1.3650 Y-16.7600
G01 X0.8881 Y-16.0132
G01 X0.8774 Y-15.9652
G01 X0.8694 Y-15.9189
G01 X0.8625 Y-15.8643
G01 X0.8588 Y-15.8136
G01 X0.8576 Y-15.7663
G01 X0.8590 Y-15.7088
G01 X0.8626 Y-15.6606
G01 X0.8683 Y-15.6136
G01 X0.8777 Y-15.5592
G01 X0.8885 Y-15.5109
G01 X0.9014 Y-15.4642
G01 X0.9184 Y-15.4122
G01 X0.9381 Y-15.3616
G01 X0.9578 Y-15.3174
G01 X0.9803 Y-15.2727
G01 X1.0074 Y-15.2251
G01 X1.0324 Y-15.1856
G01 X1.0603 Y-15.1459
G01 X1.0932 Y-15.1035
G01 X1.1294 Y-15.0617
G01 X1.1618 Y-15.0277
G01 X1.1968 Y-14.9943
G01 X1.2406 Y-14.9565
G01 X1.2788 Y-14.9268
G01 X1.3172 Y-14.8997
G01 X1.3633 Y-14.8703
G01 X1.4068 Y-14.8457
G01 X1.4501 Y-14.8239
G01 X1.5017 Y-14.8009
G01 X1.5483 Y-14.7830
G01 X1.5960 Y-14.7672
G01 X1.6444 Y-14.7538
G01 X1.6943 Y-14.7426
G01 X1.7454 Y-14.7337
G01 X1.7952 Y-14.7275
G01 X1.8461 Y-14.7237
G01 X1.8950 Y-14.7225
G01 X5.6452 Y-14.7224
G01 X5.6749 Y-14.7094
G01 X5.7240 Y-14.6904
G01 X5.7769 Y-14.6728
G01 X5.8326 Y-14.6573
G01 X5.8857 Y-14.6453
G01 X5.9431 Y-14.6352
G01 X5.9978 Y-14.6285
G01 X6.0537 Y-14.6243
G01 X6.1070 Y-14.6229
G01 X6.1655 Y-14.6242
G01 X6.2213 Y-14.6283
G01 X6.2777 Y-14.6352
G01 X6.3294 Y-14.6442
G01 X6.3866 Y-14.6569
G01 X6.4386 Y-14.6712
G01 X6.4920 Y-14.6887
G01 X6.5065 Y-14.6942
G01 X7.6469 Y-13.0468
G01 X7.6442 Y-12.5955
G01 X7.6312 Y-12.6014
G01 X7.6153 Y-12.6066
G01 X7.6017 Y-12.6095
G01 X7.5859 Y-12.6112
G01 X7.2703 Y-12.6110
G01 X7.2446 Y-12.6133
G01 X7.2222 Y-12.6139
G01 X7.1883 Y-12.6123
G01 X7.1625 Y-12.6092
G01 X7.1275 Y-12.6020
G01 X7.0925 Y-12.5914
G01 X7.0730 Y-12.5839
G01 X7.0532 Y-12.5750
G01 X7.0251 Y-12.5599
G01 X7.0064 Y-12.5482
G01 X6.9900 Y-12.5366
G01 X6.9731 Y-12.5232
G01 X6.9497 Y-12.5021
G01 X6.9346 Y-12.4864
G01 X6.9214 Y-12.4712
G01 X6.9077 Y-12.4534
G01 X6.8900 Y-12.4268
G01 X6.8791 Y-12.4079
G01 X6.8690 Y-12.3875
G01 X6.8570 Y-12.3584
G01 X6.8500 Y-12.3379
G01 X6.8445 Y-12.3177
G01 X6.8399 Y-12.2970
G01 X6.8352 Y-12.2655
G01 X6.8335 Y-12.2438
G01 X6.8330 Y-12.2242
G01 X6.8330 Y-9.6373
G01 X4.3202 Y-9.6373
G01 X4.3155 Y-11.7488
G01 X4.3155 Y-12.7475
G01 X4.3141 Y-12.8030
G01 X4.3100 Y-12.8596
G01 X4.3026 Y-12.9182
G01 X4.2937 Y-12.9693
G01 X4.2821 Y-13.0213
G01 X4.2666 Y-13.0777
G01 X4.2490 Y-13.1314
G01 X4.2273 Y-13.1871
G01 X4.2057 Y-13.2358
G01 X4.1824 Y-13.2821
G01 X4.1539 Y-13.3328
G01 X4.1213 Y-13.3840
G01 X4.0913 Y-13.4266
G01 X4.0588 Y-13.4683
G01 X4.0198 Y-13.5137
G01 X3.9790 Y-13.5564
G01 X3.9405 Y-13.5929
G01 X3.9011 Y-13.6270
G01 X3.8541 Y-13.6638
G01 X3.8057 Y-13.6977
G01 X3.7610 Y-13.7260
G01 X3.7134 Y-13.7529
G01 X3.6595 Y-13.7799
G01 X3.6107 Y-13.8015
G01 X3.5624 Y-13.8201
G01 X3.5060 Y-13.8389
G01 X3.4488 Y-13.8546
G01 X3.3983 Y-13.8659
G01 X3.3457 Y-13.8751
G01 X3.2876 Y-13.8824
G01 X3.2275 Y-13.8868
G01 X3.1759 Y-13.8880
G01 X3.1225 Y-13.8868
G01 X3.0624 Y-13.8824
G01 X3.0043 Y-13.8751
G01 X2.9517 Y-13.8659
G01 X2.9012 Y-13.8546
G01 X2.8440 Y-13.8389
G01 X2.7876 Y-13.8201
G01 X2.7393 Y-13.8015
G01 X2.6905 Y-13.7799
G01 X2.6381 Y-13.7537
G01 X2.5857 Y-13.7239
G01 X2.5408 Y-13.6954
G01 X2.4984 Y-13.6656
G01 X2.4515 Y-13.6292
G01 X2.4066 Y-13.5902
G01 X2.3682 Y-13.5536
G01 X2.3323 Y-13.5159
G01 X2.2928 Y-13.4704
G01 X2.2569 Y-13.4241
G01 X2.2262 Y-13.3804
G01 X2.1986 Y-13.3368
G01 X2.1682 Y-13.2834
G01 X2.1436 Y-13.2343
G01 X2.1200 Y-13.1808
G01 X2.1012 Y-13.1319
G01 X2.0846 Y-13.0818
G01 X2.0695 Y-13.0277
G01 X2.0566 Y-12.9708
G01 X2.0469 Y-12.9150
G01 X2.0400 Y-12.8590
G01 X2.0358 Y-12.8012
G01 X2.0345 Y-12.7475
G01 X2.0345 Y-10.7475
G01 X2.0358 Y-10.6938
G01 X2.0369 Y-10.6771
G01 X2.0392 Y-9.6301
G01 X1.8250 Y-9.6300
G01 X1.8045 Y-9.6277
G01 X1.7819 Y-9.6214
G01 X1.7630 Y-9.6127
G01 X1.7481 Y-9.6033
G01 X1.7329 Y-9.5904
G01 X1.7195 Y-9.5754
G01 X1.7094 Y-9.5604
G01 X1.7006 Y-9.5423
G01 X1.6943 Y-9.5224
G01 X1.6910 Y-9.5023
G01 X1.6905 Y-9.4901
G01 X1.6906 Y-8.1340
G01 X1.6923 Y-8.1178
G01 X1.6960 Y-8.1013
G01 X1.7006 Y-8.0879
G01 X1.7077 Y-8.0729
G01 X1.7152 Y-8.0608
G01 X1.7261 Y-8.0468
G01 X1.7378 Y-8.0352
G01 X1.7508 Y-8.0250
G01 X1.7693 Y-8.0142
G01 X1.7883 Y-8.0066
G01 X1.8083 Y-8.0019
G01 X1.8305 Y-8.0001
G01 X4.5305 Y-8.0001
G01 X4.5489 Y-8.0013
G01 X4.5694 Y-8.0056
G01 X4.5887 Y-8.0128
G01 X4.6073 Y-8.0230
G01 X4.6230 Y-8.0350
G01 X4.6370 Y-8.0493
G01 X4.6497 Y-8.0667
G01 X4.6592 Y-8.0851
G01 X4.6658 Y-8.1043
G01 X4.6696 Y-8.1244
G01 X4.6705 Y-8.1401
G01 X4.6705 Y-8.8571
G01 X8.6396 Y-8.8571
G01 X8.6396 Y-8.7330
G01 X8.6225 Y-8.7495
G01 X8.6005 Y-8.7673
G01 X8.5905 Y-8.7822
G01 X8.5771 Y-8.7972
G01 X8.5672 Y-8.8060
G01 X8.5551 Y-8.8147
G01 X8.5385 Y-8.8239
G01 X8.5184 Y-8.8314
G01 X8.5012 Y-8.8352
G01 X8.4813 Y-8.8369
G01 X4.8305 Y-8.8369
G01 X4.8182 Y-8.8364
G01 X4.8055 Y-8.8347
G01 X4.7918 Y-8.8314
G01 X4.7809 Y-8.8278
G01 X4.7633 Y-8.8197
G01 X4.7452 Y-8.8080
G01 X4.7303 Y-8.7946
G01 X4.7174 Y-8.7794
G01 X4.7076 Y-8.7640
G01 X4.6992 Y-8.7455
G01 X4.6936 Y-8.7261
G01 X4.6908 Y-8.7061
G01 X4.6905 Y-7.3138
G01 X4.6705 Y-7.3138
G01 X4.6704 Y-7.5937
G01 X4.6680 Y-7.6163
G01 X4.6629 Y-7.6354
G01 X4.6549 Y-7.6542
G01 X4.6456 Y-7.6697
G01 X4.6330 Y-7.6854
G01 X4.6208 Y-7.6971
G01 X4.6041 Y-7.7092
G01 X4.5885 Y-7.7175
G01 X4.5694 Y-7.7246
G01 X4.5497 Y-7.7288
G01 X4.5305 Y-7.7301
G01 X1.8305 Y-7.7301
G01 X1.8078 Y-7.7282
G01 X1.7884 Y-7.7236
G01 X1.7693 Y-7.7160
G01 X1.7508 Y-7.7052
G01 X1.7327 Y-7.6903
G01 X1.7192 Y-7.6750
G01 X1.7078 Y-7.6575
G01 X1.6993 Y-7.6388
G01 X1.6960 Y-7.6289
G01 X1.6929 Y-7.6157
G01 X1.6906 Y-7.5947
G01 X1.6905 Y-7.3138
G01 X1.6705 Y-7.3138
G01 X1.6705 Y-9.6501
G01 X1.8844 Y-9.6502
G01 X1.9038 Y-9.6524
G01 X1.9249 Y-9.6580
G01 X1.9406 Y-9.6645
G01 X1.9577 Y-9.6745
G01 X1.9740 Y-9.6875
G01 X1.9861 Y-9.7003
G01 X1.9978 Y-9.7164
G01 X2.0074 Y-9.7350
G01 X2.0133 Y-9.7515
G01 X2.0175 Y-9.7714
G01 X2.0187 Y-9.7904
G01 X2.0168 Y-10.6726
G01 X2.0143 Y-10.7492
G01 X2.0143 Y-12.7458
G01 X2.0158 Y-12.8044
G01 X2.0200 Y-12.8613
G01 X2.0270 Y-12.9178
G01 X2.0367 Y-12.9739
G01 X2.0492 Y-13.0295
G01 X2.0644 Y-13.0844
G01 X2.0822 Y-13.1385
G01 X2.1027 Y-13.1916
G01 X2.1258 Y-13.2437
G01 X2.1514 Y-13.2946
G01 X2.1795 Y-13.3442
G01 X2.2100 Y-13.3923
G01 X2.2428 Y-13.4389
G01 X2.2778 Y-13.4838
G01 X2.3150 Y-13.5269
G01 X2.3543 Y-13.5682
G01 X2.3956 Y-13.6075
G01 X2.4387 Y-13.6447
G01 X2.4836 Y-13.6797
G01 X2.5302 Y-13.7125
G01 X2.5783 Y-13.7430
G01 X2.6279 Y-13.7711
G01 X2.6788 Y-13.7967
G01 X2.7309 Y-13.8198
G01 X2.7840 Y-13.8403
G01 X2.8381 Y-13.8581
G01 X2.8930 Y-13.8733
G01 X2.9486 Y-13.8858
G01 X3.0047 Y-13.8955
G01 X3.0612 Y-13.9025
G01 X3.1181 Y-13.9067
G01 X3.1750 Y-13.9081
G01 X3.2319 Y-13.9067
G01 X3.2888 Y-13.9025
G01 X3.3453 Y-13.8955
G01 X3.4014 Y-13.8858
G01 X3.4570 Y-13.8733
G01 X3.5119 Y-13.8581
G01 X3.5660 Y-13.8403
G01 X3.6191 Y-13.8198
G01 X3.6712 Y-13.7967
G01 X3.7221 Y-13.7711
G01 X3.7717 Y-13.7430
G01 X3.8198 Y-13.7125
G01 X3.8664 Y-13.6797
G01 X3.9113 Y-13.6447
G01 X3.9544 Y-13.6075
G01 X3.9957 Y-13.5682
G01 X4.0350 Y-13.5269
G01 X4.0722 Y-13.4838
G01 X4.1072 Y-13.4389
G01 X4.1400 Y-13.3923
G01 X4.1705 Y-13.3442
G01 X4.1986 Y-13.2946
G01 X4.2242 Y-13.2437
G01 X4.2473 Y-13.1916
G01 X4.2678 Y-13.1385
G01 X4.2856 Y-13.0844
G01 X4.3008 Y-13.0295
G01 X4.3133 Y-12.9739
G01 X4.3230 Y-12.9178
G01 X4.3300 Y-12.8613
G01 X4.3342 Y-12.8044
G01 X4.3357 Y-12.7458
G01 X4.3357 Y-11.7487
G01 X4.3402 Y-9.7917
G01 X4.3413 Y-9.7789
G01 X4.3439 Y-9.7647
G01 X4.3476 Y-9.7521
G01 X4.3515 Y-9.7419
G01 X4.3577 Y-9.7293
G01 X4.3641 Y-9.7190
G01 X4.3710 Y-9.7096
G01 X4.3807 Y-9.6988
G01 X4.3896 Y-9.6906
G01 X4.4005 Y-9.6823
G01 X4.4124 Y-9.6749
G01 X4.4228 Y-9.6697
G01 X4.4338 Y-9.6653
G01 X4.4485 Y-9.6611
G01 X4.4613 Y-9.6587
G01 X4.4743 Y-9.6576
G01 X6.6747 Y-9.6575
G01 X6.6883 Y-9.6583
G01 X6.7011 Y-9.6604
G01 X6.7153 Y-9.6641
G01 X6.7288 Y-9.6691
G01 X6.7426 Y-9.6761
G01 X6.7553 Y-9.6843
G01 X6.7654 Y-9.6925
G01 X6.7755 Y-9.7024
G01 X6.7839 Y-9.7122
G01 X6.7922 Y-9.7244
G01 X6.7973 Y-9.7334
G01 X6.8029 Y-9.7458
G01 X6.8072 Y-9.7582
G01 X6.8105 Y-9.7719
G01 X6.8123 Y-9.7851
G01 X6.8128 Y-9.7956
G01 X6.8128 Y-12.2221
G01 X6.8134 Y-12.2439
G01 X6.8148 Y-12.2640
G01 X6.8207 Y-12.3038
G01 X6.8252 Y-12.3235
G01 X6.8368 Y-12.3620
G01 X6.8441 Y-12.3808
G01 X6.8613 Y-12.4172
G01 X6.8820 Y-12.4517
G01 X6.9060 Y-12.4840
G01 X6.9330 Y-12.5139
G01 X6.9629 Y-12.5409
G01 X6.9952 Y-12.5649
G01 X7.0122 Y-12.5757
G01 X7.0473 Y-12.5946
G01 X7.0596 Y-12.6023
G01 X7.0750 Y-12.6147
G01 X7.0901 Y-12.6313
G01 X7.1702 Y-12.6313
G01 X7.2030 Y-12.6335
G01 X7.2231 Y-12.6340
G01 X7.2432 Y-12.6335
G01 X7.2781 Y-12.6313
G01 X7.4943 Y-12.6316
G01 X7.5166 Y-12.6349
G01 X7.5278 Y-12.6380
G01 X7.5399 Y-12.6425
G01 X7.5515 Y-12.6481
G01 X7.5611 Y-12.6538
G01 X7.5704 Y-12.6603
G01 X7.5802 Y-12.6686
G01 X7.5901 Y-12.6787
G01 X7.5981 Y-12.6887
G01 X7.6039 Y-12.6972
G01 X7.6106 Y-12.7092
G01 X7.6160 Y-12.7217
G01 X7.6195 Y-12.7320
G01 X7.6226 Y-12.7449
G01 X7.6245 Y-12.7584
G01 X7.6251 Y-12.7705
G01 X7.6264 Y-13.0016
G01 X7.6256 Y-13.0124
G01 X7.6233 Y-13.0265
G01 X7.6171 Y-13.0475
G01 X7.6099 Y-13.0632
G01 X7.6016 Y-13.0769
G01 X6.5561 Y-14.5871
G01 X6.5409 Y-14.6052
G01 X6.5239 Y-14.6196
G01 X6.5144 Y-14.6259
G01 X6.5032 Y-14.6320
G01 X6.4818 Y-14.6403
G01 X6.4693 Y-14.6435
G01 X6.4556 Y-14.6455
G01 X6.4416 Y-14.6462
G01 X6.4252 Y-14.6452
G01 X6.4110 Y-14.6427
G01 X6.3922 Y-14.6377
G01 X6.3367 Y-14.6252
G01 X6.2806 Y-14.6155
G01 X6.2241 Y-14.6085
G01 X6.1673 Y-14.6043
G01 X6.1104 Y-14.6029
G01 X6.0535 Y-14.6043
G01 X5.9967 Y-14.6085
G01 X5.9402 Y-14.6155
G01 X5.8841 Y-14.6252
G01 X5.8286 Y-14.6377
G01 X5.7737 Y-14.6529
G01 X5.7196 Y-14.6707
G01 X5.6601 Y-14.6937
G01 X5.6496 Y-14.6971
G01 X5.6316 Y-14.7009
G01 X5.6137 Y-14.7023
G01 X1.8997 Y-14.7023
G01 X1.8460 Y-14.7036
G01 X1.7940 Y-14.7074
G01 X1.7424 Y-14.7138
G01 X1.6911 Y-14.7227
G01 X1.6403 Y-14.7341
G01 X1.5901 Y-14.7480
G01 X1.5407 Y-14.7643
G01 X1.4921 Y-14.7831
G01 X1.4446 Y-14.8042
G01 X1.3981 Y-14.8276
G01 X1.3528 Y-14.8532
G01 X1.3088 Y-14.8811
G01 X1.2662 Y-14.9111
G01 X1.2252 Y-14.9431
G01 X1.1858 Y-14.9771
G01 X1.1481 Y-15.0130
G01 X1.1122 Y-15.0507
G01 X1.0782 Y-15.0901
G01 X1.0462 Y-15.1311
G01 X1.0162 Y-15.1737
G01 X0.9883 Y-15.2177
G01 X0.9627 Y-15.2630
G01 X0.9393 Y-15.3095
G01 X0.9182 Y-15.3570
G01 X0.8994 Y-15.4056
G01 X0.8831 Y-15.4550
G01 X0.8692 Y-15.5052
G01 X0.8578 Y-15.5560
G01 X0.8489 Y-15.6073
G01 X0.8425 Y-15.6589
G01 X0.8387 Y-15.7109
G01 X0.8374 Y-15.7629
G01 X0.8387 Y-15.8149
G01 X0.8425 Y-15.8669
G01 X0.8489 Y-15.9185
G01 X0.8578 Y-15.9698
G01 X0.8692 Y-16.0206
G01 X0.8831 Y-16.0708
G01 X0.8994 Y-16.1202
G01 X0.9182 Y-16.1688
G01 X0.9393 Y-16.2163
G01 X0.9627 Y-16.2628
G01 X0.9883 Y-16.3081
G01 X1.0162 Y-16.3521
G01 X1.0462 Y-16.3947
G01 X1.0782 Y-16.4357
G01 X1.1122 Y-16.4751
G01 X1.1481 Y-16.5128
G01 X1.1858 Y-16.5487
G01 X1.2252 Y-16.5827
G01 X1.2662 Y-16.6147
G01 X1.3088 Y-16.6447
G01 X1.3528 Y-16.6726
G01 X1.3981 Y-16.6982
G01 X1.4446 Y-16.7216
G01 X1.4921 Y-16.7427
G01 X1.5407 Y-16.7615
G01 X1.5901 Y-16.7778
G01 X1.6403 Y-16.7917
G01 X1.6911 Y-16.8031
G01 X1.7424 Y-16.8120
G01 X1.7940 Y-16.8184
G01 X1.8460 Y-16.8222
G01 X1.8997 Y-16.8235
G01 X5.6155 Y-16.8236
G01 X5.6341 Y-16.8253
G01 X5.6500 Y-16.8288
G01 X5.6624 Y-16.8329
G01 X5.7196 Y-16.8551
G01 X5.7737 Y-16.8729
G01 X5.8286 Y-16.8881
G01 X5.8841 Y-16.9006
G01 X5.9402 Y-16.9103
G01 X5.9967 Y-16.9173
G01 X6.0535 Y-16.9215
G01 X6.1104 Y-16.9229
G01 X6.1673 Y-16.9215
G01 X6.2241 Y-16.9173
G01 X6.2806 Y-16.9103
G01 X6.3367 Y-16.9006
G01 X6.3922 Y-16.8881
G01 X6.4471 Y-16.8729
G01 X6.5012 Y-16.8551
G01 X6.5543 Y-16.8346
G01 X6.6063 Y-16.8115
G01 X6.6572 Y-16.7859
G01 X6.7067 Y-16.7578
G01 X6.7548 Y-16.7274
G01 X6.8014 Y-16.6946
G01 X6.8463 Y-16.6596
G01 X6.8894 Y-16.6224
G01 X6.9306 Y-16.5831
G01 X6.9699 Y-16.5419
G01 X7.0071 Y-16.4988
G01 X7.0421 Y-16.4539
G01 X7.0749 Y-16.4073
G01 X7.1053 Y-16.3592
G01 X7.1334 Y-16.3097
G01 X7.1590 Y-16.2588
G01 X7.1821 Y-16.2068
G01 X7.2026 Y-16.1537
G01 X7.2204 Y-16.0996
G01 X7.2356 Y-16.0447
G01 X7.2481 Y-15.9892
G01 X7.2578 Y-15.9331
G01 X7.2648 Y-15.8766
G01 X7.2690 Y-15.8198
G01 X7.2704 Y-15.7629
G01 X7.2690 Y-15.7060
G01 X7.2648 Y-15.6492
G01 X7.2578 Y-15.5927
G01 X7.2481 Y-15.5366
G01 X7.2356 Y-15.4811
G01 X7.2204 Y-15.4262
G01 X7.2026 Y-15.3721
G01 X7.1821 Y-15.3190
G01 X7.1590 Y-15.2670
G01 X7.1334 Y-15.2161
G01 X7.1053 Y-15.1666
G01 X7.0749 Y-15.1185
G01 X7.0579 Y-15.0934
G01 X7.0513 Y-15.0804
G01 X7.0463 Y-15.0676
G01 X7.0433 Y-15.0572
G01 X7.0405 Y-15.0433
G01 X7.0392 Y-15.0289
G01 X7.0393 Y-15.0153
G01 X7.0404 Y-15.0041
G01 X7.0429 Y-14.9909
G01 X7.0474 Y-14.9758
G01 X7.0522 Y-14.9640
G01 X7.0640 Y-14.9436
G01 X7.8563 Y-13.7991
G01 X7.8653 Y-13.7882
G01 X7.8776 Y-13.7763
G01 X7.8912 Y-13.7660
G01 X7.9053 Y-13.7578
G01 X7.9212 Y-13.7509
G01 X7.9361 Y-13.7465
G01 X7.9502 Y-13.7439
G01 X7.9683 Y-13.7426
G01 X7.9820 Y-13.7433
G01 X7.9931 Y-13.7448
G01 X8.0155 Y-13.7507
G01 X8.0282 Y-13.7559
G01 X8.0376 Y-13.7608
G01 X8.0488 Y-13.7679
G01 X8.0593 Y-13.7759
G01 X8.0695 Y-13.7856
G01 X8.0767 Y-13.7936
G01 X8.0848 Y-13.8045
G01 X8.0917 Y-13.8158
G01 X8.1011 Y-13.8375
G01 X8.1043 Y-13.8481
G01 X8.1071 Y-13.8617
G01 X8.1086 Y-13.8833
G01 X8.1039 Y-14.8966
G01 X8.1068 Y-14.9273
G01 X8.1094 Y-14.9425
G01 X8.1168 Y-14.9724
G01 X8.1272 Y-15.0014
G01 X8.1404 Y-15.0292
G01 X8.1480 Y-15.0426
G01 X8.1651 Y-15.0682
G01 X8.1747 Y-15.0803
G01 X8.1954 Y-15.1031
G01 X8.2066 Y-15.1137
G01 X8.2306 Y-15.1331
G01 X8.2563 Y-15.1500
G01 X8.2697 Y-15.1575
G01 X8.2977 Y-15.1704
G01 X9.6969 Y-15.6564
G01 X9.7143 Y-15.6637
G01 X9.7336 Y-15.6756
G01 X9.7512 Y-15.6909
G01 X9.7606 Y-15.7015
G01 X9.7675 Y-15.7110
G01 X9.7745 Y-15.7226
G01 X9.7791 Y-15.7321
G01 X9.7868 Y-15.7545
G01 X9.7905 Y-15.7770
G01 X9.7918 Y-15.8198
G01 X9.7960 Y-15.8766
G01 X9.8030 Y-15.9331
G01 X9.8127 Y-15.9892
G01 X9.8252 Y-16.0447
G01 X9.8404 Y-16.0996
G01 X9.8582 Y-16.1537
G01 X9.8787 Y-16.2068
G01 X9.9018 Y-16.2588
G01 X9.9274 Y-16.3097
G01 X9.9555 Y-16.3592
G01 X9.9859 Y-16.4073
G01 X10.0187 Y-16.4539
G01 X10.0537 Y-16.4988
G01 X10.0909 Y-16.5419
G01 X10.1302 Y-16.5831
G01 X10.1714 Y-16.6224
G01 X10.2145 Y-16.6596
G01 X10.2594 Y-16.6946
G01 X10.3060 Y-16.7274
G01 X10.3541 Y-16.7578
G01 X10.4036 Y-16.7859
G01 X10.4545 Y-16.8115
G01 X10.5065 Y-16.8346
G01 X10.5596 Y-16.8551
G01 X10.6137 Y-16.8729
G01 X10.6686 Y-16.8881
G01 X10.7241 Y-16.9006
G01 X10.7802 Y-16.9103
G01 X10.8367 Y-16.9173
G01 X10.8935 Y-16.9215
G01 X10.9504 Y-16.9229
G01 X11.0073 Y-16.9215
G01 X11.0641 Y-16.9173
G01 X11.1206 Y-16.9103
G01 X11.1767 Y-16.9006
G01 X11.2322 Y-16.8881
G01 X11.2871 Y-16.8729
G01 X11.3412 Y-16.8551
G01 X11.4104 Y-16.8289
G01 X11.4267 Y-16.8253
G01 X11.4453 Y-16.8236
G01 X15.2850 Y-16.8235
G01 X15.3387 Y-16.8222
G01 X15.3907 Y-16.8184
G01 X15.4423 Y-16.8120
G01 X15.4936 Y-16.8031
G01 X15.5444 Y-16.7917
G01 X15.5946 Y-16.7778
G01 X15.6440 Y-16.7615
G01 X15.6926 Y-16.7427
G01 X15.7401 Y-16.7216
G01 X15.7866 Y-16.6982
G01 X15.8319 Y-16.6726
G01 X15.8759 Y-16.6447
G01 X15.9185 Y-16.6147
G01 X15.9595 Y-16.5827
G01 X15.9989 Y-16.5487
G01 X16.0366 Y-16.5128
G01 X16.0725 Y-16.4751
G01 X16.1065 Y-16.4357
G01 X16.1385 Y-16.3947
G01 X16.1685 Y-16.3521
G01 X16.1964 Y-16.3081
G01 X16.2220 Y-16.2628
G01 X16.2454 Y-16.2163
G01 X16.2665 Y-16.1688
G01 X16.2853 Y-16.1202
G01 X16.3016 Y-16.0708
G01 X16.3155 Y-16.0206
G01 X16.3269 Y-15.9698
G01 X16.3358 Y-15.9185
G01 X16.3422 Y-15.8669
G01 X16.3460 Y-15.8149
G01 X16.3473 Y-15.7629
G01 X16.3460 Y-15.7109
G01 X16.3422 Y-15.6589
G01 X16.3358 Y-15.6073
G01 X16.3269 Y-15.5560
G01 X16.3155 Y-15.5052
G01 X16.3016 Y-15.4550
G01 X16.2853 Y-15.4056
G01 X16.2665 Y-15.3570
G01 X16.2454 Y-15.3095
G01 X16.2220 Y-15.2630
G01 X16.1964 Y-15.2177
G01 X16.1685 Y-15.1737
G01 X16.1385 Y-15.1311
G01 X16.1065 Y-15.0901
G01 X16.0725 Y-15.0507
G01 X16.0366 Y-15.0130
G01 X15.9989 Y-14.9771
G01 X15.9595 Y-14.9431
G01 X15.9185 Y-14.9111
G01 X15.8759 Y-14.8811
G01 X15.8319 Y-14.8532
G01 X15.7866 Y-14.8276
G01 X15.7401 Y-14.8042
G01 X15.6926 Y-14.7831
G01 X15.6440 Y-14.7643
G01 X15.5946 Y-14.7480
G01 X15.5444 Y-14.7341
G01 X15.4936 Y-14.7227
G01 X15.4423 Y-14.7138
G01 X15.3907 Y-14.7074
G01 X15.3387 Y-14.7036
G01 X15.2850 Y-14.7023
G01 X11.4436 Y-14.7022
G01 X11.4289 Y-14.7009
G01 X11.4114 Y-14.6972
G01 X11.4007 Y-14.6937
G01 X11.3412 Y-14.6707
G01 X11.2871 Y-14.6529
G01 X11.2322 Y-14.6377
G01 X11.1767 Y-14.6252
G01 X11.1206 Y-14.6155
G01 X11.0641 Y-14.6085
G01 X11.0073 Y-14.6043
G01 X10.9504 Y-14.6029
G01 X10.8935 Y-14.6043
G01 X10.8367 Y-14.6085
G01 X10.7802 Y-14.6155
G01 X10.7241 Y-14.6252
G01 X10.6686 Y-14.6377
G01 X10.6137 Y-14.6529
G01 X10.5596 Y-14.6707
G01 X10.5065 Y-14.6912
G01 X10.4545 Y-14.7143
G01 X10.4036 Y-14.7399
G01 X10.3541 Y-14.7680
G01 X10.3060 Y-14.7984
G01 X10.2594 Y-14.8312
G01 X10.2145 Y-14.8662
G01 X10.1714 Y-14.9034
G01 X10.1302 Y-14.9427
G01 X10.0909 Y-14.9839
G01 X10.0475 Y-15.0340
G01 X10.0394 Y-15.0420
G01 X10.0274 Y-15.0516
G01 X10.0072 Y-15.0636
G01 X9.9870 Y-15.0716
G01 X9.9664 Y-15.0763
G01 X9.9427 Y-15.0778
G01 X9.9202 Y-15.0754
G01 X9.8999 Y-15.0701
G01 X8.8182 Y-14.6947
G01 X8.7965 Y-14.6848
G01 X8.7858 Y-14.6780
G01 X8.7765 Y-14.6710
G01 X8.7681 Y-14.6635
G01 X8.7591 Y-14.6538
G01 X8.7501 Y-14.6421
G01 X8.7441 Y-14.6324
G01 X8.7362 Y-14.6164
G01 X8.7307 Y-14.6002
G01 X8.7274 Y-14.5852
G01 X8.7257 Y-14.5667
G01 X8.7286 Y-13.9787
G01 X8.7292 Y-13.9662
G01 X8.7320 Y-13.9489
G01 X8.7375 Y-13.9304
G01 X8.7453 Y-13.9131
G01 X8.7545 Y-13.8983
G01 X8.7672 Y-13.8829
G01 X8.7802 Y-13.8708
G01 X8.7947 Y-13.8605
G01 X8.8118 Y-13.8514
G01 X8.8255 Y-13.8462
G01 X8.8403 Y-13.8423
G01 X8.8557 Y-13.8400
G01 X8.8692 Y-13.8394
G01 X8.9145 Y-13.8432
G01 X8.9314 Y-13.8436
G01 X9.8177 Y-13.8432
G01 X9.8475 Y-13.8403
G01 X9.8768 Y-13.8346
G01 X9.9055 Y-13.8261
G01 X9.9195 Y-13.8208
G01 X9.9466 Y-13.8082
G01 X9.9611 Y-13.8002
G01 X11.9078 Y-12.6591
G01 X11.9189 Y-12.6532
G01 X11.9295 Y-12.6487
G01 X11.9501 Y-12.6428
G01 X11.9710 Y-12.6401
G01 X11.9898 Y-12.6403
G01 X12.0042 Y-12.6422
G01 X12.0292 Y-12.6477
G01 X12.0853 Y-12.6574
G01 X12.1418 Y-12.6644
G01 X12.1987 Y-12.6686
G01 X12.2573 Y-12.6701
G01 X14.2539 Y-12.6701
G01 X14.3125 Y-12.6686
G01 X14.3694 Y-12.6644
G01 X14.4259 Y-12.6574
G01 X14.4820 Y-12.6477
G01 X14.5376 Y-12.6352
G01 X14.5925 Y-12.6200
G01 X14.6466 Y-12.6022
G01 X14.6997 Y-12.5817
G01 X14.7518 Y-12.5586
G01 X14.8027 Y-12.5330
G01 X14.8523 Y-12.5049
G01 X14.9004 Y-12.4744
G01 X14.9470 Y-12.4416
G01 X14.9919 Y-12.4066
G01 X15.0350 Y-12.3694
G01 X15.0763 Y-12.3301
G01 X15.1156 Y-12.2888
G01 X15.1528 Y-12.2457
G01 X15.1878 Y-12.2008
G01 X15.2206 Y-12.1542
G01 X15.2511 Y-12.1061
G01 X15.2792 Y-12.0565
G01 X15.3048 Y-12.0056
G01 X15.3279 Y-11.9535
G01 X15.3484 Y-11.9004
G01 X15.3662 Y-11.8463
G01 X15.3814 Y-11.7914
G01 X15.3939 Y-11.7358
G01 X15.4036 Y-11.6797
G01 X15.4106 Y-11.6232
G01 X15.4148 Y-11.5663
G01 X15.4162 Y-11.5094
G01 X15.4148 Y-11.4525
G01 X15.4106 Y-11.3956
G01 X15.4036 Y-11.3391
G01 X15.3939 Y-11.2830
G01 X15.3814 Y-11.2274
G01 X15.3662 Y-11.1725
G01 X15.3484 Y-11.1184
G01 X15.3279 Y-11.0653
G01 X15.3048 Y-11.0132
G01 X15.2792 Y-10.9623
G01 X15.2511 Y-10.9127
G01 X15.2206 Y-10.8646
G01 X15.1878 Y-10.8180
G01 X15.1528 Y-10.7731
G01 X15.1156 Y-10.7300
G01 X15.0763 Y-10.6887
G01 X15.0350 Y-10.6494
G01 X14.9919 Y-10.6122
G01 X14.9470 Y-10.5772
G01 X14.9004 Y-10.5444
G01 X14.8523 Y-10.5139
G01 X14.8027 Y-10.4858
G01 X14.7518 Y-10.4602
G01 X14.6997 Y-10.4371
G01 X14.6466 Y-10.4166
G01 X14.5925 Y-10.3988
G01 X14.5376 Y-10.3836
G01 X14.4820 Y-10.3711
G01 X14.4259 Y-10.3614
G01 X14.3694 Y-10.3544
G01 X14.3125 Y-10.3502
G01 X14.2539 Y-10.3487
G01 X12.2573 Y-10.3487
G01 X12.1987 Y-10.3502
G01 X12.1418 Y-10.3544
G01 X12.0853 Y-10.3614
G01 X12.0292 Y-10.3711
G01 X11.9736 Y-10.3836
G01 X11.9187 Y-10.3988
G01 X11.8646 Y-10.4166
G01 X11.8115 Y-10.4371
G01 X11.7594 Y-10.4602
G01 X11.7085 Y-10.4858
G01 X11.6589 Y-10.5139
G01 X11.6108 Y-10.5444
G01 X11.5642 Y-10.5772
G01 X11.5193 Y-10.6122
G01 X11.4762 Y-10.6494
G01 X11.4349 Y-10.6887
G01 X11.3956 Y-10.7300
G01 X11.3584 Y-10.7731
G01 X11.3234 Y-10.8180
G01 X11.2906 Y-10.8646
G01 X11.2601 Y-10.9127
G01 X11.2320 Y-10.9623
G01 X11.2064 Y-11.0132
G01 X11.1833 Y-11.0653
G01 X11.1628 Y-11.1184
G01 X11.1450 Y-11.1725
G01 X11.1298 Y-11.2274
G01 X11.1173 Y-11.2830
G01 X11.1076 Y-11.3391
G01 X11.1006 Y-11.3956
G01 X11.0964 Y-11.4525
G01 X11.0950 Y-11.5094
G01 X11.0964 Y-11.5663
G01 X11.1006 Y-11.6232
G01 X11.1076 Y-11.6797
G01 X11.1173 Y-11.7358
G01 X11.1298 Y-11.7914
G01 X11.1450 Y-11.8463
G01 X11.1628 Y-11.9004
G01 X11.1833 Y-11.9535
G01 X11.2064 Y-12.0056
G01 X11.2320 Y-12.0565
G01 X11.2601 Y-12.1061
G01 X11.2874 Y-12.1503
G01 X11.2944 Y-12.1661
G01 X11.2993 Y-12.1826
G01 X11.3023 Y-12.2009
G01 X11.3029 Y-12.2174
G01 X11.3012 Y-12.2358
G01 X11.2976 Y-12.2524
G01 X11.2920 Y-12.2685
G01 X11.2838 Y-12.2848
G01 X11.2740 Y-12.2994
G01 X11.2630 Y-12.3121
G01 X11.2502 Y-12.3237
G01 X11.2337 Y-12.3350
G01 X9.7514 Y-13.2040
G01 X9.7365 Y-13.2115
G01 X9.7260 Y-13.2156
G01 X9.7116 Y-13.2197
G01 X9.6978 Y-13.2221
G01 X9.6858 Y-13.2231
G01 X9.3707 Y-13.2229
G01 X9.3581 Y-13.2215
G01 X9.3447 Y-13.2187
G01 X9.3337 Y-13.2153
G01 X9.3209 Y-13.2101
G01 X9.3106 Y-13.2048
G01 X9.2976 Y-13.1964
G01 X9.2797 Y-13.1809
G01 X9.2709 Y-13.1709
G01 X9.2622 Y-13.1589
G01 X9.2556 Y-13.1475
G01 X9.2503 Y-13.1360
G01 X9.2466 Y-13.1258
G01 X9.2429 Y-13.1116
G01 X9.2408 Y-13.0986
G01 X9.2399 Y-13.0832
G01 X9.2399 Y-12.8053
G01 X9.2408 Y-12.7899
G01 X9.2448 Y-12.7687
G01 X9.2530 Y-12.7464
G01 X9.2592 Y-12.7344
G01 X9.2650 Y-12.7253
G01 X9.2785 Y-12.7089
G01 X9.2886 Y-12.6993
G01 X9.2986 Y-12.6914
G01 X9.3078 Y-12.6853
G01 X9.3207 Y-12.6785
G01 X9.3333 Y-12.6733
G01 X9.3456 Y-12.6696
G01 X9.3606 Y-12.6667
G01 X9.3734 Y-12.6655
G01 X9.3947 Y-12.6661
G01 X9.4156 Y-12.6700
G01 X9.4286 Y-12.6741
G01 X9.4662 Y-12.6894
G01 X9.4853 Y-12.6957
G01 X9.5244 Y-12.7055
G01 X9.5442 Y-12.7089
G01 X9.5843 Y-12.7128
G01 X9.6245 Y-12.7128
G01 X9.6646 Y-12.7089
G01 X9.7041 Y-12.7010
G01 X9.7426 Y-12.6894
G01 X9.7798 Y-12.6739
G01 X9.7978 Y-12.6649
G01 X9.8323 Y-12.6442
G01 X9.8646 Y-12.6202
G01 X9.8945 Y-12.5932
G01 X9.9084 Y-12.5786
G01 X9.9339 Y-12.5475
G01 X9.9563 Y-12.5140
G01 X9.9752 Y-12.4785
G01 X9.9907 Y-12.4413
G01 X10.0023 Y-12.4028
G01 X10.0102 Y-12.3633
G01 X10.0141 Y-12.3232
G01 X10.0147 Y-12.3014
G01 X10.0148 Y-10.9453
G01 X10.0162 Y-10.9309
G01 X10.0197 Y-10.9143
G01 X10.0238 Y-10.9017
G01 X10.0307 Y-10.8863
G01 X10.0392 Y-10.8721
G01 X10.0492 Y-10.8592
G01 X10.0594 Y-10.8487
G01 X10.0713 Y-10.8388
G01 X10.0838 Y-10.8305
G01 X12.0655 Y-9.6674
G01 X12.0829 Y-9.6587
G01 X12.1005 Y-9.6528
G01 X12.1194 Y-9.6491
G01 X12.1369 Y-9.6481
G01 X12.1987 Y-9.6523
G01 X12.2573 Y-9.6538
G01 X14.2539 Y-9.6538
G01 X14.3125 Y-9.6523
G01 X14.3694 Y-9.6481
G01 X14.4259 Y-9.6411
G01 X14.4820 Y-9.6314
G01 X14.5376 Y-9.6189
G01 X14.5925 Y-9.6037
G01 X14.6466 Y-9.5859
G01 X14.6997 Y-9.5654
G01 X14.7518 Y-9.5423
G01 X14.8027 Y-9.5167
G01 X14.8523 Y-9.4886
G01 X14.9004 Y-9.4581
G01 X14.9470 Y-9.4253
G01 X14.9919 Y-9.3903
G01 X15.0350 Y-9.3531
G01 X15.0763 Y-9.3138
G01 X15.1156 Y-9.2725
G01 X15.1528 Y-9.2294
G01 X15.1878 Y-9.1845
G01 X15.2206 Y-9.1379
G01 X15.2511 Y-9.0898
G01 X15.2792 Y-9.0402
G01 X15.3048 Y-8.9893
G01 X15.3279 Y-8.9372
G01 X15.3484 Y-8.8841
G01 X15.3662 Y-8.8300
G01 X15.3814 Y-8.7751
G01 X15.3939 Y-8.7195
G01 X15.4036 Y-8.6634
G01 X15.4106 Y-8.6069
G01 X15.4148 Y-8.5500
G01 X15.4162 Y-8.4931
G01 X15.4148 Y-8.4362
G01 X15.4106 Y-8.3793
G01 X15.4036 Y-8.3228
G01 X15.3939 Y-8.2667
G01 X15.3814 Y-8.2111
G01 X15.3662 Y-8.1562
G01 X15.3484 Y-8.1021
G01 X15.3279 Y-8.0490
G01 X15.3048 Y-7.9969
G01 X15.2792 Y-7.9460
G01 X15.2511 Y-7.8964
G01 X15.2206 Y-7.8483
G01 X15.1878 Y-7.8017
G01 X15.1528 Y-7.7568
G01 X15.1156 Y-7.7137
G01 X15.0763 Y-7.6724
G01 X15.0350 Y-7.6331
G01 X14.9919 Y-7.5959
G01 X14.9470 Y-7.5609
G01 X14.9004 Y-7.5281
G01 X14.8523 Y-7.4976
G01 X14.8027 Y-7.4695
G01 X14.7518 Y-7.4439
G01 X14.6997 Y-7.4208
G01 X14.6466 Y-7.4003
G01 X14.5925 Y-7.3825
G01 X14.5376 Y-7.3673
G01 X14.4820 Y-7.3548
G01 X14.4259 Y-7.3451
G01 X14.3694 Y-7.3381
G01 X14.3125 Y-7.3339
G01 X14.2539 Y-7.3324
G01 X12.2573 Y-7.3324
G01 X12.1987 Y-7.3339
G01 X12.1418 Y-7.3381
G01 X12.0853 Y-7.3451
G01 X12.0292 Y-7.3548
G01 X11.9736 Y-7.3673
G01 X11.9187 Y-7.3825
G01 X11.8646 Y-7.4003
G01 X11.8115 Y-7.4208
G01 X11.7594 Y-7.4439
G01 X11.7085 Y-7.4695
G01 X11.6589 Y-7.4976
G01 X11.6108 Y-7.5281
G01 X11.5642 Y-7.5609
G01 X11.5193 Y-7.5959
G01 X11.4762 Y-7.6331
G01 X11.4349 Y-7.6724
G01 X11.3956 Y-7.7137
G01 X11.3584 Y-7.7568
G01 X11.3234 Y-7.8017
G01 X11.2906 Y-7.8483
G01 X11.2601 Y-7.8964
G01 X11.2320 Y-7.9460
G01 X11.2064 Y-7.9969
G01 X11.1833 Y-8.0490
G01 X11.1628 Y-8.1021
G01 X11.1450 Y-8.1562
G01 X11.1298 Y-8.2111
G01 X11.1173 Y-8.2667
G01 X11.1076 Y-8.3228
G01 X11.1006 Y-8.3793
G01 X11.0964 Y-8.4362
G01 X11.0950 Y-8.4931
G01 X11.0964 Y-8.5500
G01 X11.1006 Y-8.6069
G01 X11.1076 Y-8.6634
G01 X11.1173 Y-8.7195
G01 X11.1298 Y-8.7751
G01 X11.1450 Y-8.8300
G01 X11.1628 Y-8.8841
G01 X11.1833 Y-8.9372
G01 X11.2064 Y-8.9893
G01 X11.2413 Y-9.0585
G01 X11.2474 Y-9.0762
G01 X11.2511 Y-9.0939
G01 X11.2524 Y-9.1137
G01 X11.2511 Y-9.1320
G01 X11.2471 Y-9.1509
G01 X11.2412 Y-9.1678
G01 X11.2327 Y-9.1846
G01 X11.2209 Y-9.2014
G01 X11.2088 Y-9.2145
G01 X11.1928 Y-9.2276
G01 X9.3813 Y-10.2920
G01 X9.3682 Y-10.2988
G01 X9.3517 Y-10.3050
G01 X9.3330 Y-10.3094
G01 X9.3103 Y-10.3113
G01 X7.7734 Y-10.3113
G01 X7.7579 Y-10.3104
G01 X7.7419 Y-10.3077
G01 X7.7272 Y-10.3034
G01 X7.7143 Y-10.2982
G01 X7.6973 Y-10.2888
G01 X7.6808 Y-10.2763
G01 X7.6684 Y-10.2639
G01 X7.6560 Y-10.2476
G01 X7.6460 Y-10.2293
G01 X7.6390 Y-10.2105
G01 X7.6351 Y-10.1933
G01 X7.6334 Y-10.1732
G01 X7.6334 Y-9.7975
G01 X7.6346 Y-9.7789
G01 X7.6381 Y-9.7614
G01 X7.6433 Y-9.7458
G01 X7.6505 Y-9.7304
G01 X7.6581 Y-9.7181
G01 X7.6684 Y-9.7049
G01 X7.6783 Y-9.6948
G01 X7.6909 Y-9.6843
G01 X7.7036 Y-9.6761
G01 X7.7174 Y-9.6691
G01 X7.7346 Y-9.6630
G01 X7.7516 Y-9.6592
G01 X7.7715 Y-9.6575
G01 X8.8883 Y-9.6575
G01 X8.9101 Y-9.6569
G01 X8.9502 Y-9.6530
G01 X8.9897 Y-9.6451
G01 X9.0091 Y-9.6398
G01 X9.0470 Y-9.6262
G01 X9.0834 Y-9.6090
G01 X9.1009 Y-9.5991
G01 X9.1344 Y-9.5767
G01 X9.1655 Y-9.5512
G01 X9.1940 Y-9.5227
G01 X9.2071 Y-9.5074
G01 X9.2195 Y-9.4916
G01 X9.2419 Y-9.4581
G01 X9.2608 Y-9.4226
G01 X9.2763 Y-9.3854
G01 X9.2879 Y-9.3469
G01 X9.2958 Y-9.3074
G01 X9.2983 Y-9.2874
G01 X9.3002 Y-9.2472
G01 X9.2997 Y-9.2271
G01 X9.2958 Y-9.1870
G01 X9.2879 Y-9.1475
G01 X9.2763 Y-9.1090
G01 X9.2690 Y-9.0902
G01 X9.2524 Y-9.0548
G01 X9.2468 Y-9.0404
G01 X9.2422 Y-9.0223
G01 X9.2401 Y-9.0044
G01 X9.2399 Y-8.3694
G01 X9.2407 Y-8.3558
G01 X9.2428 Y-8.3429
G01 X9.2465 Y-8.3287
G01 X9.2502 Y-8.3185
G01 X9.2582 Y-8.3020
G01 X9.2667 Y-8.2889
G01 X9.2796 Y-8.2736
G01 X9.2921 Y-8.2622
G01 X9.3076 Y-8.2514
G01 X9.3208 Y-8.2444
G01 X9.3373 Y-8.2379
G01 X9.3547 Y-8.2336
G01 X9.3675 Y-8.2319
G01 X9.3799 Y-8.2313
G01 X9.7395 Y-8.2313
G01 X9.7395 Y-5.9113
G01 X8.7197 Y-5.9113
G01 X8.7197 Y-5.9447
G01 X8.7342 Y-5.9389
G01 X8.7468 Y-5.9352
G01 X8.7603 Y-5.9326
G01 X8.7737 Y-5.9314
G01 X9.0881 Y-5.9316
G01 X9.0987 Y-5.9326
G01 X9.1122 Y-5.9352
G01 X9.1248 Y-5.9389
G01 X9.1379 Y-5.9441
G01 X9.1502 Y-5.9505
G01 X9.1616 Y-5.9579
G01 X9.1703 Y-5.9648
G01 X9.1795 Y-5.9733
G01 X9.1887 Y-5.9648
G01 X9.1974 Y-5.9579
G01 X9.2088 Y-5.9505
G01 X9.2211 Y-5.9441
G01 X9.2310 Y-5.9400
G01 X9.2437 Y-5.9360
G01 X9.2568 Y-5.9332
G01 X9.2673 Y-5.9318
G01 X9.2795 Y-5.9313
G01 X9.5795 Y-5.9313
G01 X9.5987 Y-5.9326
G01 X9.6216 Y-5.9378
G01 X9.6412 Y-5.9456
G01 X9.6529 Y-5.9521
G01 X9.6616 Y-5.9579
G01 X9.6774 Y-5.9712
G01 X9.6929 Y-5.9892
G01 X9.7037 Y-6.0067
G01 X9.7119 Y-6.0260
G01 X9.7156 Y-6.0386
G01 X9.7177 Y-6.0491
G01 X9.7195 Y-6.0713
G01 X9.7195 Y-8.0713
G01 X9.7183 Y-8.0897
G01 X9.7140 Y-8.1102
G01 X9.7055 Y-8.1324
G01 X9.6940 Y-8.1519
G01 X9.6822 Y-8.1664
G01 X9.6668 Y-8.1808
G01 X9.6504 Y-8.1920
G01 X9.6312 Y-8.2014
G01 X9.6090 Y-8.2081
G01 X9.5941 Y-8.2105
G01 X9.5807 Y-8.2113
G01 X9.2758 Y-8.2112
G01 X9.2611 Y-8.2101
G01 X9.2468 Y-8.2074
G01 X9.2342 Y-8.2037
G01 X9.2197 Y-8.1979
G01 X9.2198 Y-9.0389
G01 X9.2337 Y-9.0625
G01 X9.2434 Y-9.0821
G01 X9.2561 Y-9.1126
G01 X9.2636 Y-9.1348
G01 X9.2719 Y-9.1677
G01 X9.2758 Y-9.1894
G01 X9.2785 Y-9.2124
G01 X9.2801 Y-9.2438
G01 X9.2797 Y-9.2655
G01 X9.2782 Y-9.2863
G01 X9.2758 Y-9.3050
G01 X9.2719 Y-9.3267
G01 X9.2676 Y-9.3453
G01 X9.2584 Y-9.3754
G01 X9.2508 Y-9.3957
G01 X9.2431 Y-9.4131
G01 X9.2337 Y-9.4319
G01 X9.2228 Y-9.4507
G01 X9.2054 Y-9.4768
G01 X9.1917 Y-9.4946
G01 X9.1767 Y-9.5117
G01 X9.1545 Y-9.5339
G01 X9.1375 Y-9.5488
G01 X9.1221 Y-9.5607
G01 X9.1039 Y-9.5735
G01 X9.0769 Y-9.5896
G01 X9.0575 Y-9.5995
G01 X9.0385 Y-9.6080
G01 X9.0182 Y-9.6156
G01 X8.9881 Y-9.6248
G01 X8.9670 Y-9.6297
G01 X8.9458 Y-9.6333
G01 X8.9126 Y-9.6366
G01 X8.8900 Y-9.6373
G01 X7.6132 Y-9.6373
G01 X7.6132 Y-10.3354
G01 X7.6312 Y-10.3412
G01 X7.6503 Y-10.3505
G01 X7.6666 Y-10.3617
G01 X7.6795 Y-10.3733
G01 X7.6897 Y-10.3639
G01 X7.7000 Y-10.3561
G01 X7.7118 Y-10.3488
G01 X7.7246 Y-10.3425
G01 X7.7374 Y-10.3378
G01 X7.7500 Y-10.3345
G01 X7.7611 Y-10.3325
G01 X7.7757 Y-10.3314
G01 X8.0795 Y-10.3313
G01 X8.0941 Y-10.3321
G01 X8.1055 Y-10.3338
G01 X8.1184 Y-10.3368
G01 X8.1406 Y-10.3453
G01 X8.1504 Y-10.3506
G01 X8.1623 Y-10.3584
G01 X8.1795 Y-10.3733
G01 X8.1967 Y-10.3584
G01 X8.2086 Y-10.3506
G01 X8.2184 Y-10.3453
G01 X8.2406 Y-10.3368
G01 X8.2535 Y-10.3338
G01 X8.2649 Y-10.3321
G01 X8.2795 Y-10.3313
G01 X8.5859 Y-10.3314
G01 X8.5979 Y-10.3325
G01 X8.6122 Y-10.3352
G01 X8.6248 Y-10.3389
G01 X8.6375 Y-10.3439
G01 X8.6504 Y-10.3506
G01 X8.6601 Y-10.3568
G01 X8.6693 Y-10.3639
G01 X8.6795 Y-10.3733
G01 X8.6967 Y-10.3584
G01 X8.7086 Y-10.3506
G01 X8.7184 Y-10.3453
G01 X8.7406 Y-10.3368
G01 X8.7535 Y-10.3338
G01 X8.7649 Y-10.3321
G01 X8.7795 Y-10.3313
G01 X9.0832 Y-10.3314
G01 X9.0979 Y-10.3325
G01 X9.1090 Y-10.3345
G01 X9.1216 Y-10.3378
G01 X9.1344 Y-10.3425
G01 X9.1469 Y-10.3486
G01 X9.1601 Y-10.3568
G01 X9.1693 Y-10.3639
G01 X9.1795 Y-10.3733
G01 X9.1944 Y-10.3601
G01 X9.2121 Y-10.3486
G01 X9.2278 Y-10.3412
G01 X9.2468 Y-10.3352
G01 X9.2611 Y-10.3325
G01 X9.2740 Y-10.3314
G01 X9.3610 Y-10.3313
G01 X9.3876 Y-10.3119
G01 X9.4069 Y-10.2998
G01 X11.3360 Y-9.1675
G01 X11.3072 Y-9.1266
G01 X11.2792 Y-9.0824
G01 X11.2514 Y-9.0337
G01 X11.2245 Y-8.9804
G01 X11.2016 Y-8.9288
G01 X11.1807 Y-8.8741
G01 X11.1645 Y-8.8250
G01 X11.1502 Y-8.7735
G01 X11.1372 Y-8.7164
G01 X11.1274 Y-8.6599
G01 X11.1203 Y-8.6015
G01 X11.1165 Y-8.5499
G01 X11.1151 Y-8.4965
G01 X11.1164 Y-8.4380
