(G-CODE GENERATED BY FLATCAM v8.95 - www.flatcam.org - Version Date: 2019/08/17)

(Name: si5351_Ф1_верх1.gbr_iso_cnc)
(Type: G-code from Geometry)
(Units: MM)

(Created on Saturday, 29 August 2020 at 12:09)

(TOOL DIAMETER: 0.18 mm)
(Feedrate: 50.0 mm/min)
(Feedrate_Z: 79.9998 mm/min)
(Feedrate rapids 79.9998 mm/min)

(Z_Cut: -0.08 mm)
(Z_Move: 3.0 mm)
(Z Toolchange: 12.7 mm)
(X,Y Toolchange: 0.0000, 0.0000 mm)
(Z Start: None mm)
(Z End: 12.7 mm)
(Steps per circle: 128)
(Postprocessor Geometry: default)

(X range:    0.0000 ...    0.0000  mm)
(Y range:    0.0000 ...    0.0000  mm)

(Spindle Speed: None RPM)

G21
G90
G94

G01 F50.00
G00 Z3.0000

M03
G00 X1.9449 Y-3.6042
G01 F80.00
G01 Z-0.0800
G01 F50.00
G01 X1.9958 Y-3.6269
G01 X2.0457 Y-3.6462
G01 X2.0965 Y-3.6629
G01 X2.1481 Y-3.6772
G01 X2.2004 Y-3.6889
G01 X2.2531 Y-3.6981
G01 X2.3062 Y-3.7046
G01 X2.3596 Y-3.7086
G01 X2.4131 Y-3.7099
G01 X4.3174 Y-3.7099
G01 X6.8329 Y-6.8060
G01 X6.8329 Y-7.7788
G01 X6.8335 Y-7.7999
G01 X6.8369 Y-7.8339
G01 X6.8404 Y-7.8549
G01 X6.8491 Y-7.8899
G01 X6.8558 Y-7.9102
G01 X6.8635 Y-7.9301
G01 X6.8790 Y-7.9627
G01 X6.8896 Y-7.9813
G01 X6.9097 Y-8.0112
G01 X6.9340 Y-8.0408
G01 X6.9611 Y-8.0679
G01 X6.9907 Y-8.0922
G01 X7.0225 Y-8.1134
G01 X7.0563 Y-8.1315
G01 X7.0917 Y-8.1461
G01 X7.1283 Y-8.1573
G01 X7.1659 Y-8.1647
G01 X7.2018 Y-8.1683
G01 X7.2231 Y-8.1690
G01 X7.2613 Y-8.1671
G01 X7.2999 Y-8.1613
G01 X7.5876 Y-8.1609
G01 X7.6055 Y-8.1575
G01 X7.6220 Y-8.1506
G01 X7.6363 Y-8.1411
G01 X7.6486 Y-8.1289
G01 X7.6567 Y-8.1176
G01 X7.6643 Y-8.1015
G01 X7.6677 Y-8.0893
G01 X7.6695 Y-8.0729
G01 X7.6695 Y-6.0697
G01 X7.6685 Y-6.0578
G01 X7.6657 Y-6.0453
G01 X7.6610 Y-6.0330
G01 X7.6541 Y-6.0210
G01 X7.6461 Y-6.0108
G01 X7.6367 Y-6.0018
G01 X7.6258 Y-5.9941
G01 X7.6133 Y-5.9879
G01 X7.6132 Y-5.8727
G01 X7.6113 Y-5.8348
G01 X7.6062 Y-5.7999
G01 X7.6016 Y-5.7790
G01 X7.5958 Y-5.7584
G01 X7.5836 Y-5.7245
G01 X7.5748 Y-5.7050
G01 X7.5577 Y-5.6732
G01 X7.5462 Y-5.6552
G01 X7.5261 Y-5.6280
G01 X7.5122 Y-5.6118
G01 X7.4974 Y-5.5964
G01 X7.4723 Y-5.5736
G01 X7.4555 Y-5.5604
G01 X7.4380 Y-5.5482
G01 X7.4090 Y-5.5308
G01 X7.3899 Y-5.5211
G01 X7.3704 Y-5.5125
G01 X7.3385 Y-5.5011
G01 X7.3179 Y-5.4953
G01 X7.2970 Y-5.4907
G01 X7.2621 Y-5.4856
G01 X7.2400 Y-5.4840
G01 X7.2062 Y-5.4840
G01 X7.1849 Y-5.4855
G01 X7.1637 Y-5.4882
G01 X7.1305 Y-5.4948
G01 X7.1095 Y-5.5006
G01 X7.0917 Y-5.5065
G01 X7.0897 Y-5.5072
G01 X7.0758 Y-5.5125
G01 X7.0563 Y-5.5211
G01 X7.0372 Y-5.5308
G01 X7.0082 Y-5.5482
G01 X6.9907 Y-5.5604
G01 X6.9739 Y-5.5736
G01 X6.9488 Y-5.5964
G01 X6.9340 Y-5.6118
G01 X6.9201 Y-5.6280
G01 X6.9015 Y-5.6530
G01 X5.1148 Y-3.4539
G01 X5.1454 Y-3.4274
G01 X5.1826 Y-3.3920
G01 X5.2196 Y-3.3534
G01 X5.2561 Y-3.3112
G01 X5.2877 Y-3.2708
G01 X5.3198 Y-3.2252
G01 X5.3485 Y-3.1800
G01 X5.3748 Y-3.1335
G01 X5.3989 Y-3.0856
G01 X5.4206 Y-3.0367
G01 X5.4406 Y-2.9847
G01 X5.4573 Y-2.9338
G01 X5.4709 Y-2.8844
G01 X5.4822 Y-2.8343
G01 X5.4918 Y-2.7794
G01 X5.4983 Y-2.7263
G01 X5.5023 Y-2.6729
G01 X5.5036 Y-2.6194
G01 X5.5023 Y-2.5659
G01 X5.4983 Y-2.5125
G01 X5.4918 Y-2.4594
G01 X5.4822 Y-2.4045
G01 X5.4709 Y-2.3544
G01 X5.4573 Y-2.3050
G01 X5.4406 Y-2.2541
G01 X5.4206 Y-2.2021
G01 X5.3989 Y-2.1532
G01 X5.3748 Y-2.1053
G01 X5.3473 Y-2.0569
G01 X5.3186 Y-2.0117
G01 X5.2890 Y-1.9698
G01 X5.2574 Y-1.9293
G01 X5.2211 Y-1.8871
G01 X5.1842 Y-1.8483
G01 X5.1454 Y-1.8114
G01 X5.1032 Y-1.7751
G01 X5.0627 Y-1.7435
G01 X5.0208 Y-1.7139
G01 X4.9718 Y-1.6829
G01 X4.9272 Y-1.6577
G01 X4.8793 Y-1.6336
G01 X4.8304 Y-1.6119
G01 X4.7825 Y-1.5934
G01 X4.7276 Y-1.5753
G01 X4.6781 Y-1.5616
G01 X4.6258 Y-1.5499
G01 X4.5731 Y-1.5407
G01 X4.5222 Y-1.5344
G01 X4.4644 Y-1.5301
G01 X4.4131 Y-1.5289
G01 X2.4131 Y-1.5289
G01 X2.3584 Y-1.5303
G01 X2.3040 Y-1.5344
G01 X2.2531 Y-1.5407
G01 X2.2025 Y-1.5494
G01 X2.1481 Y-1.5616
G01 X2.0965 Y-1.5759
G01 X2.0457 Y-1.5926
G01 X1.9938 Y-1.6128
G01 X1.9469 Y-1.6336
G01 X1.9010 Y-1.6566
G01 X1.8530 Y-1.6837
G01 X1.8054 Y-1.7139
G01 X1.7635 Y-1.7435
G01 X1.7230 Y-1.7751
G01 X1.6808 Y-1.8114
G01 X1.6405 Y-1.8499
G01 X1.6051 Y-1.8871
G01 X1.5716 Y-1.9259
G01 X1.5372 Y-1.9698
G01 X1.5064 Y-2.0136
G01 X1.4789 Y-2.0569
G01 X1.4514 Y-2.1053
G01 X1.4273 Y-2.1532
G01 X1.4065 Y-2.2001
G01 X1.3863 Y-2.2520
G01 X1.3689 Y-2.3050
G01 X1.3553 Y-2.3544
G01 X1.3440 Y-2.4045
G01 X1.3344 Y-2.4594
G01 X1.3277 Y-2.5147
G01 X1.3239 Y-2.5659
G01 X1.3226 Y-2.6172
G01 X1.3239 Y-2.6729
G01 X1.3279 Y-2.7263
G01 X1.3341 Y-2.7772
G01 X1.3436 Y-2.8321
G01 X1.3558 Y-2.8865
G01 X1.3696 Y-2.9360
G01 X1.3856 Y-2.9847
G01 X1.4056 Y-3.0367
G01 X1.4283 Y-3.0876
G01 X1.4514 Y-3.1335
G01 X1.4766 Y-3.1781
G01 X1.5064 Y-3.2252
G01 X1.5385 Y-3.2708
G01 X1.5701 Y-3.3112
G01 X1.6036 Y-3.3501
G01 X1.6420 Y-3.3905
G01 X1.6824 Y-3.4289
G01 X1.7213 Y-3.4624
G01 X1.7617 Y-3.4940
G01 X1.8073 Y-3.5261
G01 X1.8544 Y-3.5559
G01 X1.8990 Y-3.5811
G01 X1.9449 Y-3.6042
G00 Z3.0000
G00 X2.7915 Y-6.4313
G01 F80.00
G01 Z-0.0800
G01 F50.00
G01 X2.7915 Y-6.6513
G01 X2.3789 Y-6.6513
G01 X2.3671 Y-6.6523
G01 X2.3585 Y-6.6540
G01 X2.3421 Y-6.6599
G01 X2.3340 Y-6.6642
G01 X2.3235 Y-6.6717
G01 X2.3169 Y-6.6777
G01 X2.3084 Y-6.6875
G01 X2.3032 Y-6.6951
G01 X2.2973 Y-6.7070
G01 X2.2932 Y-6.7193
G01 X2.2915 Y-6.7280
G01 X2.2905 Y-6.7413
G01 X2.2905 Y-7.0023
G01 X2.0705 Y-7.0023
G01 X2.0705 Y-6.4313
G01 X2.7915 Y-6.4313
G01 X2.7015 Y-6.5213
G01 X2.7015 Y-6.5613
G01 X2.3805 Y-6.5613
G01 X2.3649 Y-6.5620
G01 X2.3385 Y-6.5663
G01 X2.3142 Y-6.5740
G01 X2.2935 Y-6.5838
G01 X2.2714 Y-6.5981
G01 X2.2614 Y-6.6064
G01 X2.2489 Y-6.6185
G01 X2.2376 Y-6.6318
G01 X2.2296 Y-6.6432
G01 X2.2226 Y-6.6549
G01 X2.2149 Y-6.6708
G01 X2.2088 Y-6.6872
G01 X2.2046 Y-6.7033
G01 X2.2016 Y-6.7218
G01 X2.2005 Y-6.7376
G01 X2.2005 Y-6.9123
G01 X2.1605 Y-6.9123
G01 X2.1605 Y-6.5213
G01 X2.7015 Y-6.5213
G00 Z3.0000
G00 X4.2005 Y-6.9123
G01 F80.00
G01 Z-0.0800
G01 F50.00
G01 X4.1605 Y-6.9123
G01 X4.1605 Y-6.7376
G01 X4.1589 Y-6.7171
G01 X4.1555 Y-6.6993
G01 X4.1508 Y-6.6830
G01 X4.1461 Y-6.6708
G01 X4.1384 Y-6.6549
G01 X4.1314 Y-6.6432
G01 X4.1234 Y-6.6318
G01 X4.1121 Y-6.6185
G01 X4.0996 Y-6.6064
G01 X4.0862 Y-6.5956
G01 X4.0635 Y-6.5816
G01 X4.0428 Y-6.5724
G01 X4.0183 Y-6.5653
G01 X3.9961 Y-6.5620
G01 X3.9805 Y-6.5613
G01 X3.6595 Y-6.5613
G01 X3.6595 Y-6.5213
G01 X4.2005 Y-6.5213
G01 X4.2005 Y-6.9123
G01 X4.2905 Y-7.0023
G01 X4.0705 Y-7.0023
G01 X4.0701 Y-6.7327
G01 X4.0678 Y-6.7193
G01 X4.0620 Y-6.7030
G01 X4.0553 Y-6.6913
G01 X4.0470 Y-6.6807
G01 X4.0342 Y-6.6691
G01 X4.0189 Y-6.6599
G01 X4.0025 Y-6.6540
G01 X3.9849 Y-6.6514
G01 X3.5695 Y-6.6513
G01 X3.5695 Y-6.4313
G01 X4.2905 Y-6.4313
G01 X4.2905 Y-7.0023
G00 Z3.0000
G00 X2.2505 Y-8.4047
G01 F80.00
G01 Z-0.0800
G01 F50.00
G01 X2.2505 Y-8.2779
G01 X2.2797 Y-8.2917
G01 X2.3103 Y-8.3020
G01 X2.3249 Y-8.3055
G01 X2.3438 Y-8.3088
G01 X2.3740 Y-8.3112
G01 X3.9805 Y-8.3113
G01 X3.9975 Y-8.3108
G01 X4.0147 Y-8.3091
G01 X4.0316 Y-8.3064
G01 X4.0486 Y-8.3025
G01 X4.0671 Y-8.2970
G01 X4.0813 Y-8.2917
G01 X4.1105 Y-8.2779
G01 X4.1105 Y-8.4047
G01 X4.0813 Y-8.3909
G01 X4.0507 Y-8.3806
G01 X4.0361 Y-8.3771
G01 X4.0172 Y-8.3738
G01 X3.9870 Y-8.3714
G01 X2.3805 Y-8.3713
G01 X2.3635 Y-8.3718
G01 X2.3463 Y-8.3735
G01 X2.3294 Y-8.3762
G01 X2.3124 Y-8.3801
G01 X2.2939 Y-8.3856
G01 X2.2797 Y-8.3909
G01 X2.2505 Y-8.4047
G01 X2.1605 Y-9.4770
G01 X2.1605 Y-7.8703
G01 X2.2005 Y-7.8703
G01 X2.2005 Y-8.0413
G01 X2.2016 Y-8.0614
G01 X2.2054 Y-8.0828
G01 X2.2103 Y-8.0998
G01 X2.2169 Y-8.1163
G01 X2.2272 Y-8.1356
G01 X2.2407 Y-8.1547
G01 X2.2548 Y-8.1701
G01 X2.2748 Y-8.1870
G01 X2.2938 Y-8.1990
G01 X2.3140 Y-8.2085
G01 X2.3344 Y-8.2153
G01 X2.3569 Y-8.2197
G01 X2.3805 Y-8.2213
G01 X3.9805 Y-8.2213
G01 X3.9949 Y-8.2207
G01 X4.0139 Y-8.2182
G01 X4.0307 Y-8.2141
G01 X4.0511 Y-8.2069
G01 X4.0672 Y-8.1990
G01 X4.0862 Y-8.1870
G01 X4.0996 Y-8.1762
G01 X4.1148 Y-8.1612
G01 X4.1288 Y-8.1433
G01 X4.1384 Y-8.1277
G01 X4.1475 Y-8.1084
G01 X4.1534 Y-8.0912
G01 X4.1574 Y-8.0743
G01 X4.1598 Y-8.0569
G01 X4.1605 Y-8.0413
G01 X4.1605 Y-7.8703
G01 X4.2005 Y-7.8703
G01 X4.2007 Y-8.7391
G01 X4.2021 Y-8.7556
G01 X4.2044 Y-8.7688
G01 X4.2077 Y-8.7823
G01 X4.2134 Y-8.7986
G01 X4.2206 Y-8.8144
G01 X4.2283 Y-8.8278
G01 X4.2368 Y-8.8401
G01 X4.2474 Y-8.8529
G01 X4.1605 Y-8.8536
G01 X4.1603 Y-8.6335
G01 X4.1588 Y-8.6169
G01 X4.1566 Y-8.6040
G01 X4.1492 Y-8.5785
G01 X4.1405 Y-8.5588
G01 X4.1288 Y-8.5393
G01 X4.1148 Y-8.5214
G01 X4.0962 Y-8.5035
G01 X4.0792 Y-8.4908
G01 X4.0592 Y-8.4794
G01 X4.0389 Y-8.4711
G01 X4.0139 Y-8.4644
G01 X3.9949 Y-8.4619
G01 X3.9805 Y-8.4613
G01 X2.3805 Y-8.4613
G01 X2.3569 Y-8.4629
G01 X2.3427 Y-8.4653
G01 X2.3303 Y-8.4685
G01 X2.3058 Y-8.4775
G01 X2.2858 Y-8.4883
G01 X2.2648 Y-8.5035
G01 X2.2462 Y-8.5214
G01 X2.2407 Y-8.5279
G01 X2.2378 Y-8.5316
G01 X2.2322 Y-8.5393
G01 X2.2248 Y-8.5510
G01 X2.2187 Y-8.5625
G01 X2.2089 Y-8.5871
G01 X2.2028 Y-8.6126
G01 X2.2012 Y-8.6257
G01 X2.2005 Y-8.6413
G01 X2.2005 Y-9.4146
G01 X2.1910 Y-9.4285
G01 X2.1605 Y-9.4770
G00 Z3.0000
G00 X4.3166 Y-9.7127
G01 F80.00
G01 Z-0.0800
G01 F50.00
G01 X4.3099 Y-9.7207
G01 X4.3024 Y-9.7310
G01 X4.2964 Y-9.7128
G01 X4.3166 Y-9.7127
G00 Z3.0000
G00 X5.1136 Y-11.5881
G01 F80.00
G01 Z-0.0800
G01 F50.00
G01 X5.7787 Y-10.9230
G01 X5.7854 Y-10.9181
G01 X5.7934 Y-10.9161
G01 X5.7975 Y-10.9163
G01 X5.8024 Y-10.9177
G01 X5.8093 Y-10.9222
G01 X5.8138 Y-10.9291
G01 X5.8155 Y-10.9382
G01 X5.8155 Y-12.7138
G01 X5.8148 Y-12.7200
G01 X5.8129 Y-12.7248
G01 X5.8093 Y-12.7298
G01 X5.8052 Y-12.7329
G01 X5.8005 Y-12.7350
G01 X5.7954 Y-12.7359
G01 X5.7903 Y-12.7355
G01 X5.7845 Y-12.7334
G01 X5.7803 Y-12.7305
G01 X5.7769 Y-12.7266
G01 X5.7743 Y-12.7210
G01 X5.7734 Y-12.7159
G01 X5.7733 Y-11.2052
G01 X5.7724 Y-11.1923
G01 X5.7694 Y-11.1790
G01 X5.7648 Y-11.1669
G01 X5.7581 Y-11.1552
G01 X5.7470 Y-11.1416
G01 X5.7333 Y-11.1303
G01 X5.7183 Y-11.1223
G01 X5.7005 Y-11.1169
G01 X5.6833 Y-11.1152
G01 X5.6662 Y-11.1169
G01 X5.6484 Y-11.1223
G01 X5.6334 Y-11.1303
G01 X5.6197 Y-11.1416
G01 X5.1418 Y-11.6194
G01 X5.1348 Y-11.6236
G01 X5.1267 Y-11.6248
G01 X5.1187 Y-11.6228
G01 X5.1121 Y-11.6179
G01 X5.1079 Y-11.6109
G01 X5.1067 Y-11.6028
G01 X5.1087 Y-11.5948
G01 X5.1136 Y-11.5881
G00 Z3.0000
G00 X7.6532 Y-10.3053
G01 F80.00
G01 Z-0.0800
G01 F50.00
G01 X7.6543 Y-10.3063
G01 X7.6577 Y-10.3092
G01 X7.6532 Y-10.3071
G01 X7.6532 Y-10.3053
G00 Z3.0000
G00 X8.1895 Y-11.7842
G01 F80.00
G01 Z-0.0800
G01 F50.00
G01 X8.1737 Y-14.8820
G01 X8.1748 Y-14.9054
G01 X8.1787 Y-14.9312
G01 X8.1870 Y-14.9613
G01 X8.1964 Y-14.9847
G01 X8.2081 Y-15.0065
G01 X8.2213 Y-15.0263
G01 X8.2365 Y-15.0447
G01 X8.2518 Y-15.0600
G01 X8.2702 Y-15.0752
G01 X8.2836 Y-15.0845
G01 X8.3023 Y-15.0954
G01 X8.3253 Y-15.1060
G01 X9.8674 Y-15.6413
G01 X9.8655 Y-15.6583
G01 X9.8616 Y-15.7116
G01 X9.8604 Y-15.7629
G01 X9.8617 Y-15.8164
G01 X9.8659 Y-15.8719
G01 X9.8722 Y-15.9228
G01 X9.8813 Y-15.9755
G01 X9.8931 Y-16.0277
G01 X9.9067 Y-16.0772
G01 X9.9241 Y-16.1301
G01 X9.9434 Y-16.1800
G01 X9.9641 Y-16.2269
G01 X9.9891 Y-16.2767
G01 X10.0155 Y-16.3233
G01 X10.0429 Y-16.3666
G01 X10.0749 Y-16.4122
G01 X10.1092 Y-16.4561
G01 X10.1428 Y-16.4949
G01 X10.1797 Y-16.5336
G01 X10.2201 Y-16.5720
G01 X10.2589 Y-16.6055
G01 X10.3011 Y-16.6384
G01 X10.3467 Y-16.6704
G01 X10.3900 Y-16.6978
G01 X10.4346 Y-16.7231
G01 X10.4844 Y-16.7482
G01 X10.5353 Y-16.7707
G01 X10.5832 Y-16.7892
G01 X10.6319 Y-16.8053
G01 X10.6856 Y-16.8202
G01 X10.7378 Y-16.8320
G01 X10.7927 Y-16.8414
G01 X10.8436 Y-16.8477
G01 X10.8947 Y-16.8515
G01 X10.9504 Y-16.8529
G01 X11.0039 Y-16.8516
G01 X11.0572 Y-16.8477
G01 X11.1103 Y-16.8411
G01 X11.1652 Y-16.8315
G01 X11.2152 Y-16.8202
G01 X11.2689 Y-16.8053
G01 X11.3197 Y-16.7884
G01 X11.3675 Y-16.7699
G01 X11.4050 Y-16.7534
G01 X15.2867 Y-16.7534
G01 X15.3353 Y-16.7522
G01 X15.3816 Y-16.7488
G01 X15.4320 Y-16.7426
G01 X15.4821 Y-16.7339
G01 X15.5274 Y-16.7237
G01 X15.5721 Y-16.7113
G01 X15.6204 Y-16.6955
G01 X15.6657 Y-16.6780
G01 X15.7122 Y-16.6573
G01 X15.7536 Y-16.6364
G01 X15.7940 Y-16.6135
G01 X15.8369 Y-16.5865
G01 X15.8767 Y-16.5584
G01 X15.9167 Y-16.5271
G01 X15.9518 Y-16.4968
G01 X15.9855 Y-16.4648
G01 X16.0206 Y-16.4280
G01 X16.0523 Y-16.3912
G01 X16.0835 Y-16.3511
G01 X16.1102 Y-16.3132
G01 X16.1351 Y-16.2740
G01 X16.1591 Y-16.2317
G01 X16.1821 Y-16.1864
G01 X16.2018 Y-16.1419
G01 X16.2193 Y-16.0966
G01 X16.2351 Y-16.0483
G01 X16.2480 Y-16.0014
G01 X16.2581 Y-15.9561
G01 X16.2661 Y-15.9104
G01 X16.2724 Y-15.8600
G01 X16.2760 Y-15.8093
G01 X16.2772 Y-15.7629
G01 X16.2760 Y-15.7165
G01 X16.2726 Y-15.6680
G01 X16.2664 Y-15.6176
G01 X16.2581 Y-15.5697
G01 X16.2475 Y-15.5222
G01 X16.2338 Y-15.4733
G01 X16.2193 Y-15.4292
G01 X16.2026 Y-15.3859
G01 X16.1821 Y-15.3394
G01 X16.1602 Y-15.2960
G01 X16.1351 Y-15.2518
G01 X16.1102 Y-15.2126
G01 X16.0835 Y-15.1747
G01 X16.0524 Y-15.1347
G01 X16.0206 Y-15.0978
G01 X15.9855 Y-15.0610
G01 X15.9502 Y-15.0276
G01 X15.9150 Y-14.9973
G01 X15.8785 Y-14.9687
G01 X15.8370 Y-14.9394
G01 X15.7959 Y-14.9134
G01 X15.7536 Y-14.8894
G01 X15.7082 Y-14.8666
G01 X15.6637 Y-14.8470
G01 X15.6204 Y-14.8303
G01 X15.5763 Y-14.8158
G01 X15.5274 Y-14.8021
G01 X15.4799 Y-14.7915
G01 X15.4320 Y-14.7832
G01 X15.3838 Y-14.7772
G01 X15.3353 Y-14.7736
G01 X15.2867 Y-14.7724
G01 X11.4050 Y-14.7724
G01 X11.3675 Y-14.7559
G01 X11.3196 Y-14.7374
G01 X11.2689 Y-14.7205
G01 X11.2152 Y-14.7056
G01 X11.1630 Y-14.6938
G01 X11.1081 Y-14.6844
G01 X11.0572 Y-14.6781
G01 X11.0061 Y-14.6743
G01 X10.9504 Y-14.6729
G01 X10.8947 Y-14.6743
G01 X10.8436 Y-14.6781
G01 X10.7927 Y-14.6844
G01 X10.7399 Y-14.6934
G01 X10.6856 Y-14.7056
G01 X10.6340 Y-14.7198
G01 X10.5832 Y-14.7366
G01 X10.5312 Y-14.7567
G01 X10.4844 Y-14.7776
G01 X10.4385 Y-14.8006
G01 X10.3909 Y-14.8274
G01 X10.3448 Y-14.8566
G01 X10.2993 Y-14.8887
G01 X10.2589 Y-14.9203
G01 X10.2201 Y-14.9538
G01 X10.1797 Y-14.9922
G01 X10.1428 Y-15.0309
G01 X10.1064 Y-15.0731
G01 X10.0736 Y-15.1154
G01 X10.0441 Y-15.1573
G01 X10.0249 Y-15.1877
G01 X8.6547 Y-14.7123
G01 X8.6660 Y-12.4961
G01 X8.6685 Y-12.4844
G01 X8.6695 Y-12.4713
G01 X8.6695 Y-10.4713
G01 X8.6685 Y-10.4582
G01 X8.6643 Y-10.4411
G01 X8.6590 Y-10.4291
G01 X8.6515 Y-10.4173
G01 X8.6431 Y-10.4077
G01 X8.6306 Y-10.3972
G01 X8.6178 Y-10.3898
G01 X8.6055 Y-10.3851
G01 X8.5926 Y-10.3823
G01 X8.5795 Y-10.3813
G01 X8.2795 Y-10.3813
G01 X8.2664 Y-10.3823
G01 X8.2535 Y-10.3851
G01 X8.2412 Y-10.3898
G01 X8.2284 Y-10.3972
G01 X8.2192 Y-10.4045
G01 X8.2097 Y-10.4145
G01 X8.2026 Y-10.4246
G01 X8.1980 Y-10.4330
G01 X8.1933 Y-10.4453
G01 X8.1905 Y-10.4582
G01 X8.1895 Y-10.4713
G01 X8.1895 Y-11.7842
G00 Z3.0000
G00 X8.6895 Y-12.4713
G01 F80.00
G01 Z-0.0800
G01 F50.00
G01 X8.6899 Y-13.5452
G01 X8.6922 Y-13.5681
G01 X8.6963 Y-13.5896
G01 X8.7006 Y-13.6052
G01 X8.7079 Y-13.6253
G01 X8.7170 Y-13.6446
G01 X8.7249 Y-13.6587
G01 X8.7369 Y-13.6764
G01 X8.7516 Y-13.6944
G01 X8.7685 Y-13.7113
G01 X8.7867 Y-13.7262
G01 X8.8063 Y-13.7393
G01 X8.8271 Y-13.7504
G01 X8.8488 Y-13.7594
G01 X8.8714 Y-13.7663
G01 X8.8940 Y-13.7708
G01 X8.9157 Y-13.7731
G01 X9.8028 Y-13.7735
G01 X9.8260 Y-13.7724
G01 X9.8511 Y-13.7686
G01 X9.8715 Y-13.7635
G01 X9.8933 Y-13.7558
G01 X9.9144 Y-13.7460
G01 X9.9335 Y-13.7348
G01 X12.0573 Y-12.3433
G01 X12.0961 Y-12.3500
G01 X12.1487 Y-12.3564
G01 X12.2021 Y-12.3604
G01 X12.2545 Y-12.3617
G01 X14.2556 Y-12.3617
G01 X14.3069 Y-12.3605
G01 X14.3625 Y-12.3564
G01 X14.4156 Y-12.3499
G01 X14.4683 Y-12.3407
G01 X14.5206 Y-12.3290
G01 X14.5722 Y-12.3147
G01 X14.6230 Y-12.2980
G01 X14.6729 Y-12.2787
G01 X14.7236 Y-12.2561
G01 X14.7697 Y-12.2329
G01 X14.8162 Y-12.2066
G01 X14.8614 Y-12.1780
G01 X14.9034 Y-12.1484
G01 X14.9491 Y-12.1127
G01 X14.9879 Y-12.0792
G01 X15.0267 Y-12.0423
G01 X15.0636 Y-12.0035
G01 X15.0971 Y-11.9647
G01 X15.1328 Y-11.9190
G01 X15.1624 Y-11.8770
G01 X15.1910 Y-11.8318
G01 X15.2173 Y-11.7853
G01 X15.2405 Y-11.7392
G01 X15.2631 Y-11.6885
G01 X15.2816 Y-11.6406
G01 X15.2998 Y-11.5856
G01 X15.3134 Y-11.5362
G01 X15.3251 Y-11.4839
G01 X15.3343 Y-11.4312
G01 X15.3406 Y-11.3803
G01 X15.3449 Y-11.3225
G01 X15.3461 Y-11.2712
G01 X15.3448 Y-11.2177
G01 X15.3408 Y-11.1643
G01 X15.3346 Y-11.1134
G01 X15.3247 Y-11.0563
G01 X15.3134 Y-11.0062
G01 X15.2998 Y-10.9568
G01 X15.2824 Y-10.9038
G01 X15.2622 Y-10.8519
G01 X15.2414 Y-10.8050
G01 X15.2173 Y-10.7571
G01 X15.1898 Y-10.7087
G01 X15.1623 Y-10.6654
G01 X15.1315 Y-10.6216
G01 X15.0971 Y-10.5777
G01 X15.0636 Y-10.5389
G01 X15.0282 Y-10.5017
G01 X14.9863 Y-10.4617
G01 X14.9473 Y-10.4281
G01 X14.9052 Y-10.3953
G01 X14.8596 Y-10.3633
G01 X14.8162 Y-10.3358
G01 X14.7716 Y-10.3105
G01 X14.7218 Y-10.2854
G01 X14.6709 Y-10.2629
G01 X14.6230 Y-10.2444
G01 X14.5743 Y-10.2283
G01 X14.5184 Y-10.2129
G01 X14.4662 Y-10.2012
G01 X14.4156 Y-10.1925
G01 X14.3647 Y-10.1862
G01 X14.3091 Y-10.1820
G01 X14.2567 Y-10.1807
G01 X12.2545 Y-10.1807
G01 X12.2021 Y-10.1820
G01 X12.1487 Y-10.1860
G01 X12.0956 Y-10.1925
G01 X12.0450 Y-10.2012
G01 X11.9885 Y-10.2139
G01 X11.9390 Y-10.2277
G01 X11.8882 Y-10.2444
G01 X11.8363 Y-10.2646
G01 X11.7894 Y-10.2854
G01 X11.7435 Y-10.3084
G01 X11.6950 Y-10.3358
G01 X11.6479 Y-10.3657
G01 X11.6060 Y-10.3953
G01 X11.5655 Y-10.4269
G01 X11.5233 Y-10.4632
G01 X11.4830 Y-10.5017
G01 X11.4476 Y-10.5389
G01 X11.4141 Y-10.5777
G01 X11.3797 Y-10.6216
G01 X11.3477 Y-10.6672
G01 X11.3202 Y-10.7106
G01 X11.2949 Y-10.7552
G01 X11.2698 Y-10.8050
G01 X11.2473 Y-10.8559
G01 X11.2288 Y-10.9038
G01 X11.2127 Y-10.9525
G01 X11.1978 Y-11.0062
G01 X11.1856 Y-11.0606
G01 X11.1769 Y-11.1112
G01 X11.1706 Y-11.1621
G01 X11.1664 Y-11.2177
G01 X11.1651 Y-11.2734
G01 X11.1664 Y-11.3247
G01 X11.1702 Y-11.3759
G01 X11.1769 Y-11.4312
G01 X11.1865 Y-11.4861
G01 X11.1978 Y-11.5362
G01 X11.2114 Y-11.5856
G01 X11.2288 Y-11.6386
G01 X11.2490 Y-11.6905
G01 X11.2698 Y-11.7374
G01 X11.2928 Y-11.7833
G01 X11.3202 Y-11.8318
G01 X11.3501 Y-11.8789
G01 X11.3797 Y-11.9208
G01 X11.4113 Y-11.9613
G01 X11.4474 Y-12.0033
G01 X11.4861 Y-12.0438
G01 X11.5233 Y-12.0792
G01 X11.5496 Y-12.1019
G01 X9.7312 Y-13.2933
G01 X9.1698 Y-13.2933
G01 X9.1695 Y-10.4713
G01 X9.1685 Y-10.4582
G01 X9.1657 Y-10.4453
G01 X9.1610 Y-10.4330
G01 X9.1536 Y-10.4202
G01 X9.1463 Y-10.4110
G01 X9.1363 Y-10.4015
G01 X9.1262 Y-10.3944
G01 X9.1138 Y-10.3881
G01 X9.0975 Y-10.3831
G01 X9.0795 Y-10.3813
G01 X8.7795 Y-10.3813
G01 X8.7615 Y-10.3831
G01 X8.7452 Y-10.3881
G01 X8.7328 Y-10.3944
G01 X8.7192 Y-10.4045
G01 X8.7097 Y-10.4145
G01 X8.7000 Y-10.4291
G01 X8.6947 Y-10.4411
G01 X8.6913 Y-10.4533
G01 X8.6896 Y-10.4681
G01 X8.6895 Y-12.4713
G00 Z3.0000
G00 X9.1896 Y-12.4757
G01 F80.00
G01 Z-0.0800
G01 F50.00
G01 X9.1913 Y-12.4893
G01 X9.1947 Y-12.5015
G01 X9.2000 Y-12.5135
G01 X9.2054 Y-12.5224
G01 X9.2127 Y-12.5316
G01 X9.2227 Y-12.5411
G01 X9.2328 Y-12.5482
G01 X9.2452 Y-12.5545
G01 X9.2615 Y-12.5595
G01 X9.2751 Y-12.5612
G01 X9.3831 Y-12.5613
G01 X9.4025 Y-12.5768
G01 X9.4305 Y-12.5954
G01 X9.4597 Y-12.6109
G01 X9.4919 Y-12.6241
G01 X9.5218 Y-12.6330
G01 X9.5550 Y-12.6396
G01 X9.5877 Y-12.6428
G01 X9.6211 Y-12.6428
G01 X9.6399 Y-12.6413
G01 X9.6686 Y-12.6371
G01 X9.6870 Y-12.6330
G01 X9.7052 Y-12.6279
G01 X9.7325 Y-12.6182
G01 X9.7498 Y-12.6106
G01 X9.7667 Y-12.6020
G01 X9.7934 Y-12.5859
G01 X9.8088 Y-12.5750
G01 X9.8326 Y-12.5553
G01 X9.8464 Y-12.5420
G01 X9.8659 Y-12.5206
G01 X9.8776 Y-12.5057
G01 X9.8884 Y-12.4902
G01 X9.9033 Y-12.4654
G01 X9.9122 Y-12.4478
G01 X9.9246 Y-12.4177
G01 X9.9348 Y-12.3836
G01 X9.9384 Y-12.3673
G01 X9.9426 Y-12.3386
G01 X9.9445 Y-12.3053
G01 X9.9445 Y-10.8204
G01 X12.2079 Y-9.3444
G01 X12.2556 Y-9.3455
G01 X14.2556 Y-9.3455
G01 X14.3091 Y-9.3442
G01 X14.3625 Y-9.3402
G01 X14.4178 Y-9.3333
G01 X14.4683 Y-9.3245
G01 X14.5206 Y-9.3128
G01 X14.5722 Y-9.2985
G01 X14.6209 Y-9.2825
G01 X14.6729 Y-9.2625
G01 X14.7218 Y-9.2408
G01 X14.7677 Y-9.2178
G01 X14.8162 Y-9.1904
G01 X14.8633 Y-9.1605
G01 X14.9052 Y-9.1309
G01 X14.9474 Y-9.0980
G01 X14.9879 Y-9.0630
G01 X15.0267 Y-9.0261
G01 X15.0636 Y-8.9873
G01 X15.0986 Y-8.9468
G01 X15.1315 Y-8.9046
G01 X15.1623 Y-8.8608
G01 X15.1910 Y-8.8156
G01 X15.2173 Y-8.7691
G01 X15.2414 Y-8.7212
G01 X15.2631 Y-8.6723
G01 X15.2824 Y-8.6224
G01 X15.2991 Y-8.5716
G01 X15.3134 Y-8.5200
G01 X15.3251 Y-8.4677
G01 X15.3343 Y-8.4150
G01 X15.3408 Y-8.3619
G01 X15.3448 Y-8.3085
G01 X15.3461 Y-8.2550
G01 X15.3448 Y-8.2015
G01 X15.3408 Y-8.1481
G01 X15.3343 Y-8.0950
G01 X15.3251 Y-8.0423
G01 X15.3134 Y-7.9900
G01 X15.2991 Y-7.9384
G01 X15.2824 Y-7.8876
G01 X15.2631 Y-7.8377
G01 X15.2414 Y-7.7888
G01 X15.2173 Y-7.7409
G01 X15.1910 Y-7.6944
G01 X15.1623 Y-7.6492
G01 X15.1315 Y-7.6054
G01 X15.0986 Y-7.5632
G01 X15.0636 Y-7.5227
G01 X15.0267 Y-7.4839
G01 X14.9879 Y-7.4470
G01 X14.9457 Y-7.4107
G01 X14.9052 Y-7.3791
G01 X14.8633 Y-7.3495
G01 X14.8181 Y-7.3208
G01 X14.7697 Y-7.2933
G01 X14.7238 Y-7.2702
G01 X14.6729 Y-7.2475
G01 X14.6230 Y-7.2282
G01 X14.5722 Y-7.2115
G01 X14.5206 Y-7.1972
G01 X14.4683 Y-7.1855
G01 X14.4156 Y-7.1763
G01 X14.3625 Y-7.1698
G01 X14.3091 Y-7.1658
G01 X14.2556 Y-7.1645
G01 X12.2556 Y-7.1645
G01 X12.2021 Y-7.1658
G01 X12.1487 Y-7.1698
G01 X12.0934 Y-7.1767
G01 X12.0429 Y-7.1855
G01 X11.9906 Y-7.1972
G01 X11.9369 Y-7.2121
G01 X11.8882 Y-7.2282
G01 X11.8383 Y-7.2475
G01 X11.7874 Y-7.2702
G01 X11.7415 Y-7.2933
G01 X11.6950 Y-7.3196
G01 X11.6479 Y-7.3495
G01 X11.6060 Y-7.3791
G01 X11.5638 Y-7.4120
G01 X11.5233 Y-7.4470
G01 X11.4845 Y-7.4839
G01 X11.4476 Y-7.5227
G01 X11.4126 Y-7.5632
G01 X11.3797 Y-7.6054
G01 X11.3488 Y-7.6492
G01 X11.3202 Y-7.6944
G01 X11.2928 Y-7.7429
G01 X11.2698 Y-7.7888
G01 X11.2473 Y-7.8397
G01 X11.2281 Y-7.8897
G01 X11.2121 Y-7.9384
G01 X11.1983 Y-7.9879
G01 X11.1861 Y-8.0423
G01 X11.1769 Y-8.0950
G01 X11.1704 Y-8.1481
G01 X11.1664 Y-8.2015
G01 X11.1651 Y-8.2550
G01 X11.1664 Y-8.3085
G01 X11.1704 Y-8.3619
G01 X11.1769 Y-8.4150
G01 X11.1861 Y-8.4677
G01 X11.1978 Y-8.5200
G01 X11.2121 Y-8.5716
G01 X11.2296 Y-8.6244
G01 X11.2481 Y-8.6723
G01 X11.2698 Y-8.7212
G01 X11.2939 Y-8.7691
G01 X11.3214 Y-8.8175
G01 X11.3489 Y-8.8608
G01 X11.3810 Y-8.9064
G01 X11.4141 Y-8.9485
G01 X11.4474 Y-8.9871
G01 X11.4715 Y-9.0125
G01 X9.4186 Y-10.3513
G01 X9.4029 Y-10.3622
G01 X9.3792 Y-10.3813
G01 X9.2763 Y-10.3814
G01 X9.2664 Y-10.3823
G01 X9.2535 Y-10.3851
G01 X9.2373 Y-10.3918
G01 X9.2284 Y-10.3972
G01 X9.2192 Y-10.4045
G01 X9.2075 Y-10.4173
G01 X9.1980 Y-10.4330
G01 X9.1947 Y-10.4411
G01 X9.1913 Y-10.4533
G01 X9.1895 Y-10.4713
G01 X9.1896 Y-12.4757
G00 Z3.0000
G00 X9.2598 Y-12.6713
G01 F80.00
G01 Z-0.0800
G01 F50.00
G01 X9.2598 Y-12.6502
G01 X9.2868 Y-12.6513
G01 X9.2719 Y-12.6614
G01 X9.2598 Y-12.6713
G00 Z3.0000
G00 X8.7491 Y-13.8448
G01 F80.00
G01 Z-0.0800
G01 F50.00
G01 X8.7493 Y-13.8098
G01 X8.7756 Y-13.8253
G01 X8.7624 Y-13.8341
G01 X8.7491 Y-13.8448
G00 Z3.0000
G00 X8.0908 Y-13.4951
G01 F80.00
G01 Z-0.0800
G01 F50.00
G01 X8.0895 Y-13.7493
G01 X8.0750 Y-13.7374
G01 X8.0573 Y-13.7260
G01 X8.0412 Y-13.7179
G01 X8.0208 Y-13.7104
G01 X8.0042 Y-13.7062
G01 X7.9858 Y-13.7035
G01 X7.9641 Y-13.7027
G01 X7.9461 Y-13.7041
G01 X8.0908 Y-13.4951
G00 Z3.0000
G00 X11.4031 Y-12.0873
G01 F80.00
G01 Z-0.0800
G01 F50.00
G01 X11.4048 Y-12.0892
G01 X11.4026 Y-12.0907
G01 X11.4031 Y-12.0873
G00 Z3.0000
G00 X9.1896 Y-8.0757
G01 F80.00
G01 Z-0.0800
G01 F50.00
G01 X9.1913 Y-8.0893
G01 X9.1963 Y-8.1056
G01 X9.2026 Y-8.1180
G01 X9.2127 Y-8.1316
G01 X9.2255 Y-8.1433
G01 X9.2373 Y-8.1508
G01 X9.2535 Y-8.1575
G01 X9.2664 Y-8.1603
G01 X9.2795 Y-8.1613
G01 X9.5795 Y-8.1613
G01 X9.5981 Y-8.1593
G01 X9.6269 Y-8.1648
G01 X9.6646 Y-8.1685
G01 X9.7006 Y-8.1686
G01 X9.7241 Y-8.1668
G01 X9.7431 Y-8.1644
G01 X9.7763 Y-8.1578
G01 X9.7970 Y-8.1522
G01 X9.8151 Y-8.1461
G01 X9.8330 Y-8.1393
G01 X9.8523 Y-8.1306
G01 X9.8696 Y-8.1218
G01 X9.8986 Y-8.1044
G01 X9.9161 Y-8.0922
G01 X9.9312 Y-8.0804
G01 X9.9457 Y-8.0679
G01 X9.9611 Y-8.0531
G01 X9.9742 Y-8.0392
G01 X9.9957 Y-8.0130
G01 X10.0081 Y-7.9956
G01 X10.0189 Y-7.9785
G01 X10.0288 Y-7.9608
G01 X10.0433 Y-7.9301
G01 X10.0510 Y-7.9102
G01 X10.0571 Y-7.8921
G01 X10.0622 Y-7.8736
G01 X10.0668 Y-7.8527
G01 X10.0717 Y-7.8192
G01 X10.0734 Y-7.7979
G01 X10.0739 Y-6.5619
G01 X13.3639 Y-5.5871
G01 X13.3965 Y-5.6180
G01 X13.4353 Y-5.6515
G01 X13.4774 Y-5.6846
G01 X13.5230 Y-5.7167
G01 X13.5663 Y-5.7442
G01 X13.6147 Y-5.7717
G01 X13.6626 Y-5.7958
G01 X13.7115 Y-5.8175
G01 X13.7594 Y-5.8360
G01 X13.8122 Y-5.8535
G01 X13.8638 Y-5.8678
G01 X13.9161 Y-5.8795
G01 X13.9688 Y-5.8887
G01 X14.0219 Y-5.8952
G01 X14.0753 Y-5.8992
G01 X14.1288 Y-5.9005
G01 X14.1801 Y-5.8993
G01 X14.2357 Y-5.8952
G01 X14.2888 Y-5.8887
G01 X14.3415 Y-5.8795
G01 X14.3937 Y-5.8678
G01 X14.4454 Y-5.8535
G01 X14.4962 Y-5.8368
G01 X14.5461 Y-5.8175
G01 X14.5950 Y-5.7958
G01 X14.6429 Y-5.7717
G01 X14.6894 Y-5.7454
G01 X14.7346 Y-5.7167
G01 X14.7784 Y-5.6859
G01 X14.8206 Y-5.6530
G01 X14.8611 Y-5.6180
G01 X14.8999 Y-5.5811
G01 X14.9353 Y-5.5440
G01 X14.9731 Y-5.5001
G01 X15.0047 Y-5.4596
G01 X15.0355 Y-5.4158
G01 X15.0642 Y-5.3706
G01 X15.0895 Y-5.3260
G01 X15.1155 Y-5.2742
G01 X15.1363 Y-5.2273
G01 X15.1556 Y-5.1774
G01 X15.1723 Y-5.1266
G01 X15.1861 Y-5.0771
G01 X15.1988 Y-5.0206
G01 X15.2075 Y-4.9700
G01 X15.2140 Y-4.9169
G01 X15.2180 Y-4.8635
G01 X15.2193 Y-4.8100
G01 X15.2193 Y-2.8078
G01 X15.2180 Y-2.7565
G01 X15.2140 Y-2.7031
G01 X15.2075 Y-2.6500
G01 X15.1979 Y-2.5951
G01 X15.1861 Y-2.5429
G01 X15.1723 Y-2.4934
G01 X15.1563 Y-2.4447
G01 X15.1363 Y-2.3927
G01 X15.1155 Y-2.3458
G01 X15.0905 Y-2.2959
G01 X15.0642 Y-2.2494
G01 X15.0355 Y-2.2042
G01 X15.0047 Y-2.1604
G01 X14.9718 Y-2.1182
G01 X14.9368 Y-2.0777
G01 X14.8999 Y-2.0389
G01 X14.8618 Y-2.0026
G01 X14.8206 Y-1.9670
G01 X14.7784 Y-1.9341
G01 X14.7346 Y-1.9033
G01 X14.6875 Y-1.8735
G01 X14.6429 Y-1.8483
G01 X14.5970 Y-1.8252
G01 X14.5481 Y-1.8034
G01 X14.4962 Y-1.7832
G01 X14.4454 Y-1.7665
G01 X14.3938 Y-1.7522
G01 X14.3415 Y-1.7405
G01 X14.2888 Y-1.7313
G01 X14.2335 Y-1.7246
G01 X14.1823 Y-1.7208
G01 X14.1266 Y-1.7195
G01 X14.0753 Y-1.7208
G01 X14.0241 Y-1.7246
G01 X13.9710 Y-1.7310
G01 X13.9161 Y-1.7405
G01 X13.8638 Y-1.7522
G01 X13.8122 Y-1.7665
G01 X13.7594 Y-1.7840
G01 X13.7115 Y-1.8025
G01 X13.6606 Y-1.8252
G01 X13.6128 Y-1.8493
G01 X13.5682 Y-1.8746
G01 X13.5248 Y-1.9021
G01 X13.4792 Y-1.9341
G01 X13.4370 Y-1.9670
G01 X13.3965 Y-2.0020
G01 X13.3577 Y-2.0389
G01 X13.3208 Y-2.0777
G01 X13.2857 Y-2.1183
G01 X13.2529 Y-2.1604
G01 X13.2209 Y-2.2060
G01 X13.1934 Y-2.2494
G01 X13.1681 Y-2.2940
G01 X13.1430 Y-2.3438
G01 X13.1205 Y-2.3947
G01 X13.1020 Y-2.4426
G01 X13.0859 Y-2.4913
G01 X13.0710 Y-2.5450
G01 X13.0588 Y-2.5994
G01 X13.0501 Y-2.6500
G01 X13.0438 Y-2.7009
G01 X13.0397 Y-2.7545
G01 X13.0383 Y-2.8100
G01 X13.0383 Y-4.8100
G01 X13.0400 Y-4.8692
G01 X9.5704 Y-5.8972
G01 X9.5523 Y-5.9033
G01 X9.5324 Y-5.9110
G01 X9.5151 Y-5.9188
G01 X9.4872 Y-5.9336
G01 X9.4690 Y-5.9448
G01 X9.4533 Y-5.9557
G01 X9.4378 Y-5.9677
G01 X9.4219 Y-5.9813
G01 X9.2795 Y-5.9813
G01 X9.2660 Y-5.9823
G01 X9.2493 Y-5.9865
G01 X9.2367 Y-5.9921
G01 X9.2257 Y-5.9991
G01 X9.2127 Y-6.0110
G01 X9.2024 Y-6.0248
G01 X9.1963 Y-6.0370
G01 X9.1913 Y-6.0533
G01 X9.1895 Y-6.0713
G01 X9.1896 Y-8.0757
G00 Z3.0000
G00 X7.0569 Y-8.2813
G01 F80.00
G01 Z-0.0800
G01 F50.00
G01 X7.0523 Y-8.2743
G01 X7.0444 Y-8.2649
G01 X7.0311 Y-8.2535
G01 X7.0194 Y-8.2466
G01 X6.9826 Y-8.2288
G01 X6.9608 Y-8.2165
G01 X6.9396 Y-8.2031
G01 X6.9191 Y-8.1887
G01 X6.8994 Y-8.1732
G01 X6.8804 Y-8.1569
G01 X6.8623 Y-8.1396
G01 X6.8450 Y-8.1215
G01 X6.8287 Y-8.1025
G01 X6.8132 Y-8.0828
G01 X6.7988 Y-8.0623
G01 X6.7854 Y-8.0411
G01 X6.7731 Y-8.0193
G01 X6.7618 Y-7.9970
G01 X6.7517 Y-7.9741
G01 X6.7427 Y-7.9507
G01 X6.7348 Y-7.9269
G01 X6.7281 Y-7.9028
G01 X6.7226 Y-7.8783
G01 X6.7183 Y-7.8537
G01 X6.7153 Y-7.8288
G01 X6.7134 Y-7.8038
G01 X6.7128 Y-7.7777
G01 X6.7127 Y-6.8765
G01 X6.7118 Y-6.8674
G01 X6.7089 Y-6.8544
G01 X6.7044 Y-6.8427
G01 X6.6979 Y-6.8310
G01 X4.2843 Y-3.8600
G01 X4.2712 Y-3.8480
G01 X4.2557 Y-3.8386
G01 X4.2437 Y-3.8340
G01 X4.2350 Y-3.8318
G01 X4.2173 Y-3.8301
G01 X2.4142 Y-3.8301
G01 X2.3537 Y-3.8286
G01 X2.2944 Y-3.8242
G01 X2.2355 Y-3.8169
G01 X2.1769 Y-3.8068
G01 X2.1189 Y-3.7937
G01 X2.0617 Y-3.7779
G01 X2.0053 Y-3.7593
G01 X1.9498 Y-3.7379
G01 X1.8955 Y-3.7138
G01 X1.8424 Y-3.6871
G01 X1.7907 Y-3.6578
G01 X1.7405 Y-3.6260
G01 X1.6919 Y-3.5918
G01 X1.6451 Y-3.5552
G01 X1.6001 Y-3.5164
G01 X1.5571 Y-3.4754
G01 X1.5161 Y-3.4324
G01 X1.4773 Y-3.3874
G01 X1.4407 Y-3.3406
G01 X1.4065 Y-3.2920
G01 X1.3747 Y-3.2418
G01 X1.3454 Y-3.1901
G01 X1.3187 Y-3.1370
G01 X1.2946 Y-3.0827
G01 X1.2732 Y-3.0272
G01 X1.2546 Y-2.9708
G01 X1.2388 Y-2.9136
G01 X1.2257 Y-2.8556
G01 X1.2156 Y-2.7970
G01 X1.2083 Y-2.7381
G01 X1.2039 Y-2.6788
G01 X1.2025 Y-2.6194
G01 X1.2039 Y-2.5600
G01 X1.2083 Y-2.5007
G01 X1.2156 Y-2.4418
G01 X1.2257 Y-2.3832
G01 X1.2388 Y-2.3252
G01 X1.2546 Y-2.2680
G01 X1.2732 Y-2.2116
G01 X1.2946 Y-2.1561
G01 X1.3187 Y-2.1018
G01 X1.3454 Y-2.0487
G01 X1.3747 Y-1.9970
G01 X1.4065 Y-1.9468
G01 X1.4407 Y-1.8982
G01 X1.4773 Y-1.8514
G01 X1.5161 Y-1.8064
G01 X1.5571 Y-1.7634
G01 X1.6001 Y-1.7224
G01 X1.6451 Y-1.6836
G01 X1.6919 Y-1.6470
G01 X1.7405 Y-1.6128
G01 X1.7907 Y-1.5810
G01 X1.8424 Y-1.5517
G01 X1.8955 Y-1.5250
G01 X1.9498 Y-1.5009
G01 X2.0053 Y-1.4795
G01 X2.0617 Y-1.4609
G01 X2.1189 Y-1.4451
G01 X2.1769 Y-1.4320
G01 X2.2355 Y-1.4219
G01 X2.2944 Y-1.4146
G01 X2.3537 Y-1.4102
G01 X2.4142 Y-1.4087
G01 X4.4120 Y-1.4087
G01 X4.4725 Y-1.4102
G01 X4.5318 Y-1.4146
G01 X4.5907 Y-1.4219
G01 X4.6493 Y-1.4320
G01 X4.7073 Y-1.4451
G01 X4.7645 Y-1.4609
G01 X4.8209 Y-1.4795
G01 X4.8764 Y-1.5009
G01 X4.9307 Y-1.5250
G01 X4.9838 Y-1.5517
G01 X5.0355 Y-1.5810
G01 X5.0857 Y-1.6128
G01 X5.1343 Y-1.6470
G01 X5.1811 Y-1.6836
G01 X5.2261 Y-1.7224
G01 X5.2691 Y-1.7634
G01 X5.3101 Y-1.8064
G01 X5.3489 Y-1.8514
G01 X5.3855 Y-1.8982
G01 X5.4197 Y-1.9468
G01 X5.4515 Y-1.9970
G01 X5.4808 Y-2.0487
G01 X5.5075 Y-2.1018
G01 X5.5316 Y-2.1561
G01 X5.5530 Y-2.2116
G01 X5.5716 Y-2.2680
G01 X5.5874 Y-2.3252
G01 X5.6005 Y-2.3832
G01 X5.6106 Y-2.4418
G01 X5.6179 Y-2.5007
G01 X5.6223 Y-2.5600
G01 X5.6237 Y-2.6194
G01 X5.6223 Y-2.6788
G01 X5.6179 Y-2.7381
G01 X5.6106 Y-2.7970
G01 X5.6005 Y-2.8556
G01 X5.5874 Y-2.9136
G01 X5.5716 Y-2.9708
G01 X5.5530 Y-3.0272
G01 X5.5316 Y-3.0827
G01 X5.5075 Y-3.1370
G01 X5.4808 Y-3.1901
G01 X5.4515 Y-3.2418
G01 X5.4197 Y-3.2920
G01 X5.3855 Y-3.3406
G01 X5.3489 Y-3.3874
G01 X5.3266 Y-3.4134
G01 X5.3212 Y-3.4213
G01 X5.3152 Y-3.4326
G01 X5.3120 Y-3.4410
G01 X5.3089 Y-3.4535
G01 X5.3078 Y-3.4631
G01 X5.3079 Y-3.4764
G01 X5.3101 Y-3.4896
G01 X5.3126 Y-3.4984
G01 X5.3179 Y-3.5106
G01 X5.3224 Y-3.5182
G01 X6.8575 Y-5.4083
G01 X6.8666 Y-5.4180
G01 X6.8740 Y-5.4241
G01 X6.8851 Y-5.4310
G01 X6.9022 Y-5.4380
G01 X6.9147 Y-5.4407
G01 X6.9242 Y-5.4415
G01 X6.9425 Y-5.4403
G01 X6.9554 Y-5.4371
G01 X6.9638 Y-5.4339
G01 X7.0049 Y-5.4125
G01 X7.0278 Y-5.4024
G01 X7.0512 Y-5.3934
G01 X7.0750 Y-5.3855
G01 X7.0991 Y-5.3788
G01 X7.1236 Y-5.3733
G01 X7.1482 Y-5.3690
G01 X7.1731 Y-5.3660
G01 X7.1981 Y-5.3641
G01 X7.2231 Y-5.3635
G01 X7.2481 Y-5.3641
G01 X7.2731 Y-5.3660
G01 X7.2980 Y-5.3690
G01 X7.3226 Y-5.3733
G01 X7.3471 Y-5.3788
G01 X7.3712 Y-5.3855
G01 X7.3950 Y-5.3934
G01 X7.4184 Y-5.4024
G01 X7.4510 Y-5.4173
G01 X7.4629 Y-5.4216
G01 X7.4802 Y-5.4246
G01 X7.4980 Y-5.4243
G01 X7.5145 Y-5.4207
G01 X7.5269 Y-5.4157
G01 X7.5383 Y-5.4091
G01 X7.5515 Y-5.3979
G01 X7.5624 Y-5.3844
G01 X7.5689 Y-5.3728
G01 X7.5747 Y-5.3564
G01 X7.5769 Y-5.3436
G01 X7.5773 Y-4.7488
G01 X7.5756 Y-4.7313
G01 X7.5721 Y-4.7186
G01 X7.5667 Y-4.7065
G01 X7.5620 Y-4.6986
G01 X7.5541 Y-4.6885
G01 X7.5445 Y-4.6793
G01 X7.5336 Y-4.6716
G01 X7.5256 Y-4.6673
G01 X7.5134 Y-4.6627
G01 X7.5002 Y-4.6597
G01 X7.4873 Y-4.6588
G01 X7.3512 Y-4.6588
G01 X7.3512 Y-0.8388
G01 X11.6937 Y-0.8388
G01 X11.6937 Y-3.3098
G01 X11.4737 Y-3.3098
G01 X11.4737 Y-3.0488
G01 X11.4719 Y-3.0309
G01 X11.4685 Y-3.0186
G01 X11.4631 Y-3.0064
G01 X11.4559 Y-2.9951
G01 X11.4473 Y-2.9852
G01 X11.4376 Y-2.9767
G01 X11.4259 Y-2.9693
G01 X11.4141 Y-2.9641
G01 X11.4013 Y-2.9605
G01 X11.3837 Y-2.9588
G01 X9.9837 Y-2.9588
G01 X9.9704 Y-2.9598
G01 X9.9533 Y-2.9641
G01 X9.9415 Y-2.9693
G01 X9.9298 Y-2.9767
G01 X9.9201 Y-2.9852
G01 X9.9091 Y-2.9985
G01 X9.9023 Y-3.0104
G01 X9.8964 Y-3.0268
G01 X9.8946 Y-3.0358
G01 X9.8937 Y-3.0488
G01 X9.8937 Y-3.3098
G01 X9.5293 Y-3.3099
G01 X9.5119 Y-3.3125
G01 X9.4953 Y-3.3184
G01 X9.4798 Y-3.3277
G01 X9.4670 Y-3.3394
G01 X9.4566 Y-3.3534
G01 X9.4505 Y-3.3655
G01 X9.4455 Y-3.3819
G01 X9.4437 Y-3.3998
G01 X9.4438 Y-4.0011
G01 X9.4446 Y-4.0108
G01 X9.4476 Y-4.0239
G01 X9.4523 Y-4.0362
G01 X9.4566 Y-4.0442
G01 X9.4641 Y-4.0548
G01 X9.4701 Y-4.0614
G01 X9.4837 Y-4.0726
G01 X9.4915 Y-4.0773
G01 X9.5033 Y-4.0825
G01 X9.5119 Y-4.0851
G01 X9.5247 Y-4.0874
G01 X9.8937 Y-4.0878
G01 X9.8938 Y-4.3532
G01 X9.8955 Y-4.3668
G01 X9.8989 Y-4.3790
G01 X9.9044 Y-4.3913
G01 X9.9091 Y-4.3991
G01 X9.9169 Y-4.4091
G01 X9.9230 Y-4.4153
G01 X9.9374 Y-4.4260
G01 X9.9535 Y-4.4336
G01 X9.9657 Y-4.4370
G01 X9.9747 Y-4.4384
G01 X10.2947 Y-4.4388
G01 X10.2947 Y-4.6588
G01 X8.4993 Y-4.6588
G01 X8.4785 Y-4.6535
G01 X8.4625 Y-4.6507
G01 X8.4413 Y-4.6487
G01 X8.4189 Y-4.6487
G01 X8.3942 Y-4.6510
G01 X8.3712 Y-4.6556
G01 X8.3486 Y-4.6625
G01 X8.3268 Y-4.6715
G01 X8.3061 Y-4.6826
G01 X8.2865 Y-4.6957
G01 X8.2683 Y-4.7106
G01 X8.2516 Y-4.7273
G01 X8.2367 Y-4.7455
G01 X8.2247 Y-4.7632
G01 X8.2167 Y-4.7773
G01 X8.2069 Y-4.7987
G01 X8.1996 Y-4.8194
G01 X8.1940 Y-4.8417
G01 X8.1906 Y-4.8650
G01 X8.1894 Y-4.8874
G01 X8.1895 Y-8.2813
G01 X7.3187 Y-8.2813
G01 X7.3075 Y-8.2820
G01 X7.2731 Y-8.2866
G01 X7.2481 Y-8.2885
G01 X7.2231 Y-8.2891
G01 X7.1981 Y-8.2885
G01 X7.1731 Y-8.2866
G01 X7.1313 Y-8.2814
G01 X7.0569 Y-8.2813
G00 Z3.0000
G00 X7.6074 Y-5.5860
G01 F80.00
G01 Z-0.0800
G01 F50.00
G01 X7.5936 Y-5.5683
G01 X7.5760 Y-5.5482
G01 X7.5595 Y-5.5312
G01 X7.5346 Y-5.5086
G01 X7.5517 Y-5.5030
G01 X7.5721 Y-5.4937
G01 X7.5912 Y-5.4819
G01 X7.6074 Y-5.4689
G01 X7.6074 Y-5.5860
G00 Z3.0000
G00 X7.6074 Y-4.6148
G01 F80.00
G01 Z-0.0800
G01 F50.00
G01 X7.5896 Y-4.6007
G01 X7.5740 Y-4.5911
G01 X7.5538 Y-4.5815
G01 X7.5334 Y-4.5748
G01 X7.5155 Y-4.5710
G01 X7.4991 Y-4.5692
G01 X7.4412 Y-4.5688
G01 X7.4412 Y-0.9288
G01 X11.6037 Y-0.9288
G01 X11.6037 Y-3.2198
G01 X11.5637 Y-3.2198
G01 X11.5637 Y-3.0488
G01 X11.5631 Y-3.0344
G01 X11.5606 Y-3.0154
G01 X11.5553 Y-2.9945
G01 X11.5475 Y-2.9741
G01 X11.5391 Y-2.9580
G01 X11.5269 Y-2.9397
G01 X11.5125 Y-2.9231
G01 X11.4971 Y-2.9090
G01 X11.4818 Y-2.8979
G01 X11.4625 Y-2.8870
G01 X11.4422 Y-2.8786
G01 X11.4210 Y-2.8727
G01 X11.3993 Y-2.8695
G01 X11.3837 Y-2.8688
G01 X9.9837 Y-2.8688
G01 X9.9681 Y-2.8695
G01 X9.9507 Y-2.8719
G01 X9.9295 Y-2.8772
G01 X9.9087 Y-2.8852
G01 X9.8894 Y-2.8955
G01 X9.8703 Y-2.9090
G01 X9.8549 Y-2.9231
G01 X9.8405 Y-2.9397
G01 X9.8283 Y-2.9580
G01 X9.8181 Y-2.9782
G01 X9.8135 Y-2.9904
G01 X9.8087 Y-3.0068
G01 X9.8060 Y-3.0203
G01 X9.8040 Y-3.0381
G01 X9.8037 Y-3.2198
G01 X9.5226 Y-3.2202
G01 X9.5007 Y-3.2229
G01 X9.4795 Y-3.2282
G01 X9.4587 Y-3.2362
G01 X9.4412 Y-3.2454
G01 X9.4410 Y-3.0405
G01 X9.4396 Y-3.0252
G01 X9.4372 Y-3.0110
G01 X9.4300 Y-2.9863
G01 X9.4211 Y-2.9661
G01 X9.4093 Y-2.9465
G01 X9.3961 Y-2.9297
G01 X9.3780 Y-2.9118
G01 X9.3593 Y-2.8979
G01 X9.3400 Y-2.8870
G01 X9.3197 Y-2.8786
G01 X9.2985 Y-2.8727
G01 X9.2813 Y-2.8699
G01 X9.2612 Y-2.8688
G01 X7.6612 Y-2.8688
G01 X7.6462 Y-2.8694
G01 X7.6323 Y-2.8712
G01 X7.6192 Y-2.8738
G01 X7.6029 Y-2.8785
G01 X7.5788 Y-2.8888
G01 X7.5593 Y-2.9005
G01 X7.5384 Y-2.9172
G01 X7.5206 Y-2.9364
G01 X7.5059 Y-2.9578
G01 X7.4994 Y-2.9700
G01 X7.4939 Y-2.9825
G01 X7.4862 Y-3.0068
G01 X7.4819 Y-3.0332
G01 X7.4812 Y-3.0488
G01 X7.4812 Y-4.3488
G01 X7.4819 Y-4.3644
G01 X7.4836 Y-4.3780
G01 X7.4895 Y-4.4029
G01 X7.4939 Y-4.4153
G01 X7.5012 Y-4.4312
G01 X7.5081 Y-4.4434
G01 X7.5157 Y-4.4547
G01 X7.5324 Y-4.4745
G01 X7.5418 Y-4.4835
G01 X7.5553 Y-4.4943
G01 X7.5666 Y-4.5019
G01 X7.5788 Y-4.5088
G01 X7.5947 Y-4.5161
G01 X7.6074 Y-4.5206
G01 X7.6074 Y-4.6148
G00 Z3.0000
G00 X7.5713 Y-4.3532
G01 F80.00
G01 Z-0.0800
G01 F50.00
G01 X7.5739 Y-4.3708
G01 X7.5780 Y-4.3831
G01 X7.5817 Y-4.3910
G01 X7.5866 Y-4.3991
G01 X7.5946 Y-4.4093
G01 X7.6007 Y-4.4154
G01 X7.6109 Y-4.4234
G01 X7.6269 Y-4.4320
G01 X7.6432 Y-4.4370
G01 X7.6596 Y-4.4388
G01 X7.6974 Y-4.4388
G01 X7.6974 Y-6.0344
G01 X7.6933 Y-6.0453
G01 X7.6913 Y-6.0533
G01 X7.6895 Y-6.0713
G01 X7.6895 Y-8.0713
G01 X7.6905 Y-8.0848
G01 X7.6933 Y-8.0973
G01 X7.6982 Y-8.1099
G01 X7.7045 Y-8.1210
G01 X7.7130 Y-8.1320
G01 X7.7227 Y-8.1411
G01 X7.7370 Y-8.1506
G01 X7.7493 Y-8.1561
G01 X7.7615 Y-8.1595
G01 X7.7795 Y-8.1613
G01 X8.0795 Y-8.1613
G01 X8.0926 Y-8.1603
G01 X8.1055 Y-8.1575
G01 X8.1217 Y-8.1508
G01 X8.1335 Y-8.1433
G01 X8.1463 Y-8.1316
G01 X8.1564 Y-8.1180
G01 X8.1627 Y-8.1056
G01 X8.1677 Y-8.0893
G01 X8.1694 Y-8.0745
G01 X8.1695 Y-7.1260
G01 X8.1753 Y-7.0974
G01 X8.1772 Y-7.0782
G01 X8.1776 Y-7.0644
G01 X8.1776 Y-4.4388
G01 X9.2628 Y-4.4388
G01 X9.2747 Y-4.4378
G01 X9.2832 Y-4.4361
G01 X9.2998 Y-4.4301
G01 X9.3150 Y-4.4210
G01 X9.3248 Y-4.4124
G01 X9.3310 Y-4.4056
G01 X9.3405 Y-4.3913
G01 X9.3460 Y-4.3790
G01 X9.3502 Y-4.3619
G01 X9.3512 Y-4.3488
G01 X9.3512 Y-3.0488
G01 X9.3503 Y-3.0358
G01 X9.3460 Y-3.0186
G01 X9.3406 Y-3.0064
G01 X9.3334 Y-2.9951
G01 X9.3279 Y-2.9884
G01 X9.3188 Y-2.9797
G01 X9.3034 Y-2.9693
G01 X9.2916 Y-2.9641
G01 X9.2830 Y-2.9615
G01 X9.2702 Y-2.9592
G01 X9.2612 Y-2.9588
G01 X7.6612 Y-2.9588
G01 X7.6479 Y-2.9598
G01 X7.6310 Y-2.9640
G01 X7.6190 Y-2.9693
G01 X7.6074 Y-2.9767
G01 X7.5945 Y-2.9884
G01 X7.5866 Y-2.9985
G01 X7.5819 Y-3.0063
G01 X7.5779 Y-3.0147
G01 X7.5739 Y-3.0268
G01 X7.5722 Y-3.0354
G01 X7.5712 Y-3.0472
G01 X7.5713 Y-4.3532
G00 Z3.0000
G00 X8.2676 Y-4.6009
G01 F80.00
G01 Z-0.0800
G01 F50.00
G01 X8.2676 Y-4.5288
G01 X9.2636 Y-4.5288
G01 X9.2814 Y-4.5277
G01 X9.2949 Y-4.5256
G01 X9.3112 Y-4.5217
G01 X9.3236 Y-4.5176
G01 X9.3405 Y-4.5104
G01 X9.3590 Y-4.4999
G01 X9.3745 Y-4.4886
G01 X9.3901 Y-4.4744
G01 X9.4046 Y-4.4576
G01 X9.4165 Y-4.4398
G01 X9.4249 Y-4.4236
G01 X9.4329 Y-4.4029
G01 X9.4389 Y-4.3774
G01 X9.4411 Y-4.3559
G01 X9.4412 Y-4.1522
G01 X9.4587 Y-4.1614
G01 X9.4795 Y-4.1694
G01 X9.5007 Y-4.1747
G01 X9.5226 Y-4.1774
G01 X9.8037 Y-4.1778
G01 X9.8037 Y-4.3504
G01 X9.8047 Y-4.3676
G01 X9.8069 Y-4.3823
G01 X9.8108 Y-4.3988
G01 X9.8149 Y-4.4112
G01 X9.8200 Y-4.4236
G01 X9.8262 Y-4.4358
G01 X9.8332 Y-4.4475
G01 X9.8428 Y-4.4608
G01 X9.8516 Y-4.4711
G01 X9.8638 Y-4.4831
G01 X9.8742 Y-4.4917
G01 X9.8859 Y-4.4999
G01 X9.9087 Y-4.5124
G01 X9.9337 Y-4.5217
G01 X9.9590 Y-4.5271
G01 X9.9829 Y-4.5288
G01 X10.2047 Y-4.5288
G01 X10.2047 Y-4.5688
G01 X8.5116 Y-4.5688
G01 X8.4913 Y-4.5643
G01 X8.4662 Y-4.5605
G01 X8.4451 Y-4.5588
G01 X8.4261 Y-4.5585
G01 X8.4015 Y-4.5596
G01 X8.3843 Y-4.5616
G01 X8.3659 Y-4.5646
G01 X8.3459 Y-4.5692
G01 X8.3224 Y-4.5763
G01 X8.3042 Y-4.5831
G01 X8.2875 Y-4.5906
G01 X8.2676 Y-4.6009
G00 Z3.0000
G00 X9.4978 Y-4.4788
G01 F80.00
G01 Z-0.0800
G01 F50.00
G01 X9.5091 Y-4.4558
G01 X9.5170 Y-4.4352
G01 X9.5235 Y-4.4128
G01 X9.5279 Y-4.3905
G01 X9.5302 Y-4.3717
G01 X9.5311 Y-4.3564
G01 X9.5312 Y-4.2678
G01 X9.7137 Y-4.2678
G01 X9.7138 Y-4.3564
G01 X9.7147 Y-4.3717
G01 X9.7170 Y-4.3905
G01 X9.7214 Y-4.4128
G01 X9.7279 Y-4.4352
G01 X9.7358 Y-4.4558
G01 X9.7471 Y-4.4788
G01 X9.4978 Y-4.4788
G01 X9.6190 Y-4.3886
G01 X9.6211 Y-4.3578
G01 X9.6238 Y-4.3578
G01 X9.6259 Y-4.3886
G01 X9.6190 Y-4.3886
G00 Z3.0000
G00 X11.0727 Y-4.6588
G01 F80.00
G01 Z-0.0800
G01 F50.00
G01 X11.0727 Y-4.4388
G01 X11.3853 Y-4.4388
G01 X11.3972 Y-4.4378
G01 X11.4057 Y-4.4361
G01 X11.4180 Y-4.4320
G01 X11.4265 Y-4.4280
G01 X11.4375 Y-4.4210
G01 X11.4444 Y-4.4153
G01 X11.4505 Y-4.4091
G01 X11.4583 Y-4.3991
G01 X11.4669 Y-4.3831
G01 X11.4710 Y-4.3708
G01 X11.4727 Y-4.3619
G01 X11.4737 Y-4.3488
G01 X11.4737 Y-4.0878
G01 X11.6937 Y-4.0878
G01 X11.6937 Y-4.6588
G01 X11.0727 Y-4.6588
G01 X11.1627 Y-4.5688
G01 X11.1627 Y-4.5288
G01 X11.3845 Y-4.5288
G01 X11.4084 Y-4.5271
G01 X11.4337 Y-4.5217
G01 X11.4587 Y-4.5124
G01 X11.4815 Y-4.4999
G01 X11.4932 Y-4.4917
G01 X11.5036 Y-4.4831
G01 X11.5158 Y-4.4711
G01 X11.5246 Y-4.4608
G01 X11.5342 Y-4.4475
G01 X11.5412 Y-4.4358
G01 X11.5474 Y-4.4236
G01 X11.5525 Y-4.4112
G01 X11.5566 Y-4.3988
G01 X11.5605 Y-4.3823
G01 X11.5627 Y-4.3676
G01 X11.5637 Y-4.3504
G01 X11.5637 Y-4.1778
G01 X11.6037 Y-4.1778
G01 X11.6037 Y-4.5688
G01 X11.1627 Y-4.5688
G00 Z3.0000
G00 X9.5966 Y-2.7488
G01 F80.00
G01 Z-0.0800
G01 F50.00
G01 X9.6225 Y-2.7171
G01 X9.6483 Y-2.7488
G01 X9.6225 Y-2.7805
G01 X9.5966 Y-2.7488
G01 X9.4601 Y-2.7488
G01 X9.4786 Y-2.7357
G01 X9.4955 Y-2.7221
G01 X9.5114 Y-2.7076
G01 X9.5258 Y-2.6929
G01 X9.5410 Y-2.6753
G01 X9.5531 Y-2.6594
G01 X9.5660 Y-2.6403
G01 X9.5755 Y-2.6243
G01 X9.5844 Y-2.6073
G01 X9.5928 Y-2.5890
G01 X9.5995 Y-2.5717
G01 X9.6066 Y-2.5503
G01 X9.6127 Y-2.5266
G01 X9.6168 Y-2.5046
G01 X9.6198 Y-2.4801
G01 X9.6210 Y-2.4590
G01 X9.6239 Y-2.4590
G01 X9.6251 Y-2.4801
G01 X9.6279 Y-2.5034
G01 X9.6315 Y-2.5232
G01 X9.6363 Y-2.5431
G01 X9.6429 Y-2.5646
G01 X9.6500 Y-2.5839
G01 X9.6590 Y-2.6042
G01 X9.6688 Y-2.6233
G01 X9.6789 Y-2.6403
G01 X9.6918 Y-2.6594
G01 X9.7039 Y-2.6753
G01 X9.7191 Y-2.6929
G01 X9.7335 Y-2.7076
G01 X9.7494 Y-2.7221
G01 X9.7663 Y-2.7357
G01 X9.7848 Y-2.7488
G01 X9.7663 Y-2.7619
G01 X9.7494 Y-2.7755
G01 X9.7335 Y-2.7900
G01 X9.7191 Y-2.8047
G01 X9.7039 Y-2.8223
G01 X9.6918 Y-2.8382
G01 X9.6789 Y-2.8573
G01 X9.6688 Y-2.8743
G01 X9.6590 Y-2.8934
G01 X9.6500 Y-2.9137
G01 X9.6429 Y-2.9330
G01 X9.6363 Y-2.9545
G01 X9.6313 Y-2.9755
G01 X9.6272 Y-2.9991
G01 X9.6250 Y-3.0186
G01 X9.6238 Y-3.0398
G01 X9.6211 Y-3.0398
G01 X9.6198 Y-3.0175
G01 X9.6168 Y-2.9930
G01 X9.6127 Y-2.9710
G01 X9.6072 Y-2.9494
G01 X9.6010 Y-2.9299
G01 X9.5932 Y-2.9096
G01 X9.5844 Y-2.8903
G01 X9.5755 Y-2.8733
G01 X9.5660 Y-2.8573
G01 X9.5531 Y-2.8382
G01 X9.5410 Y-2.8223
G01 X9.5258 Y-2.8047
G01 X9.5114 Y-2.7900
G01 X9.4955 Y-2.7755
G01 X9.4786 Y-2.7619
G01 X9.4601 Y-2.7488
G00 Z3.0000
G00 X9.6189 Y-1.1088
G01 F80.00
G01 Z-0.0800
G01 F50.00
G01 X9.6260 Y-1.1088
G01 X9.6239 Y-1.1386
G01 X9.6210 Y-1.1386
G01 X9.6189 Y-1.1088
G01 X9.7471 Y-1.0188
G01 X9.7358 Y-1.0419
G01 X9.7279 Y-1.0623
G01 X9.7214 Y-1.0848
G01 X9.7169 Y-1.1072
G01 X9.7147 Y-1.1259
G01 X9.7138 Y-1.1412
G01 X9.7137 Y-1.2286
G01 X9.5312 Y-1.2286
G01 X9.5311 Y-1.1412
G01 X9.5302 Y-1.1259
G01 X9.5280 Y-1.1072
G01 X9.5235 Y-1.0848
G01 X9.5170 Y-1.0623
G01 X9.5091 Y-1.0419
G01 X9.4978 Y-1.0188
G01 X9.7471 Y-1.0188
G00 Z3.0000
G00 X7.4814 Y-2.4576
G01 F80.00
G01 Z-0.0800
G01 F50.00
G01 X7.4829 Y-2.4734
G01 X7.4862 Y-2.4908
G01 X7.4909 Y-2.5071
G01 X7.4955 Y-2.5192
G01 X7.5015 Y-2.5318
G01 X7.5107 Y-2.5475
G01 X7.5206 Y-2.5612
G01 X7.5324 Y-2.5745
G01 X7.5447 Y-2.5860
G01 X7.5481 Y-2.5888
G01 X7.5517 Y-2.5917
G01 X7.5555 Y-2.5945
G01 X7.5669 Y-2.6021
G01 X7.5827 Y-2.6108
G01 X7.5988 Y-2.6176
G01 X7.6152 Y-2.6228
G01 X7.6323 Y-2.6264
G01 X7.6462 Y-2.6282
G01 X7.6612 Y-2.6288
G01 X9.2612 Y-2.6288
G01 X9.2768 Y-2.6281
G01 X9.3027 Y-2.6239
G01 X9.3240 Y-2.6175
G01 X9.3437 Y-2.6088
G01 X9.3632 Y-2.5971
G01 X9.3811 Y-2.5831
G01 X9.3990 Y-2.5645
G01 X9.4142 Y-2.5435
G01 X9.4250 Y-2.5235
G01 X9.4314 Y-2.5072
G01 X9.4362 Y-2.4908
G01 X9.4389 Y-2.4773
G01 X9.4409 Y-2.4595
G01 X9.4412 Y-2.2790
G01 X9.8037 Y-2.2790
G01 X9.8040 Y-2.4595
G01 X9.8060 Y-2.4773
G01 X9.8087 Y-2.4908
G01 X9.8135 Y-2.5072
G01 X9.8181 Y-2.5194
G01 X9.8283 Y-2.5396
G01 X9.8405 Y-2.5579
G01 X9.8549 Y-2.5745
G01 X9.8703 Y-2.5886
G01 X9.8856 Y-2.5997
G01 X9.9049 Y-2.6106
G01 X9.9252 Y-2.6190
G01 X9.9464 Y-2.6249
G01 X9.9636 Y-2.6277
G01 X9.9837 Y-2.6288
G01 X11.3837 Y-2.6288
G01 X11.3993 Y-2.6281
G01 X11.4124 Y-2.6265
G01 X11.4294 Y-2.6229
G01 X11.4422 Y-2.6190
G01 X11.4662 Y-2.6088
G01 X11.4780 Y-2.6021
G01 X11.4896 Y-2.5944
G01 X11.5095 Y-2.5775
G01 X11.5269 Y-2.5579
G01 X11.5414 Y-2.5355
G01 X11.5525 Y-2.5113
G01 X11.5597 Y-2.4866
G01 X11.5631 Y-2.4632
G01 X11.5637 Y-2.4488
G01 X11.5637 Y-1.1488
G01 X11.5631 Y-1.1344
G01 X11.5614 Y-1.1202
G01 X11.5587 Y-1.1068
G01 X11.5540 Y-1.0905
G01 X11.5436 Y-1.0661
G01 X11.5367 Y-1.0539
G01 X11.5292 Y-1.0429
G01 X11.5127 Y-1.0233
G01 X11.4934 Y-1.0061
G01 X11.4740 Y-0.9931
G01 X11.4508 Y-0.9818
G01 X11.4379 Y-0.9772
G01 X11.4252 Y-0.9737
G01 X11.3993 Y-0.9695
G01 X11.3837 Y-0.9688
G01 X9.9837 Y-0.9688
G01 X9.9593 Y-0.9705
G01 X9.9380 Y-0.9747
G01 X9.9166 Y-0.9818
G01 X9.8973 Y-0.9909
G01 X9.8778 Y-1.0032
G01 X9.8607 Y-1.0174
G01 X9.8433 Y-1.0362
G01 X9.8307 Y-1.0539
G01 X9.8199 Y-1.0741
G01 X9.8134 Y-1.0905
G01 X9.8087 Y-1.1068
G01 X9.8060 Y-1.1202
G01 X9.8040 Y-1.1381
G01 X9.8037 Y-1.3186
G01 X9.4412 Y-1.3186
G01 X9.4409 Y-1.1381
G01 X9.4389 Y-1.1202
G01 X9.4362 Y-1.1068
G01 X9.4315 Y-1.0905
G01 X9.4250 Y-1.0741
G01 X9.4142 Y-1.0539
G01 X9.3989 Y-1.0329
G01 X9.3811 Y-1.0146
G01 X9.3632 Y-1.0005
G01 X9.3437 Y-0.9888
G01 X9.3240 Y-0.9801
G01 X9.3027 Y-0.9737
G01 X9.2768 Y-0.9695
G01 X9.2612 Y-0.9688
G01 X7.6612 Y-0.9688
G01 X7.6459 Y-0.9695
G01 X7.6282 Y-0.9719
G01 X7.6113 Y-0.9759
G01 X7.5986 Y-0.9801
G01 X7.5824 Y-0.9870
G01 X7.5670 Y-0.9954
G01 X7.5557 Y-1.0030
G01 X7.5417 Y-1.0142
G01 X7.5293 Y-1.0264
G01 X7.5181 Y-1.0396
G01 X7.5082 Y-1.0539
G01 X7.5013 Y-1.0661
G01 X7.4939 Y-1.0824
G01 X7.4896 Y-1.0946
G01 X7.4852 Y-1.1109
G01 X7.4823 Y-1.1286
G01 X7.4813 Y-1.1441
G01 X7.4814 Y-2.4576
G01 X7.5713 Y-2.4532
G01 X7.5730 Y-2.4667
G01 X7.5764 Y-2.4790
G01 X7.5819 Y-2.4913
G01 X7.5890 Y-2.5025
G01 X7.5976 Y-2.5124
G01 X7.6074 Y-2.5209
G01 X7.6190 Y-2.5283
G01 X7.6310 Y-2.5336
G01 X7.6479 Y-2.5378
G01 X7.6612 Y-2.5388
G01 X9.2612 Y-2.5388
G01 X9.2745 Y-2.5378
G01 X9.2872 Y-2.5350
G01 X9.2996 Y-2.5302
G01 X9.3112 Y-2.5236
G01 X9.3219 Y-2.5153
G01 X9.3334 Y-2.5025
G01 X9.3406 Y-2.4912
G01 X9.3460 Y-2.4790
G01 X9.3494 Y-2.4667
G01 X9.3512 Y-2.4488
G01 X9.3512 Y-2.1890
G01 X9.8937 Y-2.1890
G01 X9.8937 Y-2.4488
G01 X9.8955 Y-2.4667
G01 X9.8989 Y-2.4790
G01 X9.9043 Y-2.4912
G01 X9.9115 Y-2.5025
G01 X9.9201 Y-2.5124
G01 X9.9298 Y-2.5209
G01 X9.9375 Y-2.5261
G01 X9.9491 Y-2.5319
G01 X9.9619 Y-2.5361
G01 X9.9747 Y-2.5384
G01 X9.9837 Y-2.5388
G01 X11.3861 Y-2.5388
G01 X11.4013 Y-2.5371
G01 X11.4183 Y-2.5319
G01 X11.4337 Y-2.5236
G01 X11.4473 Y-2.5124
G01 X11.4583 Y-2.4991
G01 X11.4669 Y-2.4831
G01 X11.4719 Y-2.4667
G01 X11.4736 Y-2.4521
G01 X11.4736 Y-1.1455
G01 X11.4727 Y-1.1357
G01 X11.4698 Y-1.1227
G01 X11.4651 Y-1.1104
G01 X11.4583 Y-1.0984
G01 X11.4504 Y-1.0884
G01 X11.4413 Y-1.0797
G01 X11.4299 Y-1.0715
G01 X11.4183 Y-1.0657
G01 X11.4013 Y-1.0605
G01 X11.3837 Y-1.0588
G01 X9.9837 Y-1.0588
G01 X9.9704 Y-1.0598
G01 X9.9577 Y-1.0626
G01 X9.9453 Y-1.0674
G01 X9.9337 Y-1.0740
G01 X9.9230 Y-1.0824
G01 X9.9116 Y-1.0950
G01 X9.9043 Y-1.1064
G01 X9.8989 Y-1.1186
G01 X9.8955 Y-1.1309
G01 X9.8937 Y-1.1488
G01 X9.8937 Y-1.4086
G01 X9.3512 Y-1.4086
G01 X9.3512 Y-1.1488
G01 X9.3494 Y-1.1309
G01 X9.3460 Y-1.1186
G01 X9.3406 Y-1.1064
G01 X9.3333 Y-1.0950
G01 X9.3249 Y-1.0853
G01 X9.3151 Y-1.0767
G01 X9.3034 Y-1.0693
G01 X9.2916 Y-1.0641
G01 X9.2788 Y-1.0605
G01 X9.2612 Y-1.0588
G01 X7.6612 Y-1.0588
G01 X7.6436 Y-1.0605
G01 X7.6268 Y-1.0657
G01 X7.6150 Y-1.0715
G01 X7.6039 Y-1.0794
G01 X7.5945 Y-1.0884
G01 X7.5866 Y-1.0984
G01 X7.5818 Y-1.1064
G01 X7.5764 Y-1.1186
G01 X7.5730 Y-1.1309
G01 X7.5713 Y-1.1444
G01 X7.5713 Y-2.4532
G01 X7.5312 Y-2.6854
G01 X7.5604 Y-2.6993
G01 X7.5912 Y-2.7095
G01 X7.6054 Y-2.7130
G01 X7.6237 Y-2.7162
G01 X7.6563 Y-2.7187
G01 X9.2612 Y-2.7188
G01 X9.2790 Y-2.7182
G01 X9.2989 Y-2.7161
G01 X9.3288 Y-2.7102
G01 X9.3544 Y-2.7022
G01 X9.3803 Y-2.6911
G01 X9.4036 Y-2.6782
G01 X9.4266 Y-2.6622
G01 X9.4492 Y-2.6426
G01 X9.4686 Y-2.6216
G01 X9.4864 Y-2.5977
G01 X9.5004 Y-2.5739
G01 X9.5116 Y-2.5496
G01 X9.5202 Y-2.5251
G01 X9.5263 Y-2.4999
G01 X9.5296 Y-2.4781
G01 X9.5310 Y-2.4598
G01 X9.5312 Y-2.3690
G01 X9.7137 Y-2.3690
G01 X9.7139 Y-2.4587
G01 X9.7153 Y-2.4781
G01 X9.7182 Y-2.4976
G01 X9.7230 Y-2.5190
G01 X9.7309 Y-2.5435
G01 X9.7414 Y-2.5679
G01 X9.7535 Y-2.5899
G01 X9.7683 Y-2.6116
G01 X9.7866 Y-2.6333
G01 X9.8047 Y-2.6509
G01 X9.8259 Y-2.6678
G01 X9.8472 Y-2.6817
G01 X9.8703 Y-2.6938
G01 X9.8948 Y-2.7037
G01 X9.9204 Y-2.7112
G01 X9.9525 Y-2.7170
G01 X9.9831 Y-2.7188
G01 X11.3885 Y-2.7188
G01 X11.4214 Y-2.7161
G01 X11.4534 Y-2.7096
G01 X11.4704 Y-2.7045
G01 X11.4853 Y-2.6989
G01 X11.5137 Y-2.6854
G01 X11.5137 Y-2.8122
G01 X11.4853 Y-2.7987
G01 X11.4704 Y-2.7931
G01 X11.4534 Y-2.7880
G01 X11.4214 Y-2.7815
G01 X11.3885 Y-2.7788
G01 X9.9837 Y-2.7788
G01 X9.9614 Y-2.7797
G01 X9.9417 Y-2.7821
G01 X9.9140 Y-2.7880
G01 X9.8884 Y-2.7962
G01 X9.8609 Y-2.8084
G01 X9.8375 Y-2.8218
G01 X9.8145 Y-2.8384
G01 X9.7942 Y-2.8565
G01 X9.7763 Y-2.8760
G01 X9.7585 Y-2.8999
G01 X9.7445 Y-2.9237
G01 X9.7333 Y-2.9480
G01 X9.7247 Y-2.9725
G01 X9.7186 Y-2.9977
G01 X9.7153 Y-3.0195
G01 X9.7139 Y-3.0378
G01 X9.7137 Y-3.1298
G01 X9.5312 Y-3.1298
G01 X9.5310 Y-3.0389
G01 X9.5296 Y-3.0195
G01 X9.5267 Y-3.0000
G01 X9.5219 Y-2.9786
G01 X9.5140 Y-2.9541
G01 X9.5035 Y-2.9297
G01 X9.4914 Y-2.9077
G01 X9.4766 Y-2.8860
G01 X9.4583 Y-2.8643
G01 X9.4402 Y-2.8467
G01 X9.4190 Y-2.8298
G01 X9.3957 Y-2.8147
G01 X9.3727 Y-2.8029
G01 X9.3479 Y-2.7931
G01 X9.3182 Y-2.7849
G01 X9.2902 Y-2.7804
G01 X9.2618 Y-2.7788
G01 X7.6563 Y-2.7789
G01 X7.6237 Y-2.7814
G01 X7.6054 Y-2.7846
G01 X7.5912 Y-2.7881
G01 X7.5604 Y-2.7983
G01 X7.5312 Y-2.8122
G01 X7.5312 Y-2.6854
G00 Z3.0000
G00 X17.0136 Y-0.0000
G01 F80.00
G01 Z-0.0800
G01 F50.00
G01 X-0.0000 Y0.0000
G01 X-0.0000 Y-19.0152
G01 X17.0136 Y-19.0152
G01 X17.0136 Y-0.0000
G00 Z3.0000
G00 X1.7291 Y-12.1074
G01 F80.00
G01 Z-0.0800
G01 F50.00
G01 X1.7492 Y-12.1800
G01 X1.7721 Y-12.2495
G01 X1.7984 Y-12.3177
G01 X1.8290 Y-12.3865
G01 X1.8609 Y-12.4499
G01 X1.8959 Y-12.5116
G01 X1.9349 Y-12.5734
G01 X1.9782 Y-12.6351
G01 X2.0232 Y-12.6927
G01 X2.0710 Y-12.7481
G01 X2.1230 Y-12.8026
G01 X2.1744 Y-12.8515
G01 X2.2281 Y-12.8979
G01 X2.2857 Y-12.9429
G01 X2.3472 Y-12.9864
G01 X2.4090 Y-13.0255
G01 X2.4726 Y-13.0616
G01 X2.5379 Y-13.0944
G01 X2.6048 Y-13.1241
G01 X2.6751 Y-13.1511
G01 X2.7425 Y-13.1733
G01 X2.8108 Y-13.1923
G01 X2.8822 Y-13.2084
G01 X2.9564 Y-13.2214
G01 X3.0290 Y-13.2303
G01 X3.1019 Y-13.2357
G01 X3.1750 Y-13.2375
G01 X3.2481 Y-13.2357
G01 X3.3232 Y-13.2301
G01 X3.3936 Y-13.2214
G01 X3.4635 Y-13.2093
G01 X3.5349 Y-13.1934
G01 X3.6074 Y-13.1734
G01 X3.6770 Y-13.1504
G01 X3.7452 Y-13.1241
G01 X3.8132 Y-13.0939
G01 X3.8793 Y-13.0605
G01 X3.9410 Y-13.0255
G01 X4.0009 Y-12.9876
G01 X4.0626 Y-12.9443
G01 X4.1219 Y-12.8979
G01 X4.1756 Y-12.8515
G01 X4.2270 Y-12.8026
G01 X4.2790 Y-12.7481
G01 X4.3282 Y-12.6910
G01 X4.3718 Y-12.6351
G01 X4.4126 Y-12.5771
G01 X4.4530 Y-12.5135
G01 X4.4901 Y-12.4479
G01 X4.5219 Y-12.3846
G01 X4.5507 Y-12.3197
G01 X4.5779 Y-12.2495
G01 X4.6015 Y-12.1779
G01 X4.6203 Y-12.1095
G01 X4.6359 Y-12.0403
G01 X4.6489 Y-11.9661
G01 X4.6578 Y-11.8935
G01 X4.6632 Y-11.8206
G01 X4.6650 Y-11.7475
G01 X4.6632 Y-11.6744
G01 X4.6576 Y-11.5993
G01 X4.6485 Y-11.5267
G01 X4.6364 Y-11.4568
G01 X4.6209 Y-11.3876
G01 X4.6008 Y-11.3150
G01 X4.5786 Y-11.2476
G01 X4.5516 Y-11.1773
G01 X4.5219 Y-11.1104
G01 X4.4891 Y-11.0451
G01 X4.4530 Y-10.9815
G01 X4.4139 Y-10.9197
G01 X4.3718 Y-10.8599
G01 X4.3268 Y-10.8023
G01 X4.2805 Y-10.7485
G01 X4.2655 Y-10.7326
G01 X4.2655 Y-10.0795
G01 X4.2642 Y-10.0271
G01 X4.2602 Y-9.9737
G01 X4.2537 Y-9.9206
G01 X4.2450 Y-9.8700
G01 X4.2324 Y-9.8141
G01 X4.2185 Y-9.7640
G01 X4.2018 Y-9.7132
G01 X4.1825 Y-9.6633
G01 X4.1650 Y-9.6238
G01 X6.8830 Y-9.6028
G01 X6.8830 Y-12.2238
G01 X6.8849 Y-12.2593
G01 X6.8892 Y-12.2884
G01 X6.8932 Y-12.3064
G01 X6.8983 Y-12.3246
G01 X6.9080 Y-12.3519
G01 X6.9234 Y-12.3846
G01 X6.9325 Y-12.4005
G01 X6.9486 Y-12.4246
G01 X6.9602 Y-12.4396
G01 X6.9726 Y-12.4538
G01 X6.9931 Y-12.4743
G01 X7.0073 Y-12.4867
G01 X7.0223 Y-12.4983
G01 X7.0464 Y-12.5144
G01 X7.0628 Y-12.5238
G01 X7.0797 Y-12.5322
G01 X7.1065 Y-12.5433
G01 X7.1240 Y-12.5492
G01 X7.1426 Y-12.5542
G01 X7.1710 Y-12.5599
G01 X7.1898 Y-12.5623
G01 X7.2086 Y-12.5636
G01 X7.2398 Y-12.5635
G01 X7.2695 Y-12.5607
G01 X7.2795 Y-12.5613
G01 X7.5795 Y-12.5613
G01 X7.5926 Y-12.5603
G01 X7.6097 Y-12.5561
G01 X7.6220 Y-12.5506
G01 X7.6363 Y-12.5411
G01 X7.6431 Y-12.5349
G01 X7.6517 Y-12.5251
G01 X7.6608 Y-12.5099
G01 X7.6668 Y-12.4933
G01 X7.6685 Y-12.4848
G01 X7.6695 Y-12.4729
G01 X7.6695 Y-10.4697
G01 X7.6685 Y-10.4578
G01 X7.6668 Y-10.4493
G01 X7.6608 Y-10.4327
G01 X7.6517 Y-10.4175
G01 X7.6431 Y-10.4077
G01 X7.6363 Y-10.4015
G01 X7.6260 Y-10.3942
G01 X7.6179 Y-10.3899
G01 X7.6015 Y-10.3840
G01 X7.5876 Y-10.3817
G01 X7.5632 Y-10.3813
G01 X7.5632 Y-9.5976
G01 X8.8926 Y-9.5873
G01 X8.9115 Y-9.5866
G01 X8.9425 Y-9.5832
G01 X8.9611 Y-9.5798
G01 X8.9912 Y-9.5719
G01 X9.0205 Y-9.5613
G01 X9.0378 Y-9.5535
G01 X9.0652 Y-9.5387
G01 X9.0811 Y-9.5285
G01 X9.0965 Y-9.5175
G01 X9.1204 Y-9.4974
G01 X9.1423 Y-9.4753
G01 X9.1546 Y-9.4609
G01 X9.1660 Y-9.4459
G01 X9.1831 Y-9.4198
G01 X9.1922 Y-9.4032
G01 X9.2052 Y-9.3749
G01 X9.2118 Y-9.3572
G01 X9.2206 Y-9.3273
G01 X9.2268 Y-9.2945
G01 X9.2299 Y-9.2591
G01 X9.2294 Y-9.2257
G01 X9.2280 Y-9.2091
G01 X9.2235 Y-9.1804
G01 X9.2147 Y-9.1460
G01 X9.2032 Y-9.1146
G01 X9.1887 Y-9.0846
G01 X9.1698 Y-9.0538
G01 X9.1695 Y-6.0713
G01 X9.1685 Y-6.0582
G01 X9.1643 Y-6.0411
G01 X9.1588 Y-6.0288
G01 X9.1493 Y-6.0145
G01 X9.1371 Y-6.0022
G01 X9.1223 Y-5.9921
G01 X9.1055 Y-5.9851
G01 X9.0885 Y-5.9817
G01 X8.7705 Y-5.9817
G01 X8.7535 Y-5.9851
G01 X8.7409 Y-5.9900
G01 X8.7298 Y-5.9963
G01 X8.7188 Y-6.0048
G01 X8.7097 Y-6.0145
G01 X8.7002 Y-6.0288
G01 X8.6947 Y-6.0411
G01 X8.6905 Y-6.0582
G01 X8.6895 Y-6.0713
G01 X8.6896 Y-8.9086
G01 X4.0705 Y-8.9443
G01 X4.0705 Y-8.6413
G01 X4.0688 Y-8.6237
G01 X4.0652 Y-8.6109
G01 X4.0600 Y-8.5991
G01 X4.0526 Y-8.5874
G01 X4.0441 Y-8.5777
G01 X4.0342 Y-8.5691
G01 X4.0229 Y-8.5619
G01 X4.0107 Y-8.5565
G01 X3.9984 Y-8.5531
G01 X3.9805 Y-8.5513
G01 X2.3805 Y-8.5513
G01 X2.3675 Y-8.5522
G01 X2.3503 Y-8.5565
G01 X2.3381 Y-8.5619
G01 X2.3235 Y-8.5717
G01 X2.3169 Y-8.5777
G01 X2.3084 Y-8.5874
G01 X2.2991 Y-8.6029
G01 X2.2932 Y-8.6195
G01 X2.2915 Y-8.6280
G01 X2.2905 Y-8.6389
G01 X2.2905 Y-9.4432
G01 X2.2683 Y-9.4748
G01 X2.2408 Y-9.5181
G01 X2.2133 Y-9.5665
G01 X2.1883 Y-9.6164
G01 X2.1675 Y-9.6633
G01 X2.1490 Y-9.7112
G01 X2.1315 Y-9.7640
G01 X2.1167 Y-9.8178
G01 X2.1055 Y-9.8679
G01 X2.0967 Y-9.9184
G01 X2.0898 Y-9.9729
G01 X2.0858 Y-10.0271
G01 X2.0845 Y-10.0795
G01 X2.0845 Y-10.7326
G01 X2.0695 Y-10.7485
G01 X2.0218 Y-10.8040
G01 X1.9782 Y-10.8599
G01 X1.9361 Y-10.9197
G01 X1.8959 Y-10.9834
G01 X1.8609 Y-11.0451
G01 X1.8281 Y-11.1104
G01 X1.7976 Y-11.1794
G01 X1.7721 Y-11.2455
G01 X1.7492 Y-11.3150
G01 X1.7291 Y-11.3876
G01 X1.7136 Y-11.4568
G01 X1.7015 Y-11.5267
G01 X1.6922 Y-11.6015
G01 X1.6868 Y-11.6744
G01 X1.6850 Y-11.7475
G01 X1.6868 Y-11.8206
G01 X1.6922 Y-11.8935
G01 X1.7011 Y-11.9661
G01 X1.7136 Y-12.0382
G01 X1.7291 Y-12.1074
G00 Z3.0000
G00 X0.9367 Y-16.0014
G01 F80.00
G01 Z-0.0800
G01 F50.00
G01 X0.9509 Y-16.0525
G01 X0.9654 Y-16.0966
G01 X0.9829 Y-16.1419
G01 X1.0036 Y-16.1884
G01 X1.0245 Y-16.2298
G01 X1.0485 Y-16.2721
G01 X1.0757 Y-16.3150
G01 X1.1025 Y-16.3529
G01 X1.1324 Y-16.3912
G01 X1.1641 Y-16.4280
G01 X1.1961 Y-16.4617
G01 X1.2345 Y-16.4982
G01 X1.2697 Y-16.5285
G01 X1.3062 Y-16.5571
G01 X1.3496 Y-16.5876
G01 X1.3888 Y-16.6124
G01 X1.4311 Y-16.6364
G01 X1.4745 Y-16.6583
G01 X1.5169 Y-16.6771
G01 X1.5664 Y-16.6962
G01 X1.6106 Y-16.7107
G01 X1.6573 Y-16.7237
G01 X1.7069 Y-16.7347
G01 X1.7527 Y-16.7426
G01 X1.8009 Y-16.7486
G01 X1.8494 Y-16.7522
G01 X1.8980 Y-16.7534
G01 X5.6558 Y-16.7534
G01 X5.6933 Y-16.7699
G01 X5.7411 Y-16.7884
G01 X5.7919 Y-16.8053
G01 X5.8456 Y-16.8202
G01 X5.8956 Y-16.8315
G01 X5.9505 Y-16.8411
G01 X6.0036 Y-16.8477
G01 X6.0569 Y-16.8516
G01 X6.1126 Y-16.8529
G01 X6.1639 Y-16.8516
G01 X6.2150 Y-16.8478
G01 X6.2725 Y-16.8408
G01 X6.3230 Y-16.8320
G01 X6.3752 Y-16.8202
G01 X6.4268 Y-16.8060
G01 X6.4755 Y-16.7899
G01 X6.5296 Y-16.7691
G01 X6.5764 Y-16.7482
G01 X6.6242 Y-16.7242
G01 X6.6708 Y-16.6978
G01 X6.7141 Y-16.6704
G01 X6.7615 Y-16.6371
G01 X6.8019 Y-16.6055
G01 X6.8440 Y-16.5690
G01 X6.8811 Y-16.5336
G01 X6.9165 Y-16.4965
G01 X6.9516 Y-16.4561
G01 X6.9859 Y-16.4122
G01 X7.0167 Y-16.3685
G01 X7.0453 Y-16.3233
G01 X7.0706 Y-16.2787
G01 X7.0957 Y-16.2289
G01 X7.1174 Y-16.1800
G01 X7.1367 Y-16.1301
G01 X7.1535 Y-16.0793
G01 X7.1677 Y-16.0277
G01 X7.1795 Y-15.9755
G01 X7.1886 Y-15.9228
G01 X7.1952 Y-15.8697
G01 X7.1991 Y-15.8164
G01 X7.2004 Y-15.7629
G01 X7.1991 Y-15.7094
G01 X7.1952 Y-15.6561
G01 X7.1886 Y-15.6030
G01 X7.1795 Y-15.5503
G01 X7.1677 Y-15.4981
G01 X7.1528 Y-15.4444
G01 X7.1367 Y-15.3957
G01 X7.1166 Y-15.3437
G01 X7.0948 Y-15.2949
G01 X7.0717 Y-15.2491
G01 X7.0464 Y-15.2044
G01 X7.0167 Y-15.1573
G01 X6.9859 Y-15.1136
G01 X6.9530 Y-15.0714
G01 X6.9181 Y-15.0310
G01 X8.1355 Y-13.2723
G01 X8.1478 Y-13.2525
G01 X8.1585 Y-13.2305
G01 X8.1669 Y-13.2075
G01 X8.1724 Y-13.1860
G01 X8.1765 Y-13.1596
G01 X8.1776 Y-13.1357
G01 X8.1695 Y-11.7842
G01 X8.1695 Y-10.4713
G01 X8.1685 Y-10.4582
G01 X8.1643 Y-10.4411
G01 X8.1590 Y-10.4291
G01 X8.1515 Y-10.4173
G01 X8.1431 Y-10.4077
G01 X8.1363 Y-10.4015
G01 X8.1217 Y-10.3918
G01 X8.1055 Y-10.3851
G01 X8.0876 Y-10.3817
G01 X7.7714 Y-10.3817
G01 X7.7575 Y-10.3840
G01 X7.7452 Y-10.3881
G01 X7.7330 Y-10.3942
G01 X7.7192 Y-10.4045
G01 X7.7073 Y-10.4175
G01 X7.7003 Y-10.4285
G01 X7.6947 Y-10.4411
G01 X7.6905 Y-10.4578
G01 X7.6895 Y-10.4713
G01 X7.6895 Y-12.4713
G01 X7.6905 Y-12.4848
G01 X7.6936 Y-12.4982
G01 X7.6970 Y-13.0623
G01 X6.5252 Y-14.7550
G01 X6.4776 Y-14.7366
G01 X6.4268 Y-14.7198
G01 X6.3752 Y-14.7056
G01 X6.3230 Y-14.6938
G01 X6.2703 Y-14.6847
G01 X6.2172 Y-14.6781
G01 X6.1639 Y-14.6742
G01 X6.1104 Y-14.6729
G01 X6.0569 Y-14.6742
G01 X6.0036 Y-14.6781
G01 X5.9505 Y-14.6847
G01 X5.8958 Y-14.6943
G01 X5.8456 Y-14.7056
G01 X5.7919 Y-14.7205
G01 X5.7412 Y-14.7374
G01 X5.6933 Y-14.7559
G01 X5.6558 Y-14.7724
G01 X1.8980 Y-14.7724
G01 X1.8494 Y-14.7736
G01 X1.8009 Y-14.7772
G01 X1.7527 Y-14.7832
G01 X1.7028 Y-14.7919
G01 X1.6573 Y-14.8021
G01 X1.6105 Y-14.8151
G01 X1.5643 Y-14.8303
G01 X1.5190 Y-14.8478
G01 X1.4745 Y-14.8675
G01 X1.4311 Y-14.8894
G01 X1.3888 Y-14.9134
G01 X1.3477 Y-14.9394
G01 X1.3080 Y-14.9674
G01 X1.2697 Y-14.9973
G01 X1.2329 Y-15.0290
G01 X1.1976 Y-15.0625
G01 X1.1641 Y-15.0978
G01 X1.1324 Y-15.1346
G01 X1.1024 Y-15.1730
G01 X1.0733 Y-15.2145
G01 X1.0485 Y-15.2537
G01 X1.0235 Y-15.2980
G01 X1.0017 Y-15.3414
G01 X0.9829 Y-15.3839
G01 X0.9662 Y-15.4272
G01 X0.9502 Y-15.4754
G01 X0.9372 Y-15.5222
G01 X0.9266 Y-15.5697
G01 X0.9186 Y-15.6154
G01 X0.9123 Y-15.6658
G01 X0.9087 Y-15.7143
G01 X0.9075 Y-15.7629
G01 X0.9087 Y-15.8115
G01 X0.9123 Y-15.8600
G01 X0.9183 Y-15.9082
G01 X0.9266 Y-15.9561
G01 X0.9367 Y-16.0014
G00 Z3.0000
G00 X1.3745 Y-16.7423
G01 F80.00
G01 Z-0.0800
G01 F50.00
G01 X1.3271 Y-16.7155
G01 X1.2810 Y-16.6863
G01 X1.2364 Y-16.6549
G01 X1.1935 Y-16.6214
G01 X1.1522 Y-16.5858
G01 X1.1127 Y-16.5482
G01 X1.0751 Y-16.5087
G01 X1.0395 Y-16.4674
G01 X1.0060 Y-16.4245
G01 X0.9746 Y-16.3799
G01 X0.9454 Y-16.3338
G01 X0.9186 Y-16.2864
G01 X0.8941 Y-16.2377
G01 X0.8720 Y-16.1879
G01 X0.8523 Y-16.1370
G01 X0.8352 Y-16.0853
G01 X0.8207 Y-16.0327
G01 X0.8088 Y-15.9796
G01 X0.7994 Y-15.9259
G01 X0.7928 Y-15.8718
G01 X0.7888 Y-15.8174
G01 X0.7874 Y-15.7629
G01 X0.7888 Y-15.7084
G01 X0.7928 Y-15.6540
G01 X0.7994 Y-15.5999
G01 X0.8088 Y-15.5462
G01 X0.8207 Y-15.4931
G01 X0.8352 Y-15.4405
G01 X0.8523 Y-15.3888
G01 X0.8720 Y-15.3379
G01 X0.8941 Y-15.2881
G01 X0.9186 Y-15.2394
G01 X0.9454 Y-15.1920
G01 X0.9746 Y-15.1459
G01 X1.0060 Y-15.1013
G01 X1.0395 Y-15.0584
G01 X1.0751 Y-15.0171
G01 X1.1127 Y-14.9776
G01 X1.1522 Y-14.9400
G01 X1.1935 Y-14.9044
G01 X1.2364 Y-14.8709
G01 X1.2810 Y-14.8395
G01 X1.3271 Y-14.8103
G01 X1.3745 Y-14.7835
G01 X1.4232 Y-14.7590
G01 X1.4730 Y-14.7369
G01 X1.5239 Y-14.7172
G01 X1.5756 Y-14.7001
G01 X1.6282 Y-14.6856
G01 X1.6813 Y-14.6737
G01 X1.7350 Y-14.6643
G01 X1.7891 Y-14.6577
G01 X1.8435 Y-14.6537
G01 X1.8991 Y-14.6523
G01 X5.6119 Y-14.6523
G01 X5.6257 Y-14.6512
G01 X5.6395 Y-14.6480
G01 X5.7028 Y-14.6237
G01 X5.7592 Y-14.6050
G01 X5.8164 Y-14.5892
G01 X5.8743 Y-14.5762
G01 X5.9329 Y-14.5660
G01 X5.9918 Y-14.5588
G01 X6.0510 Y-14.5544
G01 X6.1104 Y-14.5529
G01 X6.1698 Y-14.5544
G01 X6.2290 Y-14.5588
G01 X6.2879 Y-14.5660
G01 X6.3465 Y-14.5762
G01 X6.4301 Y-14.5954
G01 X6.4427 Y-14.5962
G01 X6.4520 Y-14.5956
G01 X6.4688 Y-14.5920
G01 X6.4840 Y-14.5857
G01 X6.4956 Y-14.5784
G01 X6.5080 Y-14.5672
G01 X6.5159 Y-14.5574
G01 X7.5604 Y-13.0484
G01 X7.5653 Y-13.0405
G01 X7.5708 Y-13.0284
G01 X7.5737 Y-13.0194
G01 X7.5760 Y-13.0058
G01 X7.5746 Y-12.7618
G01 X7.5711 Y-12.7449
G01 X7.5642 Y-12.7285
G01 X7.5546 Y-12.7141
G01 X7.5423 Y-12.7018
G01 X7.5308 Y-12.6938
G01 X7.5163 Y-12.6869
G01 X7.5023 Y-12.6830
G01 X7.4900 Y-12.6814
G01 X7.2781 Y-12.6813
G01 X7.2457 Y-12.6835
G01 X7.2231 Y-12.6840
G01 X7.2005 Y-12.6835
G01 X7.1681 Y-12.6813
G01 X7.0621 Y-12.6813
G01 X7.0562 Y-12.6699
G01 X7.0509 Y-12.6623
G01 X7.0382 Y-12.6488
G01 X7.0242 Y-12.6389
G01 X6.9865 Y-12.6186
G01 X6.9674 Y-12.6065
G01 X6.9489 Y-12.5935
G01 X6.9311 Y-12.5796
G01 X6.9140 Y-12.5648
G01 X6.8977 Y-12.5492
G01 X6.8821 Y-12.5329
G01 X6.8673 Y-12.5158
G01 X6.8534 Y-12.4980
G01 X6.8404 Y-12.4795
G01 X6.8283 Y-12.4604
G01 X6.8172 Y-12.4408
G01 X6.8070 Y-12.4206
G01 X6.7979 Y-12.3999
G01 X6.7898 Y-12.3789
G01 X6.7827 Y-12.3574
G01 X6.7766 Y-12.3356
G01 X6.7717 Y-12.3136
G01 X6.7678 Y-12.2913
G01 X6.7651 Y-12.2689
G01 X6.7634 Y-12.2464
G01 X6.7628 Y-12.2227
G01 X6.7627 Y-9.8097
G01 X6.7601 Y-9.7928
G01 X6.7546 Y-9.7770
G01 X6.7475 Y-9.7643
G01 X6.7361 Y-9.7506
G01 X6.7224 Y-9.7395
G01 X6.7070 Y-9.7313
G01 X6.6899 Y-9.7262
G01 X6.6721 Y-9.7246
G01 X4.4508 Y-9.7418
G01 X4.4382 Y-9.7428
G01 X4.4216 Y-9.7469
G01 X4.4091 Y-9.7524
G01 X4.3982 Y-9.7593
G01 X4.3883 Y-9.7677
G01 X4.3825 Y-9.7740
G01 X4.3770 Y-9.7813
G01 X4.3710 Y-9.7915
G01 X4.3646 Y-9.8084
G01 X4.3627 Y-9.8170
G01 X4.3615 Y-9.8297
G01 X4.3623 Y-9.8433
G01 X4.3725 Y-9.9030
G01 X4.3798 Y-9.9619
G01 X4.3842 Y-10.0212
G01 X4.3857 Y-10.0817
G01 X4.3857 Y-10.6534
G01 X4.3875 Y-10.6716
G01 X4.3931 Y-10.6892
G01 X4.4016 Y-10.7046
G01 X4.4195 Y-10.7261
G01 X4.4681 Y-10.7884
G01 X4.5136 Y-10.8530
G01 X4.5559 Y-10.9198
G01 X4.5949 Y-10.9886
G01 X4.6304 Y-11.0591
G01 X4.6624 Y-11.1314
G01 X4.6909 Y-11.2051
G01 X4.7156 Y-11.2801
G01 X4.7367 Y-11.3563
G01 X4.7540 Y-11.4334
G01 X4.7675 Y-11.5113
G01 X4.7772 Y-11.5897
G01 X4.7830 Y-11.6685
G01 X4.7850 Y-11.7475
G01 X4.7830 Y-11.8265
G01 X4.7772 Y-11.9053
G01 X4.7675 Y-11.9837
G01 X4.7540 Y-12.0616
G01 X4.7367 Y-12.1387
G01 X4.7156 Y-12.2149
G01 X4.6909 Y-12.2899
G01 X4.6624 Y-12.3636
G01 X4.6304 Y-12.4359
G01 X4.5949 Y-12.5064
G01 X4.5559 Y-12.5752
G01 X4.5136 Y-12.6420
G01 X4.4681 Y-12.7066
G01 X4.4195 Y-12.7689
G01 X4.3679 Y-12.8287
G01 X4.3134 Y-12.8859
G01 X4.2562 Y-12.9404
G01 X4.1964 Y-12.9920
G01 X4.1341 Y-13.0406
G01 X4.0695 Y-13.0861
G01 X4.0027 Y-13.1284
G01 X3.9339 Y-13.1674
G01 X3.8634 Y-13.2029
G01 X3.7911 Y-13.2349
G01 X3.7174 Y-13.2634
G01 X3.6424 Y-13.2881
G01 X3.5662 Y-13.3092
G01 X3.4891 Y-13.3265
G01 X3.4112 Y-13.3400
G01 X3.3328 Y-13.3497
G01 X3.2540 Y-13.3555
G01 X3.1750 Y-13.3575
G01 X3.0960 Y-13.3555
G01 X3.0172 Y-13.3497
G01 X2.9388 Y-13.3400
G01 X2.8609 Y-13.3265
G01 X2.7838 Y-13.3092
G01 X2.7076 Y-13.2881
G01 X2.6326 Y-13.2634
G01 X2.5589 Y-13.2349
G01 X2.4866 Y-13.2029
G01 X2.4161 Y-13.1674
G01 X2.3473 Y-13.1284
G01 X2.2805 Y-13.0861
G01 X2.2159 Y-13.0406
G01 X2.1536 Y-12.9920
G01 X2.0938 Y-12.9404
G01 X2.0366 Y-12.8859
G01 X1.9821 Y-12.8287
G01 X1.9305 Y-12.7689
G01 X1.8819 Y-12.7066
G01 X1.8364 Y-12.6420
G01 X1.7941 Y-12.5752
G01 X1.7551 Y-12.5064
G01 X1.7196 Y-12.4359
G01 X1.6876 Y-12.3636
G01 X1.6591 Y-12.2899
G01 X1.6344 Y-12.2149
G01 X1.6133 Y-12.1387
G01 X1.5960 Y-12.0616
G01 X1.5825 Y-11.9837
G01 X1.5728 Y-11.9053
G01 X1.5670 Y-11.8265
G01 X1.5650 Y-11.7475
G01 X1.5670 Y-11.6685
G01 X1.5728 Y-11.5897
G01 X1.5825 Y-11.5113
G01 X1.5960 Y-11.4334
G01 X1.6133 Y-11.3563
G01 X1.6344 Y-11.2801
G01 X1.6591 Y-11.2051
G01 X1.6876 Y-11.1314
G01 X1.7196 Y-11.0591
G01 X1.7551 Y-10.9886
G01 X1.7941 Y-10.9198
G01 X1.8364 Y-10.8530
G01 X1.8819 Y-10.7884
G01 X1.9305 Y-10.7261
G01 X1.9454 Y-10.7087
G01 X1.9508 Y-10.7008
G01 X1.9588 Y-10.6845
G01 X1.9633 Y-10.6669
G01 X1.9643 Y-10.6534
G01 X1.9643 Y-10.0817
G01 X1.9658 Y-10.0212
G01 X1.9702 Y-9.9619
G01 X1.9775 Y-9.9030
G01 X1.9876 Y-9.8444
G01 X2.0007 Y-9.7864
G01 X2.0165 Y-9.7292
G01 X2.0351 Y-9.6728
G01 X2.0565 Y-9.6173
G01 X2.0661 Y-9.5945
G01 X2.0685 Y-9.5855
G01 X2.0704 Y-9.5715
G01 X2.0705 Y-7.7803
G01 X2.2905 Y-7.7803
G01 X2.2905 Y-8.0413
G01 X2.2909 Y-8.0503
G01 X2.2932 Y-8.0631
G01 X2.2974 Y-8.0759
G01 X2.3057 Y-8.0913
G01 X2.3140 Y-8.1020
G01 X2.3235 Y-8.1109
G01 X2.3381 Y-8.1207
G01 X2.3503 Y-8.1261
G01 X2.3675 Y-8.1304
G01 X2.3805 Y-8.1313
G01 X3.9805 Y-8.1313
G01 X3.9984 Y-8.1295
G01 X4.0107 Y-8.1261
G01 X4.0229 Y-8.1207
G01 X4.0342 Y-8.1135
G01 X4.0441 Y-8.1049
G01 X4.0526 Y-8.0952
G01 X4.0600 Y-8.0835
G01 X4.0652 Y-8.0717
G01 X4.0688 Y-8.0589
G01 X4.0705 Y-8.0413
G01 X4.0705 Y-7.7803
G01 X4.2905 Y-7.7803
G01 X4.2906 Y-8.7366
G01 X4.2932 Y-8.7536
G01 X4.2973 Y-8.7660
G01 X4.3039 Y-8.7790
G01 X4.3141 Y-8.7925
G01 X4.3269 Y-8.8040
G01 X4.3390 Y-8.8116
G01 X4.3546 Y-8.8179
G01 X4.3675 Y-8.8208
G01 X4.3812 Y-8.8217
G01 X8.4801 Y-8.7901
G01 X8.4893 Y-8.7895
G01 X8.5005 Y-8.7876
G01 X8.5184 Y-8.7812
G01 X8.5334 Y-8.7721
G01 X8.5435 Y-8.7633
G01 X8.5544 Y-8.7498
G01 X8.5591 Y-8.7419
G01 X8.5635 Y-8.7321
G01 X8.5820 Y-8.7184
G01 X8.5995 Y-8.7025
G01 X8.6154 Y-8.6850
G01 X8.6305 Y-8.6643
G01 X8.6404 Y-8.6479
G01 X8.6467 Y-8.6354
G01 X8.6523 Y-8.6226
G01 X8.6588 Y-8.6046
G01 X8.6656 Y-8.5774
G01 X8.6684 Y-8.5585
G01 X8.6695 Y-8.5445
G01 X8.6697 Y-5.8613
G01 X9.3505 Y-5.8613
G01 X9.3590 Y-5.8609
G01 X9.3715 Y-5.8588
G01 X9.3834 Y-5.8551
G01 X9.3914 Y-5.8515
G01 X9.4241 Y-5.8313
G01 X9.4461 Y-5.8190
G01 X9.4684 Y-5.8080
G01 X9.4914 Y-5.7979
G01 X9.5119 Y-5.7901
G01 X9.5357 Y-5.7823
G01 X12.8537 Y-4.7991
G01 X12.8658 Y-4.7945
G01 X12.8748 Y-4.7898
G01 X12.8850 Y-4.7826
G01 X12.8942 Y-4.7740
G01 X12.9004 Y-4.7664
G01 X12.9072 Y-4.7558
G01 X12.9114 Y-4.7469
G01 X12.9152 Y-4.7356
G01 X12.9172 Y-4.7258
G01 X12.9181 Y-4.7128
G01 X12.9181 Y-2.8111
G01 X12.9196 Y-2.7506
G01 X12.9240 Y-2.6913
G01 X12.9313 Y-2.6324
G01 X12.9414 Y-2.5738
G01 X12.9545 Y-2.5158
G01 X12.9703 Y-2.4586
G01 X12.9889 Y-2.4022
G01 X13.0103 Y-2.3467
G01 X13.0344 Y-2.2924
G01 X13.0611 Y-2.2393
G01 X13.0904 Y-2.1876
G01 X13.1222 Y-2.1374
G01 X13.1564 Y-2.0888
G01 X13.1930 Y-2.0420
G01 X13.2318 Y-1.9970
G01 X13.2728 Y-1.9540
G01 X13.3158 Y-1.9130
G01 X13.3608 Y-1.8742
G01 X13.4076 Y-1.8376
G01 X13.4562 Y-1.8034
G01 X13.5064 Y-1.7716
G01 X13.5581 Y-1.7423
G01 X13.6112 Y-1.7156
G01 X13.6655 Y-1.6915
G01 X13.7210 Y-1.6701
G01 X13.7774 Y-1.6515
G01 X13.8346 Y-1.6357
G01 X13.8926 Y-1.6226
G01 X13.9512 Y-1.6125
G01 X14.0101 Y-1.6052
G01 X14.0694 Y-1.6008
G01 X14.1288 Y-1.5994
G01 X14.1882 Y-1.6008
G01 X14.2475 Y-1.6052
G01 X14.3064 Y-1.6125
G01 X14.3650 Y-1.6226
G01 X14.4230 Y-1.6357
G01 X14.4802 Y-1.6515
G01 X14.5366 Y-1.6701
G01 X14.5921 Y-1.6915
G01 X14.6464 Y-1.7156
G01 X14.6995 Y-1.7423
G01 X14.7512 Y-1.7716
G01 X14.8014 Y-1.8034
G01 X14.8500 Y-1.8376
G01 X14.8968 Y-1.8742
G01 X14.9418 Y-1.9130
G01 X14.9848 Y-1.9540
G01 X15.0258 Y-1.9970
G01 X15.0646 Y-2.0420
G01 X15.1012 Y-2.0888
G01 X15.1354 Y-2.1374
G01 X15.1672 Y-2.1876
G01 X15.1965 Y-2.2393
G01 X15.2232 Y-2.2924
G01 X15.2473 Y-2.3467
G01 X15.2687 Y-2.4022
G01 X15.2873 Y-2.4586
G01 X15.3031 Y-2.5158
G01 X15.3162 Y-2.5738
G01 X15.3263 Y-2.6324
G01 X15.3336 Y-2.6913
G01 X15.3380 Y-2.7506
G01 X15.3395 Y-2.8111
G01 X15.3395 Y-4.8089
G01 X15.3380 Y-4.8694
G01 X15.3336 Y-4.9287
G01 X15.3263 Y-4.9876
G01 X15.3162 Y-5.0462
G01 X15.3031 Y-5.1042
G01 X15.2873 Y-5.1614
G01 X15.2687 Y-5.2178
G01 X15.2473 Y-5.2733
G01 X15.2232 Y-5.3276
G01 X15.1965 Y-5.3807
G01 X15.1672 Y-5.4324
G01 X15.1354 Y-5.4826
G01 X15.1012 Y-5.5312
G01 X15.0646 Y-5.5780
G01 X15.0258 Y-5.6230
G01 X14.9848 Y-5.6660
G01 X14.9418 Y-5.7070
G01 X14.8968 Y-5.7458
G01 X14.8500 Y-5.7824
G01 X14.8014 Y-5.8166
G01 X14.7512 Y-5.8484
G01 X14.6995 Y-5.8777
G01 X14.6464 Y-5.9044
G01 X14.5921 Y-5.9285
G01 X14.5366 Y-5.9499
G01 X14.4802 Y-5.9685
G01 X14.4230 Y-5.9843
G01 X14.3650 Y-5.9974
G01 X14.3064 Y-6.0075
G01 X14.2475 Y-6.0148
G01 X14.1882 Y-6.0192
G01 X14.1288 Y-6.0206
G01 X14.0694 Y-6.0192
G01 X14.0101 Y-6.0148
G01 X13.9512 Y-6.0075
G01 X13.8926 Y-5.9974
G01 X13.8346 Y-5.9843
G01 X13.7774 Y-5.9685
G01 X13.7210 Y-5.9499
G01 X13.6655 Y-5.9285
G01 X13.6112 Y-5.9044
G01 X13.5581 Y-5.8777
G01 X13.5064 Y-5.8484
G01 X13.4562 Y-5.8166
G01 X13.4076 Y-5.7824
G01 X13.3636 Y-5.7481
G01 X13.3527 Y-5.7416
G01 X13.3407 Y-5.7365
G01 X13.3244 Y-5.7326
G01 X13.3113 Y-5.7317
G01 X13.2949 Y-5.7333
G01 X10.2584 Y-6.6325
G01 X10.2463 Y-6.6371
G01 X10.2373 Y-6.6419
G01 X10.2272 Y-6.6490
G01 X10.2206 Y-6.6550
G01 X10.2147 Y-6.6613
G01 X10.2072 Y-6.6719
G01 X10.2029 Y-6.6799
G01 X10.1978 Y-6.6928
G01 X10.1958 Y-6.7009
G01 X10.1941 Y-6.7140
G01 X10.1940 Y-7.7777
G01 X10.1934 Y-7.8038
G01 X10.1915 Y-7.8288
G01 X10.1885 Y-7.8537
G01 X10.1842 Y-7.8783
G01 X10.1787 Y-7.9028
G01 X10.1720 Y-7.9269
G01 X10.1641 Y-7.9507
G01 X10.1551 Y-7.9741
G01 X10.1450 Y-7.9970
G01 X10.1337 Y-8.0193
G01 X10.1214 Y-8.0411
G01 X10.1080 Y-8.0623
G01 X10.0936 Y-8.0828
G01 X10.0781 Y-8.1025
G01 X10.0618 Y-8.1215
G01 X10.0445 Y-8.1396
G01 X10.0264 Y-8.1569
G01 X10.0074 Y-8.1732
G01 X9.9877 Y-8.1887
G01 X9.9672 Y-8.2031
G01 X9.9460 Y-8.2165
G01 X9.9242 Y-8.2288
G01 X9.9019 Y-8.2401
G01 X9.8790 Y-8.2502
G01 X9.8399 Y-8.2653
G01 X9.8281 Y-8.2723
G01 X9.8171 Y-8.2813
G01 X9.7755 Y-8.2814
G01 X9.7337 Y-8.2866
G01 X9.7087 Y-8.2885
G01 X9.6837 Y-8.2891
G01 X9.6587 Y-8.2885
G01 X9.6337 Y-8.2866
G01 X9.5919 Y-8.2814
G01 X9.3709 Y-8.2817
G01 X9.3584 Y-8.2839
G01 X9.3490 Y-8.2868
G01 X9.3377 Y-8.2918
G01 X9.3301 Y-8.2963
G01 X9.3226 Y-8.3018
G01 X9.3130 Y-8.3110
G01 X9.3021 Y-8.3260
G01 X9.2969 Y-8.3363
G01 X9.2924 Y-8.3499
G01 X9.2903 Y-8.3624
G01 X9.2899 Y-8.3713
G01 X9.2901 Y-9.0021
G01 X9.2915 Y-9.0138
G01 X9.2947 Y-9.0260
G01 X9.3138 Y-9.0678
G01 X9.3221 Y-9.0888
G01 X9.3294 Y-9.1102
G01 X9.3356 Y-9.1319
G01 X9.3407 Y-9.1539
G01 X9.3447 Y-9.1762
G01 X9.3477 Y-9.1986
G01 X9.3495 Y-9.2211
G01 X9.3502 Y-9.2436
G01 X9.3499 Y-9.2662
G01 X9.3484 Y-9.2888
G01 X9.3458 Y-9.3112
G01 X9.3421 Y-9.3335
G01 X9.3373 Y-9.3556
G01 X9.3314 Y-9.3774
G01 X9.3245 Y-9.3989
G01 X9.3166 Y-9.4200
G01 X9.3076 Y-9.4408
G01 X9.2976 Y-9.4610
G01 X9.2866 Y-9.4808
G01 X9.2746 Y-9.4999
G01 X9.2618 Y-9.5185
G01 X9.2480 Y-9.5364
G01 X9.2334 Y-9.5536
G01 X9.2179 Y-9.5701
G01 X9.2017 Y-9.5858
G01 X9.1847 Y-9.6007
G01 X9.1670 Y-9.6147
G01 X9.1486 Y-9.6279
G01 X9.1297 Y-9.6401
G01 X9.1101 Y-9.6514
G01 X9.0900 Y-9.6617
G01 X9.0694 Y-9.6710
G01 X9.0484 Y-9.6793
G01 X9.0270 Y-9.6866
G01 X9.0053 Y-9.6928
G01 X8.9833 Y-9.6979
G01 X8.9610 Y-9.7019
G01 X8.9386 Y-9.7049
G01 X8.9161 Y-9.7067
G01 X8.8925 Y-9.7075
G01 X7.7727 Y-9.7161
G01 X7.7635 Y-9.7167
G01 X7.7521 Y-9.7187
G01 X7.7381 Y-9.7233
G01 X7.7273 Y-9.7288
G01 X7.7155 Y-9.7372
G01 X7.7073 Y-9.7450
G01 X7.7004 Y-9.7534
G01 X7.6939 Y-9.7639
G01 X7.6888 Y-9.7754
G01 X7.6859 Y-9.7851
G01 X7.6838 Y-9.7971
G01 X7.6838 Y-10.1802
G01 X7.6862 Y-10.1935
G01 X7.6919 Y-10.2096
G01 X7.6986 Y-10.2213
G01 X7.7097 Y-10.2349
G01 X7.7234 Y-10.2462
G01 X7.7384 Y-10.2542
G01 X7.7521 Y-10.2588
G01 X7.7685 Y-10.2612
G01 X9.3099 Y-10.2613
G01 X9.3266 Y-10.2597
G01 X9.3394 Y-10.2563
G01 X9.3482 Y-10.2528
G01 X9.3591 Y-10.2467
G01 X11.2182 Y-9.0340
G01 X11.2303 Y-9.0231
G01 X11.2384 Y-9.0130
G01 X11.2444 Y-9.0029
G01 X11.2500 Y-8.9892
G01 X11.2530 Y-8.9768
G01 X11.2542 Y-8.9636
G01 X11.2535 Y-8.9504
G01 X11.2510 Y-8.9380
G01 X11.2466 Y-8.9257
G01 X11.2427 Y-8.9178
G01 X11.2172 Y-8.8774
G01 X11.1879 Y-8.8257
G01 X11.1612 Y-8.7726
G01 X11.1371 Y-8.7183
G01 X11.1157 Y-8.6628
G01 X11.0971 Y-8.6064
G01 X11.0813 Y-8.5492
G01 X11.0682 Y-8.4912
G01 X11.0581 Y-8.4326
G01 X11.0508 Y-8.3737
G01 X11.0464 Y-8.3144
G01 X11.0450 Y-8.2550
G01 X11.0464 Y-8.1956
G01 X11.0508 Y-8.1363
G01 X11.0581 Y-8.0774
G01 X11.0682 Y-8.0188
G01 X11.0813 Y-7.9608
G01 X11.0971 Y-7.9036
G01 X11.1157 Y-7.8472
G01 X11.1371 Y-7.7917
G01 X11.1612 Y-7.7374
G01 X11.1879 Y-7.6843
G01 X11.2172 Y-7.6326
G01 X11.2490 Y-7.5824
G01 X11.2832 Y-7.5338
G01 X11.3198 Y-7.4870
G01 X11.3586 Y-7.4420
G01 X11.3996 Y-7.3990
G01 X11.4426 Y-7.3580
G01 X11.4876 Y-7.3192
G01 X11.5344 Y-7.2826
G01 X11.5830 Y-7.2484
G01 X11.6332 Y-7.2166
G01 X11.6849 Y-7.1873
G01 X11.7380 Y-7.1606
G01 X11.7923 Y-7.1365
G01 X11.8478 Y-7.1151
G01 X11.9042 Y-7.0965
G01 X11.9614 Y-7.0807
G01 X12.0194 Y-7.0676
G01 X12.0780 Y-7.0575
G01 X12.1369 Y-7.0502
G01 X12.1962 Y-7.0458
G01 X12.2567 Y-7.0443
G01 X14.2545 Y-7.0443
G01 X14.3150 Y-7.0458
G01 X14.3743 Y-7.0502
G01 X14.4332 Y-7.0575
G01 X14.4918 Y-7.0676
G01 X14.5498 Y-7.0807
G01 X14.6070 Y-7.0965
G01 X14.6634 Y-7.1151
G01 X14.7189 Y-7.1365
G01 X14.7732 Y-7.1606
G01 X14.8263 Y-7.1873
G01 X14.8780 Y-7.2166
G01 X14.9282 Y-7.2484
G01 X14.9768 Y-7.2826
G01 X15.0236 Y-7.3192
G01 X15.0686 Y-7.3580
G01 X15.1116 Y-7.3990
G01 X15.1526 Y-7.4420
G01 X15.1914 Y-7.4870
G01 X15.2280 Y-7.5338
G01 X15.2622 Y-7.5824
G01 X15.2940 Y-7.6326
G01 X15.3233 Y-7.6843
G01 X15.3500 Y-7.7374
G01 X15.3741 Y-7.7917
G01 X15.3955 Y-7.8472
G01 X15.4141 Y-7.9036
G01 X15.4299 Y-7.9608
G01 X15.4430 Y-8.0188
G01 X15.4531 Y-8.0774
G01 X15.4604 Y-8.1363
G01 X15.4648 Y-8.1956
G01 X15.4662 Y-8.2550
G01 X15.4648 Y-8.3144
G01 X15.4604 Y-8.3737
G01 X15.4531 Y-8.4326
G01 X15.4430 Y-8.4912
G01 X15.4299 Y-8.5492
G01 X15.4141 Y-8.6064
G01 X15.3955 Y-8.6628
G01 X15.3741 Y-8.7183
G01 X15.3500 Y-8.7726
G01 X15.3233 Y-8.8257
G01 X15.2940 Y-8.8774
G01 X15.2622 Y-8.9276
G01 X15.2280 Y-8.9762
G01 X15.1914 Y-9.0230
G01 X15.1526 Y-9.0680
G01 X15.1116 Y-9.1110
G01 X15.0686 Y-9.1520
G01 X15.0236 Y-9.1908
G01 X14.9768 Y-9.2274
G01 X14.9282 Y-9.2616
G01 X14.8780 Y-9.2934
G01 X14.8263 Y-9.3227
G01 X14.7732 Y-9.3494
G01 X14.7189 Y-9.3735
G01 X14.6634 Y-9.3949
G01 X14.6070 Y-9.4135
G01 X14.5498 Y-9.4293
G01 X14.4918 Y-9.4424
G01 X14.4332 Y-9.4525
G01 X14.3743 Y-9.4598
G01 X14.3150 Y-9.4642
G01 X14.2545 Y-9.4657
G01 X12.2686 Y-9.4657
G01 X12.2519 Y-9.4672
G01 X12.2392 Y-9.4706
G01 X12.2304 Y-9.4742
G01 X12.2194 Y-9.4803
G01 X10.1055 Y-10.8589
G01 X10.0983 Y-10.8642
G01 X10.0897 Y-10.8720
G01 X10.0835 Y-10.8793
G01 X10.0776 Y-10.8877
G01 X10.0716 Y-10.8996
G01 X10.0687 Y-10.9078
G01 X10.0665 Y-10.9165
G01 X10.0648 Y-10.9295
G01 X10.0647 Y-12.3020
G01 X10.0641 Y-12.3257
G01 X10.0624 Y-12.3482
G01 X10.0597 Y-12.3706
G01 X10.0558 Y-12.3929
G01 X10.0509 Y-12.4149
G01 X10.0448 Y-12.4367
G01 X10.0377 Y-12.4582
G01 X10.0296 Y-12.4792
G01 X10.0205 Y-12.4999
G01 X10.0103 Y-12.5201
G01 X9.9992 Y-12.5397
G01 X9.9871 Y-12.5588
G01 X9.9741 Y-12.5773
G01 X9.9602 Y-12.5951
G01 X9.9454 Y-12.6122
G01 X9.9298 Y-12.6285
G01 X9.9135 Y-12.6441
G01 X9.8964 Y-12.6589
G01 X9.8786 Y-12.6728
G01 X9.8601 Y-12.6858
G01 X9.8410 Y-12.6979
G01 X9.8214 Y-12.7090
G01 X9.8012 Y-12.7192
G01 X9.7805 Y-12.7283
G01 X9.7595 Y-12.7364
G01 X9.7380 Y-12.7435
G01 X9.7162 Y-12.7496
G01 X9.6942 Y-12.7545
G01 X9.6719 Y-12.7584
G01 X9.6495 Y-12.7611
G01 X9.6270 Y-12.7628
G01 X9.6044 Y-12.7633
G01 X9.5818 Y-12.7628
G01 X9.5593 Y-12.7611
G01 X9.5369 Y-12.7584
G01 X9.5146 Y-12.7545
G01 X9.4926 Y-12.7496
G01 X9.4708 Y-12.7435
G01 X9.4493 Y-12.7364
G01 X9.4082 Y-12.7199
G01 X9.3993 Y-12.7174
G01 X9.3863 Y-12.7156
G01 X9.3688 Y-12.7160
G01 X9.3510 Y-12.7201
G01 X9.3346 Y-12.7276
G01 X9.3204 Y-12.7378
G01 X9.3081 Y-12.7511
G01 X9.3007 Y-12.7625
G01 X9.2939 Y-12.7788
G01 X9.2904 Y-12.7964
G01 X9.2899 Y-13.0832
G01 X9.2916 Y-13.1004
G01 X9.2954 Y-13.1141
G01 X9.3004 Y-13.1254
G01 X9.3079 Y-13.1372
G01 X9.3163 Y-13.1468
G01 X9.3259 Y-13.1552
G01 X9.3410 Y-13.1643
G01 X9.3537 Y-13.1693
G01 X9.3670 Y-13.1722
G01 X9.3799 Y-13.1732
G01 X9.6684 Y-13.1732
G01 X9.6775 Y-13.1727
G01 X9.6899 Y-13.1706
G01 X9.7067 Y-13.1646
G01 X9.7178 Y-13.1585
G01 X11.2740 Y-12.1389
G01 X11.2813 Y-12.1335
G01 X11.2907 Y-12.1247
G01 X11.2987 Y-12.1147
G01 X11.3055 Y-12.1032
G01 X11.3090 Y-12.0950
G01 X11.3126 Y-12.0825
G01 X11.3144 Y-12.0701
G01 X11.3146 Y-12.0603
G01 X11.3133 Y-12.0480
G01 X11.3102 Y-12.0356
G01 X11.3050 Y-12.0230
G01 X11.3004 Y-12.0150
G01 X11.2832 Y-11.9924
G01 X11.2490 Y-11.9438
G01 X11.2172 Y-11.8936
G01 X11.1879 Y-11.8419
G01 X11.1612 Y-11.7888
G01 X11.1371 Y-11.7345
G01 X11.1157 Y-11.6790
G01 X11.0971 Y-11.6226
G01 X11.0813 Y-11.5654
G01 X11.0682 Y-11.5074
G01 X11.0581 Y-11.4488
G01 X11.0508 Y-11.3899
G01 X11.0464 Y-11.3306
G01 X11.0450 Y-11.2712
G01 X11.0464 Y-11.2118
G01 X11.0508 Y-11.1525
G01 X11.0581 Y-11.0936
G01 X11.0682 Y-11.0350
G01 X11.0813 Y-10.9770
G01 X11.0971 Y-10.9198
G01 X11.1157 Y-10.8634
G01 X11.1371 Y-10.8079
G01 X11.1612 Y-10.7536
G01 X11.1879 Y-10.7005
G01 X11.2172 Y-10.6488
G01 X11.2490 Y-10.5986
G01 X11.2832 Y-10.5500
G01 X11.3198 Y-10.5032
G01 X11.3586 Y-10.4582
G01 X11.3996 Y-10.4152
G01 X11.4426 Y-10.3742
G01 X11.4876 Y-10.3354
G01 X11.5344 Y-10.2988
G01 X11.5830 Y-10.2646
G01 X11.6332 Y-10.2328
G01 X11.6849 Y-10.2035
G01 X11.7380 Y-10.1768
G01 X11.7923 Y-10.1527
G01 X11.8478 Y-10.1313
G01 X11.9042 Y-10.1127
G01 X11.9614 Y-10.0969
G01 X12.0194 Y-10.0838
G01 X12.0780 Y-10.0737
G01 X12.1369 Y-10.0664
G01 X12.1962 Y-10.0620
G01 X12.2567 Y-10.0605
G01 X14.2545 Y-10.0605
G01 X14.3150 Y-10.0620
G01 X14.3743 Y-10.0664
G01 X14.4332 Y-10.0737
G01 X14.4918 Y-10.0838
G01 X14.5498 Y-10.0969
G01 X14.6070 Y-10.1127
G01 X14.6634 Y-10.1313
G01 X14.7189 Y-10.1527
G01 X14.7732 Y-10.1768
G01 X14.8263 Y-10.2035
G01 X14.8780 Y-10.2328
G01 X14.9282 Y-10.2646
G01 X14.9768 Y-10.2988
G01 X15.0236 Y-10.3354
G01 X15.0686 Y-10.3742
G01 X15.1116 Y-10.4152
G01 X15.1526 Y-10.4582
G01 X15.1914 Y-10.5032
G01 X15.2280 Y-10.5500
G01 X15.2622 Y-10.5986
G01 X15.2940 Y-10.6488
G01 X15.3233 Y-10.7005
G01 X15.3500 Y-10.7536
G01 X15.3741 Y-10.8079
G01 X15.3955 Y-10.8634
G01 X15.4141 Y-10.9198
G01 X15.4299 Y-10.9770
G01 X15.4430 Y-11.0350
G01 X15.4531 Y-11.0936
G01 X15.4604 Y-11.1525
G01 X15.4648 Y-11.2118
G01 X15.4662 Y-11.2712
G01 X15.4648 Y-11.3306
G01 X15.4604 Y-11.3899
G01 X15.4531 Y-11.4488
G01 X15.4430 Y-11.5074
G01 X15.4299 Y-11.5654
G01 X15.4141 Y-11.6226
G01 X15.3955 Y-11.6790
G01 X15.3741 Y-11.7345
G01 X15.3500 Y-11.7888
G01 X15.3233 Y-11.8419
G01 X15.2940 Y-11.8936
G01 X15.2622 Y-11.9438
G01 X15.2280 Y-11.9924
G01 X15.1914 Y-12.0392
G01 X15.1526 Y-12.0842
G01 X15.1116 Y-12.1272
G01 X15.0686 Y-12.1682
G01 X15.0236 Y-12.2070
G01 X14.9768 Y-12.2436
G01 X14.9282 Y-12.2778
G01 X14.8780 Y-12.3096
G01 X14.8263 Y-12.3389
G01 X14.7732 Y-12.3656
G01 X14.7189 Y-12.3897
G01 X14.6634 Y-12.4111
G01 X14.6070 Y-12.4297
G01 X14.5498 Y-12.4455
G01 X14.4918 Y-12.4586
G01 X14.4332 Y-12.4687
G01 X14.3743 Y-12.4760
G01 X14.3150 Y-12.4804
G01 X14.2545 Y-12.4819
G01 X12.2567 Y-12.4819
G01 X12.1962 Y-12.4804
G01 X12.1369 Y-12.4760
G01 X12.1074 Y-12.4728
G01 X12.0898 Y-12.4743
G01 X12.0723 Y-12.4793
G01 X12.0564 Y-12.4875
G01 X10.0011 Y-13.8341
G01 X9.9854 Y-13.8439
G01 X9.9546 Y-13.8601
G01 X9.9224 Y-13.8732
G01 X9.8890 Y-13.8831
G01 X9.8548 Y-13.8898
G01 X9.8202 Y-13.8932
G01 X8.9308 Y-13.8936
G01 X8.9120 Y-13.8932
G01 X8.8750 Y-13.8896
G01 X8.8654 Y-13.8894
G01 X8.8533 Y-13.8907
G01 X8.8397 Y-13.8941
G01 X8.8310 Y-13.8976
G01 X8.8202 Y-13.9035
G01 X8.8127 Y-13.9088
G01 X8.8026 Y-13.9182
G01 X8.7968 Y-13.9251
G01 X8.7900 Y-13.9356
G01 X8.7826 Y-13.9529
G01 X8.7798 Y-13.9648
G01 X8.7787 Y-13.9746
G01 X8.7757 Y-14.5626
G01 X8.7767 Y-14.5765
G01 X8.7792 Y-14.5882
G01 X8.7835 Y-14.5999
G01 X8.7894 Y-14.6108
G01 X8.7949 Y-14.6186
G01 X8.8037 Y-14.6283
G01 X8.8132 Y-14.6362
G01 X8.8234 Y-14.6425
G01 X8.8322 Y-14.6466
G01 X9.9163 Y-15.0228
G01 X9.9282 Y-15.0260
G01 X9.9426 Y-15.0277
G01 X9.9602 Y-15.0266
G01 X9.9733 Y-15.0235
G01 X9.9893 Y-15.0166
G01 X10.0014 Y-15.0086
G01 X10.0103 Y-15.0006
G01 X10.0539 Y-14.9503
G01 X10.0948 Y-14.9073
G01 X10.1378 Y-14.8664
G01 X10.1828 Y-14.8276
G01 X10.2296 Y-14.7910
G01 X10.2782 Y-14.7568
G01 X10.3283 Y-14.7251
G01 X10.3800 Y-14.6958
G01 X10.4331 Y-14.6691
G01 X10.4874 Y-14.6450
G01 X10.5428 Y-14.6237
G01 X10.5992 Y-14.6050
G01 X10.6564 Y-14.5892
G01 X10.7143 Y-14.5762
G01 X10.7729 Y-14.5660
G01 X10.8318 Y-14.5588
G01 X10.8910 Y-14.5544
G01 X10.9504 Y-14.5529
G01 X11.0098 Y-14.5544
G01 X11.0690 Y-14.5588
G01 X11.1279 Y-14.5660
G01 X11.1865 Y-14.5762
G01 X11.2444 Y-14.5892
G01 X11.3016 Y-14.6050
G01 X11.3580 Y-14.6237
G01 X11.4213 Y-14.6480
G01 X11.4349 Y-14.6512
G01 X11.4443 Y-14.6522
G01 X15.2856 Y-14.6523
G01 X15.3412 Y-14.6537
G01 X15.3956 Y-14.6577
G01 X15.4497 Y-14.6643
G01 X15.5034 Y-14.6737
G01 X15.5565 Y-14.6856
G01 X15.6091 Y-14.7001
G01 X15.6608 Y-14.7172
G01 X15.7117 Y-14.7369
G01 X15.7615 Y-14.7590
G01 X15.8102 Y-14.7835
G01 X15.8576 Y-14.8103
G01 X15.9037 Y-14.8395
G01 X15.9483 Y-14.8709
G01 X15.9912 Y-14.9044
G01 X16.0325 Y-14.9400
G01 X16.0720 Y-14.9776
G01 X16.1096 Y-15.0171
G01 X16.1452 Y-15.0584
G01 X16.1787 Y-15.1013
G01 X16.2101 Y-15.1459
G01 X16.2393 Y-15.1920
G01 X16.2661 Y-15.2394
G01 X16.2906 Y-15.2881
G01 X16.3127 Y-15.3379
G01 X16.3324 Y-15.3888
G01 X16.3495 Y-15.4405
G01 X16.3640 Y-15.4931
G01 X16.3759 Y-15.5462
G01 X16.3853 Y-15.5999
G01 X16.3919 Y-15.6540
G01 X16.3959 Y-15.7084
G01 X16.3973 Y-15.7629
G01 X16.3959 Y-15.8174
G01 X16.3919 Y-15.8718
G01 X16.3853 Y-15.9259
G01 X16.3759 Y-15.9796
G01 X16.3640 Y-16.0327
G01 X16.3495 Y-16.0853
G01 X16.3324 Y-16.1370
G01 X16.3127 Y-16.1879
G01 X16.2906 Y-16.2377
G01 X16.2661 Y-16.2864
G01 X16.2393 Y-16.3338
G01 X16.2101 Y-16.3799
G01 X16.1787 Y-16.4245
G01 X16.1452 Y-16.4674
G01 X16.1096 Y-16.5087
G01 X16.0720 Y-16.5482
G01 X16.0325 Y-16.5858
G01 X15.9912 Y-16.6214
G01 X15.9483 Y-16.6549
G01 X15.9037 Y-16.6863
G01 X15.8576 Y-16.7155
G01 X15.8102 Y-16.7423
G01 X15.7615 Y-16.7668
G01 X15.7117 Y-16.7889
G01 X15.6608 Y-16.8086
G01 X15.6091 Y-16.8257
G01 X15.5565 Y-16.8402
G01 X15.5034 Y-16.8521
G01 X15.4497 Y-16.8615
G01 X15.3956 Y-16.8681
G01 X15.3412 Y-16.8721
G01 X15.2856 Y-16.8735
G01 X11.4458 Y-16.8736
G01 X11.4336 Y-16.8748
G01 X11.4193 Y-16.8785
G01 X11.3580 Y-16.9021
G01 X11.3016 Y-16.9208
G01 X11.2444 Y-16.9366
G01 X11.1865 Y-16.9496
G01 X11.1279 Y-16.9598
G01 X11.0690 Y-16.9670
G01 X11.0098 Y-16.9714
G01 X10.9504 Y-16.9729
G01 X10.8910 Y-16.9714
G01 X10.8318 Y-16.9670
G01 X10.7729 Y-16.9598
G01 X10.7143 Y-16.9496
G01 X10.6564 Y-16.9366
G01 X10.5992 Y-16.9208
G01 X10.5428 Y-16.9021
G01 X10.4874 Y-16.8808
G01 X10.4331 Y-16.8567
G01 X10.3800 Y-16.8300
G01 X10.3283 Y-16.8007
G01 X10.2782 Y-16.7690
G01 X10.2296 Y-16.7348
G01 X10.1828 Y-16.6982
G01 X10.1378 Y-16.6594
G01 X10.0948 Y-16.6185
G01 X10.0539 Y-16.5755
G01 X10.0151 Y-16.5305
G01 X9.9785 Y-16.4837
G01 X9.9443 Y-16.4351
G01 X9.9126 Y-16.3850
G01 X9.8833 Y-16.3333
G01 X9.8566 Y-16.2802
G01 X9.8325 Y-16.2259
G01 X9.8112 Y-16.1705
G01 X9.7925 Y-16.1141
G01 X9.7767 Y-16.0569
G01 X9.7637 Y-15.9990
G01 X9.7535 Y-15.9404
G01 X9.7463 Y-15.8815
G01 X9.7419 Y-15.8223
G01 X9.7408 Y-15.7823
G01 X9.7386 Y-15.7679
G01 X9.7329 Y-15.7512
G01 X9.7266 Y-15.7398
G01 X9.7178 Y-15.7282
G01 X9.7049 Y-15.7165
G01 X9.6926 Y-15.7088
G01 X9.6805 Y-15.7036
G01 X8.2790 Y-15.2168
G01 X8.2626 Y-15.2097
G01 X8.2309 Y-15.1931
G01 X8.2010 Y-15.1734
G01 X8.1868 Y-15.1625
G01 X8.1602 Y-15.1386
G01 X8.1361 Y-15.1122
G01 X8.1147 Y-15.0835
G01 X8.1051 Y-15.0684
G01 X8.0882 Y-15.0369
G01 X8.0810 Y-15.0205
G01 X8.0690 Y-14.9868
G01 X8.0642 Y-14.9696
G01 X8.0573 Y-14.9345
G01 X8.0540 Y-14.8989
G01 X8.0586 Y-13.8831
G01 X8.0578 Y-13.8703
G01 X8.0549 Y-13.8570
G01 X8.0483 Y-13.8407
G01 X8.0388 Y-13.8263
G01 X8.0261 Y-13.8133
G01 X8.0120 Y-13.8037
G01 X7.9957 Y-13.7968
G01 X7.9784 Y-13.7932
G01 X7.9654 Y-13.7927
G01 X7.9556 Y-13.7936
G01 X7.9440 Y-13.7961
G01 X7.9269 Y-13.8029
G01 X7.9165 Y-13.8093
G01 X7.9093 Y-13.8150
G01 X7.8970 Y-13.8281
G01 X7.1051 Y-14.9720
G01 X7.0963 Y-14.9879
G01 X7.0918 Y-15.0014
G01 X7.0892 Y-15.0193
G01 X7.0902 Y-15.0373
G01 X7.0949 Y-15.0550
G01 X7.1031 Y-15.0715
G01 X7.1165 Y-15.0907
G01 X7.1482 Y-15.1408
G01 X7.1775 Y-15.1925
G01 X7.2042 Y-15.2456
G01 X7.2283 Y-15.2999
G01 X7.2496 Y-15.3553
G01 X7.2683 Y-15.4117
G01 X7.2841 Y-15.4689
G01 X7.2971 Y-15.5268
G01 X7.3073 Y-15.5854
G01 X7.3145 Y-15.6443
G01 X7.3189 Y-15.7035
G01 X7.3204 Y-15.7629
G01 X7.3189 Y-15.8223
G01 X7.3145 Y-15.8815
G01 X7.3073 Y-15.9404
G01 X7.2971 Y-15.9990
G01 X7.2841 Y-16.0569
G01 X7.2683 Y-16.1141
G01 X7.2496 Y-16.1705
G01 X7.2283 Y-16.2259
G01 X7.2042 Y-16.2802
G01 X7.1775 Y-16.3333
G01 X7.1482 Y-16.3850
G01 X7.1165 Y-16.4351
G01 X7.0823 Y-16.4837
G01 X7.0457 Y-16.5305
G01 X7.0069 Y-16.5755
G01 X6.9660 Y-16.6185
G01 X6.9230 Y-16.6594
G01 X6.8780 Y-16.6982
G01 X6.8312 Y-16.7348
G01 X6.7826 Y-16.7690
G01 X6.7325 Y-16.8007
G01 X6.6808 Y-16.8300
G01 X6.6277 Y-16.8567
G01 X6.5734 Y-16.8808
G01 X6.5180 Y-16.9021
G01 X6.4616 Y-16.9208
G01 X6.4044 Y-16.9366
G01 X6.3465 Y-16.9496
G01 X6.2879 Y-16.9598
G01 X6.2290 Y-16.9670
G01 X6.1698 Y-16.9714
G01 X6.1104 Y-16.9729
G01 X6.0510 Y-16.9714
G01 X5.9918 Y-16.9670
G01 X5.9329 Y-16.9598
G01 X5.8743 Y-16.9496
G01 X5.8164 Y-16.9366
G01 X5.7592 Y-16.9208
G01 X5.7028 Y-16.9021
G01 X5.6414 Y-16.8785
G01 X5.6272 Y-16.8748
G01 X5.6150 Y-16.8736
G01 X1.8991 Y-16.8735
G01 X1.8435 Y-16.8721
G01 X1.7891 Y-16.8681
G01 X1.7350 Y-16.8615
G01 X1.6813 Y-16.8521
G01 X1.6282 Y-16.8402
G01 X1.5756 Y-16.8257
G01 X1.5239 Y-16.8086
G01 X1.4730 Y-16.7889
G01 X1.4232 Y-16.7668
G01 X1.3745 Y-16.7423
G00 Z3.0000
M05
G00 Z3.0000
G00 Z12.70
G00 X0.0 Y0.0

M02