(G-CODE GENERATED BY FLATCAM v8.95 - www.flatcam.org - Version Date: 2019/08/17)

(Name: Sintez1_Ф1_верх.gbr_cutout_cnc)
(Type: G-code from Geometry)
(Units: MM)

(Created on Monday, 27 July 2020 at 17:37)

(TOOL DIAMETER: 0.8 mm)
(Feedrate: 50.0 mm/min)
(Feedrate_Z: 79.9998 mm/min)
(Feedrate rapids 79.9998 mm/min)

(Z_Cut: -1.5 mm)
(DepthPerCut: 0.15 mm <=>10 passes)
(Z_Move: 3.0 mm)
(Z Toolchange: 12.7 mm)
(X,Y Toolchange: 0.0000, 0.0000 mm)
(Z Start: None mm)
(Z End: 12.7 mm)
(Steps per circle: 128)
(Postprocessor Geometry: default)

(X range:   -0.4991 ...   40.4991  mm)
(Y range:  -60.4991 ...    0.4991  mm)

(Spindle Speed: None RPM)

G21
G90
G94

G01 F50.00
G00 Z3.0000

M03
G00 X19.5991 Y0.4991
G01 F80.00
G01 Z-0.1500
G01 F50.00
G01 X0.0000 Y0.4991
G01 X-0.0489 Y0.4967
G01 X-0.0974 Y0.4895
G01 X-0.1449 Y0.4776
G01 X-0.1910 Y0.4611
G01 X-0.2353 Y0.4402
G01 X-0.2773 Y0.4150
G01 X-0.3166 Y0.3858
G01 X-0.3529 Y0.3529
G01 X-0.3858 Y0.3166
G01 X-0.4150 Y0.2773
G01 X-0.4402 Y0.2353
G01 X-0.4611 Y0.1910
G01 X-0.4776 Y0.1449
G01 X-0.4895 Y0.0974
G01 X-0.4967 Y0.0489
G01 X-0.4991 Y0.0000
G01 X-0.4991 Y-60.0000
G01 X-0.4967 Y-60.0489
G01 X-0.4895 Y-60.0974
G01 X-0.4776 Y-60.1449
G01 X-0.4611 Y-60.1910
G01 X-0.4402 Y-60.2353
G01 X-0.4150 Y-60.2773
G01 X-0.3858 Y-60.3166
G01 X-0.3529 Y-60.3529
G01 X-0.3166 Y-60.3858
G01 X-0.2773 Y-60.4150
G01 X-0.2353 Y-60.4402
G01 X-0.1910 Y-60.4611
G01 X-0.1449 Y-60.4776
G01 X-0.0974 Y-60.4895
G01 X-0.0489 Y-60.4967
G01 X0.0000 Y-60.4991
G01 X19.5991 Y-60.4991
G00 X19.5991 Y-60.4991
G01 F80.00
G01 Z-0.3000
G01 F50.00
G01 X0.0000 Y-60.4991
G01 X-0.0489 Y-60.4967
G01 X-0.0974 Y-60.4895
G01 X-0.1449 Y-60.4776
G01 X-0.1910 Y-60.4611
G01 X-0.2353 Y-60.4402
G01 X-0.2773 Y-60.4150
G01 X-0.3166 Y-60.3858
G01 X-0.3529 Y-60.3529
G01 X-0.3858 Y-60.3166
G01 X-0.4150 Y-60.2773
G01 X-0.4402 Y-60.2353
G01 X-0.4611 Y-60.1910
G01 X-0.4776 Y-60.1449
G01 X-0.4895 Y-60.0974
G01 X-0.4967 Y-60.0489
G01 X-0.4991 Y-60.0000
G01 X-0.4991 Y0.0000
G01 X-0.4967 Y0.0489
G01 X-0.4895 Y0.0974
G01 X-0.4776 Y0.1449
G01 X-0.4611 Y0.1910
G01 X-0.4402 Y0.2353
G01 X-0.4150 Y0.2773
G01 X-0.3858 Y0.3166
G01 X-0.3529 Y0.3529
G01 X-0.3166 Y0.3858
G01 X-0.2773 Y0.4150
G01 X-0.2353 Y0.4402
G01 X-0.1910 Y0.4611
G01 X-0.1449 Y0.4776
G01 X-0.0974 Y0.4895
G01 X-0.0489 Y0.4967
G01 X0.0000 Y0.4991
G01 X19.5991 Y0.4991
G00 X19.5991 Y0.4991
G01 F80.00
G01 Z-0.4500
G01 F50.00
G01 X0.0000 Y0.4991
G01 X-0.0489 Y0.4967
G01 X-0.0974 Y0.4895
G01 X-0.1449 Y0.4776
G01 X-0.1910 Y0.4611
G01 X-0.2353 Y0.4402
G01 X-0.2773 Y0.4150
G01 X-0.3166 Y0.3858
G01 X-0.3529 Y0.3529
G01 X-0.3858 Y0.3166
G01 X-0.4150 Y0.2773
G01 X-0.4402 Y0.2353
G01 X-0.4611 Y0.1910
G01 X-0.4776 Y0.1449
G01 X-0.4895 Y0.0974
G01 X-0.4967 Y0.0489
G01 X-0.4991 Y0.0000
G01 X-0.4991 Y-60.0000
G01 X-0.4967 Y-60.0489
G01 X-0.4895 Y-60.0974
G01 X-0.4776 Y-60.1449
G01 X-0.4611 Y-60.1910
G01 X-0.4402 Y-60.2353
G01 X-0.4150 Y-60.2773
G01 X-0.3858 Y-60.3166
G01 X-0.3529 Y-60.3529
G01 X-0.3166 Y-60.3858
G01 X-0.2773 Y-60.4150
G01 X-0.2353 Y-60.4402
G01 X-0.1910 Y-60.4611
G01 X-0.1449 Y-60.4776
G01 X-0.0974 Y-60.4895
G01 X-0.0489 Y-60.4967
G01 X0.0000 Y-60.4991
G01 X19.5991 Y-60.4991
G00 X19.5991 Y-60.4991
G01 F80.00
G01 Z-0.6000
G01 F50.00
G01 X0.0000 Y-60.4991
G01 X-0.0489 Y-60.4967
G01 X-0.0974 Y-60.4895
G01 X-0.1449 Y-60.4776
G01 X-0.1910 Y-60.4611
G01 X-0.2353 Y-60.4402
G01 X-0.2773 Y-60.4150
G01 X-0.3166 Y-60.3858
G01 X-0.3529 Y-60.3529
G01 X-0.3858 Y-60.3166
G01 X-0.4150 Y-60.2773
G01 X-0.4402 Y-60.2353
G01 X-0.4611 Y-60.1910
G01 X-0.4776 Y-60.1449
G01 X-0.4895 Y-60.0974
G01 X-0.4967 Y-60.0489
G01 X-0.4991 Y-60.0000
G01 X-0.4991 Y0.0000
G01 X-0.4967 Y0.0489
G01 X-0.4895 Y0.0974
G01 X-0.4776 Y0.1449
G01 X-0.4611 Y0.1910
G01 X-0.4402 Y0.2353
G01 X-0.4150 Y0.2773
G01 X-0.3858 Y0.3166
G01 X-0.3529 Y0.3529
G01 X-0.3166 Y0.3858
G01 X-0.2773 Y0.4150
G01 X-0.2353 Y0.4402
G01 X-0.1910 Y0.4611
G01 X-0.1449 Y0.4776
G01 X-0.0974 Y0.4895
G01 X-0.0489 Y0.4967
G01 X0.0000 Y0.4991
G01 X19.5991 Y0.4991
G00 X19.5991 Y0.4991
G01 F80.00
G01 Z-0.7500
G01 F50.00
G01 X0.0000 Y0.4991
G01 X-0.0489 Y0.4967
G01 X-0.0974 Y0.4895
G01 X-0.1449 Y0.4776
G01 X-0.1910 Y0.4611
G01 X-0.2353 Y0.4402
G01 X-0.2773 Y0.4150
G01 X-0.3166 Y0.3858
G01 X-0.3529 Y0.3529
G01 X-0.3858 Y0.3166
G01 X-0.4150 Y0.2773
G01 X-0.4402 Y0.2353
G01 X-0.4611 Y0.1910
G01 X-0.4776 Y0.1449
G01 X-0.4895 Y0.0974
G01 X-0.4967 Y0.0489
G01 X-0.4991 Y0.0000
G01 X-0.4991 Y-60.0000
G01 X-0.4967 Y-60.0489
G01 X-0.4895 Y-60.0974
G01 X-0.4776 Y-60.1449
G01 X-0.4611 Y-60.1910
G01 X-0.4402 Y-60.2353
G01 X-0.4150 Y-60.2773
G01 X-0.3858 Y-60.3166
G01 X-0.3529 Y-60.3529
G01 X-0.3166 Y-60.3858
G01 X-0.2773 Y-60.4150
G01 X-0.2353 Y-60.4402
G01 X-0.1910 Y-60.4611
G01 X-0.1449 Y-60.4776
G01 X-0.0974 Y-60.4895
G01 X-0.0489 Y-60.4967
G01 X0.0000 Y-60.4991
G01 X19.5991 Y-60.4991
G00 X19.5991 Y-60.4991
G01 F80.00
G01 Z-0.9000
G01 F50.00
G01 X0.0000 Y-60.4991
G01 X-0.0489 Y-60.4967
G01 X-0.0974 Y-60.4895
G01 X-0.1449 Y-60.4776
G01 X-0.1910 Y-60.4611
G01 X-0.2353 Y-60.4402
G01 X-0.2773 Y-60.4150
G01 X-0.3166 Y-60.3858
G01 X-0.3529 Y-60.3529
G01 X-0.3858 Y-60.3166
G01 X-0.4150 Y-60.2773
G01 X-0.4402 Y-60.2353
G01 X-0.4611 Y-60.1910
G01 X-0.4776 Y-60.1449
G01 X-0.4895 Y-60.0974
G01 X-0.4967 Y-60.0489
G01 X-0.4991 Y-60.0000
G01 X-0.4991 Y0.0000
G01 X-0.4967 Y0.0489
G01 X-0.4895 Y0.0974
G01 X-0.4776 Y0.1449
G01 X-0.4611 Y0.1910
G01 X-0.4402 Y0.2353
G01 X-0.4150 Y0.2773
G01 X-0.3858 Y0.3166
G01 X-0.3529 Y0.3529
G01 X-0.3166 Y0.3858
G01 X-0.2773 Y0.4150
G01 X-0.2353 Y0.4402
G01 X-0.1910 Y0.4611
G01 X-0.1449 Y0.4776
G01 X-0.0974 Y0.4895
G01 X-0.0489 Y0.4967
G01 X0.0000 Y0.4991
G01 X19.5991 Y0.4991
G00 X19.5991 Y0.4991
G01 F80.00
G01 Z-1.0500
G01 F50.00
G01 X0.0000 Y0.4991
G01 X-0.0489 Y0.4967
G01 X-0.0974 Y0.4895
G01 X-0.1449 Y0.4776
G01 X-0.1910 Y0.4611
G01 X-0.2353 Y0.4402
G01 X-0.2773 Y0.4150
G01 X-0.3166 Y0.3858
G01 X-0.3529 Y0.3529
G01 X-0.3858 Y0.3166
G01 X-0.4150 Y0.2773
G01 X-0.4402 Y0.2353
G01 X-0.4611 Y0.1910
G01 X-0.4776 Y0.1449
G01 X-0.4895 Y0.0974
G01 X-0.4967 Y0.0489
G01 X-0.4991 Y0.0000
G01 X-0.4991 Y-60.0000
G01 X-0.4967 Y-60.0489
G01 X-0.4895 Y-60.0974
G01 X-0.4776 Y-60.1449
G01 X-0.4611 Y-60.1910
G01 X-0.4402 Y-60.2353
G01 X-0.4150 Y-60.2773
G01 X-0.3858 Y-60.3166
G01 X-0.3529 Y-60.3529
G01 X-0.3166 Y-60.3858
G01 X-0.2773 Y-60.4150
G01 X-0.2353 Y-60.4402
G01 X-0.1910 Y-60.4611
G01 X-0.1449 Y-60.4776
G01 X-0.0974 Y-60.4895
G01 X-0.0489 Y-60.4967
G01 X0.0000 Y-60.4991
G01 X19.5991 Y-60.4991
G00 X19.5991 Y-60.4991
G01 F80.00
G01 Z-1.2000
G01 F50.00
G01 X0.0000 Y-60.4991
G01 X-0.0489 Y-60.4967
G01 X-0.0974 Y-60.4895
G01 X-0.1449 Y-60.4776
G01 X-0.1910 Y-60.4611
G01 X-0.2353 Y-60.4402
G01 X-0.2773 Y-60.4150
G01 X-0.3166 Y-60.3858
G01 X-0.3529 Y-60.3529
G01 X-0.3858 Y-60.3166
G01 X-0.4150 Y-60.2773
G01 X-0.4402 Y-60.2353
G01 X-0.4611 Y-60.1910
G01 X-0.4776 Y-60.1449
G01 X-0.4895 Y-60.0974
G01 X-0.4967 Y-60.0489
G01 X-0.4991 Y-60.0000
G01 X-0.4991 Y0.0000
G01 X-0.4967 Y0.0489
G01 X-0.4895 Y0.0974
G01 X-0.4776 Y0.1449
G01 X-0.4611 Y0.1910
G01 X-0.4402 Y0.2353
G01 X-0.4150 Y0.2773
G01 X-0.3858 Y0.3166
G01 X-0.3529 Y0.3529
G01 X-0.3166 Y0.3858
G01 X-0.2773 Y0.4150
G01 X-0.2353 Y0.4402
G01 X-0.1910 Y0.4611
G01 X-0.1449 Y0.4776
G01 X-0.0974 Y0.4895
G01 X-0.0489 Y0.4967
G01 X0.0000 Y0.4991
G01 X19.5991 Y0.4991
G00 X19.5991 Y0.4991
G01 F80.00
G01 Z-1.3500
G01 F50.00
G01 X0.0000 Y0.4991
G01 X-0.0489 Y0.4967
G01 X-0.0974 Y0.4895
G01 X-0.1449 Y0.4776
G01 X-0.1910 Y0.4611
G01 X-0.2353 Y0.4402
G01 X-0.2773 Y0.4150
G01 X-0.3166 Y0.3858
G01 X-0.3529 Y0.3529
G01 X-0.3858 Y0.3166
G01 X-0.4150 Y0.2773
G01 X-0.4402 Y0.2353
G01 X-0.4611 Y0.1910
G01 X-0.4776 Y0.1449
G01 X-0.4895 Y0.0974
G01 X-0.4967 Y0.0489
G01 X-0.4991 Y0.0000
G01 X-0.4991 Y-60.0000
G01 X-0.4967 Y-60.0489
G01 X-0.4895 Y-60.0974
G01 X-0.4776 Y-60.1449
G01 X-0.4611 Y-60.1910
G01 X-0.4402 Y-60.2353
G01 X-0.4150 Y-60.2773
G01 X-0.3858 Y-60.3166
G01 X-0.3529 Y-60.3529
G01 X-0.3166 Y-60.3858
G01 X-0.2773 Y-60.4150
G01 X-0.2353 Y-60.4402
G01 X-0.1910 Y-60.4611
G01 X-0.1449 Y-60.4776
G01 X-0.0974 Y-60.4895
G01 X-0.0489 Y-60.4967
G01 X0.0000 Y-60.4991
G01 X19.5991 Y-60.4991
G00 X19.5991 Y-60.4991
G01 F80.00
G01 Z-1.5000
G01 F50.00
G01 X0.0000 Y-60.4991
G01 X-0.0489 Y-60.4967
G01 X-0.0974 Y-60.4895
G01 X-0.1449 Y-60.4776
G01 X-0.1910 Y-60.4611
G01 X-0.2353 Y-60.4402
G01 X-0.2773 Y-60.4150
G01 X-0.3166 Y-60.3858
G01 X-0.3529 Y-60.3529
G01 X-0.3858 Y-60.3166
G01 X-0.4150 Y-60.2773
G01 X-0.4402 Y-60.2353
G01 X-0.4611 Y-60.1910
G01 X-0.4776 Y-60.1449
G01 X-0.4895 Y-60.0974
G01 X-0.4967 Y-60.0489
G01 X-0.4991 Y-60.0000
G01 X-0.4991 Y0.0000
G01 X-0.4967 Y0.0489
G01 X-0.4895 Y0.0974
G01 X-0.4776 Y0.1449
G01 X-0.4611 Y0.1910
G01 X-0.4402 Y0.2353
G01 X-0.4150 Y0.2773
G01 X-0.3858 Y0.3166
G01 X-0.3529 Y0.3529
G01 X-0.3166 Y0.3858
G01 X-0.2773 Y0.4150
G01 X-0.2353 Y0.4402
G01 X-0.1910 Y0.4611
G01 X-0.1449 Y0.4776
G01 X-0.0974 Y0.4895
G01 X-0.0489 Y0.4967
G01 X0.0000 Y0.4991
G01 X19.5991 Y0.4991
G00 Z3.0000
G00 X20.5991 Y0.4991
G01 F80.00
G01 Z-0.1500
G01 F50.00
G01 X40.0000 Y0.4991
G01 X40.0489 Y0.4967
G01 X40.0974 Y0.4895
G01 X40.1449 Y0.4776
G01 X40.1910 Y0.4611
G01 X40.2353 Y0.4402
G01 X40.2773 Y0.4150
G01 X40.3166 Y0.3858
G01 X40.3529 Y0.3529
G01 X40.3858 Y0.3166
G01 X40.4150 Y0.2773
G01 X40.4402 Y0.2353
G01 X40.4611 Y0.1910
G01 X40.4776 Y0.1449
G01 X40.4895 Y0.0974
G01 X40.4967 Y0.0489
G01 X40.4991 Y0.0000
G01 X40.4991 Y-60.0000
G01 X40.4967 Y-60.0489
G01 X40.4895 Y-60.0974
G01 X40.4776 Y-60.1449
G01 X40.4611 Y-60.1910
G01 X40.4402 Y-60.2353
G01 X40.4150 Y-60.2773
G01 X40.3858 Y-60.3166
G01 X40.3529 Y-60.3529
G01 X40.3166 Y-60.3858
G01 X40.2773 Y-60.4150
G01 X40.2353 Y-60.4402
G01 X40.1910 Y-60.4611
G01 X40.1449 Y-60.4776
G01 X40.0974 Y-60.4895
G01 X40.0489 Y-60.4967
G01 X40.0000 Y-60.4991
G00 X40.0000 Y-60.4991
G01 F80.00
G01 Z-0.3000
G01 F50.00
G01 X40.0489 Y-60.4967
G01 X40.0974 Y-60.4895
G01 X40.1449 Y-60.4776
G01 X40.1910 Y-60.4611
G01 X40.2353 Y-60.4402
G01 X40.2773 Y-60.4150
G01 X40.3166 Y-60.3858
G01 X40.3529 Y-60.3529
G01 X40.3858 Y-60.3166
G01 X40.4150 Y-60.2773
G01 X40.4402 Y-60.2353
G01 X40.4611 Y-60.1910
G01 X40.4776 Y-60.1449
G01 X40.4895 Y-60.0974
G01 X40.4967 Y-60.0489
G01 X40.4991 Y-60.0000
G01 X40.4991 Y0.0000
G01 X40.4967 Y0.0489
G01 X40.4895 Y0.0974
G01 X40.4776 Y0.1449
G01 X40.4611 Y0.1910
G01 X40.4402 Y0.2353
G01 X40.4150 Y0.2773
G01 X40.3858 Y0.3166
G01 X40.3529 Y0.3529
G01 X40.3166 Y0.3858
G01 X40.2773 Y0.4150
G01 X40.2353 Y0.4402
G01 X40.1910 Y0.4611
G01 X40.1449 Y0.4776
G01 X40.0974 Y0.4895
G01 X40.0489 Y0.4967
G01 X40.0000 Y0.4991
G01 X20.5991 Y0.4991
G00 X20.5991 Y0.4991
G01 F80.00
G01 Z-0.4500
G01 F50.00
G01 X40.0000 Y0.4991
G01 X40.0489 Y0.4967
G01 X40.0974 Y0.4895
G01 X40.1449 Y0.4776
G01 X40.1910 Y0.4611
G01 X40.2353 Y0.4402
G01 X40.2773 Y0.4150
G01 X40.3166 Y0.3858
G01 X40.3529 Y0.3529
G01 X40.3858 Y0.3166
G01 X40.4150 Y0.2773
G01 X40.4402 Y0.2353
G01 X40.4611 Y0.1910
G01 X40.4776 Y0.1449
G01 X40.4895 Y0.0974
G01 X40.4967 Y0.0489
G01 X40.4991 Y0.0000
G01 X40.4991 Y-60.0000
G01 X40.4967 Y-60.0489
G01 X40.4895 Y-60.0974
G01 X40.4776 Y-60.1449
G01 X40.4611 Y-60.1910
G01 X40.4402 Y-60.2353
G01 X40.4150 Y-60.2773
G01 X40.3858 Y-60.3166
G01 X40.3529 Y-60.3529
G01 X40.3166 Y-60.3858
G01 X40.2773 Y-60.4150
G01 X40.2353 Y-60.4402
G01 X40.1910 Y-60.4611
G01 X40.1449 Y-60.4776
G01 X40.0974 Y-60.4895
G01 X40.0489 Y-60.4967
G01 X40.0000 Y-60.4991
G00 X40.0000 Y-60.4991
G01 F80.00
G01 Z-0.6000
G01 F50.00
G01 X40.0489 Y-60.4967
G01 X40.0974 Y-60.4895
G01 X40.1449 Y-60.4776
G01 X40.1910 Y-60.4611
G01 X40.2353 Y-60.4402
G01 X40.2773 Y-60.4150
G01 X40.3166 Y-60.3858
G01 X40.3529 Y-60.3529
G01 X40.3858 Y-60.3166
G01 X40.4150 Y-60.2773
G01 X40.4402 Y-60.2353
G01 X40.4611 Y-60.1910
G01 X40.4776 Y-60.1449
G01 X40.4895 Y-60.0974
G01 X40.4967 Y-60.0489
G01 X40.4991 Y-60.0000
G01 X40.4991 Y0.0000
G01 X40.4967 Y0.0489
G01 X40.4895 Y0.0974
G01 X40.4776 Y0.1449
G01 X40.4611 Y0.1910
G01 X40.4402 Y0.2353
G01 X40.4150 Y0.2773
G01 X40.3858 Y0.3166
G01 X40.3529 Y0.3529
G01 X40.3166 Y0.3858
G01 X40.2773 Y0.4150
G01 X40.2353 Y0.4402
G01 X40.1910 Y0.4611
G01 X40.1449 Y0.4776
G01 X40.0974 Y0.4895
G01 X40.0489 Y0.4967
G01 X40.0000 Y0.4991
G01 X20.5991 Y0.4991
G00 X20.5991 Y0.4991
G01 F80.00
G01 Z-0.7500
G01 F50.00
G01 X40.0000 Y0.4991
G01 X40.0489 Y0.4967
G01 X40.0974 Y0.4895
G01 X40.1449 Y0.4776
G01 X40.1910 Y0.4611
G01 X40.2353 Y0.4402
G01 X40.2773 Y0.4150
G01 X40.3166 Y0.3858
G01 X40.3529 Y0.3529
G01 X40.3858 Y0.3166
G01 X40.4150 Y0.2773
G01 X40.4402 Y0.2353
G01 X40.4611 Y0.1910
G01 X40.4776 Y0.1449
G01 X40.4895 Y0.0974
G01 X40.4967 Y0.0489
G01 X40.4991 Y0.0000
G01 X40.4991 Y-60.0000
G01 X40.4967 Y-60.0489
G01 X40.4895 Y-60.0974
G01 X40.4776 Y-60.1449
G01 X40.4611 Y-60.1910
G01 X40.4402 Y-60.2353
G01 X40.4150 Y-60.2773
G01 X40.3858 Y-60.3166
G01 X40.3529 Y-60.3529
G01 X40.3166 Y-60.3858
G01 X40.2773 Y-60.4150
G01 X40.2353 Y-60.4402
G01 X40.1910 Y-60.4611
G01 X40.1449 Y-60.4776
G01 X40.0974 Y-60.4895
G01 X40.0489 Y-60.4967
G01 X40.0000 Y-60.4991
G00 X40.0000 Y-60.4991
G01 F80.00
G01 Z-0.9000
G01 F50.00
G01 X40.0489 Y-60.4967
G01 X40.0974 Y-60.4895
G01 X40.1449 Y-60.4776
G01 X40.1910 Y-60.4611
G01 X40.2353 Y-60.4402
G01 X40.2773 Y-60.4150
G01 X40.3166 Y-60.3858
G01 X40.3529 Y-60.3529
G01 X40.3858 Y-60.3166
G01 X40.4150 Y-60.2773
G01 X40.4402 Y-60.2353
G01 X40.4611 Y-60.1910
G01 X40.4776 Y-60.1449
G01 X40.4895 Y-60.0974
G01 X40.4967 Y-60.0489
G01 X40.4991 Y-60.0000
G01 X40.4991 Y0.0000
G01 X40.4967 Y0.0489
G01 X40.4895 Y0.0974
G01 X40.4776 Y0.1449
G01 X40.4611 Y0.1910
G01 X40.4402 Y0.2353
G01 X40.4150 Y0.2773
G01 X40.3858 Y0.3166
G01 X40.3529 Y0.3529
G01 X40.3166 Y0.3858
G01 X40.2773 Y0.4150
G01 X40.2353 Y0.4402
G01 X40.1910 Y0.4611
G01 X40.1449 Y0.4776
G01 X40.0974 Y0.4895
G01 X40.0489 Y0.4967
G01 X40.0000 Y0.4991
G01 X20.5991 Y0.4991
G00 X20.5991 Y0.4991
G01 F80.00
G01 Z-1.0500
G01 F50.00
G01 X40.0000 Y0.4991
G01 X40.0489 Y0.4967
G01 X40.0974 Y0.4895
G01 X40.1449 Y0.4776
G01 X40.1910 Y0.4611
G01 X40.2353 Y0.4402
G01 X40.2773 Y0.4150
G01 X40.3166 Y0.3858
G01 X40.3529 Y0.3529
G01 X40.3858 Y0.3166
G01 X40.4150 Y0.2773
G01 X40.4402 Y0.2353
G01 X40.4611 Y0.1910
G01 X40.4776 Y0.1449
G01 X40.4895 Y0.0974
G01 X40.4967 Y0.0489
G01 X40.4991 Y0.0000
G01 X40.4991 Y-60.0000
G01 X40.4967 Y-60.0489
G01 X40.4895 Y-60.0974
G01 X40.4776 Y-60.1449
G01 X40.4611 Y-60.1910
G01 X40.4402 Y-60.2353
G01 X40.4150 Y-60.2773
G01 X40.3858 Y-60.3166
G01 X40.3529 Y-60.3529
G01 X40.3166 Y-60.3858
G01 X40.2773 Y-60.4150
G01 X40.2353 Y-60.4402
G01 X40.1910 Y-60.4611
G01 X40.1449 Y-60.4776
G01 X40.0974 Y-60.4895
G01 X40.0489 Y-60.4967
G01 X40.0000 Y-60.4991
G00 X40.0000 Y-60.4991
G01 F80.00
G01 Z-1.2000
G01 F50.00
G01 X40.0489 Y-60.4967
G01 X40.0974 Y-60.4895
G01 X40.1449 Y-60.4776
G01 X40.1910 Y-60.4611
G01 X40.2353 Y-60.4402
G01 X40.2773 Y-60.4150
G01 X40.3166 Y-60.3858
G01 X40.3529 Y-60.3529
G01 X40.3858 Y-60.3166
G01 X40.4150 Y-60.2773
G01 X40.4402 Y-60.2353
G01 X40.4611 Y-60.1910
G01 X40.4776 Y-60.1449
G01 X40.4895 Y-60.0974
G01 X40.4967 Y-60.0489
G01 X40.4991 Y-60.0000
G01 X40.4991 Y0.0000
G01 X40.4967 Y0.0489
G01 X40.4895 Y0.0974
G01 X40.4776 Y0.1449
G01 X40.4611 Y0.1910
G01 X40.4402 Y0.2353
G01 X40.4150 Y0.2773
G01 X40.3858 Y0.3166
G01 X40.3529 Y0.3529
G01 X40.3166 Y0.3858
G01 X40.2773 Y0.4150
G01 X40.2353 Y0.4402
G01 X40.1910 Y0.4611
G01 X40.1449 Y0.4776
G01 X40.0974 Y0.4895
G01 X40.0489 Y0.4967
G01 X40.0000 Y0.4991
G01 X20.5991 Y0.4991
G00 X20.5991 Y0.4991
G01 F80.00
G01 Z-1.3500
G01 F50.00
G01 X40.0000 Y0.4991
G01 X40.0489 Y0.4967
G01 X40.0974 Y0.4895
G01 X40.1449 Y0.4776
G01 X40.1910 Y0.4611
G01 X40.2353 Y0.4402
G01 X40.2773 Y0.4150
G01 X40.3166 Y0.3858
G01 X40.3529 Y0.3529
G01 X40.3858 Y0.3166
G01 X40.4150 Y0.2773
G01 X40.4402 Y0.2353
G01 X40.4611 Y0.1910
G01 X40.4776 Y0.1449
G01 X40.4895 Y0.0974
G01 X40.4967 Y0.0489
G01 X40.4991 Y0.0000
G01 X40.4991 Y-60.0000
G01 X40.4967 Y-60.0489
G01 X40.4895 Y-60.0974
G01 X40.4776 Y-60.1449
G01 X40.4611 Y-60.1910
G01 X40.4402 Y-60.2353
G01 X40.4150 Y-60.2773
G01 X40.3858 Y-60.3166
G01 X40.3529 Y-60.3529
G01 X40.3166 Y-60.3858
G01 X40.2773 Y-60.4150
G01 X40.2353 Y-60.4402
G01 X40.1910 Y-60.4611
G01 X40.1449 Y-60.4776
G01 X40.0974 Y-60.4895
G01 X40.0489 Y-60.4967
G01 X40.0000 Y-60.4991
G00 X40.0000 Y-60.4991
G01 F80.00
G01 Z-1.5000
G01 F50.00
G01 X40.0489 Y-60.4967
G01 X40.0974 Y-60.4895
G01 X40.1449 Y-60.4776
G01 X40.1910 Y-60.4611
G01 X40.2353 Y-60.4402
G01 X40.2773 Y-60.4150
G01 X40.3166 Y-60.3858
G01 X40.3529 Y-60.3529
G01 X40.3858 Y-60.3166
G01 X40.4150 Y-60.2773
G01 X40.4402 Y-60.2353
G01 X40.4611 Y-60.1910
G01 X40.4776 Y-60.1449
G01 X40.4895 Y-60.0974
G01 X40.4967 Y-60.0489
G01 X40.4991 Y-60.0000
G01 X40.4991 Y0.0000
G01 X40.4967 Y0.0489
G01 X40.4895 Y0.0974
G01 X40.4776 Y0.1449
G01 X40.4611 Y0.1910
G01 X40.4402 Y0.2353
G01 X40.4150 Y0.2773
G01 X40.3858 Y0.3166
G01 X40.3529 Y0.3529
G01 X40.3166 Y0.3858
G01 X40.2773 Y0.4150
G01 X40.2353 Y0.4402
G01 X40.1910 Y0.4611
G01 X40.1449 Y0.4776
G01 X40.0974 Y0.4895
G01 X40.0489 Y0.4967
G01 X40.0000 Y0.4991
G01 X20.5991 Y0.4991
G00 Z3.0000
G00 X20.5991 Y-60.4991
G01 F80.00
G01 Z-0.1500
G01 F50.00
G01 X40.0000 Y-60.4991
G00 X40.0000 Y-60.4991
G01 F80.00
G01 Z-0.3000
G01 F50.00
G01 X20.5991 Y-60.4991
G00 X20.5991 Y-60.4991
G01 F80.00
G01 Z-0.4500
G01 F50.00
G01 X40.0000 Y-60.4991
G00 X40.0000 Y-60.4991
G01 F80.00
G01 Z-0.6000
G01 F50.00
G01 X20.5991 Y-60.4991
G00 X20.5991 Y-60.4991
G01 F80.00
G01 Z-0.7500
G01 F50.00
G01 X40.0000 Y-60.4991
G00 X40.0000 Y-60.4991
G01 F80.00
G01 Z-0.9000
G01 F50.00
G01 X20.5991 Y-60.4991
G00 X20.5991 Y-60.4991
G01 F80.00
G01 Z-1.0500
G01 F50.00
G01 X40.0000 Y-60.4991
G00 X40.0000 Y-60.4991
G01 F80.00
G01 Z-1.2000
G01 F50.00
G01 X20.5991 Y-60.4991
G00 X20.5991 Y-60.4991
G01 F80.00
G01 Z-1.3500
G01 F50.00
G01 X40.0000 Y-60.4991
G00 X40.0000 Y-60.4991
G01 F80.00
G01 Z-1.5000
G01 F50.00
G01 X20.5991 Y-60.4991
G00 Z3.0000
M05
G00 Z3.0000
G00 Z12.70
G00 X0.0 Y0.0

M02