(G-CODE GENERATED BY FLATCAM v8.95 - www.flatcam.org - Version Date: 2019/08/17)

(Name: Sintez1_Ф1_верх.gbr_ncc_cnc)
(Type: G-code from Geometry)
(Units: MM)

(Created on Tuesday, 15 September 2020 at 10:13)

(TOOL DIAMETER: 0.13 mm)
(Feedrate: 100.0 mm/min)
(Feedrate_Z: 79.9998 mm/min)
(Feedrate rapids 79.9998 mm/min)

(Z_Cut: -0.056 mm)
(Z_Move: 3.0 mm)
(Z Toolchange: 12.7 mm)
(X,Y Toolchange: 0.0000, 0.0000 mm)
(Z Start: None mm)
(Z End: 12.7 mm)
(Steps per circle: 128)
(Postprocessor Geometry: default)

(X range:    0.0000 ...    0.0000  mm)
(Y range:    0.0000 ...    0.0000  mm)

(Spindle Speed: None RPM)

G21
G90
G94

G01 F100.00
G00 Z3.0000

M03
G00 X2.4462 Y-1.0988
G01 F80.00
G01 Z-0.0560
G01 F100.00
G01 X2.4342 Y-1.0993
G01 X2.4206 Y-1.1012
G01 X2.4072 Y-1.1043
G01 X2.3942 Y-1.1088
G01 X2.3817 Y-1.1145
G01 X2.3698 Y-1.1214
G01 X2.3587 Y-1.1295
G01 X2.3509 Y-1.1362
G01 X2.3436 Y-1.1435
G01 X2.3348 Y-1.1540
G01 X2.3270 Y-1.1653
G01 X2.3204 Y-1.1774
G01 X2.3150 Y-1.1900
G01 X2.3108 Y-1.2031
G01 X2.3086 Y-1.2132
G01 X2.3067 Y-1.2268
G01 X2.3062 Y-1.2388
G01 X2.3062 Y-2.8558
G01 X2.3050 Y-2.8639
G01 X2.3006 Y-2.8710
G01 X2.2944 Y-2.8751
G01 X2.2862 Y-2.8765
G01 X2.2790 Y-2.8747
G01 X2.2730 Y-2.8703
G01 X2.2692 Y-2.8639
G01 X2.2680 Y-2.8558
G01 X2.2680 Y-1.2388
G01 X2.2672 Y-1.2233
G01 X2.2650 Y-1.2098
G01 X2.2604 Y-1.1932
G01 X2.2523 Y-1.1743
G01 X2.2435 Y-1.1596
G01 X2.2329 Y-1.1460
G01 X2.2208 Y-1.1339
G01 X2.2072 Y-1.1233
G01 X2.1925 Y-1.1145
G01 X2.1768 Y-1.1076
G01 X2.1570 Y-1.1018
G01 X2.1469 Y-1.1001
G01 X2.1332 Y-1.0989
G01 X1.9296 Y-1.0986
G01 X1.9225 Y-1.0965
G01 X1.9168 Y-1.0918
G01 X1.9133 Y-1.0852
G01 X1.9126 Y-1.0778
G01 X1.9147 Y-1.0707
G01 X1.9194 Y-1.0650
G01 X1.9260 Y-1.0615
G01 X1.9332 Y-1.0606
G01 X2.6409 Y-1.0606
G01 X2.6481 Y-1.0615
G01 X2.6539 Y-1.0644
G01 X2.6589 Y-1.0699
G01 X2.6613 Y-1.0760
G01 X2.6611 Y-1.0843
G01 X2.6579 Y-1.0910
G01 X2.6524 Y-1.0960
G01 X2.6445 Y-1.0986
G01 X2.4462 Y-1.0988
G01 X2.4462 Y-1.1688
G01 X2.4325 Y-1.1701
G01 X2.4226 Y-1.1729
G01 X2.4132 Y-1.1770
G01 X2.4018 Y-1.1847
G01 X2.3921 Y-1.1944
G01 X2.3861 Y-1.2028
G01 X2.3803 Y-1.2152
G01 X2.3775 Y-1.2251
G01 X2.3762 Y-1.2388
G01 X2.3761 Y-2.8619
G01 X2.3735 Y-2.8791
G01 X2.3676 Y-2.8956
G01 X2.3611 Y-2.9070
G01 X2.3559 Y-2.9140
G01 X2.3436 Y-2.9263
G01 X2.3291 Y-2.9360
G01 X2.3130 Y-2.9427
G01 X2.2958 Y-2.9461
G01 X2.2784 Y-2.9461
G01 X2.2612 Y-2.9427
G01 X2.2490 Y-2.9380
G01 X2.2340 Y-2.9290
G01 X2.2211 Y-2.9173
G01 X2.2131 Y-2.9070
G01 X2.2048 Y-2.8916
G01 X2.2007 Y-2.8791
G01 X2.1981 Y-2.8619
G01 X2.1980 Y-1.2388
G01 X2.1977 Y-1.2319
G01 X2.1959 Y-1.2218
G01 X2.1927 Y-1.2120
G01 X2.1881 Y-1.2028
G01 X2.1842 Y-1.1971
G01 X2.1775 Y-1.1893
G01 X2.1697 Y-1.1826
G01 X2.1610 Y-1.1770
G01 X2.1516 Y-1.1729
G01 X2.1417 Y-1.1701
G01 X2.1280 Y-1.1688
G01 X1.9271 Y-1.1687
G01 X1.9099 Y-1.1661
G01 X1.8974 Y-1.1620
G01 X1.8857 Y-1.1561
G01 X1.8750 Y-1.1485
G01 X1.8627 Y-1.1362
G01 X1.8551 Y-1.1255
G01 X1.8476 Y-1.1097
G01 X1.8442 Y-1.0971
G01 X1.8424 Y-1.0797
G01 X1.8434 Y-1.0666
G01 X1.8476 Y-1.0497
G01 X1.8530 Y-1.0377
G01 X1.8627 Y-1.0232
G01 X1.8717 Y-1.0137
G01 X1.8820 Y-1.0057
G01 X1.8974 Y-0.9974
G01 X1.9099 Y-0.9933
G01 X1.9271 Y-0.9907
G01 X2.6470 Y-0.9907
G01 X2.6557 Y-0.9916
G01 X2.6685 Y-0.9945
G01 X2.6807 Y-0.9992
G01 X2.6921 Y-1.0057
G01 X2.7024 Y-1.0137
G01 X2.7114 Y-1.0232
G01 X2.7166 Y-1.0302
G01 X2.7231 Y-1.0416
G01 X2.7290 Y-1.0581
G01 X2.7316 Y-1.0753
G01 X2.7307 Y-1.0928
G01 X2.7265 Y-1.1097
G01 X2.7190 Y-1.1255
G01 X2.7086 Y-1.1395
G01 X2.6957 Y-1.1512
G01 X2.6807 Y-1.1602
G01 X2.6642 Y-1.1661
G01 X2.6470 Y-1.1687
G01 X2.4462 Y-1.1688
G00 Z3.0000
G00 X3.6930 Y-1.8222
G01 F80.00
G01 Z-0.0560
G01 F100.00
G01 X3.7075 Y-1.8229
G01 X3.7255 Y-1.8222
G01 X3.7092 Y-1.8547
G01 X3.6930 Y-1.8222
G01 X3.7093 Y-2.0825
G01 X3.7255 Y-2.1150
G01 X3.7110 Y-2.1143
G01 X3.6930 Y-2.1150
G01 X3.7093 Y-2.0825
G01 X4.1359 Y-1.0727
G01 X4.1405 Y-1.0659
G01 X4.1477 Y-1.0616
G01 X4.1560 Y-1.0608
G01 X4.1638 Y-1.0636
G01 X4.1692 Y-1.0687
G01 X4.1720 Y-1.0746
G01 X4.1727 Y-1.0810
G01 X4.1711 Y-1.0874
G01 X4.1700 Y-1.0898
G01 X3.7619 Y-1.9060
G01 X3.7611 Y-1.9075
G01 X3.7546 Y-1.9233
G01 X3.7509 Y-1.9364
G01 X3.7484 Y-1.9499
G01 X3.7471 Y-1.9669
G01 X3.7480 Y-1.9839
G01 X3.7484 Y-1.9873
G01 X3.7489 Y-1.9907
G01 X3.7509 Y-2.0008
G01 X3.7558 Y-2.0171
G01 X3.7611 Y-2.0297
G01 X4.1711 Y-2.8498
G01 X4.1727 Y-2.8571
G01 X4.1714 Y-2.8644
G01 X4.1675 Y-2.8707
G01 X4.1614 Y-2.8749
G01 X4.1550 Y-2.8765
G01 X4.1477 Y-2.8756
G01 X4.1419 Y-2.8725
G01 X4.1371 Y-2.8668
G01 X3.8345 Y-2.2617
G01 X3.8268 Y-2.2483
G01 X3.8166 Y-2.2344
G01 X3.8047 Y-2.2219
G01 X3.7914 Y-2.2110
G01 X3.7769 Y-2.2018
G01 X3.7614 Y-2.1944
G01 X3.7450 Y-2.1890
G01 X3.7281 Y-2.1856
G01 X3.7110 Y-2.1843
G01 X3.6938 Y-2.1852
G01 X3.6768 Y-2.1881
G01 X3.6604 Y-2.1931
G01 X3.6446 Y-2.2001
G01 X3.6299 Y-2.2090
G01 X3.6163 Y-2.2196
G01 X3.6042 Y-2.2318
G01 X3.5936 Y-2.2454
G01 X3.5840 Y-2.2617
G01 X3.2814 Y-2.8668
G01 X3.2780 Y-2.8713
G01 X3.2742 Y-2.8740
G01 X3.2690 Y-2.8761
G01 X3.2644 Y-2.8765
G01 X3.2589 Y-2.8756
G01 X3.2547 Y-2.8736
G01 X3.2504 Y-2.8700
G01 X3.2478 Y-2.8661
G01 X3.2462 Y-2.8617
G01 X3.2458 Y-2.8571
G01 X3.2464 Y-2.8525
G01 X3.2485 Y-2.8474
G01 X3.6574 Y-2.0297
G01 X3.6627 Y-2.0171
G01 X3.6676 Y-2.0008
G01 X3.6705 Y-1.9839
G01 X3.6714 Y-1.9669
G01 X3.6701 Y-1.9499
G01 X3.6676 Y-1.9364
G01 X3.6639 Y-1.9233
G01 X3.6574 Y-1.9075
G01 X3.2485 Y-1.0898
G01 X3.2464 Y-1.0847
G01 X3.2458 Y-1.0792
G01 X3.2471 Y-1.0728
G01 X3.2498 Y-1.0679
G01 X3.2547 Y-1.0636
G01 X3.2598 Y-1.0613
G01 X3.2663 Y-1.0607
G01 X3.2717 Y-1.0620
G01 X3.2773 Y-1.0653
G01 X3.2814 Y-1.0704
G01 X3.5840 Y-1.6755
G01 X3.5956 Y-1.6946
G01 X3.6065 Y-1.7080
G01 X3.6189 Y-1.7198
G01 X3.6327 Y-1.7301
G01 X3.6508 Y-1.7401
G01 X3.6669 Y-1.7463
G01 X3.6836 Y-1.7505
G01 X3.7006 Y-1.7526
G01 X3.7213 Y-1.7524
G01 X3.7383 Y-1.7498
G01 X3.7549 Y-1.7452
G01 X3.7677 Y-1.7401
G01 X3.7828 Y-1.7320
G01 X3.7969 Y-1.7220
G01 X3.8096 Y-1.7105
G01 X3.8187 Y-1.7001
G01 X3.8286 Y-1.6860
G01 X3.8345 Y-1.6755
G01 X4.1359 Y-1.0727
G01 X4.0736 Y-1.0406
G01 X4.0783 Y-1.0323
G01 X4.0890 Y-1.0185
G01 X4.1022 Y-1.0070
G01 X4.1174 Y-0.9984
G01 X4.1340 Y-0.9929
G01 X4.1513 Y-0.9907
G01 X4.1687 Y-0.9919
G01 X4.1855 Y-0.9965
G01 X4.2011 Y-1.0043
G01 X4.2149 Y-1.0150
G01 X4.2238 Y-1.0247
G01 X4.2331 Y-1.0394
G01 X4.2382 Y-1.0515
G01 X4.2421 Y-1.0686
G01 X4.2427 Y-1.0816
G01 X4.2415 Y-1.0947
G01 X4.2369 Y-1.1115
G01 X3.8245 Y-1.9373
G01 X3.8196 Y-1.9500
G01 X3.8171 Y-1.9669
G01 X3.8188 Y-1.9839
G01 X3.8245 Y-1.9999
G01 X4.2369 Y-2.8257
G01 X4.2415 Y-2.8425
G01 X4.2427 Y-2.8599
G01 X4.2405 Y-2.8772
G01 X4.2350 Y-2.8938
G01 X4.2264 Y-2.9090
G01 X4.2180 Y-2.9191
G01 X4.2048 Y-2.9305
G01 X4.1896 Y-2.9390
G01 X4.1772 Y-2.9434
G01 X4.1600 Y-2.9463
G01 X4.1426 Y-2.9459
G01 X4.1297 Y-2.9433
G01 X4.1134 Y-2.9369
G01 X4.1022 Y-2.9302
G01 X4.0921 Y-2.9218
G01 X4.0807 Y-2.9086
G01 X4.0736 Y-2.8966
G01 X3.7702 Y-2.2900
G01 X3.7666 Y-2.2841
G01 X3.7600 Y-2.2761
G01 X3.7524 Y-2.2692
G01 X3.7468 Y-2.2652
G01 X3.7408 Y-2.2618
G01 X3.7313 Y-2.2579
G01 X3.7212 Y-2.2553
G01 X3.7144 Y-2.2545
G01 X3.7075 Y-2.2543
G01 X3.6973 Y-2.2553
G01 X3.6872 Y-2.2579
G01 X3.6777 Y-2.2618
G01 X3.6689 Y-2.2671
G01 X3.6609 Y-2.2737
G01 X3.6540 Y-2.2814
G01 X3.6483 Y-2.2900
G01 X3.3449 Y-2.8966
G01 X3.3402 Y-2.9049
G01 X3.3324 Y-2.9155
G01 X3.3232 Y-2.9248
G01 X3.3126 Y-2.9326
G01 X3.3011 Y-2.9388
G01 X3.2888 Y-2.9433
G01 X3.2759 Y-2.9459
G01 X3.2629 Y-2.9465
G01 X3.2498 Y-2.9453
G01 X3.2371 Y-2.9421
G01 X3.2250 Y-2.9372
G01 X3.2137 Y-2.9305
G01 X3.2036 Y-2.9222
G01 X3.1947 Y-2.9125
G01 X3.1874 Y-2.9016
G01 X3.1818 Y-2.8898
G01 X3.1780 Y-2.8772
G01 X3.1760 Y-2.8643
G01 X3.1760 Y-2.8512
G01 X3.1779 Y-2.8382
G01 X3.1816 Y-2.8257
G01 X3.1855 Y-2.8169
G01 X3.5940 Y-1.9999
G01 X3.5989 Y-1.9872
G01 X3.6014 Y-1.9703
G01 X3.5997 Y-1.9533
G01 X3.5940 Y-1.9373
G01 X3.1833 Y-1.1156
G01 X3.1789 Y-1.1032
G01 X3.1770 Y-1.0947
G01 X3.1758 Y-1.0773
G01 X3.1764 Y-1.0686
G01 X3.1790 Y-1.0557
G01 X3.1854 Y-1.0394
G01 X3.1921 Y-1.0282
G01 X3.2005 Y-1.0181
G01 X3.2102 Y-1.0093
G01 X3.2174 Y-1.0043
G01 X3.2250 Y-1.0000
G01 X3.2371 Y-0.9951
G01 X3.2498 Y-0.9919
G01 X3.2585 Y-0.9909
G01 X3.2672 Y-0.9907
G01 X3.2803 Y-0.9920
G01 X3.2888 Y-0.9939
G01 X3.3011 Y-0.9984
G01 X3.3126 Y-1.0046
G01 X3.3198 Y-1.0096
G01 X3.3264 Y-1.0154
G01 X3.3352 Y-1.0251
G01 X3.3449 Y-1.0406
G01 X3.6483 Y-1.6472
G01 X3.6540 Y-1.6558
G01 X3.6609 Y-1.6635
G01 X3.6689 Y-1.6701
G01 X3.6747 Y-1.6738
G01 X3.6840 Y-1.6782
G01 X3.6905 Y-1.6803
G01 X3.7007 Y-1.6824
G01 X3.7075 Y-1.6829
G01 X3.7144 Y-1.6827
G01 X3.7246 Y-1.6812
G01 X3.7345 Y-1.6782
G01 X3.7438 Y-1.6738
G01 X3.7524 Y-1.6680
G01 X3.7600 Y-1.6611
G01 X3.7645 Y-1.6558
G01 X3.7702 Y-1.6472
G01 X4.0736 Y-1.0406
G00 Z3.0000
G00 X5.1095 Y-2.0797
G01 F80.00
G01 Z-0.0560
G01 F100.00
G01 X5.1221 Y-2.0679
G01 X5.1315 Y-2.0577
G01 X5.1409 Y-2.0679
G01 X5.1535 Y-2.0797
G01 X5.1433 Y-2.0891
G01 X5.1315 Y-2.1017
G01 X5.1197 Y-2.0891
G01 X5.1095 Y-2.0797
G01 X5.1506 Y-2.5225
G01 X5.1494 Y-2.5306
G01 X5.1456 Y-2.5370
G01 X5.1396 Y-2.5414
G01 X5.1324 Y-2.5432
G01 X5.1251 Y-2.5421
G01 X5.1187 Y-2.5383
G01 X5.1143 Y-2.5323
G01 X5.1125 Y-2.5251
G01 X5.1124 Y-2.2388
G01 X5.1111 Y-2.2199
G01 X5.1069 Y-2.1998
G01 X5.1011 Y-2.1836
G01 X5.0934 Y-2.1683
G01 X5.0817 Y-2.1513
G01 X5.0750 Y-2.1435
G01 X5.0652 Y-2.1339
G01 X5.0572 Y-2.1274
G01 X5.0459 Y-2.1196
G01 X5.0369 Y-2.1145
G01 X5.0244 Y-2.1088
G01 X5.0147 Y-2.1053
G01 X5.0014 Y-2.1018
G01 X4.9879 Y-2.0996
G01 X4.9741 Y-2.0988
G01 X4.7740 Y-2.0986
G01 X4.7669 Y-2.0965
G01 X4.7618 Y-2.0925
G01 X4.7580 Y-2.0861
G01 X4.7569 Y-2.0797
G01 X4.7580 Y-2.0733
G01 X4.7618 Y-2.0669
G01 X4.7669 Y-2.0629
G01 X4.7740 Y-2.0608
G01 X4.9741 Y-2.0606
G01 X4.9879 Y-2.0598
G01 X5.0014 Y-2.0576
G01 X5.0147 Y-2.0541
G01 X5.0244 Y-2.0506
G01 X5.0369 Y-2.0449
G01 X5.0459 Y-2.0398
G01 X5.0572 Y-2.0320
G01 X5.0652 Y-2.0255
G01 X5.0726 Y-2.0184
G01 X5.0817 Y-2.0081
G01 X5.0934 Y-1.9911
G01 X5.1011 Y-1.9758
G01 X5.1078 Y-1.9563
G01 X5.1111 Y-1.9395
G01 X5.1124 Y-1.9206
G01 X5.1125 Y-1.6344
G01 X5.1143 Y-1.6272
G01 X5.1187 Y-1.6212
G01 X5.1251 Y-1.6174
G01 X5.1324 Y-1.6163
G01 X5.1388 Y-1.6177
G01 X5.1450 Y-1.6218
G01 X5.1491 Y-1.6280
G01 X5.1505 Y-1.6344
G01 X5.1506 Y-1.9206
G01 X5.1519 Y-1.9395
G01 X5.1561 Y-1.9596
G01 X5.1619 Y-1.9758
G01 X5.1714 Y-1.9941
G01 X5.1813 Y-2.0081
G01 X5.1880 Y-2.0159
G01 X5.1978 Y-2.0255
G01 X5.2058 Y-2.0320
G01 X5.2171 Y-2.0398
G01 X5.2261 Y-2.0449
G01 X5.2386 Y-2.0506
G01 X5.2483 Y-2.0541
G01 X5.2616 Y-2.0576
G01 X5.2751 Y-2.0598
G01 X5.2889 Y-2.0606
G01 X5.4889 Y-2.0608
G01 X5.4960 Y-2.0629
G01 X5.5011 Y-2.0669
G01 X5.5049 Y-2.0733
G01 X5.5060 Y-2.0797
G01 X5.5049 Y-2.0861
G01 X5.5011 Y-2.0925
G01 X5.4960 Y-2.0965
G01 X5.4889 Y-2.0986
G01 X5.2889 Y-2.0988
G01 X5.2751 Y-2.0996
G01 X5.2582 Y-2.1026
G01 X5.2450 Y-2.1064
G01 X5.2323 Y-2.1115
G01 X5.2231 Y-2.1161
G01 X5.2114 Y-2.1233
G01 X5.2031 Y-2.1295
G01 X5.1928 Y-2.1386
G01 X5.1835 Y-2.1486
G01 X5.1751 Y-2.1596
G01 X5.1663 Y-2.1743
G01 X5.1582 Y-2.1932
G01 X5.1530 Y-2.2132
G01 X5.1509 Y-2.2302
G01 X5.1506 Y-2.5225
G01 X5.2206 Y-2.5233
G01 X5.2201 Y-2.5329
G01 X5.2167 Y-2.5501
G01 X5.2120 Y-2.5623
G01 X5.2030 Y-2.5773
G01 X5.1913 Y-2.5902
G01 X5.1810 Y-2.5982
G01 X5.1656 Y-2.6065
G01 X5.1531 Y-2.6106
G01 X5.1359 Y-2.6132
G01 X5.1184 Y-2.6123
G01 X5.1056 Y-2.6094
G01 X5.0934 Y-2.6047
G01 X5.0784 Y-2.5957
G01 X5.0655 Y-2.5840
G01 X5.0575 Y-2.5737
G01 X5.0510 Y-2.5623
G01 X5.0451 Y-2.5458
G01 X5.0429 Y-2.5329
G01 X5.0424 Y-2.5233
G01 X5.0423 Y-2.2353
G01 X5.0411 Y-2.2251
G01 X5.0371 Y-2.2120
G01 X5.0325 Y-2.2028
G01 X5.0265 Y-2.1944
G01 X5.0168 Y-2.1847
G01 X5.0054 Y-2.1770
G01 X4.9927 Y-2.1718
G01 X4.9793 Y-2.1691
G01 X4.7768 Y-2.1688
G01 X4.7628 Y-2.1678
G01 X4.7459 Y-2.1636
G01 X4.7301 Y-2.1561
G01 X4.7194 Y-2.1485
G01 X4.7099 Y-2.1395
G01 X4.7019 Y-2.1292
G01 X4.6954 Y-2.1178
G01 X4.6907 Y-2.1056
G01 X4.6878 Y-2.0928
G01 X4.6868 Y-2.0797
G01 X4.6878 Y-2.0666
G01 X4.6907 Y-2.0538
G01 X4.6954 Y-2.0416
G01 X4.7019 Y-2.0302
G01 X4.7099 Y-2.0199
G01 X4.7194 Y-2.0109
G01 X4.7301 Y-2.0033
G01 X4.7459 Y-1.9958
G01 X4.7628 Y-1.9916
G01 X4.7768 Y-1.9906
G01 X4.9793 Y-1.9903
G01 X4.9927 Y-1.9876
G01 X5.0054 Y-1.9824
G01 X5.0168 Y-1.9747
G01 X5.0265 Y-1.9650
G01 X5.0325 Y-1.9566
G01 X5.0371 Y-1.9474
G01 X5.0403 Y-1.9376
G01 X5.0423 Y-1.9241
G01 X5.0424 Y-1.6362
G01 X5.0429 Y-1.6266
G01 X5.0451 Y-1.6137
G01 X5.0510 Y-1.5972
G01 X5.0575 Y-1.5858
G01 X5.0655 Y-1.5755
G01 X5.0784 Y-1.5638
G01 X5.0934 Y-1.5548
G01 X5.1056 Y-1.5501
G01 X5.1184 Y-1.5472
G01 X5.1359 Y-1.5463
G01 X5.1489 Y-1.5480
G01 X5.1615 Y-1.5514
G01 X5.1773 Y-1.5589
G01 X5.1880 Y-1.5665
G01 X5.1975 Y-1.5755
G01 X5.2055 Y-1.5858
G01 X5.2120 Y-1.5972
G01 X5.2179 Y-1.6137
G01 X5.2201 Y-1.6266
G01 X5.2206 Y-1.6362
G01 X5.2207 Y-1.9241
G01 X5.2219 Y-1.9343
G01 X5.2247 Y-1.9442
G01 X5.2288 Y-1.9536
G01 X5.2365 Y-1.9650
G01 X5.2462 Y-1.9747
G01 X5.2576 Y-1.9824
G01 X5.2703 Y-1.9876
G01 X5.2837 Y-1.9903
G01 X5.4861 Y-1.9906
G01 X5.5001 Y-1.9916
G01 X5.5129 Y-1.9945
G01 X5.5251 Y-1.9992
G01 X5.5365 Y-2.0057
G01 X5.5468 Y-2.0137
G01 X5.5558 Y-2.0232
G01 X5.5634 Y-2.0339
G01 X5.5693 Y-2.0456
G01 X5.5734 Y-2.0581
G01 X5.5756 Y-2.0710
G01 X5.5756 Y-2.0884
G01 X5.5734 Y-2.1013
G01 X5.5675 Y-2.1178
G01 X5.5610 Y-2.1292
G01 X5.5530 Y-2.1395
G01 X5.5435 Y-2.1485
G01 X5.5328 Y-2.1561
G01 X5.5170 Y-2.1636
G01 X5.5001 Y-2.1678
G01 X5.4861 Y-2.1688
G01 X5.2837 Y-2.1691
G01 X5.2703 Y-2.1718
G01 X5.2576 Y-2.1770
G01 X5.2462 Y-2.1847
G01 X5.2365 Y-2.1944
G01 X5.2305 Y-2.2028
G01 X5.2259 Y-2.2120
G01 X5.2227 Y-2.2218
G01 X5.2207 Y-2.2353
G01 X5.2206 Y-2.5233
G00 Z3.0000
G00 X5.3624 Y-5.1463
G01 F80.00
G01 Z-0.0560
G01 F100.00
G01 X5.3701 Y-5.2510
G01 X5.3821 Y-5.3489
G01 X5.3994 Y-5.4489
G01 X5.4224 Y-5.5510
G01 X5.4496 Y-5.6489
G01 X5.4803 Y-5.7421
G01 X5.5181 Y-5.8401
G01 X5.5580 Y-5.9299
G01 X5.6035 Y-6.0207
G01 X5.6553 Y-6.1121
G01 X5.7097 Y-6.1978
G01 X5.7663 Y-6.2781
G01 X5.8309 Y-6.3609
G01 X5.8973 Y-6.4378
G01 X5.9662 Y-6.5101
G01 X6.0411 Y-6.5813
G01 X6.1180 Y-6.6476
G01 X6.1954 Y-6.7080
G01 X6.2813 Y-6.7685
G01 X6.3672 Y-6.8228
G01 X6.4526 Y-6.8711
G01 X6.5464 Y-6.9184
G01 X6.6363 Y-6.9582
G01 X6.6599 Y-6.9674
G01 X6.6600 Y-7.6048
G01 X6.6620 Y-7.6184
G01 X6.6666 Y-7.6313
G01 X6.6737 Y-7.6431
G01 X6.6829 Y-7.6533
G01 X6.6910 Y-7.6596
G01 X6.7031 Y-7.6661
G01 X6.7162 Y-7.6701
G01 X6.7299 Y-7.6714
G01 X8.1333 Y-7.6713
G01 X8.1436 Y-7.6701
G01 X8.1567 Y-7.6661
G01 X8.1688 Y-7.6596
G01 X8.1794 Y-7.6509
G01 X8.1861 Y-7.6431
G01 X8.1932 Y-7.6313
G01 X8.1969 Y-7.6217
G01 X8.1996 Y-7.6083
G01 X8.1999 Y-6.9674
G01 X8.2236 Y-6.9582
G01 X8.3165 Y-6.9169
G01 X8.4072 Y-6.8711
G01 X8.4956 Y-6.8210
G01 X8.5813 Y-6.7666
G01 X8.6644 Y-6.7080
G01 X8.7444 Y-6.6454
G01 X8.8213 Y-6.5790
G01 X8.8936 Y-6.5101
G01 X8.9631 Y-6.4372
G01 X9.0289 Y-6.3609
G01 X9.0915 Y-6.2809
G01 X9.1503 Y-6.1976
G01 X9.2046 Y-6.1118
G01 X9.2546 Y-6.0237
G01 X9.3004 Y-5.9330
G01 X9.3417 Y-5.8400
G01 X9.3795 Y-5.7421
G01 X9.4103 Y-5.6489
G01 X9.4374 Y-5.5510
G01 X9.4598 Y-5.4519
G01 X9.4772 Y-5.3518
G01 X9.4901 Y-5.2476
G01 X9.4975 Y-5.1463
G01 X9.4999 Y-5.0481
G01 X9.4975 Y-4.9465
G01 X9.4901 Y-4.8452
G01 X9.4777 Y-4.7439
G01 X9.4604 Y-4.6439
G01 X9.4382 Y-4.5448
G01 X9.4112 Y-4.4472
G01 X9.3795 Y-4.3507
G01 X9.3430 Y-4.2558
G01 X9.3018 Y-4.1629
G01 X9.2563 Y-4.0721
G01 X9.2063 Y-3.9837
G01 X9.1520 Y-3.8978
G01 X9.0935 Y-3.8147
G01 X9.0311 Y-3.7345
G01 X8.9648 Y-3.6576
G01 X8.8936 Y-3.5827
G01 X8.8207 Y-3.5132
G01 X8.7444 Y-3.4474
G01 X8.6644 Y-3.3848
G01 X8.5811 Y-3.3260
G01 X8.4953 Y-3.2717
G01 X8.4072 Y-3.2217
G01 X8.3165 Y-3.1759
G01 X8.2235 Y-3.1346
G01 X8.1288 Y-3.0980
G01 X8.0324 Y-3.0660
G01 X7.9345 Y-3.0389
G01 X7.8354 Y-3.0165
G01 X7.7353 Y-2.9991
G01 X7.6345 Y-2.9866
G01 X7.5332 Y-2.9790
G01 X7.4299 Y-2.9764
G01 X7.3300 Y-2.9788
G01 X7.2287 Y-2.9862
G01 X7.1274 Y-2.9986
G01 X7.0274 Y-3.0159
G01 X6.9283 Y-3.0381
G01 X6.8307 Y-3.0651
G01 X6.7342 Y-3.0968
G01 X6.6393 Y-3.1333
G01 X6.5464 Y-3.1745
G01 X6.4556 Y-3.2200
G01 X6.3672 Y-3.2700
G01 X6.2813 Y-3.3243
G01 X6.1982 Y-3.3828
G01 X6.1180 Y-3.4452
G01 X6.0411 Y-3.5115
G01 X5.9662 Y-3.5827
G01 X5.8967 Y-3.6556
G01 X5.8309 Y-3.7319
G01 X5.7683 Y-3.8119
G01 X5.7095 Y-3.8952
G01 X5.6552 Y-3.9810
G01 X5.6052 Y-4.0691
G01 X5.5594 Y-4.1598
G01 X5.5181 Y-4.2528
G01 X5.4815 Y-4.3475
G01 X5.4495 Y-4.4439
G01 X5.4224 Y-4.5418
G01 X5.4000 Y-4.6409
G01 X5.3826 Y-4.7410
G01 X5.3701 Y-4.8418
G01 X5.3625 Y-4.9431
G01 X5.3599 Y-5.0464
G01 X5.3624 Y-5.1463
G00 Z3.0000
G00 X5.2925 Y-5.1510
G01 F80.00
G01 Z-0.0560
G01 F100.00
G01 X5.2899 Y-5.0473
G01 X5.2924 Y-4.9448
G01 X5.3004 Y-4.8349
G01 X5.3128 Y-4.7341
G01 X5.3304 Y-4.6323
G01 X5.3545 Y-4.5248
G01 X5.3825 Y-4.4236
G01 X5.4139 Y-4.3287
G01 X5.4534 Y-4.2260
G01 X5.4946 Y-4.1330
G01 X5.5410 Y-4.0407
G01 X5.5950 Y-3.9451
G01 X5.6512 Y-3.8565
G01 X5.7090 Y-3.7744
G01 X5.7768 Y-3.6875
G01 X5.8446 Y-3.6090
G01 X5.9143 Y-3.5357
G01 X5.9941 Y-3.4596
G01 X6.0710 Y-3.3933
G01 X6.1524 Y-3.3296
G01 X6.2424 Y-3.2661
G01 X6.3283 Y-3.2118
G01 X6.4181 Y-3.1607
G01 X6.5164 Y-3.1112
G01 X6.6094 Y-3.0700
G01 X6.7057 Y-3.0327
G01 X6.8103 Y-2.9981
G01 X6.9112 Y-2.9702
G01 X7.0090 Y-2.9482
G01 X7.1170 Y-2.9294
G01 X7.2184 Y-2.9169
G01 X7.3215 Y-2.9092
G01 X7.4290 Y-2.9064
G01 X7.5383 Y-2.9092
G01 X7.6414 Y-2.9169
G01 X7.7422 Y-2.9293
G01 X7.8508 Y-2.9482
G01 X7.9515 Y-2.9710
G01 X8.0494 Y-2.9981
G01 X8.1540 Y-3.0327
G01 X8.2503 Y-3.0699
G01 X8.3433 Y-3.1111
G01 X8.4417 Y-3.1607
G01 X8.5312 Y-3.2115
G01 X8.6198 Y-3.2677
G01 X8.7074 Y-3.3296
G01 X8.7888 Y-3.3933
G01 X8.8654 Y-3.4593
G01 X8.9437 Y-3.5338
G01 X9.0178 Y-3.6118
G01 X9.0830 Y-3.6875
G01 X9.1467 Y-3.7689
G01 X9.2083 Y-3.8561
G01 X9.2663 Y-3.9477
G01 X9.3188 Y-4.0407
G01 X9.3651 Y-4.1329
G01 X9.4056 Y-4.2243
G01 X9.4442 Y-4.3238
G01 X9.4787 Y-4.4285
G01 X9.5061 Y-4.5277
G01 X9.5281 Y-4.6255
G01 X9.5469 Y-4.7335
G01 X9.5597 Y-4.8384
G01 X9.5674 Y-4.9448
G01 X9.5699 Y-5.0455
G01 X9.5674 Y-5.1480
G01 X9.5597 Y-5.2544
G01 X9.5465 Y-5.3621
G01 X9.5281 Y-5.4673
G01 X9.5062 Y-5.5647
G01 X9.4787 Y-5.6643
G01 X9.4454 Y-5.7657
G01 X9.4064 Y-5.8668
G01 X9.3629 Y-5.9645
G01 X9.3180 Y-6.0537
G01 X9.2672 Y-6.1436
G01 X9.2086 Y-6.2363
G01 X9.1467 Y-6.3239
G01 X9.0852 Y-6.4027
G01 X9.0178 Y-6.4810
G01 X8.9455 Y-6.5571
G01 X8.8683 Y-6.6309
G01 X8.7848 Y-6.7028
G01 X8.7061 Y-6.7642
G01 X8.6217 Y-6.8238
G01 X8.5315 Y-6.8810
G01 X8.4356 Y-6.9353
G01 X8.3464 Y-6.9802
G01 X8.2699 Y-7.0142
G01 X8.2699 Y-7.6014
G01 X8.2690 Y-7.6168
G01 X8.2653 Y-7.6371
G01 X8.2599 Y-7.6534
G01 X8.2525 Y-7.6689
G01 X8.2434 Y-7.6834
G01 X8.2325 Y-7.6967
G01 X8.2200 Y-7.7085
G01 X8.2062 Y-7.7187
G01 X8.1913 Y-7.7272
G01 X8.1787 Y-7.7326
G01 X8.1622 Y-7.7376
G01 X8.1453 Y-7.7405
G01 X8.1299 Y-7.7414
G01 X6.7282 Y-7.7414
G01 X6.7145 Y-7.7405
G01 X6.7009 Y-7.7384
G01 X6.6876 Y-7.7349
G01 X6.6747 Y-7.7301
G01 X6.6624 Y-7.7240
G01 X6.6507 Y-7.7168
G01 X6.6398 Y-7.7085
G01 X6.6297 Y-7.6992
G01 X6.6228 Y-7.6915
G01 X6.6145 Y-7.6806
G01 X6.6090 Y-7.6719
G01 X6.6026 Y-7.6597
G01 X6.5975 Y-7.6469
G01 X6.5945 Y-7.6371
G01 X6.5917 Y-7.6236
G01 X6.5902 Y-7.6100
G01 X6.5899 Y-7.0142
G01 X6.5134 Y-6.9802
G01 X6.4196 Y-6.9329
G01 X6.3283 Y-6.8810
G01 X6.2400 Y-6.8251
G01 X6.1565 Y-6.7663
G01 X6.0736 Y-6.7017
G01 X5.9925 Y-6.6317
G01 X5.9192 Y-6.5620
G01 X5.8420 Y-6.4810
G01 X5.7746 Y-6.4027
G01 X5.7090 Y-6.3184
G01 X5.6496 Y-6.2339
G01 X5.5935 Y-6.1451
G01 X5.5418 Y-6.0537
G01 X5.4947 Y-5.9599
G01 X5.4522 Y-5.8637
G01 X5.4144 Y-5.7657
G01 X5.3816 Y-5.6660
G01 X5.3537 Y-5.5651
G01 X5.3308 Y-5.4627
G01 X5.3129 Y-5.3593
G01 X5.3001 Y-5.2544
G01 X5.2925 Y-5.1510
G01 X5.2226 Y-5.1540
G01 X5.2199 Y-5.0455
G01 X5.2227 Y-4.9362
G01 X5.2307 Y-4.8281
G01 X5.2445 Y-4.7179
G01 X5.2621 Y-4.6169
G01 X5.2849 Y-4.5144
G01 X5.3156 Y-4.4033
G01 X5.3508 Y-4.2972
G01 X5.3887 Y-4.1993
G01 X5.4299 Y-4.1062
G01 X5.4801 Y-4.0061
G01 X5.5370 Y-3.9059
G01 X5.5929 Y-3.8177
G01 X5.6518 Y-3.7341
G01 X5.7227 Y-3.6431
G01 X5.7924 Y-3.5623
G01 X5.8636 Y-3.4874
G01 X5.9445 Y-3.4101
G01 X6.0319 Y-3.3348
G01 X6.1120 Y-3.2724
G01 X6.1978 Y-3.2118
G01 X6.2952 Y-3.1500
G01 X6.3927 Y-3.0950
G01 X6.4865 Y-3.0479
G01 X6.5794 Y-3.0067
G01 X6.6870 Y-2.9650
G01 X6.7933 Y-2.9301
G01 X6.8940 Y-2.9024
G01 X6.9937 Y-2.8799
G01 X7.1065 Y-2.8602
G01 X7.2184 Y-2.8466
G01 X7.3197 Y-2.8392
G01 X7.4247 Y-2.8365
G01 X7.5401 Y-2.8392
G01 X7.6448 Y-2.8469
G01 X7.7491 Y-2.8596
G01 X7.8594 Y-2.8786
G01 X7.9719 Y-2.9039
G01 X8.0730 Y-2.9321
G01 X8.1696 Y-2.9639
G01 X8.2770 Y-3.0052
G01 X8.3794 Y-3.0508
G01 X8.4702 Y-3.0966
G01 X8.5616 Y-3.1482
G01 X8.6586 Y-3.2094
G01 X8.7505 Y-3.2744
G01 X8.8332 Y-3.3392
G01 X8.9121 Y-3.4072
G01 X8.9932 Y-3.4843
G01 X9.0708 Y-3.5661
G01 X9.1371 Y-3.6431
G01 X9.2019 Y-3.7258
G01 X9.2665 Y-3.8172
G01 X9.3263 Y-3.9117
G01 X9.3813 Y-4.0092
G01 X9.4284 Y-4.1030
G01 X9.4696 Y-4.1959
G01 X9.5101 Y-4.3003
G01 X9.5462 Y-4.4098
G01 X9.5739 Y-4.5105
G01 X9.5964 Y-4.6102
G01 X9.6161 Y-4.7230
G01 X9.6294 Y-4.8315
G01 X9.6374 Y-4.9431
G01 X9.6399 Y-5.0455
G01 X9.6374 Y-5.1497
G01 X9.6294 Y-5.2613
G01 X9.6157 Y-5.3724
G01 X9.5964 Y-5.4826
G01 X9.5741 Y-5.5817
G01 X9.5462 Y-5.6830
G01 X9.5113 Y-5.7892
G01 X9.4711 Y-5.8935
G01 X9.4255 Y-5.9959
G01 X9.3797 Y-6.0867
G01 X9.3281 Y-6.1781
G01 X9.2669 Y-6.2751
G01 X9.2034 Y-6.3649
G01 X9.1349 Y-6.4524
G01 X9.0674 Y-6.5305
G01 X8.9962 Y-6.6054
G01 X8.9153 Y-6.6827
G01 X8.8299 Y-6.7564
G01 X8.7422 Y-6.8245
G01 X8.6563 Y-6.8849
G01 X8.5697 Y-6.9397
G01 X8.4694 Y-6.9966
G01 X8.3772 Y-7.0431
G01 X8.3399 Y-7.0598
G01 X8.3399 Y-7.6014
G01 X8.3379 Y-7.6305
G01 X8.3327 Y-7.6557
G01 X8.3252 Y-7.6786
G01 X8.3159 Y-7.6989
G01 X8.3035 Y-7.7195
G01 X8.2900 Y-7.7373
G01 X8.2734 Y-7.7547
G01 X8.2564 Y-7.7690
G01 X8.2364 Y-7.7824
G01 X8.2134 Y-7.7941
G01 X8.1876 Y-7.8033
G01 X8.1742 Y-7.8067
G01 X8.1590 Y-7.8094
G01 X8.1333 Y-7.8114
G01 X6.7273 Y-7.8114
G01 X6.7076 Y-7.8102
G01 X6.6873 Y-7.8070
G01 X6.6706 Y-7.8028
G01 X6.6511 Y-7.7961
G01 X6.6324 Y-7.7874
G01 X6.6147 Y-7.7769
G01 X6.5980 Y-7.7648
G01 X6.5839 Y-7.7523
G01 X6.5698 Y-7.7373
G01 X6.5592 Y-7.7237
G01 X6.5489 Y-7.7079
G01 X6.5408 Y-7.6927
G01 X6.5334 Y-7.6754
G01 X6.5280 Y-7.6591
G01 X6.5236 Y-7.6407
G01 X6.5208 Y-7.6203
G01 X6.5199 Y-7.6014
G01 X6.5199 Y-7.0598
G01 X6.4811 Y-7.0423
G01 X6.3843 Y-6.9934
G01 X6.2923 Y-6.9411
G01 X6.1991 Y-6.8819
G01 X6.1120 Y-6.8204
G01 X6.0266 Y-6.7536
G01 X5.9458 Y-6.6839
G01 X5.8684 Y-6.6103
G01 X5.7936 Y-6.5318
G01 X5.7249 Y-6.4524
G01 X5.6518 Y-6.3587
G01 X5.5914 Y-6.2728
G01 X5.5335 Y-6.1811
G01 X5.4817 Y-6.0897
G01 X5.4332 Y-5.9937
G01 X5.3888 Y-5.8937
G01 X5.3497 Y-5.7925
G01 X5.3156 Y-5.6896
G01 X5.2859 Y-5.5823
G01 X5.2622 Y-5.4765
G01 X5.2437 Y-5.3698
G01 X5.2304 Y-5.2613
G01 X5.2226 Y-5.1540
G01 X5.1526 Y-5.1570
G01 X5.1499 Y-5.0473
G01 X5.1524 Y-4.9414
G01 X5.1611 Y-4.8212
G01 X5.1757 Y-4.7051
G01 X5.1934 Y-4.6033
G01 X5.2166 Y-4.4991
G01 X5.2486 Y-4.3830
G01 X5.2855 Y-4.2720
G01 X5.3240 Y-4.1725
G01 X5.3659 Y-4.0778
G01 X5.4183 Y-3.9731
G01 X5.4777 Y-3.8687
G01 X5.5346 Y-3.7790
G01 X5.5946 Y-3.6938
G01 X5.6664 Y-3.6013
G01 X5.7450 Y-3.5104
G01 X5.8171 Y-3.4348
G01 X5.8937 Y-3.3617
G01 X5.9822 Y-3.2850
G01 X6.0731 Y-3.2141
G01 X6.1690 Y-3.1469
G01 X6.2592 Y-3.0899
G01 X6.3491 Y-3.0389
G01 X6.4565 Y-2.9847
G01 X6.5638 Y-2.9374
G01 X6.6634 Y-2.8991
G01 X6.7615 Y-2.8667
G01 X6.8769 Y-2.8345
G01 X6.9917 Y-2.8090
G01 X7.0960 Y-2.7910
G01 X7.1996 Y-2.7781
G01 X7.3163 Y-2.7693
G01 X7.4366 Y-2.7665
G01 X7.5401 Y-2.7691
G01 X7.6465 Y-2.7768
G01 X7.7661 Y-2.7914
G01 X7.8814 Y-2.8116
G01 X7.9822 Y-2.8343
G01 X8.0851 Y-2.8627
G01 X8.1963 Y-2.8991
G01 X8.3085 Y-2.9426
G01 X8.4032 Y-2.9846
G01 X8.4986 Y-3.0325
G01 X8.6029 Y-3.0913
G01 X8.6987 Y-3.1521
G01 X8.7895 Y-3.2161
G01 X8.8750 Y-3.2829
G01 X8.9610 Y-3.3570
G01 X9.0372 Y-3.4294
G01 X9.1238 Y-3.5204
G01 X9.1934 Y-3.6013
G01 X9.2622 Y-3.6896
G01 X9.3266 Y-3.7811
G01 X9.3846 Y-3.8728
G01 X9.4399 Y-3.9701
G01 X9.4880 Y-4.0654
G01 X9.5389 Y-4.1803
G01 X9.5772 Y-4.2799
G01 X9.6122 Y-4.3862
G01 X9.6418 Y-4.4934
G01 X9.6662 Y-4.6024
G01 X9.6853 Y-4.7125
G01 X9.6982 Y-4.8161
G01 X9.7074 Y-4.9414
G01 X9.7099 Y-5.0473
G01 X9.7070 Y-5.1600
G01 X9.6991 Y-5.2682
G01 X9.6855 Y-5.3792
G01 X9.6664 Y-5.4895
G01 X9.6432 Y-5.5937
G01 X9.6096 Y-5.7148
G01 X9.5759 Y-5.8164
G01 X9.5339 Y-5.9246
G01 X9.4902 Y-6.0228
G01 X9.4399 Y-6.1227
G01 X9.3850 Y-6.2194
G01 X9.3252 Y-6.3138
G01 X9.2622 Y-6.4032
G01 X9.1934 Y-6.4915
G01 X9.1193 Y-6.5775
G01 X9.0469 Y-6.6537
G01 X8.9559 Y-6.7403
G01 X8.8750 Y-6.8099
G01 X8.7825 Y-6.8817
G01 X8.6952 Y-6.9431
G01 X8.6006 Y-7.0029
G01 X8.5062 Y-7.0564
G01 X8.4099 Y-7.1050
G01 X8.4099 Y-7.6027
G01 X8.4089 Y-7.6246
G01 X8.4062 Y-7.6467
G01 X8.4004 Y-7.6736
G01 X8.3920 Y-7.6998
G01 X8.3811 Y-7.7250
G01 X8.3674 Y-7.7497
G01 X8.3517 Y-7.7723
G01 X8.3315 Y-7.7957
G01 X8.3108 Y-7.8151
G01 X8.2890 Y-7.8318
G01 X8.2716 Y-7.8429
G01 X8.2535 Y-7.8526
G01 X8.2347 Y-7.8610
G01 X8.2153 Y-7.8681
G01 X8.1954 Y-7.8736
G01 X8.1752 Y-7.8777
G01 X8.1548 Y-7.8803
G01 X8.1333 Y-7.8814
G01 X6.7260 Y-7.8814
G01 X6.6973 Y-7.8795
G01 X6.6660 Y-7.8740
G01 X6.6380 Y-7.8659
G01 X6.6099 Y-7.8544
G01 X6.6099 Y-7.9484
G01 X6.6380 Y-7.9369
G01 X6.6660 Y-7.9288
G01 X6.6973 Y-7.9233
G01 X6.7260 Y-7.9214
G01 X8.1411 Y-7.9216
G01 X8.1599 Y-7.9230
G01 X8.1795 Y-7.9258
G01 X8.1963 Y-7.9294
G01 X8.2153 Y-7.9347
G01 X8.2331 Y-7.9411
G01 X8.2512 Y-7.9490
G01 X8.2694 Y-7.9586
G01 X8.2840 Y-7.9677
G01 X8.3001 Y-7.9791
G01 X8.3160 Y-7.9922
G01 X8.3297 Y-8.0053
G01 X8.3430 Y-8.0198
G01 X8.3558 Y-8.0360
G01 X8.3655 Y-8.0502
G01 X8.3756 Y-8.0671
G01 X8.3841 Y-8.0840
G01 X9.5343 Y-8.0994
G01 X9.5476 Y-8.0792
G01 X9.5630 Y-8.0596
G01 X8.6863 Y-8.0477
G01 X8.6575 Y-8.0457
G01 X8.6303 Y-8.0410
G01 X8.6103 Y-8.0358
G01 X8.5891 Y-8.0284
G01 X8.5701 Y-8.0201
G01 X8.5510 Y-8.0101
G01 X8.5335 Y-7.9990
G01 X8.5169 Y-7.9868
G01 X8.5012 Y-7.9733
G01 X8.4842 Y-7.9561
G01 X8.4703 Y-7.9396
G01 X8.4582 Y-7.9228
G01 X8.4474 Y-7.9052
G01 X8.4379 Y-7.8868
G01 X8.4292 Y-7.8661
G01 X8.4227 Y-7.8465
G01 X8.4176 Y-7.8264
G01 X8.4140 Y-7.8061
G01 X8.4114 Y-7.7734
G01 X8.4116 Y-7.7570
G01 X8.4128 Y-7.7398
G01 X8.4176 Y-7.7092
G01 X8.4217 Y-7.6924
G01 X8.4266 Y-7.6768
G01 X8.4390 Y-7.6465
G01 X8.4465 Y-7.6319
G01 X8.4554 Y-7.6171
G01 X8.4735 Y-7.5919
G01 X8.4847 Y-7.5788
G01 X8.4961 Y-7.5671
G01 X8.5095 Y-7.5549
G01 X8.5223 Y-7.5446
G01 X8.5371 Y-7.5341
G01 X8.5510 Y-7.5255
G01 X8.5670 Y-7.5169
G01 X8.5928 Y-7.5052
G01 X8.7121 Y-7.4452
G01 X8.8282 Y-7.3793
G01 X8.9410 Y-7.3079
G01 X9.0502 Y-7.2311
G01 X9.1554 Y-7.1489
G01 X9.2565 Y-7.0617
G01 X9.3532 Y-6.9697
G01 X9.4452 Y-6.8730
G01 X9.5324 Y-6.7719
G01 X9.6146 Y-6.6667
G01 X9.6914 Y-6.5575
G01 X9.7628 Y-6.4447
G01 X9.8287 Y-6.3286
G01 X9.8887 Y-6.2093
G01 X9.9428 Y-6.0873
G01 X9.9908 Y-5.9627
G01 X10.0327 Y-5.8359
G01 X10.0683 Y-5.7073
G01 X10.0976 Y-5.5770
G01 X10.1204 Y-5.4455
G01 X10.1367 Y-5.3130
G01 X10.1465 Y-5.1799
G01 X10.1498 Y-5.0464
G01 X10.1465 Y-4.9129
G01 X10.1367 Y-4.7798
G01 X10.1204 Y-4.6473
G01 X10.0976 Y-4.5158
G01 X10.0683 Y-4.3855
G01 X10.0327 Y-4.2569
G01 X9.9908 Y-4.1301
G01 X9.9428 Y-4.0055
G01 X9.8887 Y-3.8835
G01 X9.8287 Y-3.7642
G01 X9.7628 Y-3.6481
G01 X9.6914 Y-3.5353
G01 X9.6146 Y-3.4261
G01 X9.5324 Y-3.3209
G01 X9.4452 Y-3.2198
G01 X9.3532 Y-3.1231
G01 X9.2565 Y-3.0311
G01 X9.1554 Y-2.9439
G01 X9.0502 Y-2.8617
G01 X8.9410 Y-2.7849
G01 X8.8282 Y-2.7135
G01 X8.7121 Y-2.6476
G01 X8.5928 Y-2.5876
G01 X8.4708 Y-2.5335
G01 X8.3462 Y-2.4855
G01 X8.2194 Y-2.4436
G01 X8.0908 Y-2.4080
G01 X7.9605 Y-2.3787
G01 X7.8290 Y-2.3559
G01 X7.6965 Y-2.3396
G01 X7.5634 Y-2.3298
G01 X7.4299 Y-2.3265
G01 X7.2964 Y-2.3298
G01 X7.1633 Y-2.3396
G01 X7.0308 Y-2.3559
G01 X6.8993 Y-2.3787
G01 X6.7690 Y-2.4080
G01 X6.6404 Y-2.4436
G01 X6.5136 Y-2.4855
G01 X6.3890 Y-2.5335
G01 X6.2670 Y-2.5876
G01 X6.1477 Y-2.6476
G01 X6.0316 Y-2.7135
G01 X5.9188 Y-2.7849
G01 X5.8096 Y-2.8617
G01 X5.7044 Y-2.9439
G01 X5.6033 Y-3.0311
G01 X5.5066 Y-3.1231
G01 X5.4146 Y-3.2198
G01 X5.3274 Y-3.3209
G01 X5.2452 Y-3.4261
G01 X5.1684 Y-3.5353
G01 X5.0970 Y-3.6481
G01 X5.0311 Y-3.7642
G01 X4.9711 Y-3.8835
G01 X4.9170 Y-4.0055
G01 X4.8690 Y-4.1301
G01 X4.8271 Y-4.2569
G01 X4.7915 Y-4.3855
G01 X4.7622 Y-4.5158
G01 X4.7394 Y-4.6473
G01 X4.7231 Y-4.7798
G01 X4.7133 Y-4.9129
G01 X4.7100 Y-5.0464
G01 X4.7133 Y-5.1799
G01 X4.7231 Y-5.3130
G01 X4.7394 Y-5.4455
G01 X4.7622 Y-5.5770
G01 X4.7915 Y-5.7073
G01 X4.8271 Y-5.8359
G01 X4.8690 Y-5.9627
G01 X4.9170 Y-6.0873
G01 X4.9711 Y-6.2093
G01 X5.0311 Y-6.3286
G01 X5.0970 Y-6.4447
G01 X5.1684 Y-6.5575
G01 X5.2452 Y-6.6667
G01 X5.3274 Y-6.7719
G01 X5.4146 Y-6.8730
G01 X5.5066 Y-6.9697
G01 X5.6033 Y-7.0617
G01 X5.7044 Y-7.1489
G01 X5.8096 Y-7.2311
G01 X5.9188 Y-7.3079
G01 X6.0316 Y-7.3793
G01 X6.1477 Y-7.4452
G01 X6.2670 Y-7.5052
G01 X6.3890 Y-7.5593
G01 X6.4338 Y-7.5766
G01 X6.4499 Y-7.5836
G01 X6.4499 Y-7.1050
G01 X6.3536 Y-7.0564
G01 X6.2563 Y-7.0011
G01 X6.1621 Y-6.9414
G01 X6.0703 Y-6.8767
G01 X5.9822 Y-6.8078
G01 X5.8981 Y-6.7352
G01 X5.8171 Y-6.6580
G01 X5.7360 Y-6.5724
G01 X5.6685 Y-6.4941
G01 X5.6027 Y-6.4101
G01 X5.5380 Y-6.3188
G01 X5.4752 Y-6.2200
G01 X5.4224 Y-6.1272
G01 X5.3696 Y-6.0229
G01 X5.3241 Y-5.9205
G01 X5.2838 Y-5.8161
G01 X5.2500 Y-5.7144
G01 X5.2180 Y-5.5994
G01 X5.1925 Y-5.4848
G01 X5.1745 Y-5.3803
G01 X5.1616 Y-5.2767
G01 X5.1526 Y-5.1570
G01 X5.0827 Y-5.1600
G01 X5.0799 Y-5.0473
G01 X5.0825 Y-4.9380
G01 X5.0910 Y-4.8180
G01 X5.1051 Y-4.7035
G01 X5.1247 Y-4.5896
G01 X5.1499 Y-4.4773
G01 X5.1806 Y-4.3660
G01 X5.2167 Y-4.2565
G01 X5.2581 Y-4.1489
G01 X5.3029 Y-4.0473
G01 X5.3566 Y-3.9401
G01 X5.4147 Y-3.8375
G01 X5.4765 Y-3.7401
G01 X5.5434 Y-3.6451
G01 X5.6144 Y-3.5543
G01 X5.6894 Y-3.4674
G01 X5.7690 Y-3.3839
G01 X5.8577 Y-3.2999
G01 X5.9406 Y-3.2286
G01 X6.0319 Y-3.1575
G01 X6.1259 Y-3.0914
G01 X6.2292 Y-3.0264
G01 X6.3206 Y-2.9747
G01 X6.4174 Y-2.9258
G01 X6.5227 Y-2.8787
G01 X6.6360 Y-2.8346
G01 X6.7395 Y-2.8002
G01 X6.8597 Y-2.7666
G01 X6.9721 Y-2.7414
G01 X7.0857 Y-2.7218
G01 X7.1976 Y-2.7079
G01 X7.3129 Y-2.6993
G01 X7.4290 Y-2.6964
G01 X7.5435 Y-2.6992
G01 X7.6585 Y-2.7076
G01 X7.7730 Y-2.7216
G01 X7.8867 Y-2.7412
G01 X7.9992 Y-2.7664
G01 X8.1136 Y-2.7981
G01 X8.2230 Y-2.8343
G01 X8.3307 Y-2.8759
G01 X8.4364 Y-2.9229
G01 X8.5437 Y-2.9772
G01 X8.6454 Y-3.0352
G01 X8.7362 Y-3.0930
G01 X8.8234 Y-3.1542
G01 X8.9220 Y-3.2309
G01 X9.0144 Y-3.3110
G01 X9.0910 Y-3.3841
G01 X9.1653 Y-3.4619
G01 X9.2454 Y-3.5543
G01 X9.3223 Y-3.6533
G01 X9.3829 Y-3.7394
G01 X9.4411 Y-3.8309
G01 X9.5016 Y-3.9371
G01 X9.5577 Y-4.0491
G01 X9.6003 Y-4.1455
G01 X9.6395 Y-4.2467
G01 X9.6781 Y-4.3624
G01 X9.7098 Y-4.4769
G01 X9.7362 Y-4.5960
G01 X9.7545 Y-4.7022
G01 X9.7676 Y-4.8075
G01 X9.7769 Y-4.9274
G01 X9.7798 Y-5.0546
G01 X9.7771 Y-5.1600
G01 X9.7693 Y-5.2682
G01 X9.7547 Y-5.3895
G01 X9.7330 Y-5.5131
G01 X9.7099 Y-5.6157
G01 X9.6810 Y-5.7205
G01 X9.6420 Y-5.8395
G01 X9.5977 Y-5.9534
G01 X9.5550 Y-6.0496
G01 X9.5063 Y-6.1467
G01 X9.4415 Y-6.2611
G01 X9.3831 Y-6.3531
G01 X9.3184 Y-6.4449
G01 X9.2477 Y-6.5357
G01 X9.1768 Y-6.6181
G01 X9.0879 Y-6.7117
G01 X9.0093 Y-6.7865
G01 X8.9271 Y-6.8576
G01 X8.8244 Y-6.9378
G01 X8.7340 Y-7.0013
G01 X8.6412 Y-7.0602
G01 X8.5409 Y-7.1172
G01 X8.4799 Y-7.1481
G01 X8.4799 Y-7.4889
G01 X8.5014 Y-7.4738
G01 X8.5236 Y-7.4606
G01 X8.5397 Y-7.4523
G01 X8.5629 Y-7.4419
G01 X8.6791 Y-7.3834
G01 X8.7922 Y-7.3193
G01 X8.9021 Y-7.2497
G01 X9.0084 Y-7.1748
G01 X9.1110 Y-7.0948
G01 X9.2095 Y-7.0098
G01 X9.3037 Y-6.9202
G01 X9.3933 Y-6.8260
G01 X9.4783 Y-6.7275
G01 X9.5583 Y-6.6249
G01 X9.6332 Y-6.5186
G01 X9.7028 Y-6.4087
G01 X9.7669 Y-6.2956
G01 X9.8254 Y-6.1794
G01 X9.8781 Y-6.0605
G01 X9.9249 Y-5.9391
G01 X9.9657 Y-5.8156
G01 X10.0004 Y-5.6903
G01 X10.0289 Y-5.5634
G01 X10.0511 Y-5.4352
G01 X10.0670 Y-5.3061
G01 X10.0766 Y-5.1764
G01 X10.0798 Y-5.0464
G01 X10.0766 Y-4.9164
G01 X10.0670 Y-4.7867
G01 X10.0511 Y-4.6576
G01 X10.0289 Y-4.5294
G01 X10.0004 Y-4.4025
G01 X9.9657 Y-4.2772
G01 X9.9249 Y-4.1537
G01 X9.8781 Y-4.0323
G01 X9.8254 Y-3.9134
G01 X9.7669 Y-3.7972
G01 X9.7028 Y-3.6841
G01 X9.6332 Y-3.5742
G01 X9.5583 Y-3.4679
G01 X9.4783 Y-3.3653
G01 X9.3933 Y-3.2668
G01 X9.3037 Y-3.1726
G01 X9.2095 Y-3.0830
G01 X9.1110 Y-2.9980
G01 X9.0084 Y-2.9180
G01 X8.9021 Y-2.8431
G01 X8.7922 Y-2.7735
G01 X8.6791 Y-2.7094
G01 X8.5629 Y-2.6509
G01 X8.4440 Y-2.5982
G01 X8.3226 Y-2.5514
G01 X8.1991 Y-2.5106
G01 X8.0738 Y-2.4759
G01 X7.9469 Y-2.4474
G01 X7.8187 Y-2.4252
G01 X7.6896 Y-2.4093
G01 X7.5599 Y-2.3997
G01 X7.4299 Y-2.3965
G01 X7.2999 Y-2.3997
G01 X7.1702 Y-2.4093
G01 X7.0411 Y-2.4252
G01 X6.9129 Y-2.4474
G01 X6.7860 Y-2.4759
G01 X6.6607 Y-2.5106
G01 X6.5372 Y-2.5514
G01 X6.4158 Y-2.5982
G01 X6.2969 Y-2.6509
G01 X6.1807 Y-2.7094
G01 X6.0676 Y-2.7735
G01 X5.9577 Y-2.8431
G01 X5.8514 Y-2.9180
G01 X5.7488 Y-2.9980
G01 X5.6503 Y-3.0830
G01 X5.5561 Y-3.1726
G01 X5.4665 Y-3.2668
G01 X5.3815 Y-3.3653
G01 X5.3015 Y-3.4679
G01 X5.2266 Y-3.5742
G01 X5.1570 Y-3.6841
G01 X5.0929 Y-3.7972
G01 X5.0344 Y-3.9134
G01 X4.9817 Y-4.0323
G01 X4.9349 Y-4.1537
G01 X4.8941 Y-4.2772
G01 X4.8594 Y-4.4025
G01 X4.8309 Y-4.5294
G01 X4.8087 Y-4.6576
G01 X4.7928 Y-4.7867
G01 X4.7832 Y-4.9164
G01 X4.7800 Y-5.0464
G01 X4.7832 Y-5.1764
G01 X4.7928 Y-5.3061
G01 X4.8087 Y-5.4352
G01 X4.8309 Y-5.5634
G01 X4.8594 Y-5.6903
G01 X4.8941 Y-5.8156
G01 X4.9349 Y-5.9391
G01 X4.9817 Y-6.0605
G01 X5.0344 Y-6.1794
G01 X5.0929 Y-6.2956
G01 X5.1570 Y-6.4087
G01 X5.2266 Y-6.5186
G01 X5.3015 Y-6.6249
G01 X5.3815 Y-6.7275
G01 X5.4665 Y-6.8260
G01 X5.5561 Y-6.9202
G01 X5.6503 Y-7.0098
G01 X5.7488 Y-7.0948
G01 X5.8514 Y-7.1748
G01 X5.9577 Y-7.2497
G01 X6.0676 Y-7.3193
G01 X6.1807 Y-7.3834
G01 X6.2969 Y-7.4419
G01 X6.3797 Y-7.4786
G01 X6.3790 Y-7.1477
G01 X6.3191 Y-7.1173
G01 X6.2275 Y-7.0654
G01 X6.1297 Y-7.0039
G01 X6.0316 Y-6.9351
G01 X5.9443 Y-6.8671
G01 X5.8519 Y-6.7878
G01 X5.7690 Y-6.7089
G01 X5.6898 Y-6.6258
G01 X5.6176 Y-6.5423
G01 X5.5435 Y-6.4478
G01 X5.4770 Y-6.3536
G01 X5.4151 Y-6.2560
G01 X5.3585 Y-6.1563
G01 X5.3063 Y-6.0528
G01 X5.2595 Y-5.9475
G01 X5.2179 Y-5.8399
G01 X5.1837 Y-5.7368
G01 X5.1501 Y-5.6164
G01 X5.1236 Y-5.4968
G01 X5.1053 Y-5.3906
G01 X5.0921 Y-5.2851
G01 X5.0827 Y-5.1600
G01 X5.0128 Y-5.1631
G01 X5.0099 Y-5.0474
G01 X5.0125 Y-4.9357
G01 X5.0214 Y-4.8112
G01 X5.0358 Y-4.6933
G01 X5.0561 Y-4.5761
G01 X5.0818 Y-4.4609
G01 X5.1136 Y-4.3457
G01 X5.1506 Y-4.2332
G01 X5.1933 Y-4.1222
G01 X5.2390 Y-4.0188
G01 X5.2947 Y-3.9075
G01 X5.3530 Y-3.8044
G01 X5.4181 Y-3.7014
G01 X5.4849 Y-3.6065
G01 X5.5581 Y-3.5125
G01 X5.6367 Y-3.4213
G01 X5.7181 Y-3.3358
G01 X5.8034 Y-3.2545
G01 X5.8934 Y-3.1768
G01 X5.9869 Y-3.1037
G01 X6.0840 Y-3.0352
G01 X6.1843 Y-2.9716
G01 X6.2876 Y-2.9130
G01 X6.3966 Y-2.8581
G01 X6.5054 Y-2.8100
G01 X6.6163 Y-2.7673
G01 X6.7291 Y-2.7301
G01 X6.8430 Y-2.6987
G01 X6.9587 Y-2.6727
G01 X7.0760 Y-2.6524
G01 X7.1944 Y-2.6379
G01 X7.3129 Y-2.6293
G01 X7.4309 Y-2.6264
G01 X7.5507 Y-2.6294
G01 X7.6689 Y-2.6383
G01 X7.7868 Y-2.6529
G01 X7.9038 Y-2.6733
G01 X8.0199 Y-2.6994
G01 X8.1340 Y-2.7311
G01 X8.2470 Y-2.7685
G01 X8.3577 Y-2.8113
G01 X8.4718 Y-2.8623
G01 X8.5797 Y-2.9171
G01 X8.6749 Y-2.9712
G01 X8.7665 Y-3.0291
G01 X8.8729 Y-3.1037
G01 X8.9730 Y-3.1824
G01 X9.0557 Y-3.2539
G01 X9.1341 Y-3.3283
G01 X9.2241 Y-3.4225
G01 X9.3070 Y-3.5191
G01 X9.3747 Y-3.6062
G01 X9.4365 Y-3.6938
G01 X9.5047 Y-3.8008
G01 X9.5687 Y-3.9144
G01 X9.6182 Y-4.0131
G01 X9.6617 Y-4.1109
G01 X9.7078 Y-4.2294
G01 X9.7485 Y-4.3535
G01 X9.7776 Y-4.4594
G01 X9.8013 Y-4.5642
G01 X9.8237 Y-4.6916
G01 X9.8386 Y-4.8134
G01 X9.8469 Y-4.9258
G01 X9.8498 Y-5.0363
G01 X9.8469 Y-5.1669
G01 X9.8371 Y-5.2938
G01 X9.8234 Y-5.4033
G01 X9.8037 Y-5.5167
G01 X9.7748 Y-5.6443
G01 X9.7451 Y-5.7507
G01 X9.7092 Y-5.8596
G01 X9.6619 Y-5.9814
G01 X9.6183 Y-6.0795
G01 X9.5689 Y-6.1780
G01 X9.5008 Y-6.2984
G01 X9.4413 Y-6.3920
G01 X9.3749 Y-6.4863
G01 X9.2939 Y-6.5895
G01 X9.2222 Y-6.6724
G01 X9.1402 Y-6.7585
G01 X9.0564 Y-6.8383
G01 X8.9729 Y-6.9105
G01 X8.8691 Y-6.9919
G01 X8.7759 Y-7.0575
G01 X8.6810 Y-7.1178
G01 X8.5787 Y-7.1763
G01 X8.5499 Y-7.1912
G01 X8.5501 Y-7.3699
G01 X8.6460 Y-7.3216
G01 X8.7562 Y-7.2592
G01 X8.8632 Y-7.1915
G01 X8.9667 Y-7.1186
G01 X9.0666 Y-7.0407
G01 X9.1624 Y-6.9580
G01 X9.2541 Y-6.8706
G01 X9.3415 Y-6.7789
G01 X9.4242 Y-6.6831
G01 X9.5021 Y-6.5832
G01 X9.5750 Y-6.4797
G01 X9.6427 Y-6.3727
G01 X9.7051 Y-6.2625
G01 X9.7621 Y-6.1494
G01 X9.8134 Y-6.0337
G01 X9.8590 Y-5.9155
G01 X9.8987 Y-5.7953
G01 X9.9325 Y-5.6733
G01 X9.9602 Y-5.5497
G01 X9.9819 Y-5.4249
G01 X9.9974 Y-5.2993
G01 X10.0067 Y-5.1730
G01 X10.0098 Y-5.0464
G01 X10.0067 Y-4.9198
G01 X9.9974 Y-4.7935
G01 X9.9819 Y-4.6679
G01 X9.9602 Y-4.5431
G01 X9.9325 Y-4.4195
G01 X9.8987 Y-4.2975
G01 X9.8590 Y-4.1773
G01 X9.8134 Y-4.0591
G01 X9.7621 Y-3.9434
G01 X9.7051 Y-3.8303
G01 X9.6427 Y-3.7201
G01 X9.5750 Y-3.6131
G01 X9.5021 Y-3.5096
G01 X9.4242 Y-3.4097
G01 X9.3415 Y-3.3139
G01 X9.2541 Y-3.2222
G01 X9.1624 Y-3.1348
G01 X9.0666 Y-3.0521
G01 X8.9667 Y-2.9742
G01 X8.8632 Y-2.9013
G01 X8.7562 Y-2.8336
G01 X8.6460 Y-2.7712
G01 X8.5329 Y-2.7142
G01 X8.4172 Y-2.6629
G01 X8.2990 Y-2.6173
G01 X8.1788 Y-2.5776
G01 X8.0568 Y-2.5438
G01 X7.9332 Y-2.5161
G01 X7.8084 Y-2.4944
G01 X7.6828 Y-2.4789
G01 X7.5565 Y-2.4696
G01 X7.4299 Y-2.4665
G01 X7.3033 Y-2.4696
G01 X7.1770 Y-2.4789
G01 X7.0514 Y-2.4944
G01 X6.9266 Y-2.5161
G01 X6.8030 Y-2.5438
G01 X6.6810 Y-2.5776
G01 X6.5608 Y-2.6173
G01 X6.4426 Y-2.6629
G01 X6.3269 Y-2.7142
G01 X6.2138 Y-2.7712
G01 X6.1036 Y-2.8336
G01 X5.9966 Y-2.9013
G01 X5.8931 Y-2.9742
G01 X5.7932 Y-3.0521
G01 X5.6974 Y-3.1348
G01 X5.6057 Y-3.2222
G01 X5.5183 Y-3.3139
G01 X5.4356 Y-3.4097
G01 X5.3577 Y-3.5096
G01 X5.2848 Y-3.6131
G01 X5.2171 Y-3.7201
G01 X5.1547 Y-3.8303
G01 X5.0977 Y-3.9434
G01 X5.0464 Y-4.0591
G01 X5.0008 Y-4.1773
G01 X4.9611 Y-4.2975
G01 X4.9273 Y-4.4195
G01 X4.8996 Y-4.5431
G01 X4.8779 Y-4.6679
G01 X4.8624 Y-4.7935
G01 X4.8531 Y-4.9198
G01 X4.8500 Y-5.0464
G01 X4.8531 Y-5.1730
G01 X4.8624 Y-5.2993
G01 X4.8779 Y-5.4249
G01 X4.8996 Y-5.5497
G01 X4.9273 Y-5.6733
G01 X4.9611 Y-5.7953
G01 X5.0008 Y-5.9155
G01 X5.0464 Y-6.0337
G01 X5.0977 Y-6.1494
G01 X5.1547 Y-6.2625
G01 X5.2171 Y-6.3727
G01 X5.2848 Y-6.4797
G01 X5.3577 Y-6.5832
G01 X5.4356 Y-6.6831
G01 X5.5183 Y-6.7789
G01 X5.6057 Y-6.8706
G01 X5.6974 Y-6.9580
G01 X5.7932 Y-7.0407
G01 X5.8931 Y-7.1186
G01 X5.9966 Y-7.1915
G01 X6.1036 Y-7.2592
G01 X6.2138 Y-7.3216
G01 X6.3095 Y-7.3698
G01 X6.3091 Y-7.1908
G01 X6.2821 Y-7.1768
G01 X6.1891 Y-7.1241
G01 X6.0877 Y-7.0600
G01 X5.9869 Y-6.9891
G01 X5.8884 Y-6.9118
G01 X5.7972 Y-6.8325
G01 X5.7193 Y-6.7582
G01 X5.6438 Y-6.6791
G01 X5.5609 Y-6.5836
G01 X5.4905 Y-6.4938
G01 X5.4122 Y-6.3823
G01 X5.3532 Y-6.2888
G01 X5.2949 Y-6.1857
G01 X5.2431 Y-6.0829
G01 X5.1980 Y-5.9816
G01 X5.1481 Y-5.8523
G01 X5.1146 Y-5.7505
G01 X5.0849 Y-5.6440
G01 X5.0561 Y-5.5169
G01 X5.0360 Y-5.4010
G01 X5.0227 Y-5.2937
G01 X5.0128 Y-5.1631
G01 X4.9428 Y-5.1662
G01 X4.9400 Y-5.0376
G01 X4.9431 Y-4.9212
G01 X4.9509 Y-4.8132
G01 X4.9532 Y-4.7904
G01 X4.9671 Y-4.6793
G01 X4.9856 Y-4.5724
G01 X5.0118 Y-4.4526
G01 X5.0464 Y-4.3259
G01 X5.0848 Y-4.2095
G01 X5.1301 Y-4.0921
G01 X5.1805 Y-3.9787
G01 X5.2348 Y-3.8709
G01 X5.2950 Y-3.7648
G01 X5.3604 Y-3.6618
G01 X5.4311 Y-3.5616
G01 X5.5062 Y-3.4654
G01 X5.5856 Y-3.3735
G01 X5.6699 Y-3.2851
G01 X5.7592 Y-3.2001
G01 X5.8516 Y-3.1205
G01 X5.9480 Y-3.0454
G01 X6.0480 Y-2.9751
G01 X6.1513 Y-2.9098
G01 X6.2577 Y-2.8496
G01 X6.3668 Y-2.7948
G01 X6.4787 Y-2.7453
G01 X6.5933 Y-2.7012
G01 X6.7088 Y-2.6631
G01 X6.8261 Y-2.6307
G01 X6.9451 Y-2.6041
G01 X7.0658 Y-2.5832
G01 X7.1876 Y-2.5682
G01 X7.3095 Y-2.5593
G01 X7.4308 Y-2.5564
G01 X7.5543 Y-2.5595
G01 X7.6757 Y-2.5686
G01 X7.7970 Y-2.5836
G01 X7.9174 Y-2.6046
G01 X8.0371 Y-2.6316
G01 X8.1544 Y-2.6641
G01 X8.2707 Y-2.7027
G01 X8.3851 Y-2.7469
G01 X8.5026 Y-2.7994
G01 X8.6142 Y-2.8562
G01 X8.7109 Y-2.9112
G01 X8.8044 Y-2.9702
G01 X8.9146 Y-3.0475
G01 X9.0010 Y-3.1148
G01 X9.0187 Y-3.1293
G01 X9.1028 Y-3.2021
G01 X9.1825 Y-3.2778
G01 X9.2760 Y-3.3755
G01 X9.3619 Y-3.4758
G01 X9.4309 Y-3.5645
G01 X9.4942 Y-3.6542
G01 X9.5665 Y-3.7678
G01 X9.6312 Y-3.8829
G01 X9.6815 Y-3.9832
G01 X9.7259 Y-4.0831
G01 X9.7346 Y-4.1041
G01 X9.7749 Y-4.2092
G01 X9.8159 Y-4.3347
G01 X9.8455 Y-4.4424
G01 X9.8698 Y-4.5499
G01 X9.8931 Y-4.6822
G01 X9.9067 Y-4.7915
G01 X9.9089 Y-4.8143
G01 X9.9170 Y-4.9260
G01 X9.9198 Y-5.0350
G01 X9.9168 Y-5.1703
G01 X9.9066 Y-5.3020
G01 X9.8927 Y-5.4135
G01 X9.8742 Y-5.5208
G01 X9.8457 Y-5.6497
G01 X9.8093 Y-5.7800
G01 X9.7738 Y-5.8867
G01 X9.7348 Y-5.9883
G01 X9.6821 Y-6.1083
G01 X9.6311 Y-6.2101
G01 X9.6201 Y-6.2307
G01 X9.5647 Y-6.3281
G01 X9.4997 Y-6.4306
G01 X9.4311 Y-6.5280
G01 X9.3621 Y-6.6168
G01 X9.3472 Y-6.6349
G01 X9.2711 Y-6.7227
G01 X9.1913 Y-6.8064
G01 X9.1107 Y-6.8833
G01 X9.0935 Y-6.8989
G01 X9.0080 Y-6.9724
G01 X8.9146 Y-7.0453
G01 X8.8152 Y-7.1155
G01 X8.7124 Y-7.1807
G01 X8.6200 Y-7.2333
G01 X8.6200 Y-7.2560
G01 X8.7202 Y-7.1992
G01 X8.8243 Y-7.1333
G01 X8.9250 Y-7.0623
G01 X9.0221 Y-6.9865
G01 X9.1154 Y-6.9061
G01 X9.2046 Y-6.8211
G01 X9.2896 Y-6.7319
G01 X9.3700 Y-6.6386
G01 X9.4458 Y-6.5415
G01 X9.5168 Y-6.4408
G01 X9.5827 Y-6.3367
G01 X9.6434 Y-6.2295
G01 X9.6988 Y-6.1195
G01 X9.7487 Y-6.0069
G01 X9.7930 Y-5.8919
G01 X9.8317 Y-5.7750
G01 X9.8645 Y-5.6562
G01 X9.8915 Y-5.5360
G01 X9.9126 Y-5.4147
G01 X9.9277 Y-5.2924
G01 X9.9367 Y-5.1696
G01 X9.9398 Y-5.0464
G01 X9.9367 Y-4.9232
G01 X9.9277 Y-4.8004
G01 X9.9126 Y-4.6781
G01 X9.8915 Y-4.5568
G01 X9.8645 Y-4.4366
G01 X9.8317 Y-4.3178
G01 X9.7930 Y-4.2009
G01 X9.7487 Y-4.0859
G01 X9.6988 Y-3.9733
G01 X9.6434 Y-3.8633
G01 X9.5827 Y-3.7561
G01 X9.5168 Y-3.6520
G01 X9.4458 Y-3.5513
G01 X9.3700 Y-3.4542
G01 X9.2896 Y-3.3609
G01 X9.2046 Y-3.2717
G01 X9.1154 Y-3.1867
G01 X9.0221 Y-3.1063
G01 X8.9250 Y-3.0305
G01 X8.8243 Y-2.9595
G01 X8.7202 Y-2.8936
G01 X8.6130 Y-2.8329
G01 X8.5030 Y-2.7775
G01 X8.3904 Y-2.7276
G01 X8.2754 Y-2.6833
G01 X8.1585 Y-2.6446
G01 X8.0397 Y-2.6118
G01 X7.9195 Y-2.5848
G01 X7.7982 Y-2.5637
G01 X7.6759 Y-2.5486
G01 X7.5531 Y-2.5396
G01 X7.4299 Y-2.5365
G01 X7.3067 Y-2.5396
G01 X7.1839 Y-2.5486
G01 X7.0616 Y-2.5637
G01 X6.9403 Y-2.5848
G01 X6.8201 Y-2.6118
G01 X6.7013 Y-2.6446
G01 X6.5844 Y-2.6833
G01 X6.4694 Y-2.7276
G01 X6.3568 Y-2.7775
G01 X6.2468 Y-2.8329
G01 X6.1396 Y-2.8936
G01 X6.0355 Y-2.9595
G01 X5.9348 Y-3.0305
G01 X5.8377 Y-3.1063
G01 X5.7444 Y-3.1867
G01 X5.6552 Y-3.2717
G01 X5.5702 Y-3.3609
G01 X5.4898 Y-3.4542
G01 X5.4140 Y-3.5513
G01 X5.3430 Y-3.6520
G01 X5.2771 Y-3.7561
G01 X5.2164 Y-3.8633
G01 X5.1610 Y-3.9733
G01 X5.1111 Y-4.0859
G01 X5.0668 Y-4.2009
G01 X5.0281 Y-4.3178
G01 X4.9953 Y-4.4366
G01 X4.9683 Y-4.5568
G01 X4.9472 Y-4.6781
G01 X4.9321 Y-4.8004
G01 X4.9231 Y-4.9232
G01 X4.9200 Y-5.0464
G01 X4.9231 Y-5.1696
G01 X4.9321 Y-5.2924
G01 X4.9472 Y-5.4147
G01 X4.9683 Y-5.5360
G01 X4.9953 Y-5.6562
G01 X5.0281 Y-5.7750
G01 X5.0668 Y-5.8919
G01 X5.1111 Y-6.0069
G01 X5.1610 Y-6.1195
G01 X5.2164 Y-6.2295
G01 X5.2771 Y-6.3367
G01 X5.3430 Y-6.4408
G01 X5.4140 Y-6.5415
G01 X5.4898 Y-6.6386
G01 X5.5702 Y-6.7319
G01 X5.6552 Y-6.8211
G01 X5.7444 Y-6.9061
G01 X5.8377 Y-6.9865
G01 X5.9348 Y-7.0623
G01 X6.0355 Y-7.1333
G01 X6.1396 Y-7.1992
G01 X6.2392 Y-7.2556
G01 X6.2392 Y-7.2329
G01 X6.1481 Y-7.1811
G01 X6.0556 Y-7.1227
G01 X5.9447 Y-7.0450
G01 X5.8588 Y-6.9780
G01 X5.8411 Y-6.9635
G01 X5.7569 Y-6.8906
G01 X5.6725 Y-6.8104
G01 X5.5835 Y-6.7169
G01 X5.4980 Y-6.6171
G01 X5.4310 Y-6.5311
G01 X5.3663 Y-6.4396
G01 X5.2988 Y-6.3340
G01 X5.2331 Y-6.2186
G01 X5.1742 Y-6.1007
G01 X5.1301 Y-6.0009
G01 X5.0895 Y-5.8961
G01 X5.0477 Y-5.7710
G01 X5.0120 Y-5.6408
G01 X4.9876 Y-5.5314
G01 X4.9688 Y-5.4236
G01 X4.9654 Y-5.4015
G01 X4.9521 Y-5.2928
G01 X4.9428 Y-5.1662
G00 Z3.0000
G00 X8.3561 Y-7.8684
G01 F80.00
G01 Z-0.0560
G01 F100.00
G01 X8.3631 Y-7.8893
G01 X8.3709 Y-7.9085
G01 X8.3806 Y-7.9287
G01 X8.3906 Y-7.9468
G01 X8.4027 Y-7.9657
G01 X8.4149 Y-7.9824
G01 X8.4292 Y-7.9997
G01 X8.4434 Y-8.0147
G01 X8.4258 Y-8.0145
G01 X8.4143 Y-7.9974
G01 X8.4023 Y-7.9817
G01 X8.3881 Y-7.9651
G01 X8.3749 Y-7.9515
G01 X8.3601 Y-7.9378
G01 X8.3435 Y-7.9242
G01 X8.3272 Y-7.9123
G01 X8.3101 Y-7.9014
G01 X8.3339 Y-7.8858
G01 X8.3561 Y-7.8684
G00 Z3.0000
G00 X8.2128 Y-9.7688
G01 F80.00
G01 Z-0.0560
G01 F100.00
G01 X8.2355 Y-9.7607
G01 X8.2596 Y-9.7495
G01 X8.2819 Y-9.7366
G01 X8.3035 Y-9.7211
G01 X8.3217 Y-9.7054
G01 X8.3402 Y-9.6862
G01 X8.3558 Y-9.6668
G01 X8.3695 Y-9.6462
G01 X9.5212 Y-9.6607
G01 X9.5301 Y-9.6783
G01 X9.5398 Y-9.6945
G01 X9.5511 Y-9.7107
G01 X9.5619 Y-9.7241
G01 X9.5752 Y-9.7386
G01 X9.5889 Y-9.7517
G01 X9.6041 Y-9.7643
G01 X9.6180 Y-9.7743
G01 X9.6348 Y-9.7848
G01 X9.6514 Y-9.7937
G01 X9.6694 Y-9.8018
G01 X9.6855 Y-9.8078
G01 X9.7045 Y-9.8135
G01 X9.7229 Y-9.8176
G01 X9.7424 Y-9.8206
G01 X9.7595 Y-9.8221
G01 X11.1789 Y-9.8225
G01 X11.2076 Y-9.8206
G01 X11.2389 Y-9.8151
G01 X11.2669 Y-9.8070
G01 X11.2950 Y-9.7955
G01 X11.2950 Y-9.8895
G01 X11.2669 Y-9.8780
G01 X11.2389 Y-9.8699
G01 X11.2076 Y-9.8644
G01 X11.1789 Y-9.8625
G01 X9.7746 Y-9.8625
G01 X9.7570 Y-9.8631
G01 X9.7390 Y-9.8648
G01 X9.7229 Y-9.8674
G01 X9.7053 Y-9.8713
G01 X9.6896 Y-9.8758
G01 X9.6726 Y-9.8819
G01 X9.6576 Y-9.8883
G01 X9.6423 Y-9.8960
G01 X9.6356 Y-9.8768
G01 X9.6278 Y-9.8589
G01 X9.6200 Y-9.8437
G01 X9.6095 Y-9.8262
G01 X9.5982 Y-9.8102
G01 X9.5853 Y-9.7943
G01 X9.5724 Y-9.7807
G01 X9.5581 Y-9.7674
G01 X9.5421 Y-9.7546
G01 X9.5281 Y-9.7448
G01 X9.5114 Y-9.7347
G01 X9.4947 Y-9.7261
G01 X9.4759 Y-9.7181
G01 X9.4574 Y-9.7116
G01 X9.4410 Y-9.7071
G01 X9.4218 Y-9.7032
G01 X9.4007 Y-9.7004
G01 X9.3790 Y-9.6992
G01 X8.5353 Y-9.6886
G01 X8.5176 Y-9.6890
G01 X8.4994 Y-9.6906
G01 X8.4798 Y-9.6937
G01 X8.4629 Y-9.6975
G01 X8.4454 Y-9.7026
G01 X8.4268 Y-9.7095
G01 X8.4117 Y-9.7162
G01 X8.3956 Y-9.7246
G01 X8.3808 Y-9.7336
G01 X8.3659 Y-9.7440
G01 X8.3503 Y-9.7564
G01 X8.3382 Y-9.7675
G01 X8.3255 Y-9.7806
G01 X8.3143 Y-9.7938
G01 X8.3034 Y-9.8083
G01 X8.2926 Y-9.8251
G01 X8.2842 Y-9.8402
G01 X8.2764 Y-9.8566
G01 X8.2703 Y-9.8719
G01 X8.2646 Y-9.8891
G01 X8.2596 Y-9.9084
G01 X8.2564 Y-9.9254
G01 X8.2540 Y-9.9452
G01 X8.2531 Y-9.9634
G01 X8.2531 Y-9.9686
G01 X8.2531 Y-10.4023
G01 X8.2317 Y-10.3932
G01 X8.2128 Y-10.3868
G01 X8.2128 Y-9.7688
G01 X8.3231 Y-10.5668
G01 X8.3160 Y-10.5530
G01 X8.3090 Y-10.5412
G01 X8.2926 Y-10.5191
G01 X8.2834 Y-10.5090
G01 X8.2722 Y-10.4983
G01 X8.2506 Y-10.4814
G01 X8.2375 Y-10.4731
G01 X8.2254 Y-10.4667
G01 X8.2000 Y-10.4562
G01 X8.1868 Y-10.4522
G01 X8.1718 Y-10.4487
G01 X8.1565 Y-10.4464
G01 X8.1428 Y-10.4453
G01 X8.1428 Y-9.7110
G01 X8.1573 Y-9.7096
G01 X8.1725 Y-9.7070
G01 X8.1876 Y-9.7033
G01 X8.2023 Y-9.6985
G01 X8.2166 Y-9.6927
G01 X8.2304 Y-9.6858
G01 X8.2536 Y-9.6711
G01 X8.2658 Y-9.6615
G01 X8.2772 Y-9.6511
G01 X8.2878 Y-9.6399
G01 X8.2965 Y-9.6292
G01 X8.3054 Y-9.6166
G01 X8.3134 Y-9.6034
G01 X8.3205 Y-9.5896
G01 X8.3263 Y-9.5756
G01 X9.5708 Y-9.5914
G01 X9.5751 Y-9.6067
G01 X9.5817 Y-9.6244
G01 X9.5882 Y-9.6384
G01 X9.5967 Y-9.6534
G01 X9.6074 Y-9.6690
G01 X9.6171 Y-9.6810
G01 X9.6290 Y-9.6934
G01 X9.6431 Y-9.7059
G01 X9.6555 Y-9.7152
G01 X9.6700 Y-9.7244
G01 X9.6868 Y-9.7331
G01 X9.7026 Y-9.7396
G01 X9.7207 Y-9.7453
G01 X9.7374 Y-9.7491
G01 X9.7561 Y-9.7516
G01 X9.7716 Y-9.7525
G01 X11.1750 Y-9.7525
G01 X11.1922 Y-9.7518
G01 X11.2193 Y-9.7478
G01 X11.2441 Y-9.7408
G01 X11.2585 Y-9.7352
G01 X11.2709 Y-9.7293
G01 X11.2945 Y-9.7152
G01 X11.3055 Y-9.7070
G01 X11.3173 Y-9.6969
G01 X11.3351 Y-9.6784
G01 X11.3515 Y-9.6563
G01 X11.3650 Y-9.6319
G01 X11.3650 Y-10.0531
G01 X11.3515 Y-10.0287
G01 X11.3351 Y-10.0066
G01 X11.3173 Y-9.9881
G01 X11.3055 Y-9.9780
G01 X11.2945 Y-9.9698
G01 X11.2709 Y-9.9557
G01 X11.2585 Y-9.9498
G01 X11.2441 Y-9.9442
G01 X11.2193 Y-9.9372
G01 X11.1922 Y-9.9332
G01 X11.1750 Y-9.9325
G01 X9.7750 Y-9.9325
G01 X9.7459 Y-9.9345
G01 X9.7307 Y-9.9372
G01 X9.7157 Y-9.9411
G01 X9.7010 Y-9.9460
G01 X9.6868 Y-9.9519
G01 X9.6730 Y-9.9590
G01 X9.6612 Y-9.9660
G01 X9.6391 Y-9.9824
G01 X9.6277 Y-9.9928
G01 X9.6171 Y-10.0040
G01 X9.6084 Y-10.0147
G01 X9.5995 Y-10.0273
G01 X9.5915 Y-10.0405
G01 X9.5850 Y-10.0531
G01 X9.5850 Y-9.9758
G01 X9.5825 Y-9.9470
G01 X9.5792 Y-9.9303
G01 X9.5735 Y-9.9106
G01 X9.5659 Y-9.8917
G01 X9.5573 Y-9.8750
G01 X9.5453 Y-9.8564
G01 X9.5326 Y-9.8404
G01 X9.5183 Y-9.8257
G01 X9.5027 Y-9.8125
G01 X9.4859 Y-9.8009
G01 X9.4650 Y-9.7895
G01 X9.4461 Y-9.7816
G01 X9.4265 Y-9.7757
G01 X9.4014 Y-9.7709
G01 X9.3785 Y-9.7693
G01 X8.5357 Y-9.7586
G01 X8.5184 Y-9.7591
G01 X8.5029 Y-9.7608
G01 X8.4876 Y-9.7636
G01 X8.4708 Y-9.7680
G01 X8.4578 Y-9.7725
G01 X8.4434 Y-9.7787
G01 X8.4192 Y-9.7921
G01 X8.4065 Y-9.8010
G01 X8.3957 Y-9.8097
G01 X8.3760 Y-9.8292
G01 X8.3671 Y-9.8399
G01 X8.3580 Y-9.8525
G01 X8.3443 Y-9.8765
G01 X8.3380 Y-9.8908
G01 X8.3333 Y-9.9038
G01 X8.3265 Y-9.9307
G01 X8.3239 Y-9.9495
G01 X8.3231 Y-9.9686
G01 X8.3231 Y-10.5668
G00 Z3.0000
G00 X9.6350 Y-11.4425
G01 F80.00
G01 Z-0.0560
G01 F100.00
G01 X9.6368 Y-11.4647
G01 X9.6415 Y-11.4848
G01 X9.6492 Y-11.5039
G01 X9.6541 Y-11.5130
G01 X9.6615 Y-11.5245
G01 X9.6748 Y-11.5403
G01 X9.6902 Y-11.5539
G01 X9.6930 Y-11.5560
G01 X9.6958 Y-11.5579
G01 X9.7016 Y-11.5617
G01 X9.7105 Y-11.5668
G01 X9.7295 Y-11.5749
G01 X9.7494 Y-11.5801
G01 X9.7698 Y-11.5824
G01 X10.0373 Y-11.5825
G01 X10.0373 Y-14.6968
G01 X9.9106 Y-14.6973
G01 X9.8970 Y-14.6992
G01 X9.8836 Y-14.7023
G01 X9.8706 Y-14.7068
G01 X9.8612 Y-14.7110
G01 X9.8463 Y-14.7195
G01 X9.8325 Y-14.7297
G01 X9.8200 Y-14.7415
G01 X9.8091 Y-14.7548
G01 X9.8000 Y-14.7693
G01 X9.7926 Y-14.7848
G01 X9.7872 Y-14.8011
G01 X9.7839 Y-14.8180
G01 X9.7826 Y-14.8368
G01 X9.7826 Y-16.4385
G01 X9.7839 Y-16.4556
G01 X9.7881 Y-16.4758
G01 X9.7939 Y-16.4920
G01 X9.8034 Y-16.5102
G01 X9.8133 Y-16.5243
G01 X9.8248 Y-16.5370
G01 X9.8406 Y-16.5503
G01 X9.8551 Y-16.5594
G01 X9.8674 Y-16.5655
G01 X9.8803 Y-16.5703
G01 X9.8936 Y-16.5738
G01 X9.9106 Y-16.5763
G01 X10.0373 Y-16.5768
G01 X10.0378 Y-16.8457
G01 X10.0398 Y-16.8741
G01 X10.0462 Y-16.9150
G01 X10.0514 Y-16.9378
G01 X10.0620 Y-16.9725
G01 X10.0703 Y-16.9945
G01 X10.0810 Y-17.0185
G01 X10.0983 Y-17.0509
G01 X10.1106 Y-17.0706
G01 X10.1260 Y-17.0924
G01 X10.1491 Y-17.1205
G01 X10.1663 Y-17.1387
G01 X10.8013 Y-17.7737
G01 X10.8195 Y-17.7909
G01 X10.8476 Y-17.8140
G01 X10.8694 Y-17.8294
G01 X10.9020 Y-17.8490
G01 X10.9260 Y-17.8611
G01 X10.9611 Y-17.8758
G01 X10.9864 Y-17.8842
G01 X11.0089 Y-17.8903
G01 X11.0462 Y-17.8976
G01 X11.0728 Y-17.9008
G01 X11.1125 Y-17.9027
G01 X15.0577 Y-17.9027
G01 X17.0223 Y-19.8673
G01 X17.0223 Y-25.4000
G01 X17.0229 Y-25.4217
G01 X17.0245 Y-25.4434
G01 X17.0272 Y-25.4653
G01 X17.0306 Y-25.4847
G01 X17.0359 Y-25.5081
G01 X17.0413 Y-25.5278
G01 X17.0508 Y-25.5555
G01 X17.0654 Y-25.5898
G01 X17.0780 Y-25.6142
G01 X17.0986 Y-25.6475
G01 X17.1136 Y-25.6684
G01 X23.3723 Y-33.8047
G01 X23.3723 Y-34.8075
G01 X23.3521 Y-34.8191
G01 X23.3077 Y-34.8472
G01 X23.2619 Y-34.8793
G01 X23.2151 Y-34.9159
G01 X23.1715 Y-34.9537
G01 X23.1328 Y-34.9906
G01 X23.0972 Y-35.0280
G01 X23.0605 Y-35.0702
G01 X23.0249 Y-35.1156
G01 X22.9926 Y-35.1614
G01 X22.9608 Y-35.2115
G01 X22.9325 Y-35.2618
G01 X22.9095 Y-35.3075
G01 X22.8876 Y-35.3568
G01 X22.8672 Y-35.4090
G01 X22.8490 Y-35.4638
G01 X22.8332 Y-35.5210
G01 X22.8210 Y-35.5756
G01 X22.8113 Y-35.6325
G01 X22.8051 Y-35.6829
G01 X22.8010 Y-35.7370
G01 X22.7994 Y-35.7964
G01 X22.7994 Y-37.7964
G01 X22.8009 Y-37.8541
G01 X22.8051 Y-37.9099
G01 X22.8120 Y-37.9654
G01 X22.8220 Y-38.0223
G01 X22.8340 Y-38.0752
G01 X22.8476 Y-38.1242
G01 X22.8650 Y-38.1774
G01 X22.8856 Y-38.2313
G01 X22.9095 Y-38.2853
G01 X22.9349 Y-38.3355
G01 X22.9635 Y-38.3857
G01 X22.9936 Y-38.4329
G01 X23.0249 Y-38.4772
G01 X23.0561 Y-38.5172
G01 X23.0937 Y-38.5610
G01 X23.1341 Y-38.6035
G01 X23.1753 Y-38.6426
G01 X23.2191 Y-38.6802
G01 X23.2633 Y-38.7145
G01 X23.3077 Y-38.7456
G01 X23.3506 Y-38.7728
G01 X23.4008 Y-38.8014
G01 X23.4539 Y-38.8282
G01 X23.5066 Y-38.8514
G01 X23.5542 Y-38.8697
G01 X23.6056 Y-38.8868
G01 X23.6611 Y-38.9023
G01 X23.7158 Y-38.9146
G01 X23.7743 Y-38.9248
G01 X23.8315 Y-38.9317
G01 X23.8874 Y-38.9357
G01 X23.9408 Y-38.9369
G01 X23.9924 Y-38.9357
G01 X24.0500 Y-38.9316
G01 X24.1055 Y-38.9248
G01 X24.1641 Y-38.9146
G01 X24.2203 Y-38.9018
G01 X24.2693 Y-38.8883
G01 X24.3209 Y-38.8713
G01 X24.3732 Y-38.8514
G01 X24.4288 Y-38.8268
G01 X24.4790 Y-38.8014
G01 X24.5277 Y-38.7737
G01 X24.5764 Y-38.7427
G01 X24.6207 Y-38.7114
G01 X24.6607 Y-38.6802
G01 X24.7032 Y-38.6437
G01 X24.7457 Y-38.6035
G01 X24.7838 Y-38.5636
G01 X24.8204 Y-38.5212
G01 X24.8570 Y-38.4744
G01 X24.8891 Y-38.4286
G01 X24.9199 Y-38.3798
G01 X24.9449 Y-38.3355
G01 X24.9694 Y-38.2871
G01 X24.9923 Y-38.2359
G01 X25.0132 Y-38.1821
G01 X25.0308 Y-38.1290
G01 X25.0466 Y-38.0718
G01 X25.0588 Y-38.0172
G01 X25.0683 Y-37.9620
G01 X25.0751 Y-37.9065
G01 X25.0791 Y-37.8506
G01 X25.0804 Y-37.7973
G01 X25.0804 Y-35.7964
G01 X25.0789 Y-35.7387
G01 X25.0751 Y-35.6863
G01 X25.0685 Y-35.6325
G01 X25.0581 Y-35.5722
G01 X25.0466 Y-35.5210
G01 X25.0322 Y-35.4686
G01 X25.0125 Y-35.4090
G01 X24.9942 Y-35.3615
G01 X24.9723 Y-35.3119
G01 X24.9441 Y-35.2558
G01 X24.9172 Y-35.2086
G01 X24.8872 Y-35.1614
G01 X24.8570 Y-35.1184
G01 X24.8237 Y-35.0756
G01 X24.7826 Y-35.0280
G01 X24.7457 Y-34.9893
G01 X24.7071 Y-34.9525
G01 X24.6607 Y-34.9126
G01 X24.6179 Y-34.8793
G01 X24.5721 Y-34.8472
G01 X24.5277 Y-34.8191
G01 X24.4805 Y-34.7922
G01 X24.4259 Y-34.7646
G01 X24.3778 Y-34.7433
G01 X24.3273 Y-34.7237
G01 X24.2742 Y-34.7060
G01 X24.2527 Y-34.6999
G01 X24.2522 Y-33.6350
G01 X24.2505 Y-33.6116
G01 X24.2478 Y-33.5897
G01 X24.2441 Y-33.5685
G01 X24.2391 Y-33.5469
G01 X24.2332 Y-33.5257
G01 X24.2261 Y-33.5045
G01 X24.2180 Y-33.4838
G01 X24.2080 Y-33.4619
G01 X24.1970 Y-33.4408
G01 X24.1857 Y-33.4216
G01 X24.1734 Y-33.4031
G01 X24.1614 Y-33.3866
G01 X17.9027 Y-25.2503
G01 X17.9026 Y-19.6841
G01 X17.9019 Y-19.6600
G01 X17.8983 Y-19.6236
G01 X17.8945 Y-19.6008
G01 X17.8890 Y-19.5764
G01 X17.8827 Y-19.5540
G01 X17.8704 Y-19.5196
G01 X17.8611 Y-19.4985
G01 X17.8498 Y-19.4760
G01 X17.8303 Y-19.4433
G01 X17.8150 Y-19.4214
G01 X17.7909 Y-19.3920
G01 X17.7737 Y-19.3738
G01 X15.5512 Y-17.1513
G01 X15.5359 Y-17.1367
G01 X15.5199 Y-17.1228
G01 X15.5008 Y-17.1080
G01 X15.4831 Y-17.0956
G01 X15.4648 Y-17.0841
G01 X15.4460 Y-17.0735
G01 X15.4265 Y-17.0639
G01 X15.4068 Y-17.0552
G01 X15.3866 Y-17.0475
G01 X15.3661 Y-17.0408
G01 X15.3453 Y-17.0351
G01 X15.3242 Y-17.0305
G01 X15.3029 Y-17.0269
G01 X15.2814 Y-17.0243
G01 X15.2409 Y-17.0224
G01 X11.2948 Y-17.0223
G01 X10.9177 Y-16.6452
G01 X10.9177 Y-16.5768
G01 X11.2278 Y-16.5767
G01 X11.2414 Y-16.5755
G01 X11.2549 Y-16.5730
G01 X11.2681 Y-16.5692
G01 X11.2809 Y-16.5641
G01 X11.2989 Y-16.5541
G01 X11.3127 Y-16.5439
G01 X11.3252 Y-16.5321
G01 X11.3380 Y-16.5160
G01 X11.3469 Y-16.5013
G01 X11.3550 Y-16.4823
G01 X11.3596 Y-16.4658
G01 X11.3623 Y-16.4454
G01 X11.3626 Y-14.8368
G01 X11.3613 Y-14.8180
G01 X11.3580 Y-14.8011
G01 X11.3513 Y-14.7816
G01 X11.3435 Y-14.7663
G01 X11.3340 Y-14.7520
G01 X11.3204 Y-14.7366
G01 X11.3046 Y-14.7233
G01 X11.2901 Y-14.7142
G01 X11.2746 Y-14.7068
G01 X11.2549 Y-14.7006
G01 X11.2380 Y-14.6977
G01 X11.2226 Y-14.6968
G01 X10.9177 Y-14.6968
G01 X10.9177 Y-11.5825
G01 X11.1767 Y-11.5825
G01 X11.1938 Y-11.5812
G01 X11.2107 Y-11.5779
G01 X11.2302 Y-11.5712
G01 X11.2455 Y-11.5634
G01 X11.2598 Y-11.5539
G01 X11.2728 Y-11.5427
G01 X11.2843 Y-11.5300
G01 X11.2959 Y-11.5130
G01 X11.3037 Y-11.4977
G01 X11.3104 Y-11.4782
G01 X11.3137 Y-11.4613
G01 X11.3150 Y-11.4425
G01 X11.3150 Y-10.1425
G01 X11.3145 Y-10.1305
G01 X11.3126 Y-10.1169
G01 X11.3095 Y-10.1035
G01 X11.3062 Y-10.0937
G01 X11.3023 Y-10.0842
G01 X11.2959 Y-10.0720
G01 X11.2885 Y-10.0605
G01 X11.2821 Y-10.0524
G01 X11.2728 Y-10.0423
G01 X11.2651 Y-10.0354
G01 X11.2484 Y-10.0233
G01 X11.2364 Y-10.0167
G01 X11.2270 Y-10.0125
G01 X11.2173 Y-10.0090
G01 X11.2040 Y-10.0055
G01 X11.1904 Y-10.0034
G01 X11.1802 Y-10.0026
G01 X9.7733 Y-10.0025
G01 X9.7596 Y-10.0034
G01 X9.7460 Y-10.0055
G01 X9.7327 Y-10.0090
G01 X9.7230 Y-10.0125
G01 X9.7136 Y-10.0167
G01 X9.7016 Y-10.0233
G01 X9.6902 Y-10.0311
G01 X9.6823 Y-10.0376
G01 X9.6724 Y-10.0472
G01 X9.6636 Y-10.0577
G01 X9.6558 Y-10.0691
G01 X9.6492 Y-10.0811
G01 X9.6426 Y-10.0970
G01 X9.6388 Y-10.1102
G01 X9.6363 Y-10.1237
G01 X9.6351 Y-10.1373
G01 X9.6350 Y-11.4425
G01 X9.7050 Y-11.4425
G01 X9.7063 Y-11.4562
G01 X9.7091 Y-11.4661
G01 X9.7150 Y-11.4785
G01 X9.7209 Y-11.4869
G01 X9.7306 Y-11.4966
G01 X9.7390 Y-11.5025
G01 X9.7514 Y-11.5084
G01 X9.7647 Y-11.5117
G01 X9.7750 Y-11.5125
G01 X10.1073 Y-11.5125
G01 X10.1073 Y-14.7668
G01 X9.9226 Y-14.7668
G01 X9.9123 Y-14.7676
G01 X9.9056 Y-14.7689
G01 X9.8958 Y-14.7721
G01 X9.8866 Y-14.7768
G01 X9.8782 Y-14.7827
G01 X9.8707 Y-14.7898
G01 X9.8644 Y-14.7979
G01 X9.8593 Y-14.8069
G01 X9.8556 Y-14.8165
G01 X9.8534 Y-14.8265
G01 X9.8526 Y-14.8368
G01 X9.8526 Y-16.4368
G01 X9.8529 Y-16.4437
G01 X9.8547 Y-16.4538
G01 X9.8579 Y-16.4636
G01 X9.8609 Y-16.4698
G01 X9.8664 Y-16.4785
G01 X9.8707 Y-16.4838
G01 X9.8782 Y-16.4909
G01 X9.8837 Y-16.4950
G01 X9.8958 Y-16.5015
G01 X9.9023 Y-16.5038
G01 X9.9123 Y-16.5060
G01 X9.9226 Y-16.5068
G01 X10.1073 Y-16.5068
G01 X10.1073 Y-16.8275
G01 X10.1093 Y-16.8655
G01 X10.1116 Y-16.8835
G01 X10.1180 Y-16.9158
G01 X10.1238 Y-16.9366
G01 X10.1296 Y-16.9538
G01 X10.1362 Y-16.9707
G01 X10.1503 Y-17.0005
G01 X10.1592 Y-17.0163
G01 X10.1707 Y-17.0346
G01 X10.1925 Y-17.0636
G01 X10.2158 Y-17.0892
G01 X10.8633 Y-17.7362
G01 X10.8768 Y-17.7479
G01 X10.8934 Y-17.7608
G01 X10.9207 Y-17.7791
G01 X10.9365 Y-17.7881
G01 X10.9529 Y-17.7964
G01 X10.9724 Y-17.8051
G01 X11.0034 Y-17.8162
G01 X11.0209 Y-17.8211
G01 X11.0420 Y-17.8259
G01 X11.0599 Y-17.8289
G01 X11.0926 Y-17.8321
G01 X11.1125 Y-17.8327
G01 X15.0867 Y-17.8327
G01 X17.0923 Y-19.8383
G01 X17.0923 Y-25.4000
G01 X17.0941 Y-25.4361
G01 X17.0995 Y-25.4724
G01 X17.1087 Y-25.5086
G01 X17.1158 Y-25.5296
G01 X17.1291 Y-25.5607
G01 X17.1393 Y-25.5804
G01 X17.1571 Y-25.6091
G01 X17.1691 Y-25.6257
G01 X23.4423 Y-33.7809
G01 X23.4423 Y-34.8487
G01 X23.3910 Y-34.8774
G01 X23.3466 Y-34.9054
G01 X23.3008 Y-34.9376
G01 X23.2595 Y-34.9700
G01 X23.2197 Y-35.0044
G01 X23.1829 Y-35.0394
G01 X23.1479 Y-35.0762
G01 X23.1135 Y-35.1160
G01 X23.0791 Y-35.1601
G01 X23.0489 Y-35.2031
G01 X23.0226 Y-35.2446
G01 X22.9966 Y-35.2903
G01 X22.9728 Y-35.3373
G01 X22.9502 Y-35.3883
G01 X22.9314 Y-35.4374
G01 X22.9160 Y-35.4841
G01 X22.9019 Y-35.5346
G01 X22.8903 Y-35.5859
G01 X22.8808 Y-35.6410
G01 X22.8747 Y-35.6898
G01 X22.8708 Y-35.7422
G01 X22.8694 Y-35.7964
G01 X22.8694 Y-37.7964
G01 X22.8706 Y-37.8472
G01 X22.8744 Y-37.8996
G01 X22.8813 Y-37.9552
G01 X22.8903 Y-38.0069
G01 X22.9019 Y-38.0582
G01 X22.9150 Y-38.1055
G01 X22.9314 Y-38.1554
G01 X22.9502 Y-38.2045
G01 X22.9728 Y-38.2555
G01 X22.9966 Y-38.3025
G01 X23.0226 Y-38.3482
G01 X23.0508 Y-38.3926
G01 X23.0811 Y-38.4355
G01 X23.1135 Y-38.4768
G01 X23.1479 Y-38.5166
G01 X23.1829 Y-38.5534
G01 X23.2197 Y-38.5884
G01 X23.2595 Y-38.6228
G01 X23.3008 Y-38.6552
G01 X23.3437 Y-38.6855
G01 X23.3881 Y-38.7137
G01 X23.4338 Y-38.7397
G01 X23.4808 Y-38.7635
G01 X23.5287 Y-38.7848
G01 X23.5809 Y-38.8049
G01 X23.6308 Y-38.8213
G01 X23.6815 Y-38.8352
G01 X23.7294 Y-38.8460
G01 X23.7812 Y-38.8550
G01 X23.8333 Y-38.8616
G01 X23.8857 Y-38.8655
G01 X23.9399 Y-38.8669
G01 X23.9941 Y-38.8655
G01 X24.0465 Y-38.8616
G01 X24.0987 Y-38.8550
G01 X24.1504 Y-38.8460
G01 X24.2017 Y-38.8344
G01 X24.2490 Y-38.8213
G01 X24.2989 Y-38.8049
G01 X24.3511 Y-38.7847
G01 X24.3990 Y-38.7635
G01 X24.4430 Y-38.7413
G01 X24.4888 Y-38.7154
G01 X24.5361 Y-38.6855
G01 X24.5790 Y-38.6552
G01 X24.6177 Y-38.6250
G01 X24.6575 Y-38.5907
G01 X24.6969 Y-38.5534
G01 X24.7342 Y-38.5140
G01 X24.7685 Y-38.4742
G01 X24.7987 Y-38.4355
G01 X24.8290 Y-38.3926
G01 X24.8590 Y-38.3453
G01 X24.8848 Y-38.2995
G01 X24.9070 Y-38.2555
G01 X24.9282 Y-38.2076
G01 X24.9472 Y-38.1586
G01 X24.9638 Y-38.1087
G01 X24.9787 Y-38.0548
G01 X24.9901 Y-38.0036
G01 X24.9990 Y-37.9518
G01 X25.0054 Y-37.8996
G01 X25.0092 Y-37.8472
G01 X25.0104 Y-37.7981
G01 X25.0104 Y-35.7964
G01 X25.0092 Y-35.7456
G01 X25.0051 Y-35.6898
G01 X24.9985 Y-35.6376
G01 X24.9901 Y-35.5892
G01 X24.9787 Y-35.5380
G01 X24.9648 Y-35.4873
G01 X24.9472 Y-35.4341
G01 X24.9282 Y-35.3852
G01 X24.9070 Y-35.3373
G01 X24.8848 Y-35.2933
G01 X24.8589 Y-35.2475
G01 X24.8309 Y-35.2031
G01 X24.8007 Y-35.1601
G01 X24.7663 Y-35.1160
G01 X24.7319 Y-35.0762
G01 X24.6969 Y-35.0394
G01 X24.6601 Y-35.0044
G01 X24.6203 Y-34.9700
G01 X24.5762 Y-34.9356
G01 X24.5332 Y-34.9054
G01 X24.4917 Y-34.8791
G01 X24.4430 Y-34.8515
G01 X24.3960 Y-34.8280
G01 X24.3480 Y-34.8067
G01 X24.3021 Y-34.7891
G01 X24.2522 Y-34.7725
G01 X24.2017 Y-34.7584
G01 X24.1827 Y-34.7541
G01 X24.1822 Y-33.6381
G01 X24.1786 Y-33.6005
G01 X24.1714 Y-33.5644
G01 X24.1604 Y-33.5287
G01 X24.1459 Y-33.4943
G01 X24.1280 Y-33.4615
G01 X24.1179 Y-33.4459
G01 X24.1059 Y-33.4293
G01 X17.8327 Y-25.2741
G01 X17.8327 Y-19.6850
G01 X17.8307 Y-19.6470
G01 X17.8284 Y-19.6290
G01 X17.8220 Y-19.5967
G01 X17.8162 Y-19.5759
G01 X17.8104 Y-19.5587
G01 X17.8038 Y-19.5418
G01 X17.7897 Y-19.5120
G01 X17.7791 Y-19.4932
G01 X17.7608 Y-19.4659
G01 X17.7475 Y-19.4489
G01 X17.7242 Y-19.4233
G01 X15.5017 Y-17.2008
G01 X15.4757 Y-17.1771
G01 X15.4591 Y-17.1642
G01 X15.4442 Y-17.1538
G01 X15.4288 Y-17.1441
G01 X15.3998 Y-17.1286
G01 X15.3663 Y-17.1146
G01 X15.3316 Y-17.1039
G01 X15.3105 Y-17.0991
G01 X15.2746 Y-17.0940
G01 X15.2400 Y-17.0923
G01 X11.2658 Y-17.0923
G01 X10.8477 Y-16.6742
G01 X10.8477 Y-16.5068
G01 X11.2226 Y-16.5068
G01 X11.2329 Y-16.5060
G01 X11.2462 Y-16.5027
G01 X11.2556 Y-16.4985
G01 X11.2643 Y-16.4930
G01 X11.2745 Y-16.4838
G01 X11.2826 Y-16.4728
G01 X11.2873 Y-16.4636
G01 X11.2913 Y-16.4505
G01 X11.2925 Y-16.4402
G01 X11.2926 Y-14.8368
G01 X11.2923 Y-14.8299
G01 X11.2905 Y-14.8198
G01 X11.2873 Y-14.8100
G01 X11.2826 Y-14.8008
G01 X11.2767 Y-14.7924
G01 X11.2670 Y-14.7827
G01 X11.2586 Y-14.7768
G01 X11.2494 Y-14.7721
G01 X11.2396 Y-14.7689
G01 X11.2295 Y-14.7671
G01 X10.8477 Y-14.7668
G01 X10.8477 Y-11.5125
G01 X11.1750 Y-11.5125
G01 X11.1853 Y-11.5117
G01 X11.1953 Y-11.5095
G01 X11.2049 Y-11.5058
G01 X11.2139 Y-11.5007
G01 X11.2220 Y-11.4944
G01 X11.2291 Y-11.4869
G01 X11.2350 Y-11.4785
G01 X11.2397 Y-11.4693
G01 X11.2429 Y-11.4595
G01 X11.2442 Y-11.4528
G01 X11.2450 Y-11.4425
G01 X11.2450 Y-10.1425
G01 X11.2437 Y-10.1288
G01 X11.2420 Y-10.1222
G01 X11.2383 Y-10.1126
G01 X11.2350 Y-10.1065
G01 X11.2291 Y-10.0981
G01 X11.2245 Y-10.0930
G01 X11.2167 Y-10.0863
G01 X11.2049 Y-10.0792
G01 X11.1953 Y-10.0755
G01 X11.1853 Y-10.0733
G01 X11.1750 Y-10.0725
G01 X9.7750 Y-10.0725
G01 X9.7613 Y-10.0738
G01 X9.7547 Y-10.0755
G01 X9.7451 Y-10.0792
G01 X9.7390 Y-10.0825
G01 X9.7306 Y-10.0884
G01 X9.7255 Y-10.0930
G01 X9.7188 Y-10.1008
G01 X9.7117 Y-10.1126
G01 X9.7080 Y-10.1222
G01 X9.7058 Y-10.1322
G01 X9.7050 Y-10.1425
G01 X9.7050 Y-11.4425
G01 X9.6856 Y-11.6325
G01 X9.5850 Y-11.6325
G01 X9.5850 Y-11.5319
G01 X9.5931 Y-11.5475
G01 X9.6014 Y-11.5606
G01 X9.6105 Y-11.5730
G01 X9.6206 Y-11.5848
G01 X9.6315 Y-11.5958
G01 X9.6431 Y-11.6059
G01 X9.6555 Y-11.6152
G01 X9.6700 Y-11.6244
G01 X9.6856 Y-11.6325
G01 X9.9673 Y-11.7535
G01 X9.9590 Y-11.7375
G01 X9.9498 Y-11.7230
G01 X9.9384 Y-11.7080
G01 X9.9268 Y-11.6952
G01 X9.9130 Y-11.6824
G01 X9.8995 Y-11.6718
G01 X9.8836 Y-11.6615
G01 X9.8665 Y-11.6525
G01 X9.9673 Y-11.6525
G01 X9.9673 Y-11.7535
G00 Z3.0000
G00 X11.0885 Y-11.6525
G01 F80.00
G01 Z-0.0560
G01 F100.00
G01 X11.0714 Y-11.6615
G01 X11.0555 Y-11.6718
G01 X11.0420 Y-11.6824
G01 X11.0282 Y-11.6952
G01 X11.0166 Y-11.7080
G01 X11.0052 Y-11.7230
G01 X10.9960 Y-11.7375
G01 X10.9877 Y-11.7535
G01 X10.9877 Y-11.6525
G01 X11.0885 Y-11.6525
G01 X11.3650 Y-11.5319
G01 X11.3650 Y-11.6325
G01 X11.2644 Y-11.6325
G01 X11.2800 Y-11.6244
G01 X11.2945 Y-11.6152
G01 X11.3095 Y-11.6037
G01 X11.3223 Y-11.5922
G01 X11.3351 Y-11.5784
G01 X11.3457 Y-11.5648
G01 X11.3560 Y-11.5490
G01 X11.3650 Y-11.5319
G00 Z3.0000
G00 X10.9877 Y-14.5258
G01 F80.00
G01 Z-0.0560
G01 F100.00
G01 X10.9960 Y-14.5418
G01 X11.0052 Y-14.5563
G01 X11.0166 Y-14.5713
G01 X11.0282 Y-14.5841
G01 X11.0420 Y-14.5969
G01 X11.0555 Y-14.6075
G01 X11.0714 Y-14.6178
G01 X11.0885 Y-14.6268
G01 X10.9877 Y-14.6268
G01 X10.9877 Y-14.5258
G01 X11.3120 Y-14.6468
G01 X11.4126 Y-14.6468
G01 X11.4126 Y-14.7474
G01 X11.4045 Y-14.7318
G01 X11.3953 Y-14.7173
G01 X11.3838 Y-14.7023
G01 X11.3723 Y-14.6895
G01 X11.3585 Y-14.6767
G01 X11.3449 Y-14.6661
G01 X11.3291 Y-14.6558
G01 X11.3120 Y-14.6468
G00 Z3.0000
G00 X9.5756 Y-14.7168
G01 F80.00
G01 Z-0.0560
G01 F100.00
G01 X9.6696 Y-14.7168
G01 X9.6581 Y-14.7449
G01 X9.6500 Y-14.7729
G01 X9.6445 Y-14.8042
G01 X9.6426 Y-14.8329
G01 X9.6426 Y-16.4368
G01 X9.6444 Y-16.4685
G01 X9.6498 Y-16.4998
G01 X9.6581 Y-16.5287
G01 X9.6696 Y-16.5568
G01 X9.5756 Y-16.5568
G01 X9.5871 Y-16.5287
G01 X9.5952 Y-16.5007
G01 X9.6007 Y-16.4694
G01 X9.6026 Y-16.4407
G01 X9.6026 Y-14.8368
G01 X9.6008 Y-14.8051
G01 X9.5954 Y-14.7738
G01 X9.5871 Y-14.7449
G01 X9.5756 Y-14.7168
G00 Z3.0000
G00 X8.3859 Y-14.5068
G01 F80.00
G01 Z-0.0560
G01 F100.00
G01 X7.6926 Y-14.5068
G01 X7.6926 Y-15.3501
G01 X7.9526 Y-15.3501
G01 X7.9526 Y-14.8368
G01 X7.9529 Y-14.8299
G01 X7.9547 Y-14.8198
G01 X7.9579 Y-14.8100
G01 X7.9609 Y-14.8038
G01 X7.9664 Y-14.7951
G01 X7.9707 Y-14.7898
G01 X7.9782 Y-14.7827
G01 X7.9837 Y-14.7786
G01 X7.9896 Y-14.7751
G01 X7.9990 Y-14.7709
G01 X8.0056 Y-14.7689
G01 X8.0157 Y-14.7671
G01 X8.3859 Y-14.7668
G01 X8.3859 Y-14.5068
G01 X8.3159 Y-14.5768
G01 X7.7626 Y-14.5768
G01 X7.7626 Y-15.2801
G01 X7.8826 Y-15.2801
G01 X7.8829 Y-14.8282
G01 X7.8856 Y-14.8078
G01 X7.8881 Y-14.7978
G01 X7.8926 Y-14.7848
G01 X7.9017 Y-14.7663
G01 X7.9133 Y-14.7493
G01 X7.9224 Y-14.7390
G01 X7.9325 Y-14.7297
G01 X7.9434 Y-14.7214
G01 X7.9551 Y-14.7142
G01 X7.9674 Y-14.7081
G01 X7.9771 Y-14.7044
G01 X7.9903 Y-14.7006
G01 X8.0038 Y-14.6981
G01 X8.0226 Y-14.6968
G01 X8.3159 Y-14.6968
G01 X8.3159 Y-14.5768
G01 X7.8326 Y-14.7474
G01 X7.8416 Y-14.7303
G01 X7.8519 Y-14.7145
G01 X7.8625 Y-14.7009
G01 X7.8753 Y-14.6871
G01 X7.8881 Y-14.6756
G01 X7.9031 Y-14.6641
G01 X7.9176 Y-14.6549
G01 X7.9332 Y-14.6468
G01 X7.8326 Y-14.6468
G01 X7.8326 Y-14.7474
G00 Z3.0000
G00 X7.7892 Y-14.1150
G01 F80.00
G01 Z-0.0560
G01 F100.00
G01 X7.7892 Y-13.9950
G01 X8.1325 Y-13.9950
G01 X8.1445 Y-13.9945
G01 X8.1581 Y-13.9926
G01 X8.1682 Y-13.9904
G01 X8.1877 Y-13.9837
G01 X8.1970 Y-13.9793
G01 X8.2088 Y-13.9723
G01 X8.2173 Y-13.9664
G01 X8.2278 Y-13.9576
G01 X8.2374 Y-13.9477
G01 X8.2460 Y-13.9370
G01 X8.2534 Y-13.9255
G01 X8.2583 Y-13.9164
G01 X8.2637 Y-13.9038
G01 X8.2670 Y-13.8940
G01 X8.2701 Y-13.8806
G01 X8.2716 Y-13.8704
G01 X8.2725 Y-13.8550
G01 X8.2725 Y-13.5616
G01 X8.3925 Y-13.5616
G01 X8.3925 Y-14.1150
G01 X7.7892 Y-14.1150
G01 X7.7192 Y-14.1850
G01 X7.7192 Y-13.9250
G01 X8.1325 Y-13.9250
G01 X8.1394 Y-13.9247
G01 X8.1495 Y-13.9229
G01 X8.1593 Y-13.9197
G01 X8.1685 Y-13.9150
G01 X8.1742 Y-13.9112
G01 X8.1820 Y-13.9045
G01 X8.1887 Y-13.8967
G01 X8.1925 Y-13.8910
G01 X8.1984 Y-13.8786
G01 X8.2012 Y-13.8687
G01 X8.2022 Y-13.8619
G01 X8.2025 Y-13.4916
G01 X8.4625 Y-13.4916
G01 X8.4625 Y-14.1850
G01 X7.7192 Y-14.1850
G01 X8.2219 Y-14.0450
G01 X8.2375 Y-14.0369
G01 X8.2520 Y-14.0277
G01 X8.2670 Y-14.0162
G01 X8.2798 Y-14.0047
G01 X8.2926 Y-13.9909
G01 X8.3032 Y-13.9773
G01 X8.3135 Y-13.9615
G01 X8.3225 Y-13.9444
G01 X8.3225 Y-14.0450
G01 X8.2219 Y-14.0450
G00 Z3.0000
G00 X6.5425 Y-13.9444
G01 F80.00
G01 Z-0.0560
G01 F100.00
G01 X6.5425 Y-14.0450
G01 X6.6431 Y-14.0450
G01 X6.6260 Y-14.0360
G01 X6.6102 Y-14.0257
G01 X6.5966 Y-14.0151
G01 X6.5828 Y-14.0023
G01 X6.5713 Y-13.9895
G01 X6.5598 Y-13.9745
G01 X6.5506 Y-13.9600
G01 X6.5425 Y-13.9444
G01 X6.4725 Y-13.5616
G01 X6.4725 Y-14.1150
G01 X7.0758 Y-14.1150
G01 X7.0758 Y-13.9950
G01 X6.7325 Y-13.9950
G01 X6.7205 Y-13.9945
G01 X6.7002 Y-13.9912
G01 X6.6870 Y-13.9874
G01 X6.6773 Y-13.9837
G01 X6.6650 Y-13.9776
G01 X6.6562 Y-13.9723
G01 X6.6477 Y-13.9664
G01 X6.6372 Y-13.9576
G01 X6.6299 Y-13.9503
G01 X6.6211 Y-13.9398
G01 X6.6152 Y-13.9313
G01 X6.6082 Y-13.9195
G01 X6.6038 Y-13.9102
G01 X6.5990 Y-13.8973
G01 X6.5955 Y-13.8840
G01 X6.5934 Y-13.8704
G01 X6.5925 Y-13.8550
G01 X6.5925 Y-13.5616
G01 X6.4725 Y-13.5616
G01 X6.4025 Y-13.4916
G01 X6.4025 Y-14.1850
G01 X7.1458 Y-14.1850
G01 X7.1458 Y-13.9250
G01 X6.7325 Y-13.9250
G01 X6.7222 Y-13.9242
G01 X6.7122 Y-13.9220
G01 X6.7057 Y-13.9197
G01 X6.6965 Y-13.9150
G01 X6.6908 Y-13.9112
G01 X6.6830 Y-13.9045
G01 X6.6743 Y-13.8939
G01 X6.6708 Y-13.8880
G01 X6.6666 Y-13.8786
G01 X6.6646 Y-13.8720
G01 X6.6628 Y-13.8619
G01 X6.6625 Y-13.4916
G01 X6.4025 Y-13.4916
G00 Z3.0000
G00 X6.6125 Y-12.3020
G01 F80.00
G01 Z-0.0560
G01 F100.00
G01 X6.6125 Y-12.2080
G01 X6.6406 Y-12.2195
G01 X6.6695 Y-12.2278
G01 X6.7008 Y-12.2332
G01 X6.7325 Y-12.2350
G01 X8.1364 Y-12.2350
G01 X8.1651 Y-12.2331
G01 X8.1964 Y-12.2276
G01 X8.2244 Y-12.2195
G01 X8.2525 Y-12.2080
G01 X8.2525 Y-12.3020
G01 X8.2244 Y-12.2905
G01 X8.1964 Y-12.2824
G01 X8.1651 Y-12.2769
G01 X8.1364 Y-12.2750
G01 X6.7325 Y-12.2750
G01 X6.7008 Y-12.2768
G01 X6.6695 Y-12.2822
G01 X6.6406 Y-12.2905
G01 X6.6125 Y-12.3020
G01 X6.5425 Y-12.0444
G01 X6.5490 Y-12.0570
G01 X6.5570 Y-12.0702
G01 X6.5659 Y-12.0828
G01 X6.5746 Y-12.0935
G01 X6.5852 Y-12.1047
G01 X6.5966 Y-12.1151
G01 X6.6187 Y-12.1315
G01 X6.6305 Y-12.1385
G01 X6.6443 Y-12.1456
G01 X6.6585 Y-12.1515
G01 X6.6732 Y-12.1564
G01 X6.6882 Y-12.1603
G01 X6.7034 Y-12.1630
G01 X6.7325 Y-12.1650
G01 X8.1325 Y-12.1650
G01 X8.1497 Y-12.1643
G01 X8.1768 Y-12.1603
G01 X8.2016 Y-12.1533
G01 X8.2160 Y-12.1477
G01 X8.2284 Y-12.1418
G01 X8.2520 Y-12.1277
G01 X8.2630 Y-12.1195
G01 X8.2748 Y-12.1094
G01 X8.2926 Y-12.0909
G01 X8.3090 Y-12.0688
G01 X8.3225 Y-12.0444
G01 X8.3225 Y-12.4656
G01 X8.3090 Y-12.4412
G01 X8.2926 Y-12.4191
G01 X8.2748 Y-12.4006
G01 X8.2630 Y-12.3905
G01 X8.2520 Y-12.3823
G01 X8.2284 Y-12.3682
G01 X8.2049 Y-12.3579
G01 X8.1902 Y-12.3531
G01 X8.1768 Y-12.3497
G01 X8.1497 Y-12.3457
G01 X8.1325 Y-12.3450
G01 X6.7325 Y-12.3450
G01 X6.7034 Y-12.3470
G01 X6.6882 Y-12.3497
G01 X6.6732 Y-12.3536
G01 X6.6585 Y-12.3585
G01 X6.6443 Y-12.3644
G01 X6.6305 Y-12.3715
G01 X6.6187 Y-12.3785
G01 X6.5966 Y-12.3949
G01 X6.5852 Y-12.4053
G01 X6.5746 Y-12.4165
G01 X6.5659 Y-12.4272
G01 X6.5570 Y-12.4398
G01 X6.5490 Y-12.4530
G01 X6.5425 Y-12.4656
G01 X6.5425 Y-12.0444
G00 Z3.0000
G00 X4.5210 Y-11.7202
G01 F80.00
G01 Z-0.0560
G01 F100.00
G01 X4.5278 Y-11.7607
G01 X4.5388 Y-11.8523
G01 X4.5452 Y-11.9409
G01 X4.5474 Y-12.0323
G01 X4.5452 Y-12.1219
G01 X4.5388 Y-12.2105
G01 X4.5278 Y-12.3021
G01 X4.5210 Y-12.3426
G01 X4.5554 Y-12.3771
G01 X4.5665 Y-12.3131
G01 X4.5781 Y-12.2196
G01 X4.5850 Y-12.1256
G01 X4.5873 Y-12.0314
G01 X4.5850 Y-11.9372
G01 X4.5781 Y-11.8432
G01 X4.5665 Y-11.7497
G01 X4.5554 Y-11.6857
G01 X4.5210 Y-11.7202
G01 X4.4458 Y-11.6964
G01 X4.4580 Y-11.7675
G01 X4.4688 Y-11.8557
G01 X4.4753 Y-11.9443
G01 X4.4774 Y-12.0323
G01 X4.4753 Y-12.1185
G01 X4.4688 Y-12.2071
G01 X4.4580 Y-12.2953
G01 X4.4458 Y-12.3664
G01 X4.5970 Y-12.5176
G01 X4.6191 Y-12.4196
G01 X4.6358 Y-12.3234
G01 X4.6478 Y-12.2264
G01 X4.6549 Y-12.1290
G01 X4.6573 Y-12.0314
G01 X4.6549 Y-11.9338
G01 X4.6478 Y-11.8364
G01 X4.6358 Y-11.7394
G01 X4.6191 Y-11.6432
G01 X4.5970 Y-11.5452
G01 X4.4458 Y-11.6964
G01 X4.3698 Y-11.6734
G01 X4.3746 Y-11.6953
G01 X4.3883 Y-11.7744
G01 X4.3988 Y-11.8591
G01 X4.4052 Y-11.9443
G01 X4.4074 Y-12.0323
G01 X4.4052 Y-12.1185
G01 X4.3988 Y-12.2037
G01 X4.3883 Y-12.2884
G01 X4.3746 Y-12.3675
G01 X4.3698 Y-12.3894
G01 X4.6315 Y-12.6511
G01 X4.6387 Y-12.6294
G01 X4.6656 Y-12.5319
G01 X4.6878 Y-12.4333
G01 X4.7051 Y-12.3337
G01 X4.7174 Y-12.2333
G01 X4.7249 Y-12.1325
G01 X4.7274 Y-12.0314
G01 X4.7249 Y-11.9303
G01 X4.7174 Y-11.8295
G01 X4.7051 Y-11.7291
G01 X4.6878 Y-11.6295
G01 X4.6656 Y-11.5309
G01 X4.6387 Y-11.4334
G01 X4.6315 Y-11.4117
G01 X4.3698 Y-11.6734
G01 X4.2931 Y-11.6511
G01 X4.3056 Y-11.7073
G01 X4.3191 Y-11.7847
G01 X4.3292 Y-11.8660
G01 X4.3353 Y-11.9477
G01 X4.3374 Y-12.0314
G01 X4.3353 Y-12.1151
G01 X4.3292 Y-12.1968
G01 X4.3191 Y-12.2781
G01 X4.3056 Y-12.3555
G01 X4.2931 Y-12.4117
G01 X4.6610 Y-12.7796
G01 X4.6729 Y-12.7490
G01 X4.7057 Y-12.6497
G01 X4.7335 Y-12.5489
G01 X4.7565 Y-12.4469
G01 X4.7743 Y-12.3439
G01 X4.7871 Y-12.2402
G01 X4.7948 Y-12.1359
G01 X4.7974 Y-12.0314
G01 X4.7948 Y-11.9269
G01 X4.7871 Y-11.8226
G01 X4.7743 Y-11.7189
G01 X4.7565 Y-11.6159
G01 X4.7335 Y-11.5139
G01 X4.7057 Y-11.4131
G01 X4.6729 Y-11.3138
G01 X4.6610 Y-11.2832
G01 X4.2931 Y-11.6511
G00 Z3.0000
G00 X2.3217 Y-10.1434
G01 F80.00
G01 Z-0.0560
G01 F100.00
G01 X2.3562 Y-10.1778
G01 X2.3967 Y-10.1710
G01 X2.4883 Y-10.1600
G01 X2.5769 Y-10.1536
G01 X2.6683 Y-10.1514
G01 X2.7579 Y-10.1536
G01 X2.8465 Y-10.1600
G01 X2.9381 Y-10.1710
G01 X2.9786 Y-10.1778
G01 X3.0131 Y-10.1434
G01 X2.9491 Y-10.1323
G01 X2.8556 Y-10.1207
G01 X2.7616 Y-10.1138
G01 X2.6674 Y-10.1115
G01 X2.5732 Y-10.1138
G01 X2.4792 Y-10.1207
G01 X2.3857 Y-10.1323
G01 X2.3217 Y-10.1434
G01 X2.1812 Y-10.1018
G01 X2.3324 Y-10.2530
G01 X2.4035 Y-10.2408
G01 X2.4917 Y-10.2300
G01 X2.5803 Y-10.2235
G01 X2.6683 Y-10.2214
G01 X2.7545 Y-10.2235
G01 X2.8431 Y-10.2300
G01 X2.9313 Y-10.2408
G01 X3.0024 Y-10.2530
G01 X3.1536 Y-10.1018
G01 X3.0556 Y-10.0797
G01 X2.9594 Y-10.0630
G01 X2.8624 Y-10.0510
G01 X2.7650 Y-10.0439
G01 X2.6674 Y-10.0415
G01 X2.5698 Y-10.0439
G01 X2.4724 Y-10.0510
G01 X2.3754 Y-10.0630
G01 X2.2792 Y-10.0797
G01 X2.1812 Y-10.1018
G01 X2.0477 Y-10.0673
G01 X2.3094 Y-10.3290
G01 X2.3313 Y-10.3242
G01 X2.4104 Y-10.3105
G01 X2.4951 Y-10.3000
G01 X2.5803 Y-10.2936
G01 X2.6683 Y-10.2914
G01 X2.7545 Y-10.2936
G01 X2.8397 Y-10.3000
G01 X2.9244 Y-10.3105
G01 X3.0035 Y-10.3242
G01 X3.0254 Y-10.3290
G01 X3.2871 Y-10.0673
G01 X3.2654 Y-10.0601
G01 X3.1679 Y-10.0332
G01 X3.0693 Y-10.0110
G01 X2.9697 Y-9.9937
G01 X2.8693 Y-9.9814
G01 X2.7685 Y-9.9739
G01 X2.6674 Y-9.9714
G01 X2.5663 Y-9.9739
G01 X2.4655 Y-9.9814
G01 X2.3651 Y-9.9937
G01 X2.2655 Y-10.0110
G01 X2.1669 Y-10.0332
G01 X2.0694 Y-10.0601
G01 X2.0477 Y-10.0673
G01 X1.9192 Y-10.0378
G01 X2.2871 Y-10.4057
G01 X2.3433 Y-10.3932
G01 X2.4207 Y-10.3797
G01 X2.5020 Y-10.3696
G01 X2.5837 Y-10.3635
G01 X2.6674 Y-10.3614
G01 X2.7511 Y-10.3635
G01 X2.8328 Y-10.3696
G01 X2.9141 Y-10.3797
G01 X2.9915 Y-10.3932
G01 X3.0477 Y-10.4057
G01 X3.4156 Y-10.0378
G01 X3.3850 Y-10.0259
G01 X3.2857 Y-9.9931
G01 X3.1849 Y-9.9653
G01 X3.0829 Y-9.9423
G01 X2.9799 Y-9.9245
G01 X2.8762 Y-9.9117
G01 X2.7719 Y-9.9040
G01 X2.6674 Y-9.9014
G01 X2.5629 Y-9.9040
G01 X2.4586 Y-9.9117
G01 X2.3549 Y-9.9245
G01 X2.2519 Y-9.9423
G01 X2.1499 Y-9.9653
G01 X2.0491 Y-9.9931
G01 X1.9498 Y-10.0259
G01 X1.9192 Y-10.0378
G00 Z3.0000
G00 X0.7794 Y-12.3771
G01 F80.00
G01 Z-0.0560
G01 F100.00
G01 X0.7683 Y-12.3131
G01 X0.7567 Y-12.2196
G01 X0.7498 Y-12.1256
G01 X0.7475 Y-12.0314
G01 X0.7498 Y-11.9372
G01 X0.7567 Y-11.8432
G01 X0.7683 Y-11.7497
G01 X0.7794 Y-11.6857
G01 X0.8138 Y-11.7202
G01 X0.8070 Y-11.7607
G01 X0.7960 Y-11.8523
G01 X0.7896 Y-11.9409
G01 X0.7874 Y-12.0305
G01 X0.7896 Y-12.1219
G01 X0.7960 Y-12.2105
G01 X0.8070 Y-12.3021
G01 X0.8138 Y-12.3426
G01 X0.7794 Y-12.3771
G01 X0.7378 Y-12.5176
G01 X0.7157 Y-12.4196
G01 X0.6990 Y-12.3234
G01 X0.6870 Y-12.2264
G01 X0.6799 Y-12.1290
G01 X0.6775 Y-12.0314
G01 X0.6799 Y-11.9338
G01 X0.6870 Y-11.8364
G01 X0.6990 Y-11.7394
G01 X0.7157 Y-11.6432
G01 X0.7378 Y-11.5452
G01 X0.8890 Y-11.6964
G01 X0.8768 Y-11.7675
G01 X0.8660 Y-11.8557
G01 X0.8595 Y-11.9443
G01 X0.8574 Y-12.0305
G01 X0.8595 Y-12.1185
G01 X0.8660 Y-12.2071
G01 X0.8768 Y-12.2953
G01 X0.8890 Y-12.3664
G01 X0.7378 Y-12.5176
G01 X0.7033 Y-12.6511
G01 X0.6961 Y-12.6294
G01 X0.6692 Y-12.5319
G01 X0.6470 Y-12.4333
G01 X0.6297 Y-12.3337
G01 X0.6174 Y-12.2333
G01 X0.6099 Y-12.1325
G01 X0.6074 Y-12.0314
G01 X0.6099 Y-11.9303
G01 X0.6174 Y-11.8295
G01 X0.6297 Y-11.7291
G01 X0.6470 Y-11.6295
G01 X0.6692 Y-11.5309
G01 X0.6961 Y-11.4334
G01 X0.7033 Y-11.4117
G01 X0.9650 Y-11.6734
G01 X0.9602 Y-11.6953
G01 X0.9465 Y-11.7744
G01 X0.9360 Y-11.8591
G01 X0.9296 Y-11.9443
G01 X0.9274 Y-12.0305
G01 X0.9296 Y-12.1185
G01 X0.9360 Y-12.2037
G01 X0.9465 Y-12.2884
G01 X0.9602 Y-12.3675
G01 X0.9650 Y-12.3894
G01 X0.7033 Y-12.6511
G01 X0.6738 Y-12.7796
G01 X0.6619 Y-12.7490
G01 X0.6291 Y-12.6497
G01 X0.6013 Y-12.5489
G01 X0.5783 Y-12.4469
G01 X0.5605 Y-12.3439
G01 X0.5477 Y-12.2402
G01 X0.5400 Y-12.1359
G01 X0.5374 Y-12.0314
G01 X0.5400 Y-11.9269
G01 X0.5477 Y-11.8226
G01 X0.5605 Y-11.7189
G01 X0.5783 Y-11.6159
G01 X0.6013 Y-11.5139
G01 X0.6291 Y-11.4131
G01 X0.6619 Y-11.3138
G01 X0.6738 Y-11.2832
G01 X1.0417 Y-11.6511
G01 X1.0292 Y-11.7073
G01 X1.0157 Y-11.7847
G01 X1.0056 Y-11.8660
G01 X0.9995 Y-11.9477
G01 X0.9974 Y-12.0314
G01 X0.9995 Y-12.1151
G01 X1.0056 Y-12.1968
G01 X1.0157 Y-12.2781
G01 X1.0292 Y-12.3555
G01 X1.0417 Y-12.4117
G01 X0.6738 Y-12.7796
G00 Z3.0000
G00 X1.9192 Y-14.0250
G01 F80.00
G01 Z-0.0560
G01 F100.00
G01 X1.9498 Y-14.0369
G01 X2.0491 Y-14.0697
G01 X2.1499 Y-14.0975
G01 X2.2519 Y-14.1205
G01 X2.3549 Y-14.1383
G01 X2.4586 Y-14.1511
G01 X2.5629 Y-14.1588
G01 X2.6674 Y-14.1614
G01 X2.7719 Y-14.1588
G01 X2.8762 Y-14.1511
G01 X2.9799 Y-14.1383
G01 X3.0829 Y-14.1205
G01 X3.1849 Y-14.0975
G01 X3.2857 Y-14.0697
G01 X3.3850 Y-14.0369
G01 X3.4156 Y-14.0250
G01 X3.0477 Y-13.6571
G01 X2.9915 Y-13.6696
G01 X2.9141 Y-13.6831
G01 X2.8328 Y-13.6932
G01 X2.7511 Y-13.6993
G01 X2.6674 Y-13.7014
G01 X2.5837 Y-13.6993
G01 X2.5020 Y-13.6932
G01 X2.4207 Y-13.6831
G01 X2.3433 Y-13.6696
G01 X2.2871 Y-13.6571
G01 X1.9192 Y-14.0250
G01 X2.0477 Y-13.9955
G01 X2.0694 Y-14.0027
G01 X2.1669 Y-14.0296
G01 X2.2655 Y-14.0518
G01 X2.3651 Y-14.0691
G01 X2.4655 Y-14.0814
G01 X2.5663 Y-14.0889
G01 X2.6674 Y-14.0914
G01 X2.7685 Y-14.0889
G01 X2.8693 Y-14.0814
G01 X2.9697 Y-14.0691
G01 X3.0693 Y-14.0518
G01 X3.1679 Y-14.0296
G01 X3.2654 Y-14.0027
G01 X3.2871 Y-13.9955
G01 X3.0254 Y-13.7338
G01 X3.0035 Y-13.7386
G01 X2.9244 Y-13.7523
G01 X2.8397 Y-13.7628
G01 X2.7545 Y-13.7692
G01 X2.6665 Y-13.7714
G01 X2.5803 Y-13.7692
G01 X2.4951 Y-13.7628
G01 X2.4104 Y-13.7523
G01 X2.3313 Y-13.7386
G01 X2.3094 Y-13.7338
G01 X2.0477 Y-13.9955
G01 X2.1812 Y-13.9610
G01 X2.2792 Y-13.9831
G01 X2.3754 Y-13.9998
G01 X2.4724 Y-14.0118
G01 X2.5698 Y-14.0189
G01 X2.6674 Y-14.0213
G01 X2.7650 Y-14.0189
G01 X2.8624 Y-14.0118
G01 X2.9594 Y-13.9998
G01 X3.0556 Y-13.9831
G01 X3.1536 Y-13.9610
G01 X3.0024 Y-13.8098
G01 X2.9313 Y-13.8220
G01 X2.8431 Y-13.8328
G01 X2.7545 Y-13.8393
G01 X2.6665 Y-13.8414
G01 X2.5803 Y-13.8393
G01 X2.4917 Y-13.8328
G01 X2.4035 Y-13.8220
G01 X2.3324 Y-13.8098
G01 X2.1812 Y-13.9610
G01 X2.3217 Y-13.9194
G01 X2.3857 Y-13.9305
G01 X2.4792 Y-13.9421
G01 X2.5732 Y-13.9490
G01 X2.6674 Y-13.9513
G01 X2.7616 Y-13.9490
G01 X2.8556 Y-13.9421
G01 X2.9491 Y-13.9305
G01 X3.0131 Y-13.9194
G01 X2.9786 Y-13.8850
G01 X2.9381 Y-13.8918
G01 X2.8465 Y-13.9028
G01 X2.7579 Y-13.9092
G01 X2.6665 Y-13.9114
G01 X2.5769 Y-13.9092
G01 X2.4883 Y-13.9028
G01 X2.3967 Y-13.8918
G01 X2.3562 Y-13.8850
G01 X2.3217 Y-13.9194
G00 Z3.0000
G00 X7.6926 Y-15.9234
G01 F80.00
G01 Z-0.0560
G01 F100.00
G01 X7.9526 Y-15.9234
G01 X7.9526 Y-16.4368
G01 X7.9529 Y-16.4437
G01 X7.9547 Y-16.4538
G01 X7.9567 Y-16.4604
G01 X7.9609 Y-16.4698
G01 X7.9664 Y-16.4785
G01 X7.9707 Y-16.4838
G01 X7.9782 Y-16.4909
G01 X7.9837 Y-16.4950
G01 X7.9896 Y-16.4985
G01 X7.9990 Y-16.5027
G01 X8.0089 Y-16.5055
G01 X8.0157 Y-16.5065
G01 X8.3859 Y-16.5068
G01 X8.3859 Y-16.7668
G01 X7.6926 Y-16.7668
G01 X7.6926 Y-15.9234
G01 X7.7626 Y-15.9934
G01 X7.8826 Y-15.9934
G01 X7.8829 Y-16.4454
G01 X7.8856 Y-16.4658
G01 X7.8914 Y-16.4856
G01 X7.8953 Y-16.4951
G01 X7.9017 Y-16.5073
G01 X7.9133 Y-16.5243
G01 X7.9224 Y-16.5346
G01 X7.9325 Y-16.5439
G01 X7.9434 Y-16.5522
G01 X7.9551 Y-16.5594
G01 X7.9674 Y-16.5655
G01 X7.9803 Y-16.5703
G01 X7.9936 Y-16.5738
G01 X8.0038 Y-16.5755
G01 X8.0226 Y-16.5768
G01 X8.3159 Y-16.5768
G01 X8.3159 Y-16.6968
G01 X7.7626 Y-16.6968
G01 X7.7626 Y-15.9934
G01 X7.8326 Y-16.5262
G01 X7.8407 Y-16.5418
G01 X7.8499 Y-16.5563
G01 X7.8614 Y-16.5713
G01 X7.8729 Y-16.5841
G01 X7.8867 Y-16.5969
G01 X7.9003 Y-16.6075
G01 X7.9161 Y-16.6178
G01 X7.9332 Y-16.6268
G01 X7.8326 Y-16.6268
G01 X7.8326 Y-16.5262
G00 Z3.0000
G00 X9.9673 Y-16.7473
G01 F80.00
G01 Z-0.0560
G01 F100.00
G01 X9.9557 Y-16.7259
G01 X9.9427 Y-16.7073
G01 X9.9265 Y-16.6890
G01 X9.9097 Y-16.6737
G01 X9.8899 Y-16.6595
G01 X9.8701 Y-16.6484
G01 X9.8459 Y-16.6383
G01 X9.8224 Y-16.6317
G01 X9.8000 Y-16.6280
G01 X9.7783 Y-16.6268
G01 X9.4120 Y-16.6268
G01 X9.4364 Y-16.6133
G01 X9.4585 Y-16.5969
G01 X9.4686 Y-16.5877
G01 X9.4793 Y-16.5765
G01 X9.4962 Y-16.5549
G01 X9.5045 Y-16.5418
G01 X9.5109 Y-16.5297
G01 X9.5214 Y-16.5043
G01 X9.5254 Y-16.4911
G01 X9.5289 Y-16.4761
G01 X9.5321 Y-16.4505
G01 X9.5326 Y-14.8368
G01 X9.5306 Y-14.8077
G01 X9.5279 Y-14.7925
G01 X9.5240 Y-14.7775
G01 X9.5191 Y-14.7628
G01 X9.5132 Y-14.7486
G01 X9.5061 Y-14.7348
G01 X9.4991 Y-14.7230
G01 X9.4827 Y-14.7009
G01 X9.4723 Y-14.6895
G01 X9.4611 Y-14.6789
G01 X9.4504 Y-14.6702
G01 X9.4378 Y-14.6613
G01 X9.4246 Y-14.6533
G01 X9.4120 Y-14.6468
G01 X9.7780 Y-14.6468
G01 X9.7994 Y-14.6456
G01 X9.8215 Y-14.6421
G01 X9.8446 Y-14.6356
G01 X9.8685 Y-14.6259
G01 X9.8880 Y-14.6151
G01 X9.9077 Y-14.6013
G01 X9.9244 Y-14.5865
G01 X9.9416 Y-14.5673
G01 X9.9555 Y-14.5477
G01 X9.9673 Y-14.5258
G01 X9.9673 Y-14.6268
G01 X9.9089 Y-14.6273
G01 X9.8884 Y-14.6296
G01 X9.8683 Y-14.6340
G01 X9.8454 Y-14.6415
G01 X9.8267 Y-14.6500
G01 X9.8074 Y-14.6613
G01 X9.7881 Y-14.6756
G01 X9.7717 Y-14.6908
G01 X9.7560 Y-14.7090
G01 X9.7434 Y-14.7274
G01 X9.7320 Y-14.7486
G01 X9.7238 Y-14.7693
G01 X9.7173 Y-14.7925
G01 X9.7138 Y-14.8145
G01 X9.7126 Y-14.8368
G01 X9.7126 Y-16.4368
G01 X9.7144 Y-16.4642
G01 X9.7185 Y-16.4862
G01 X9.7243 Y-16.5059
G01 X9.7320 Y-16.5250
G01 X9.7434 Y-16.5462
G01 X9.7550 Y-16.5633
G01 X9.7682 Y-16.5791
G01 X9.7829 Y-16.5935
G01 X9.8003 Y-16.6075
G01 X9.8176 Y-16.6187
G01 X9.8359 Y-16.6281
G01 X9.8551 Y-16.6356
G01 X9.8749 Y-16.6413
G01 X9.8935 Y-16.6448
G01 X9.9106 Y-16.6464
G01 X9.9673 Y-16.6468
G01 X9.9673 Y-16.7473
G00 Z3.0000
G00 X11.3426 Y-16.6898
G01 F80.00
G01 Z-0.0560
G01 F100.00
G01 X11.3427 Y-16.7673
G01 X11.3453 Y-16.8007
G01 X11.3489 Y-16.8210
G01 X11.3542 Y-16.8418
G01 X11.3608 Y-16.8613
G01 X11.3697 Y-16.8823
G01 X11.3528 Y-16.8823
G01 X11.1873 Y-16.7168
G01 X11.2381 Y-16.7164
G01 X11.2543 Y-16.7150
G01 X11.2722 Y-16.7124
G01 X11.2890 Y-16.7088
G01 X11.3080 Y-16.7035
G01 X11.3258 Y-16.6971
G01 X11.3426 Y-16.6898
G01 X11.4126 Y-16.5262
G01 X11.4127 Y-16.7690
G01 X11.4151 Y-16.7947
G01 X11.4207 Y-16.8198
G01 X11.4279 Y-16.8409
G01 X11.4366 Y-16.8596
G01 X11.4490 Y-16.8802
G01 X11.4625 Y-16.8980
G01 X11.4766 Y-16.9130
G01 X11.4948 Y-16.9287
G01 X11.5132 Y-16.9414
G01 X11.5336 Y-16.9523
G01 X11.3238 Y-16.9523
G01 X11.0183 Y-16.6468
G01 X11.2295 Y-16.6467
G01 X11.2568 Y-16.6440
G01 X11.2703 Y-16.6413
G01 X11.2852 Y-16.6372
G01 X11.3045 Y-16.6301
G01 X11.3246 Y-16.6203
G01 X11.3449 Y-16.6075
G01 X11.3611 Y-16.5947
G01 X11.3770 Y-16.5791
G01 X11.3902 Y-16.5633
G01 X11.4018 Y-16.5462
G01 X11.4126 Y-16.5262
G00 Z3.0000
G00 X15.1150 Y-13.9444
G01 F80.00
G01 Z-0.0560
G01 F100.00
G01 X15.1150 Y-14.0450
G01 X15.2156 Y-14.0450
G01 X15.1985 Y-14.0360
G01 X15.1827 Y-14.0257
G01 X15.1691 Y-14.0151
G01 X15.1553 Y-14.0023
G01 X15.1438 Y-13.9895
G01 X15.1323 Y-13.9745
G01 X15.1231 Y-13.9600
G01 X15.1150 Y-13.9444
G01 X15.0450 Y-13.5616
G01 X15.0450 Y-14.1150
G01 X15.6484 Y-14.1150
G01 X15.6484 Y-13.9950
G01 X15.3050 Y-13.9950
G01 X15.2930 Y-13.9945
G01 X15.2727 Y-13.9912
G01 X15.2627 Y-13.9885
G01 X15.2498 Y-13.9837
G01 X15.2405 Y-13.9793
G01 X15.2287 Y-13.9723
G01 X15.2202 Y-13.9664
G01 X15.2097 Y-13.9576
G01 X15.2024 Y-13.9503
G01 X15.1936 Y-13.9398
G01 X15.1877 Y-13.9313
G01 X15.1807 Y-13.9195
G01 X15.1750 Y-13.9070
G01 X15.1715 Y-13.8973
G01 X15.1680 Y-13.8840
G01 X15.1659 Y-13.8704
G01 X15.1650 Y-13.8550
G01 X15.1650 Y-13.5616
G01 X15.0450 Y-13.5616
G01 X14.9750 Y-13.4916
G01 X14.9750 Y-14.1850
G01 X15.7184 Y-14.1850
G01 X15.7184 Y-13.9250
G01 X15.3050 Y-13.9250
G01 X15.2947 Y-13.9242
G01 X15.2847 Y-13.9220
G01 X15.2751 Y-13.9183
G01 X15.2690 Y-13.9150
G01 X15.2633 Y-13.9112
G01 X15.2555 Y-13.9045
G01 X15.2468 Y-13.8939
G01 X15.2417 Y-13.8849
G01 X15.2391 Y-13.8786
G01 X15.2363 Y-13.8687
G01 X15.2353 Y-13.8619
G01 X15.2350 Y-13.4916
G01 X14.9750 Y-13.4916
G00 Z3.0000
G00 X15.1850 Y-12.3020
G01 F80.00
G01 Z-0.0560
G01 F100.00
G01 X15.2131 Y-12.2905
G01 X15.2420 Y-12.2822
G01 X15.2733 Y-12.2768
G01 X15.3050 Y-12.2750
G01 X16.7089 Y-12.2750
G01 X16.7376 Y-12.2769
G01 X16.7689 Y-12.2824
G01 X16.7969 Y-12.2905
G01 X16.8250 Y-12.3020
G01 X16.8250 Y-12.2080
G01 X16.7969 Y-12.2195
G01 X16.7680 Y-12.2278
G01 X16.7367 Y-12.2332
G01 X16.7050 Y-12.2350
G01 X15.3011 Y-12.2350
G01 X15.2724 Y-12.2331
G01 X15.2411 Y-12.2276
G01 X15.2131 Y-12.2195
G01 X15.1850 Y-12.2080
G01 X15.1850 Y-12.3020
G01 X15.1150 Y-12.0444
G01 X15.1150 Y-12.4656
G01 X15.1215 Y-12.4530
G01 X15.1295 Y-12.4398
G01 X15.1384 Y-12.4272
G01 X15.1471 Y-12.4165
G01 X15.1577 Y-12.4053
G01 X15.1691 Y-12.3949
G01 X15.1912 Y-12.3785
G01 X15.2030 Y-12.3715
G01 X15.2168 Y-12.3644
G01 X15.2310 Y-12.3585
G01 X15.2457 Y-12.3536
G01 X15.2607 Y-12.3497
G01 X15.2759 Y-12.3470
G01 X15.3050 Y-12.3450
G01 X16.7050 Y-12.3450
G01 X16.7222 Y-12.3457
G01 X16.7493 Y-12.3497
G01 X16.7741 Y-12.3567
G01 X16.7885 Y-12.3623
G01 X16.8009 Y-12.3682
G01 X16.8245 Y-12.3823
G01 X16.8447 Y-12.3983
G01 X16.8559 Y-12.4090
G01 X16.8651 Y-12.4191
G01 X16.8815 Y-12.4412
G01 X16.8950 Y-12.4656
G01 X16.8950 Y-12.0444
G01 X16.8885 Y-12.0570
G01 X16.8805 Y-12.0702
G01 X16.8716 Y-12.0828
G01 X16.8629 Y-12.0935
G01 X16.8435 Y-12.1129
G01 X16.8315 Y-12.1226
G01 X16.8188 Y-12.1315
G01 X16.8070 Y-12.1385
G01 X16.7932 Y-12.1456
G01 X16.7790 Y-12.1515
G01 X16.7643 Y-12.1564
G01 X16.7493 Y-12.1603
G01 X16.7341 Y-12.1630
G01 X16.7050 Y-12.1650
G01 X15.3050 Y-12.1650
G01 X15.2878 Y-12.1643
G01 X15.2607 Y-12.1603
G01 X15.2359 Y-12.1533
G01 X15.2215 Y-12.1477
G01 X15.2091 Y-12.1418
G01 X15.1855 Y-12.1277
G01 X15.1745 Y-12.1195
G01 X15.1627 Y-12.1094
G01 X15.1449 Y-12.0909
G01 X15.1285 Y-12.0688
G01 X15.1150 Y-12.0444
G00 Z3.0000
G00 X14.9724 Y-9.8846
G01 F80.00
G01 Z-0.0560
G01 F100.00
G01 X14.9744 Y-9.9014
G01 X14.9750 Y-12.9184
G01 X15.2350 Y-12.9184
G01 X15.2353 Y-12.5481
G01 X15.2371 Y-12.5380
G01 X15.2403 Y-12.5282
G01 X15.2450 Y-12.5190
G01 X15.2509 Y-12.5106
G01 X15.2606 Y-12.5009
G01 X15.2690 Y-12.4950
G01 X15.2782 Y-12.4903
G01 X15.2880 Y-12.4871
G01 X15.2981 Y-12.4853
G01 X15.3050 Y-12.4850
G01 X16.7050 Y-12.4850
G01 X16.7187 Y-12.4863
G01 X16.7286 Y-12.4891
G01 X16.7410 Y-12.4950
G01 X16.7494 Y-12.5009
G01 X16.7591 Y-12.5106
G01 X16.7650 Y-12.5190
G01 X16.7709 Y-12.5314
G01 X16.7742 Y-12.5447
G01 X16.7750 Y-12.5550
G01 X16.7750 Y-12.9184
G01 X17.0350 Y-12.9184
G01 X17.0356 Y-9.9686
G01 X17.0363 Y-9.9582
G01 X17.0386 Y-9.9481
G01 X17.0424 Y-9.9384
G01 X17.0495 Y-9.9266
G01 X17.0564 Y-9.9188
G01 X17.0643 Y-9.9120
G01 X17.0731 Y-9.9065
G01 X17.0826 Y-9.9024
G01 X17.0961 Y-9.8992
G01 X17.1064 Y-9.8986
G01 X17.9518 Y-9.9094
G01 X17.9619 Y-9.9107
G01 X17.9717 Y-9.9135
G01 X17.9868 Y-9.9213
G01 X17.9949 Y-9.9277
G01 X18.0019 Y-9.9351
G01 X18.0077 Y-9.9435
G01 X18.0123 Y-9.9526
G01 X18.0162 Y-9.9657
G01 X18.0175 Y-9.9792
G01 X18.0175 Y-11.7725
G01 X18.4447 Y-11.7725
G01 X18.4550 Y-11.7733
G01 X18.4651 Y-11.7755
G01 X18.4747 Y-11.7792
G01 X18.4864 Y-11.7863
G01 X18.4942 Y-11.7930
G01 X18.5030 Y-11.8036
G01 X18.5080 Y-11.8126
G01 X18.5117 Y-11.8222
G01 X18.5144 Y-11.8356
G01 X18.5147 Y-14.4402
G01 X18.5134 Y-14.4505
G01 X18.5094 Y-14.4636
G01 X18.5030 Y-14.4757
G01 X18.4942 Y-14.4863
G01 X18.4864 Y-14.4930
G01 X18.4747 Y-14.5001
G01 X18.4618 Y-14.5047
G01 X18.4482 Y-14.5067
G01 X17.5317 Y-14.5068
G01 X17.5317 Y-14.7668
G01 X17.9020 Y-14.7671
G01 X17.9154 Y-14.7698
G01 X17.9250 Y-14.7735
G01 X17.9340 Y-14.7786
G01 X17.9421 Y-14.7849
G01 X17.9492 Y-14.7924
G01 X17.9551 Y-14.8008
G01 X17.9598 Y-14.8100
G01 X17.9630 Y-14.8198
G01 X17.9643 Y-14.8265
G01 X17.9651 Y-14.8368
G01 X17.9651 Y-16.4368
G01 X17.9643 Y-16.4471
G01 X17.9610 Y-16.4604
G01 X17.9551 Y-16.4728
G01 X17.9492 Y-16.4812
G01 X17.9421 Y-16.4887
G01 X17.9311 Y-16.4968
G01 X17.9187 Y-16.5027
G01 X17.9054 Y-16.5060
G01 X17.8951 Y-16.5068
G01 X17.5317 Y-16.5068
G01 X17.5317 Y-16.7668
G01 X19.3547 Y-16.7668
G01 X19.3683 Y-16.7681
G01 X19.3815 Y-16.7721
G01 X19.3936 Y-16.7786
G01 X19.4042 Y-16.7873
G01 X20.7490 Y-18.1321
G01 X20.7558 Y-18.1399
G01 X20.7628 Y-18.1517
G01 X20.7655 Y-18.1580
G01 X20.7682 Y-18.1679
G01 X20.7695 Y-18.1816
G01 X20.7695 Y-19.1173
G01 X20.7681 Y-19.1313
G01 X20.7640 Y-19.1447
G01 X20.7609 Y-19.1510
G01 X20.7552 Y-19.1598
G01 X20.7482 Y-19.1677
G01 X20.7400 Y-19.1744
G01 X20.7310 Y-19.1798
G01 X20.6783 Y-19.2064
G01 X20.6129 Y-19.2434
G01 X20.5494 Y-19.2836
G01 X20.4880 Y-19.3269
G01 X20.4288 Y-19.3731
G01 X20.3719 Y-19.4222
G01 X20.3175 Y-19.4740
G01 X20.2657 Y-19.5284
G01 X20.2166 Y-19.5853
G01 X20.1704 Y-19.6445
G01 X20.1271 Y-19.7059
G01 X20.0869 Y-19.7694
G01 X20.0499 Y-19.8348
G01 X20.0161 Y-19.9019
G01 X19.9856 Y-19.9706
G01 X19.9586 Y-20.0407
G01 X19.9350 Y-20.1120
G01 X19.9150 Y-20.1845
G01 X19.8985 Y-20.2578
G01 X19.8857 Y-20.3318
G01 X19.8765 Y-20.4064
G01 X19.8710 Y-20.4813
G01 X19.8691 Y-20.5573
G01 X19.8691 Y-22.5555
G01 X19.8710 Y-22.6315
G01 X19.8765 Y-22.7064
G01 X19.8857 Y-22.7810
G01 X19.8985 Y-22.8550
G01 X19.9150 Y-22.9283
G01 X19.9350 Y-23.0008
G01 X19.9586 Y-23.0721
G01 X19.9856 Y-23.1422
G01 X20.0161 Y-23.2109
G01 X20.0499 Y-23.2780
G01 X20.0869 Y-23.3434
G01 X20.1271 Y-23.4069
G01 X20.1704 Y-23.4683
G01 X20.2166 Y-23.5275
G01 X20.2657 Y-23.5844
G01 X20.3175 Y-23.6388
G01 X20.3719 Y-23.6906
G01 X20.4288 Y-23.7397
G01 X20.4880 Y-23.7859
G01 X20.5494 Y-23.8292
G01 X20.6129 Y-23.8694
G01 X20.6783 Y-23.9064
G01 X20.7454 Y-23.9402
G01 X20.8141 Y-23.9707
G01 X20.8842 Y-23.9977
G01 X20.9555 Y-24.0213
G01 X21.0280 Y-24.0413
G01 X21.1013 Y-24.0578
G01 X21.1753 Y-24.0706
G01 X21.2499 Y-24.0798
G01 X21.3248 Y-24.0853
G01 X21.3999 Y-24.0872
G01 X21.4750 Y-24.0853
G01 X21.5499 Y-24.0798
G01 X21.6245 Y-24.0706
G01 X21.6985 Y-24.0578
G01 X21.7718 Y-24.0413
G01 X21.8443 Y-24.0213
G01 X21.9156 Y-23.9977
G01 X21.9857 Y-23.9707
G01 X22.0544 Y-23.9402
G01 X22.1215 Y-23.9064
G01 X22.1869 Y-23.8694
G01 X22.2504 Y-23.8292
G01 X22.3118 Y-23.7859
G01 X22.3710 Y-23.7397
G01 X22.4279 Y-23.6906
G01 X22.4823 Y-23.6388
G01 X22.5341 Y-23.5844
G01 X22.5832 Y-23.5275
G01 X22.6147 Y-23.4871
G01 X22.6242 Y-23.4772
G01 X22.6325 Y-23.4711
G01 X22.6447 Y-23.4649
G01 X22.6579 Y-23.4612
G01 X22.6716 Y-23.4602
G01 X22.6852 Y-23.4619
G01 X22.6983 Y-23.4662
G01 X22.7073 Y-23.4711
G01 X22.7182 Y-23.4795
G01 X22.7251 Y-23.4871
G01 X22.7566 Y-23.5275
G01 X22.8057 Y-23.5844
G01 X22.8575 Y-23.6388
G01 X22.9119 Y-23.6906
G01 X22.9688 Y-23.7397
G01 X23.0280 Y-23.7859
G01 X23.0894 Y-23.8292
G01 X23.1529 Y-23.8694
G01 X23.2183 Y-23.9064
G01 X23.2854 Y-23.9402
G01 X23.3541 Y-23.9707
G01 X23.4242 Y-23.9977
G01 X23.4955 Y-24.0213
G01 X23.5680 Y-24.0413
G01 X23.6413 Y-24.0578
G01 X23.7153 Y-24.0706
G01 X23.7899 Y-24.0798
G01 X23.8648 Y-24.0853
G01 X23.9399 Y-24.0872
G01 X24.0150 Y-24.0853
G01 X24.0899 Y-24.0798
G01 X24.1645 Y-24.0706
G01 X24.2385 Y-24.0578
G01 X24.3118 Y-24.0413
G01 X24.3843 Y-24.0213
G01 X24.4556 Y-23.9977
G01 X24.5257 Y-23.9707
G01 X24.5944 Y-23.9402
G01 X24.6615 Y-23.9064
G01 X24.7269 Y-23.8694
G01 X24.7904 Y-23.8292
G01 X24.8518 Y-23.7859
G01 X24.9110 Y-23.7397
G01 X24.9679 Y-23.6906
G01 X25.0223 Y-23.6388
G01 X25.0741 Y-23.5844
G01 X25.1232 Y-23.5275
G01 X25.1694 Y-23.4683
G01 X25.2127 Y-23.4069
G01 X25.2529 Y-23.3434
G01 X25.2899 Y-23.2780
G01 X25.3237 Y-23.2109
G01 X25.3542 Y-23.1422
G01 X25.3812 Y-23.0721
G01 X25.4048 Y-23.0008
G01 X25.4248 Y-22.9283
G01 X25.4413 Y-22.8550
G01 X25.4541 Y-22.7810
G01 X25.4633 Y-22.7064
G01 X25.4688 Y-22.6315
G01 X25.4707 Y-22.5555
G01 X25.4707 Y-20.5573
G01 X25.4688 Y-20.4813
G01 X25.4633 Y-20.4064
G01 X25.4541 Y-20.3318
G01 X25.4413 Y-20.2578
G01 X25.4248 Y-20.1845
G01 X25.4048 Y-20.1120
G01 X25.3812 Y-20.0407
G01 X25.3542 Y-19.9706
G01 X25.3237 Y-19.9019
G01 X25.2899 Y-19.8348
G01 X25.2529 Y-19.7694
G01 X25.2127 Y-19.7059
G01 X25.1694 Y-19.6445
G01 X25.1232 Y-19.5853
G01 X25.0741 Y-19.5284
G01 X25.0223 Y-19.4740
G01 X24.9679 Y-19.4222
G01 X24.9110 Y-19.3731
G01 X24.8518 Y-19.3269
G01 X24.8000 Y-19.2904
G01 X24.7919 Y-19.2837
G01 X24.7848 Y-19.2758
G01 X24.7808 Y-19.2700
G01 X24.7760 Y-19.2607
G01 X24.7735 Y-19.2540
G01 X24.7711 Y-19.2437
G01 X24.7704 Y-19.2332
G01 X24.7704 Y-18.2450
G01 X24.7711 Y-18.2347
G01 X24.7724 Y-18.2280
G01 X24.7757 Y-18.2182
G01 X24.7821 Y-18.2061
G01 X24.7909 Y-18.1955
G01 X24.7987 Y-18.1888
G01 X24.8074 Y-18.1833
G01 X24.8200 Y-18.1780
G01 X24.8301 Y-18.1758
G01 X24.8404 Y-18.1750
G01 X27.3275 Y-18.1750
G01 X27.3275 Y-16.1150
G01 X27.2445 Y-16.1149
G01 X27.2343 Y-16.1137
G01 X27.2212 Y-16.1097
G01 X27.2120 Y-16.1050
G01 X27.2063 Y-16.1012
G01 X27.1985 Y-16.0945
G01 X27.1917 Y-16.0867
G01 X27.1879 Y-16.0810
G01 X27.1833 Y-16.0718
G01 X27.1800 Y-16.0620
G01 X27.1783 Y-16.0519
G01 X27.1780 Y-14.6821
G01 X27.1788 Y-14.6750
G01 X27.1812 Y-14.6647
G01 X27.1851 Y-14.6548
G01 X27.1905 Y-14.6456
G01 X27.1973 Y-14.6374
G01 X27.2243 Y-14.6089
G01 X27.2638 Y-14.5632
G01 X27.3010 Y-14.5156
G01 X27.3357 Y-14.4662
G01 X27.3680 Y-14.4152
G01 X27.3978 Y-14.3626
G01 X27.4250 Y-14.3087
G01 X27.4495 Y-14.2534
G01 X27.4712 Y-14.1971
G01 X27.4901 Y-14.1397
G01 X27.4960 Y-14.1187
G01 X27.5000 Y-14.1092
G01 X27.5053 Y-14.1004
G01 X27.5142 Y-14.0900
G01 X27.5222 Y-14.0835
G01 X27.5310 Y-14.0782
G01 X27.5438 Y-14.0732
G01 X27.5539 Y-14.0712
G01 X27.5676 Y-14.0709
G01 X27.5812 Y-14.0732
G01 X27.5940 Y-14.0782
G01 X27.6028 Y-14.0835
G01 X27.6108 Y-14.0900
G01 X27.6197 Y-14.1004
G01 X27.6250 Y-14.1092
G01 X27.6278 Y-14.1155
G01 X27.6349 Y-14.1397
G01 X27.6538 Y-14.1971
G01 X27.6755 Y-14.2534
G01 X27.7000 Y-14.3087
G01 X27.7272 Y-14.3626
G01 X27.7570 Y-14.4152
G01 X27.7893 Y-14.4662
G01 X27.8240 Y-14.5156
G01 X27.8612 Y-14.5632
G01 X27.9007 Y-14.6089
G01 X27.9423 Y-14.6527
G01 X27.9861 Y-14.6943
G01 X28.0318 Y-14.7338
G01 X28.0794 Y-14.7710
G01 X28.1288 Y-14.8057
G01 X28.1798 Y-14.8380
G01 X28.2324 Y-14.8678
G01 X28.2863 Y-14.8950
G01 X28.3416 Y-14.9195
G01 X28.3979 Y-14.9412
G01 X28.4553 Y-14.9601
G01 X28.5135 Y-14.9762
G01 X28.5724 Y-14.9895
G01 X28.6319 Y-14.9998
G01 X28.6919 Y-15.0072
G01 X28.7521 Y-15.0116
G01 X28.8125 Y-15.0131
G01 X28.8729 Y-15.0116
G01 X28.9331 Y-15.0072
G01 X28.9931 Y-14.9998
G01 X29.0526 Y-14.9895
G01 X29.1115 Y-14.9762
G01 X29.1697 Y-14.9601
G01 X29.2271 Y-14.9412
G01 X29.2834 Y-14.9195
G01 X29.3387 Y-14.8950
G01 X29.3926 Y-14.8678
G01 X29.4452 Y-14.8380
G01 X29.4962 Y-14.8057
G01 X29.5456 Y-14.7710
G01 X29.5854 Y-14.7400
G01 X29.5974 Y-14.7332
G01 X29.6039 Y-14.7307
G01 X29.6139 Y-14.7282
G01 X29.6208 Y-14.7274
G01 X29.6312 Y-14.7275
G01 X29.6414 Y-14.7291
G01 X29.6481 Y-14.7309
G01 X29.6607 Y-14.7366
G01 X29.6719 Y-14.7447
G01 X30.9047 Y-15.8293
G01 X30.9360 Y-15.8555
G01 X30.9678 Y-15.8797
G01 X31.0007 Y-15.9023
G01 X31.0347 Y-15.9233
G01 X31.0697 Y-15.9426
G01 X31.1055 Y-15.9602
G01 X31.1422 Y-15.9761
G01 X31.1795 Y-15.9902
G01 X31.2175 Y-16.0025
G01 X31.2561 Y-16.0129
G01 X31.2951 Y-16.0215
G01 X31.3513 Y-16.0310
G01 X31.3642 Y-16.0359
G01 X31.3702 Y-16.0393
G01 X31.3785 Y-16.0455
G01 X31.3858 Y-16.0527
G01 X31.3937 Y-16.0640
G01 X31.4437 Y-16.1638
G01 X31.4928 Y-16.2506
G01 X31.5462 Y-16.3348
G01 X31.6036 Y-16.4163
G01 X31.6649 Y-16.4949
G01 X31.7300 Y-16.5704
G01 X31.7987 Y-16.6426
G01 X31.8709 Y-16.7113
G01 X31.9464 Y-16.7764
G01 X32.0250 Y-16.8377
G01 X32.1065 Y-16.8951
G01 X32.1907 Y-16.9485
G01 X32.2775 Y-16.9976
G01 X32.3665 Y-17.0424
G01 X32.4577 Y-17.0828
G01 X32.5507 Y-17.1187
G01 X32.6453 Y-17.1500
G01 X32.7414 Y-17.1766
G01 X32.8387 Y-17.1984
G01 X32.9369 Y-17.2154
G01 X33.0358 Y-17.2276
G01 X33.1352 Y-17.2350
G01 X33.2358 Y-17.2375
G01 X36.2340 Y-17.2375
G01 X36.3346 Y-17.2350
G01 X36.4340 Y-17.2276
G01 X36.5329 Y-17.2154
G01 X36.6311 Y-17.1984
G01 X36.7284 Y-17.1766
G01 X36.8245 Y-17.1500
G01 X36.9191 Y-17.1187
G01 X37.0121 Y-17.0828
G01 X37.1033 Y-17.0424
G01 X37.1923 Y-16.9976
G01 X37.2791 Y-16.9485
G01 X37.3633 Y-16.8951
G01 X37.4448 Y-16.8377
G01 X37.5234 Y-16.7764
G01 X37.5989 Y-16.7113
G01 X37.6711 Y-16.6426
G01 X37.7398 Y-16.5704
G01 X37.8049 Y-16.4949
G01 X37.8662 Y-16.4163
G01 X37.9236 Y-16.3348
G01 X37.9770 Y-16.2506
G01 X38.0261 Y-16.1638
G01 X38.0709 Y-16.0748
G01 X38.1113 Y-15.9836
G01 X38.1472 Y-15.8906
G01 X38.1785 Y-15.7960
G01 X38.2051 Y-15.6999
G01 X38.2269 Y-15.6026
G01 X38.2439 Y-15.5044
G01 X38.2561 Y-15.4055
G01 X38.2635 Y-15.3061
G01 X38.2659 Y-15.2064
G01 X38.2635 Y-15.1067
G01 X38.2561 Y-15.0073
G01 X38.2439 Y-14.9084
G01 X38.2269 Y-14.8102
G01 X38.2051 Y-14.7129
G01 X38.1785 Y-14.6168
G01 X38.1472 Y-14.5222
G01 X38.1113 Y-14.4292
G01 X38.0709 Y-14.3380
G01 X38.0261 Y-14.2490
G01 X37.9770 Y-14.1622
G01 X37.9236 Y-14.0780
G01 X37.8662 Y-13.9965
G01 X37.8049 Y-13.9179
G01 X37.7398 Y-13.8424
G01 X37.6711 Y-13.7702
G01 X37.5989 Y-13.7015
G01 X37.5234 Y-13.6364
G01 X37.4448 Y-13.5751
G01 X37.3633 Y-13.5177
G01 X37.2791 Y-13.4643
G01 X37.1923 Y-13.4152
G01 X37.1033 Y-13.3704
G01 X37.0121 Y-13.3300
G01 X36.9191 Y-13.2941
G01 X36.8245 Y-13.2628
G01 X36.7284 Y-13.2362
G01 X36.6311 Y-13.2144
G01 X36.5329 Y-13.1974
G01 X36.4340 Y-13.1852
G01 X36.3346 Y-13.1778
G01 X36.2340 Y-13.1753
G01 X35.9341 Y-13.1753
G01 X35.9238 Y-13.1740
G01 X35.9139 Y-13.1713
G01 X35.9045 Y-13.1671
G01 X35.8958 Y-13.1616
G01 X35.8856 Y-13.1524
G01 X35.8793 Y-13.1442
G01 X35.8758 Y-13.1383
G01 X35.8728 Y-13.1321
G01 X35.8696 Y-13.1224
G01 X35.8676 Y-13.1088
G01 X35.8675 Y-12.5392
G01 X35.6075 Y-12.5392
G01 X35.6075 Y-12.9025
G01 X35.6067 Y-12.9128
G01 X35.6045 Y-12.9228
G01 X35.6008 Y-12.9324
G01 X35.5957 Y-12.9414
G01 X35.5894 Y-12.9495
G01 X35.5792 Y-12.9587
G01 X35.5705 Y-12.9642
G01 X35.5611 Y-12.9684
G01 X35.5512 Y-12.9712
G01 X35.5375 Y-12.9725
G01 X33.9375 Y-12.9725
G01 X33.9272 Y-12.9717
G01 X33.9139 Y-12.9684
G01 X33.9015 Y-12.9625
G01 X33.8905 Y-12.9544
G01 X33.8813 Y-12.9442
G01 X33.8758 Y-12.9355
G01 X33.8705 Y-12.9228
G01 X33.8683 Y-12.9128
G01 X33.8675 Y-12.9025
G01 X33.8675 Y-12.5392
G01 X33.6075 Y-12.5392
G01 X33.6074 Y-13.1088
G01 X33.6067 Y-13.1156
G01 X33.6045 Y-13.1257
G01 X33.5992 Y-13.1383
G01 X33.5957 Y-13.1442
G01 X33.5894 Y-13.1524
G01 X33.5792 Y-13.1616
G01 X33.5705 Y-13.1671
G01 X33.5611 Y-13.1713
G01 X33.5512 Y-13.1740
G01 X33.5409 Y-13.1753
G01 X33.2358 Y-13.1753
G01 X33.1352 Y-13.1778
G01 X33.0358 Y-13.1852
G01 X32.9369 Y-13.1974
G01 X32.8387 Y-13.2144
G01 X32.7414 Y-13.2362
G01 X32.6453 Y-13.2628
G01 X32.5507 Y-13.2941
G01 X32.4577 Y-13.3300
G01 X32.3665 Y-13.3704
G01 X32.2775 Y-13.4152
G01 X32.1907 Y-13.4643
G01 X32.1065 Y-13.5177
G01 X32.0250 Y-13.5751
G01 X31.9464 Y-13.6364
G01 X31.8709 Y-13.7015
G01 X31.7987 Y-13.7702
G01 X31.7300 Y-13.8424
G01 X31.6649 Y-13.9179
G01 X31.6036 Y-13.9965
G01 X31.5461 Y-14.0781
G01 X31.5395 Y-14.0861
G01 X31.5318 Y-14.0931
G01 X31.5262 Y-14.0970
G01 X31.5202 Y-14.1004
G01 X31.5106 Y-14.1044
G01 X31.4971 Y-14.1073
G01 X31.4867 Y-14.1078
G01 X31.4798 Y-14.1072
G01 X31.4697 Y-14.1051
G01 X31.4600 Y-14.1016
G01 X31.4509 Y-14.0966
G01 X31.4426 Y-14.0904
G01 X30.0669 Y-12.8800
G01 X30.0596 Y-12.8725
G01 X30.0554 Y-12.8670
G01 X30.0501 Y-12.8579
G01 X30.0463 Y-12.8481
G01 X30.0439 Y-12.8379
G01 X30.0432 Y-12.8275
G01 X30.0432 Y-11.9834
G01 X30.0416 Y-11.9221
G01 X30.0372 Y-11.8619
G01 X30.0298 Y-11.8019
G01 X30.0195 Y-11.7424
G01 X30.0062 Y-11.6835
G01 X29.9901 Y-11.6253
G01 X29.9712 Y-11.5679
G01 X29.9495 Y-11.5116
G01 X29.9250 Y-11.4563
G01 X29.8978 Y-11.4024
G01 X29.8680 Y-11.3498
G01 X29.8357 Y-11.2988
G01 X29.8010 Y-11.2494
G01 X29.7638 Y-11.2018
G01 X29.7243 Y-11.1561
G01 X29.6827 Y-11.1123
G01 X29.6389 Y-11.0707
G01 X29.5932 Y-11.0312
G01 X29.5456 Y-10.9940
G01 X29.4962 Y-10.9593
G01 X29.4452 Y-10.9270
G01 X29.3926 Y-10.8972
G01 X29.3387 Y-10.8700
G01 X29.2834 Y-10.8455
G01 X29.2271 Y-10.8238
G01 X29.1697 Y-10.8049
G01 X29.1115 Y-10.7888
G01 X29.0526 Y-10.7755
G01 X28.9931 Y-10.7652
G01 X28.9331 Y-10.7578
G01 X28.8729 Y-10.7534
G01 X28.8125 Y-10.7519
G01 X28.7521 Y-10.7534
G01 X28.6919 Y-10.7578
G01 X28.6319 Y-10.7652
G01 X28.5724 Y-10.7755
G01 X28.5135 Y-10.7888
G01 X28.4553 Y-10.8049
G01 X28.3979 Y-10.8238
G01 X28.3416 Y-10.8455
G01 X28.2863 Y-10.8700
G01 X28.2324 Y-10.8972
G01 X28.1798 Y-10.9270
G01 X28.1288 Y-10.9593
G01 X28.0794 Y-10.9940
