(G-CODE GENERATED BY FLATCAM v8.95 - www.flatcam.org - Version Date: 2019/08/17)

(Name: Sintez1.drl_mill_cnc)
(Type: G-code from Geometry)
(Units: MM)

(Created on Monday, 06 July 2020 at 08:31)

(TOOL DIAMETER: 0.5 mm)
(Feedrate: 40.0 mm/min)
(Feedrate_Z: 79.9998 mm/min)
(Feedrate rapids 79.9998 mm/min)

(Z_Cut: -1.5 mm)
(DepthPerCut: 0.04 mm <=>38 passes)
(Z_Move: 5.0 mm)
(Z Toolchange: 12.7 mm)
(X,Y Toolchange: 0.0000, 0.0000 mm)
(Z Start: None mm)
(Z End: 12.7 mm)
(Steps per circle: 128)
(Postprocessor Geometry: default)

(X range:    2.5200 ...   36.6600  mm)
(Y range:  -54.4100 ...  -10.9300  mm)

(Spindle Speed: None RPM)

G21
G90
G94

G01 F40.00
G00 Z5.0000

M03
G00 X2.8200 Y-11.0800
G01 F80.00
G01 Z-0.0400
G01 F40.00
G01 X2.8193 Y-11.0947
G01 X2.8171 Y-11.1093
G01 X2.8135 Y-11.1235
G01 X2.8086 Y-11.1374
G01 X2.8023 Y-11.1507
G01 X2.7947 Y-11.1633
G01 X2.7860 Y-11.1752
G01 X2.7761 Y-11.1861
G01 X2.7652 Y-11.1960
G01 X2.7533 Y-11.2047
G01 X2.7407 Y-11.2123
G01 X2.7274 Y-11.2186
G01 X2.7135 Y-11.2235
G01 X2.6993 Y-11.2271
G01 X2.6847 Y-11.2293
G01 X2.6700 Y-11.2300
G01 X2.6553 Y-11.2293
G01 X2.6407 Y-11.2271
G01 X2.6265 Y-11.2235
G01 X2.6126 Y-11.2186
G01 X2.5993 Y-11.2123
G01 X2.5867 Y-11.2047
G01 X2.5748 Y-11.1960
G01 X2.5639 Y-11.1861
G01 X2.5540 Y-11.1752
G01 X2.5453 Y-11.1633
G01 X2.5377 Y-11.1507
G01 X2.5314 Y-11.1374
G01 X2.5265 Y-11.1235
G01 X2.5229 Y-11.1093
G01 X2.5207 Y-11.0947
G01 X2.5200 Y-11.0800
G01 X2.5207 Y-11.0653
G01 X2.5229 Y-11.0507
G01 X2.5265 Y-11.0365
G01 X2.5314 Y-11.0226
G01 X2.5377 Y-11.0093
G01 X2.5453 Y-10.9967
G01 X2.5540 Y-10.9848
G01 X2.5639 Y-10.9739
G01 X2.5748 Y-10.9640
G01 X2.5867 Y-10.9553
G01 X2.5993 Y-10.9477
G01 X2.6126 Y-10.9414
G01 X2.6265 Y-10.9365
G01 X2.6407 Y-10.9329
G01 X2.6553 Y-10.9307
G01 X2.6700 Y-10.9300
G01 X2.6847 Y-10.9307
G01 X2.6993 Y-10.9329
G01 X2.7135 Y-10.9365
G01 X2.7274 Y-10.9414
G01 X2.7407 Y-10.9477
G01 X2.7533 Y-10.9553
G01 X2.7652 Y-10.9640
G01 X2.7761 Y-10.9739
G01 X2.7860 Y-10.9848
G01 X2.7947 Y-10.9967
G01 X2.8023 Y-11.0093
G01 X2.8086 Y-11.0226
G01 X2.8135 Y-11.0365
G01 X2.8171 Y-11.0507
G01 X2.8193 Y-11.0653
G01 X2.8200 Y-11.0800
G00 X2.8200 Y-11.0800
G01 F80.00
G01 Z-0.0800
G01 F40.00
G01 X2.8193 Y-11.0947
G01 X2.8171 Y-11.1093
G01 X2.8135 Y-11.1235
G01 X2.8086 Y-11.1374
G01 X2.8023 Y-11.1507
G01 X2.7947 Y-11.1633
G01 X2.7860 Y-11.1752
G01 X2.7761 Y-11.1861
G01 X2.7652 Y-11.1960
G01 X2.7533 Y-11.2047
G01 X2.7407 Y-11.2123
G01 X2.7274 Y-11.2186
G01 X2.7135 Y-11.2235
G01 X2.6993 Y-11.2271
G01 X2.6847 Y-11.2293
G01 X2.6700 Y-11.2300
G01 X2.6553 Y-11.2293
G01 X2.6407 Y-11.2271
G01 X2.6265 Y-11.2235
G01 X2.6126 Y-11.2186
G01 X2.5993 Y-11.2123
G01 X2.5867 Y-11.2047
G01 X2.5748 Y-11.1960
G01 X2.5639 Y-11.1861
G01 X2.5540 Y-11.1752
G01 X2.5453 Y-11.1633
G01 X2.5377 Y-11.1507
G01 X2.5314 Y-11.1374
G01 X2.5265 Y-11.1235
G01 X2.5229 Y-11.1093
G01 X2.5207 Y-11.0947
G01 X2.5200 Y-11.0800
G01 X2.5207 Y-11.0653
G01 X2.5229 Y-11.0507
G01 X2.5265 Y-11.0365
G01 X2.5314 Y-11.0226
G01 X2.5377 Y-11.0093
G01 X2.5453 Y-10.9967
G01 X2.5540 Y-10.9848
G01 X2.5639 Y-10.9739
G01 X2.5748 Y-10.9640
G01 X2.5867 Y-10.9553
G01 X2.5993 Y-10.9477
G01 X2.6126 Y-10.9414
G01 X2.6265 Y-10.9365
G01 X2.6407 Y-10.9329
G01 X2.6553 Y-10.9307
G01 X2.6700 Y-10.9300
G01 X2.6847 Y-10.9307
G01 X2.6993 Y-10.9329
G01 X2.7135 Y-10.9365
G01 X2.7274 Y-10.9414
G01 X2.7407 Y-10.9477
G01 X2.7533 Y-10.9553
G01 X2.7652 Y-10.9640
G01 X2.7761 Y-10.9739
G01 X2.7860 Y-10.9848
G01 X2.7947 Y-10.9967
G01 X2.8023 Y-11.0093
G01 X2.8086 Y-11.0226
G01 X2.8135 Y-11.0365
G01 X2.8171 Y-11.0507
G01 X2.8193 Y-11.0653
G01 X2.8200 Y-11.0800
G00 X2.8200 Y-11.0800
G01 F80.00
G01 Z-0.1200
G01 F40.00
G01 X2.8193 Y-11.0947
G01 X2.8171 Y-11.1093
G01 X2.8135 Y-11.1235
G01 X2.8086 Y-11.1374
G01 X2.8023 Y-11.1507
G01 X2.7947 Y-11.1633
G01 X2.7860 Y-11.1752
G01 X2.7761 Y-11.1861
G01 X2.7652 Y-11.1960
G01 X2.7533 Y-11.2047
G01 X2.7407 Y-11.2123
G01 X2.7274 Y-11.2186
G01 X2.7135 Y-11.2235
G01 X2.6993 Y-11.2271
G01 X2.6847 Y-11.2293
G01 X2.6700 Y-11.2300
G01 X2.6553 Y-11.2293
G01 X2.6407 Y-11.2271
G01 X2.6265 Y-11.2235
G01 X2.6126 Y-11.2186
G01 X2.5993 Y-11.2123
G01 X2.5867 Y-11.2047
G01 X2.5748 Y-11.1960
G01 X2.5639 Y-11.1861
G01 X2.5540 Y-11.1752
G01 X2.5453 Y-11.1633
G01 X2.5377 Y-11.1507
G01 X2.5314 Y-11.1374
G01 X2.5265 Y-11.1235
G01 X2.5229 Y-11.1093
G01 X2.5207 Y-11.0947
G01 X2.5200 Y-11.0800
G01 X2.5207 Y-11.0653
G01 X2.5229 Y-11.0507
G01 X2.5265 Y-11.0365
G01 X2.5314 Y-11.0226
G01 X2.5377 Y-11.0093
G01 X2.5453 Y-10.9967
G01 X2.5540 Y-10.9848
G01 X2.5639 Y-10.9739
G01 X2.5748 Y-10.9640
G01 X2.5867 Y-10.9553
G01 X2.5993 Y-10.9477
G01 X2.6126 Y-10.9414
G01 X2.6265 Y-10.9365
G01 X2.6407 Y-10.9329
G01 X2.6553 Y-10.9307
G01 X2.6700 Y-10.9300
G01 X2.6847 Y-10.9307
G01 X2.6993 Y-10.9329
G01 X2.7135 Y-10.9365
G01 X2.7274 Y-10.9414
G01 X2.7407 Y-10.9477
G01 X2.7533 Y-10.9553
G01 X2.7652 Y-10.9640
G01 X2.7761 Y-10.9739
G01 X2.7860 Y-10.9848
G01 X2.7947 Y-10.9967
G01 X2.8023 Y-11.0093
G01 X2.8086 Y-11.0226
G01 X2.8135 Y-11.0365
G01 X2.8171 Y-11.0507
G01 X2.8193 Y-11.0653
G01 X2.8200 Y-11.0800
G00 X2.8200 Y-11.0800
G01 F80.00
G01 Z-0.1600
G01 F40.00
G01 X2.8193 Y-11.0947
G01 X2.8171 Y-11.1093
G01 X2.8135 Y-11.1235
G01 X2.8086 Y-11.1374
G01 X2.8023 Y-11.1507
G01 X2.7947 Y-11.1633
G01 X2.7860 Y-11.1752
G01 X2.7761 Y-11.1861
G01 X2.7652 Y-11.1960
G01 X2.7533 Y-11.2047
G01 X2.7407 Y-11.2123
G01 X2.7274 Y-11.2186
G01 X2.7135 Y-11.2235
G01 X2.6993 Y-11.2271
G01 X2.6847 Y-11.2293
G01 X2.6700 Y-11.2300
G01 X2.6553 Y-11.2293
G01 X2.6407 Y-11.2271
G01 X2.6265 Y-11.2235
G01 X2.6126 Y-11.2186
G01 X2.5993 Y-11.2123
G01 X2.5867 Y-11.2047
G01 X2.5748 Y-11.1960
G01 X2.5639 Y-11.1861
G01 X2.5540 Y-11.1752
G01 X2.5453 Y-11.1633
G01 X2.5377 Y-11.1507
G01 X2.5314 Y-11.1374
G01 X2.5265 Y-11.1235
G01 X2.5229 Y-11.1093
G01 X2.5207 Y-11.0947
G01 X2.5200 Y-11.0800
G01 X2.5207 Y-11.0653
G01 X2.5229 Y-11.0507
G01 X2.5265 Y-11.0365
G01 X2.5314 Y-11.0226
G01 X2.5377 Y-11.0093
G01 X2.5453 Y-10.9967
G01 X2.5540 Y-10.9848
G01 X2.5639 Y-10.9739
G01 X2.5748 Y-10.9640
G01 X2.5867 Y-10.9553
G01 X2.5993 Y-10.9477
G01 X2.6126 Y-10.9414
G01 X2.6265 Y-10.9365
G01 X2.6407 Y-10.9329
G01 X2.6553 Y-10.9307
G01 X2.6700 Y-10.9300
G01 X2.6847 Y-10.9307
G01 X2.6993 Y-10.9329
G01 X2.7135 Y-10.9365
G01 X2.7274 Y-10.9414
G01 X2.7407 Y-10.9477
G01 X2.7533 Y-10.9553
G01 X2.7652 Y-10.9640
G01 X2.7761 Y-10.9739
G01 X2.7860 Y-10.9848
G01 X2.7947 Y-10.9967
G01 X2.8023 Y-11.0093
G01 X2.8086 Y-11.0226
G01 X2.8135 Y-11.0365
G01 X2.8171 Y-11.0507
G01 X2.8193 Y-11.0653
G01 X2.8200 Y-11.0800
G00 X2.8200 Y-11.0800
G01 F80.00
G01 Z-0.2000
G01 F40.00
G01 X2.8193 Y-11.0947
G01 X2.8171 Y-11.1093
G01 X2.8135 Y-11.1235
G01 X2.8086 Y-11.1374
G01 X2.8023 Y-11.1507
G01 X2.7947 Y-11.1633
G01 X2.7860 Y-11.1752
G01 X2.7761 Y-11.1861
G01 X2.7652 Y-11.1960
G01 X2.7533 Y-11.2047
G01 X2.7407 Y-11.2123
G01 X2.7274 Y-11.2186
G01 X2.7135 Y-11.2235
G01 X2.6993 Y-11.2271
G01 X2.6847 Y-11.2293
G01 X2.6700 Y-11.2300
G01 X2.6553 Y-11.2293
G01 X2.6407 Y-11.2271
G01 X2.6265 Y-11.2235
G01 X2.6126 Y-11.2186
G01 X2.5993 Y-11.2123
G01 X2.5867 Y-11.2047
G01 X2.5748 Y-11.1960
G01 X2.5639 Y-11.1861
G01 X2.5540 Y-11.1752
G01 X2.5453 Y-11.1633
G01 X2.5377 Y-11.1507
G01 X2.5314 Y-11.1374
G01 X2.5265 Y-11.1235
G01 X2.5229 Y-11.1093
G01 X2.5207 Y-11.0947
G01 X2.5200 Y-11.0800
G01 X2.5207 Y-11.0653
G01 X2.5229 Y-11.0507
G01 X2.5265 Y-11.0365
G01 X2.5314 Y-11.0226
G01 X2.5377 Y-11.0093
G01 X2.5453 Y-10.9967
G01 X2.5540 Y-10.9848
G01 X2.5639 Y-10.9739
G01 X2.5748 Y-10.9640
G01 X2.5867 Y-10.9553
G01 X2.5993 Y-10.9477
G01 X2.6126 Y-10.9414
G01 X2.6265 Y-10.9365
G01 X2.6407 Y-10.9329
G01 X2.6553 Y-10.9307
G01 X2.6700 Y-10.9300
G01 X2.6847 Y-10.9307
G01 X2.6993 Y-10.9329
G01 X2.7135 Y-10.9365
G01 X2.7274 Y-10.9414
G01 X2.7407 Y-10.9477
G01 X2.7533 Y-10.9553
G01 X2.7652 Y-10.9640
G01 X2.7761 Y-10.9739
G01 X2.7860 Y-10.9848
G01 X2.7947 Y-10.9967
G01 X2.8023 Y-11.0093
G01 X2.8086 Y-11.0226
G01 X2.8135 Y-11.0365
G01 X2.8171 Y-11.0507
G01 X2.8193 Y-11.0653
G01 X2.8200 Y-11.0800
G00 X2.8200 Y-11.0800
G01 F80.00
G01 Z-0.2400
G01 F40.00
G01 X2.8193 Y-11.0947
G01 X2.8171 Y-11.1093
G01 X2.8135 Y-11.1235
G01 X2.8086 Y-11.1374
G01 X2.8023 Y-11.1507
G01 X2.7947 Y-11.1633
G01 X2.7860 Y-11.1752
G01 X2.7761 Y-11.1861
G01 X2.7652 Y-11.1960
G01 X2.7533 Y-11.2047
G01 X2.7407 Y-11.2123
G01 X2.7274 Y-11.2186
G01 X2.7135 Y-11.2235
G01 X2.6993 Y-11.2271
G01 X2.6847 Y-11.2293
G01 X2.6700 Y-11.2300
G01 X2.6553 Y-11.2293
G01 X2.6407 Y-11.2271
G01 X2.6265 Y-11.2235
G01 X2.6126 Y-11.2186
G01 X2.5993 Y-11.2123
G01 X2.5867 Y-11.2047
G01 X2.5748 Y-11.1960
G01 X2.5639 Y-11.1861
G01 X2.5540 Y-11.1752
G01 X2.5453 Y-11.1633
G01 X2.5377 Y-11.1507
G01 X2.5314 Y-11.1374
G01 X2.5265 Y-11.1235
G01 X2.5229 Y-11.1093
G01 X2.5207 Y-11.0947
G01 X2.5200 Y-11.0800
G01 X2.5207 Y-11.0653
G01 X2.5229 Y-11.0507
G01 X2.5265 Y-11.0365
G01 X2.5314 Y-11.0226
G01 X2.5377 Y-11.0093
G01 X2.5453 Y-10.9967
G01 X2.5540 Y-10.9848
G01 X2.5639 Y-10.9739
G01 X2.5748 Y-10.9640
G01 X2.5867 Y-10.9553
G01 X2.5993 Y-10.9477
G01 X2.6126 Y-10.9414
G01 X2.6265 Y-10.9365
G01 X2.6407 Y-10.9329
G01 X2.6553 Y-10.9307
G01 X2.6700 Y-10.9300
G01 X2.6847 Y-10.9307
G01 X2.6993 Y-10.9329
G01 X2.7135 Y-10.9365
G01 X2.7274 Y-10.9414
G01 X2.7407 Y-10.9477
G01 X2.7533 Y-10.9553
G01 X2.7652 Y-10.9640
G01 X2.7761 Y-10.9739
G01 X2.7860 Y-10.9848
G01 X2.7947 Y-10.9967
G01 X2.8023 Y-11.0093
G01 X2.8086 Y-11.0226
G01 X2.8135 Y-11.0365
G01 X2.8171 Y-11.0507
G01 X2.8193 Y-11.0653
G01 X2.8200 Y-11.0800
G00 X2.8200 Y-11.0800
G01 F80.00
G01 Z-0.2800
G01 F40.00
G01 X2.8193 Y-11.0947
G01 X2.8171 Y-11.1093
G01 X2.8135 Y-11.1235
G01 X2.8086 Y-11.1374
G01 X2.8023 Y-11.1507
G01 X2.7947 Y-11.1633
G01 X2.7860 Y-11.1752
G01 X2.7761 Y-11.1861
G01 X2.7652 Y-11.1960
G01 X2.7533 Y-11.2047
G01 X2.7407 Y-11.2123
G01 X2.7274 Y-11.2186
G01 X2.7135 Y-11.2235
G01 X2.6993 Y-11.2271
G01 X2.6847 Y-11.2293
G01 X2.6700 Y-11.2300
G01 X2.6553 Y-11.2293
G01 X2.6407 Y-11.2271
G01 X2.6265 Y-11.2235
G01 X2.6126 Y-11.2186
G01 X2.5993 Y-11.2123
G01 X2.5867 Y-11.2047
G01 X2.5748 Y-11.1960
G01 X2.5639 Y-11.1861
G01 X2.5540 Y-11.1752
G01 X2.5453 Y-11.1633
G01 X2.5377 Y-11.1507
G01 X2.5314 Y-11.1374
G01 X2.5265 Y-11.1235
G01 X2.5229 Y-11.1093
G01 X2.5207 Y-11.0947
G01 X2.5200 Y-11.0800
G01 X2.5207 Y-11.0653
G01 X2.5229 Y-11.0507
G01 X2.5265 Y-11.0365
G01 X2.5314 Y-11.0226
G01 X2.5377 Y-11.0093
G01 X2.5453 Y-10.9967
G01 X2.5540 Y-10.9848
G01 X2.5639 Y-10.9739
G01 X2.5748 Y-10.9640
G01 X2.5867 Y-10.9553
G01 X2.5993 Y-10.9477
G01 X2.6126 Y-10.9414
G01 X2.6265 Y-10.9365
G01 X2.6407 Y-10.9329
G01 X2.6553 Y-10.9307
G01 X2.6700 Y-10.9300
G01 X2.6847 Y-10.9307
G01 X2.6993 Y-10.9329
G01 X2.7135 Y-10.9365
G01 X2.7274 Y-10.9414
G01 X2.7407 Y-10.9477
G01 X2.7533 Y-10.9553
G01 X2.7652 Y-10.9640
G01 X2.7761 Y-10.9739
G01 X2.7860 Y-10.9848
G01 X2.7947 Y-10.9967
G01 X2.8023 Y-11.0093
G01 X2.8086 Y-11.0226
G01 X2.8135 Y-11.0365
G01 X2.8171 Y-11.0507
G01 X2.8193 Y-11.0653
G01 X2.8200 Y-11.0800
G00 X2.8200 Y-11.0800
G01 F80.00
G01 Z-0.3200
G01 F40.00
G01 X2.8193 Y-11.0947
G01 X2.8171 Y-11.1093
G01 X2.8135 Y-11.1235
G01 X2.8086 Y-11.1374
G01 X2.8023 Y-11.1507
G01 X2.7947 Y-11.1633
G01 X2.7860 Y-11.1752
G01 X2.7761 Y-11.1861
G01 X2.7652 Y-11.1960
G01 X2.7533 Y-11.2047
G01 X2.7407 Y-11.2123
G01 X2.7274 Y-11.2186
G01 X2.7135 Y-11.2235
G01 X2.6993 Y-11.2271
G01 X2.6847 Y-11.2293
G01 X2.6700 Y-11.2300
G01 X2.6553 Y-11.2293
G01 X2.6407 Y-11.2271
G01 X2.6265 Y-11.2235
G01 X2.6126 Y-11.2186
G01 X2.5993 Y-11.2123
G01 X2.5867 Y-11.2047
G01 X2.5748 Y-11.1960
G01 X2.5639 Y-11.1861
G01 X2.5540 Y-11.1752
G01 X2.5453 Y-11.1633
G01 X2.5377 Y-11.1507
G01 X2.5314 Y-11.1374
G01 X2.5265 Y-11.1235
G01 X2.5229 Y-11.1093
G01 X2.5207 Y-11.0947
G01 X2.5200 Y-11.0800
G01 X2.5207 Y-11.0653
G01 X2.5229 Y-11.0507
G01 X2.5265 Y-11.0365
G01 X2.5314 Y-11.0226
G01 X2.5377 Y-11.0093
G01 X2.5453 Y-10.9967
G01 X2.5540 Y-10.9848
G01 X2.5639 Y-10.9739
G01 X2.5748 Y-10.9640
G01 X2.5867 Y-10.9553
G01 X2.5993 Y-10.9477
G01 X2.6126 Y-10.9414
G01 X2.6265 Y-10.9365
G01 X2.6407 Y-10.9329
G01 X2.6553 Y-10.9307
G01 X2.6700 Y-10.9300
G01 X2.6847 Y-10.9307
G01 X2.6993 Y-10.9329
G01 X2.7135 Y-10.9365
G01 X2.7274 Y-10.9414
G01 X2.7407 Y-10.9477
G01 X2.7533 Y-10.9553
G01 X2.7652 Y-10.9640
G01 X2.7761 Y-10.9739
G01 X2.7860 Y-10.9848
G01 X2.7947 Y-10.9967
G01 X2.8023 Y-11.0093
G01 X2.8086 Y-11.0226
G01 X2.8135 Y-11.0365
G01 X2.8171 Y-11.0507
G01 X2.8193 Y-11.0653
G01 X2.8200 Y-11.0800
G00 X2.8200 Y-11.0800
G01 F80.00
G01 Z-0.3600
G01 F40.00
G01 X2.8193 Y-11.0947
G01 X2.8171 Y-11.1093
G01 X2.8135 Y-11.1235
G01 X2.8086 Y-11.1374
G01 X2.8023 Y-11.1507
G01 X2.7947 Y-11.1633
G01 X2.7860 Y-11.1752
G01 X2.7761 Y-11.1861
G01 X2.7652 Y-11.1960
G01 X2.7533 Y-11.2047
G01 X2.7407 Y-11.2123
G01 X2.7274 Y-11.2186
G01 X2.7135 Y-11.2235
G01 X2.6993 Y-11.2271
G01 X2.6847 Y-11.2293
G01 X2.6700 Y-11.2300
G01 X2.6553 Y-11.2293
G01 X2.6407 Y-11.2271
G01 X2.6265 Y-11.2235
G01 X2.6126 Y-11.2186
G01 X2.5993 Y-11.2123
G01 X2.5867 Y-11.2047
G01 X2.5748 Y-11.1960
G01 X2.5639 Y-11.1861
G01 X2.5540 Y-11.1752
G01 X2.5453 Y-11.1633
G01 X2.5377 Y-11.1507
G01 X2.5314 Y-11.1374
G01 X2.5265 Y-11.1235
G01 X2.5229 Y-11.1093
G01 X2.5207 Y-11.0947
G01 X2.5200 Y-11.0800
G01 X2.5207 Y-11.0653
G01 X2.5229 Y-11.0507
G01 X2.5265 Y-11.0365
G01 X2.5314 Y-11.0226
G01 X2.5377 Y-11.0093
G01 X2.5453 Y-10.9967
G01 X2.5540 Y-10.9848
G01 X2.5639 Y-10.9739
G01 X2.5748 Y-10.9640
G01 X2.5867 Y-10.9553
G01 X2.5993 Y-10.9477
G01 X2.6126 Y-10.9414
G01 X2.6265 Y-10.9365
G01 X2.6407 Y-10.9329
G01 X2.6553 Y-10.9307
G01 X2.6700 Y-10.9300
G01 X2.6847 Y-10.9307
G01 X2.6993 Y-10.9329
G01 X2.7135 Y-10.9365
G01 X2.7274 Y-10.9414
G01 X2.7407 Y-10.9477
G01 X2.7533 Y-10.9553
G01 X2.7652 Y-10.9640
G01 X2.7761 Y-10.9739
G01 X2.7860 Y-10.9848
G01 X2.7947 Y-10.9967
G01 X2.8023 Y-11.0093
G01 X2.8086 Y-11.0226
G01 X2.8135 Y-11.0365
G01 X2.8171 Y-11.0507
G01 X2.8193 Y-11.0653
G01 X2.8200 Y-11.0800
G00 X2.8200 Y-11.0800
G01 F80.00
G01 Z-0.4000
G01 F40.00
G01 X2.8193 Y-11.0947
G01 X2.8171 Y-11.1093
G01 X2.8135 Y-11.1235
G01 X2.8086 Y-11.1374
G01 X2.8023 Y-11.1507
G01 X2.7947 Y-11.1633
G01 X2.7860 Y-11.1752
G01 X2.7761 Y-11.1861
G01 X2.7652 Y-11.1960
G01 X2.7533 Y-11.2047
G01 X2.7407 Y-11.2123
G01 X2.7274 Y-11.2186
G01 X2.7135 Y-11.2235
G01 X2.6993 Y-11.2271
G01 X2.6847 Y-11.2293
G01 X2.6700 Y-11.2300
G01 X2.6553 Y-11.2293
G01 X2.6407 Y-11.2271
G01 X2.6265 Y-11.2235
G01 X2.6126 Y-11.2186
G01 X2.5993 Y-11.2123
G01 X2.5867 Y-11.2047
G01 X2.5748 Y-11.1960
G01 X2.5639 Y-11.1861
G01 X2.5540 Y-11.1752
G01 X2.5453 Y-11.1633
G01 X2.5377 Y-11.1507
G01 X2.5314 Y-11.1374
G01 X2.5265 Y-11.1235
G01 X2.5229 Y-11.1093
G01 X2.5207 Y-11.0947
G01 X2.5200 Y-11.0800
G01 X2.5207 Y-11.0653
G01 X2.5229 Y-11.0507
G01 X2.5265 Y-11.0365
G01 X2.5314 Y-11.0226
G01 X2.5377 Y-11.0093
G01 X2.5453 Y-10.9967
G01 X2.5540 Y-10.9848
G01 X2.5639 Y-10.9739
G01 X2.5748 Y-10.9640
G01 X2.5867 Y-10.9553
G01 X2.5993 Y-10.9477
G01 X2.6126 Y-10.9414
G01 X2.6265 Y-10.9365
G01 X2.6407 Y-10.9329
G01 X2.6553 Y-10.9307
G01 X2.6700 Y-10.9300
G01 X2.6847 Y-10.9307
G01 X2.6993 Y-10.9329
G01 X2.7135 Y-10.9365
G01 X2.7274 Y-10.9414
G01 X2.7407 Y-10.9477
G01 X2.7533 Y-10.9553
G01 X2.7652 Y-10.9640
G01 X2.7761 Y-10.9739
G01 X2.7860 Y-10.9848
G01 X2.7947 Y-10.9967
G01 X2.8023 Y-11.0093
G01 X2.8086 Y-11.0226
G01 X2.8135 Y-11.0365
G01 X2.8171 Y-11.0507
G01 X2.8193 Y-11.0653
G01 X2.8200 Y-11.0800
G00 X2.8200 Y-11.0800
G01 F80.00
G01 Z-0.4400
G01 F40.00
G01 X2.8193 Y-11.0947
G01 X2.8171 Y-11.1093
G01 X2.8135 Y-11.1235
G01 X2.8086 Y-11.1374
G01 X2.8023 Y-11.1507
G01 X2.7947 Y-11.1633
G01 X2.7860 Y-11.1752
G01 X2.7761 Y-11.1861
G01 X2.7652 Y-11.1960
G01 X2.7533 Y-11.2047
G01 X2.7407 Y-11.2123
G01 X2.7274 Y-11.2186
G01 X2.7135 Y-11.2235
G01 X2.6993 Y-11.2271
G01 X2.6847 Y-11.2293
G01 X2.6700 Y-11.2300
G01 X2.6553 Y-11.2293
G01 X2.6407 Y-11.2271
G01 X2.6265 Y-11.2235
G01 X2.6126 Y-11.2186
G01 X2.5993 Y-11.2123
G01 X2.5867 Y-11.2047
G01 X2.5748 Y-11.1960
G01 X2.5639 Y-11.1861
G01 X2.5540 Y-11.1752
G01 X2.5453 Y-11.1633
G01 X2.5377 Y-11.1507
G01 X2.5314 Y-11.1374
G01 X2.5265 Y-11.1235
G01 X2.5229 Y-11.1093
G01 X2.5207 Y-11.0947
G01 X2.5200 Y-11.0800
G01 X2.5207 Y-11.0653
G01 X2.5229 Y-11.0507
G01 X2.5265 Y-11.0365
G01 X2.5314 Y-11.0226
G01 X2.5377 Y-11.0093
G01 X2.5453 Y-10.9967
G01 X2.5540 Y-10.9848
G01 X2.5639 Y-10.9739
G01 X2.5748 Y-10.9640
G01 X2.5867 Y-10.9553
G01 X2.5993 Y-10.9477
G01 X2.6126 Y-10.9414
G01 X2.6265 Y-10.9365
G01 X2.6407 Y-10.9329
G01 X2.6553 Y-10.9307
G01 X2.6700 Y-10.9300
G01 X2.6847 Y-10.9307
G01 X2.6993 Y-10.9329
G01 X2.7135 Y-10.9365
G01 X2.7274 Y-10.9414
G01 X2.7407 Y-10.9477
G01 X2.7533 Y-10.9553
G01 X2.7652 Y-10.9640
G01 X2.7761 Y-10.9739
G01 X2.7860 Y-10.9848
G01 X2.7947 Y-10.9967
G01 X2.8023 Y-11.0093
G01 X2.8086 Y-11.0226
G01 X2.8135 Y-11.0365
G01 X2.8171 Y-11.0507
G01 X2.8193 Y-11.0653
G01 X2.8200 Y-11.0800
G00 X2.8200 Y-11.0800
G01 F80.00
G01 Z-0.4800
G01 F40.00
G01 X2.8193 Y-11.0947
G01 X2.8171 Y-11.1093
G01 X2.8135 Y-11.1235
G01 X2.8086 Y-11.1374
G01 X2.8023 Y-11.1507
G01 X2.7947 Y-11.1633
G01 X2.7860 Y-11.1752
G01 X2.7761 Y-11.1861
G01 X2.7652 Y-11.1960
G01 X2.7533 Y-11.2047
G01 X2.7407 Y-11.2123
G01 X2.7274 Y-11.2186
G01 X2.7135 Y-11.2235
G01 X2.6993 Y-11.2271
G01 X2.6847 Y-11.2293
G01 X2.6700 Y-11.2300
G01 X2.6553 Y-11.2293
G01 X2.6407 Y-11.2271
G01 X2.6265 Y-11.2235
G01 X2.6126 Y-11.2186
G01 X2.5993 Y-11.2123
G01 X2.5867 Y-11.2047
G01 X2.5748 Y-11.1960
G01 X2.5639 Y-11.1861
G01 X2.5540 Y-11.1752
G01 X2.5453 Y-11.1633
G01 X2.5377 Y-11.1507
G01 X2.5314 Y-11.1374
G01 X2.5265 Y-11.1235
G01 X2.5229 Y-11.1093
G01 X2.5207 Y-11.0947
G01 X2.5200 Y-11.0800
G01 X2.5207 Y-11.0653
G01 X2.5229 Y-11.0507
G01 X2.5265 Y-11.0365
G01 X2.5314 Y-11.0226
G01 X2.5377 Y-11.0093
G01 X2.5453 Y-10.9967
G01 X2.5540 Y-10.9848
G01 X2.5639 Y-10.9739
G01 X2.5748 Y-10.9640
G01 X2.5867 Y-10.9553
G01 X2.5993 Y-10.9477
G01 X2.6126 Y-10.9414
G01 X2.6265 Y-10.9365
G01 X2.6407 Y-10.9329
G01 X2.6553 Y-10.9307
G01 X2.6700 Y-10.9300
G01 X2.6847 Y-10.9307
G01 X2.6993 Y-10.9329
G01 X2.7135 Y-10.9365
G01 X2.7274 Y-10.9414
G01 X2.7407 Y-10.9477
G01 X2.7533 Y-10.9553
G01 X2.7652 Y-10.9640
G01 X2.7761 Y-10.9739
G01 X2.7860 Y-10.9848
G01 X2.7947 Y-10.9967
G01 X2.8023 Y-11.0093
G01 X2.8086 Y-11.0226
G01 X2.8135 Y-11.0365
G01 X2.8171 Y-11.0507
G01 X2.8193 Y-11.0653
G01 X2.8200 Y-11.0800
G00 X2.8200 Y-11.0800
G01 F80.00
G01 Z-0.5200
G01 F40.00
G01 X2.8193 Y-11.0947
G01 X2.8171 Y-11.1093
G01 X2.8135 Y-11.1235
G01 X2.8086 Y-11.1374
G01 X2.8023 Y-11.1507
G01 X2.7947 Y-11.1633
G01 X2.7860 Y-11.1752
G01 X2.7761 Y-11.1861
G01 X2.7652 Y-11.1960
G01 X2.7533 Y-11.2047
G01 X2.7407 Y-11.2123
G01 X2.7274 Y-11.2186
G01 X2.7135 Y-11.2235
G01 X2.6993 Y-11.2271
G01 X2.6847 Y-11.2293
G01 X2.6700 Y-11.2300
G01 X2.6553 Y-11.2293
G01 X2.6407 Y-11.2271
G01 X2.6265 Y-11.2235
G01 X2.6126 Y-11.2186
G01 X2.5993 Y-11.2123
G01 X2.5867 Y-11.2047
G01 X2.5748 Y-11.1960
G01 X2.5639 Y-11.1861
G01 X2.5540 Y-11.1752
G01 X2.5453 Y-11.1633
G01 X2.5377 Y-11.1507
G01 X2.5314 Y-11.1374
G01 X2.5265 Y-11.1235
G01 X2.5229 Y-11.1093
G01 X2.5207 Y-11.0947
G01 X2.5200 Y-11.0800
G01 X2.5207 Y-11.0653
G01 X2.5229 Y-11.0507
G01 X2.5265 Y-11.0365
G01 X2.5314 Y-11.0226
G01 X2.5377 Y-11.0093
G01 X2.5453 Y-10.9967
G01 X2.5540 Y-10.9848
G01 X2.5639 Y-10.9739
G01 X2.5748 Y-10.9640
G01 X2.5867 Y-10.9553
G01 X2.5993 Y-10.9477
G01 X2.6126 Y-10.9414
G01 X2.6265 Y-10.9365
G01 X2.6407 Y-10.9329
G01 X2.6553 Y-10.9307
G01 X2.6700 Y-10.9300
G01 X2.6847 Y-10.9307
G01 X2.6993 Y-10.9329
G01 X2.7135 Y-10.9365
G01 X2.7274 Y-10.9414
G01 X2.7407 Y-10.9477
G01 X2.7533 Y-10.9553
G01 X2.7652 Y-10.9640
G01 X2.7761 Y-10.9739
G01 X2.7860 Y-10.9848
G01 X2.7947 Y-10.9967
G01 X2.8023 Y-11.0093
G01 X2.8086 Y-11.0226
G01 X2.8135 Y-11.0365
G01 X2.8171 Y-11.0507
G01 X2.8193 Y-11.0653
G01 X2.8200 Y-11.0800
G00 X2.8200 Y-11.0800
G01 F80.00
G01 Z-0.5600
G01 F40.00
G01 X2.8193 Y-11.0947
G01 X2.8171 Y-11.1093
G01 X2.8135 Y-11.1235
G01 X2.8086 Y-11.1374
G01 X2.8023 Y-11.1507
G01 X2.7947 Y-11.1633
G01 X2.7860 Y-11.1752
G01 X2.7761 Y-11.1861
G01 X2.7652 Y-11.1960
G01 X2.7533 Y-11.2047
G01 X2.7407 Y-11.2123
G01 X2.7274 Y-11.2186
G01 X2.7135 Y-11.2235
G01 X2.6993 Y-11.2271
G01 X2.6847 Y-11.2293
G01 X2.6700 Y-11.2300
G01 X2.6553 Y-11.2293
G01 X2.6407 Y-11.2271
G01 X2.6265 Y-11.2235
G01 X2.6126 Y-11.2186
G01 X2.5993 Y-11.2123
G01 X2.5867 Y-11.2047
G01 X2.5748 Y-11.1960
G01 X2.5639 Y-11.1861
G01 X2.5540 Y-11.1752
G01 X2.5453 Y-11.1633
G01 X2.5377 Y-11.1507
G01 X2.5314 Y-11.1374
G01 X2.5265 Y-11.1235
G01 X2.5229 Y-11.1093
G01 X2.5207 Y-11.0947
G01 X2.5200 Y-11.0800
G01 X2.5207 Y-11.0653
G01 X2.5229 Y-11.0507
G01 X2.5265 Y-11.0365
G01 X2.5314 Y-11.0226
G01 X2.5377 Y-11.0093
G01 X2.5453 Y-10.9967
G01 X2.5540 Y-10.9848
G01 X2.5639 Y-10.9739
G01 X2.5748 Y-10.9640
G01 X2.5867 Y-10.9553
G01 X2.5993 Y-10.9477
G01 X2.6126 Y-10.9414
G01 X2.6265 Y-10.9365
G01 X2.6407 Y-10.9329
G01 X2.6553 Y-10.9307
G01 X2.6700 Y-10.9300
G01 X2.6847 Y-10.9307
G01 X2.6993 Y-10.9329
G01 X2.7135 Y-10.9365
G01 X2.7274 Y-10.9414
G01 X2.7407 Y-10.9477
G01 X2.7533 Y-10.9553
G01 X2.7652 Y-10.9640
G01 X2.7761 Y-10.9739
G01 X2.7860 Y-10.9848
G01 X2.7947 Y-10.9967
G01 X2.8023 Y-11.0093
G01 X2.8086 Y-11.0226
G01 X2.8135 Y-11.0365
G01 X2.8171 Y-11.0507
G01 X2.8193 Y-11.0653
G01 X2.8200 Y-11.0800
G00 X2.8200 Y-11.0800
G01 F80.00
G01 Z-0.6000
G01 F40.00
G01 X2.8193 Y-11.0947
G01 X2.8171 Y-11.1093
G01 X2.8135 Y-11.1235
G01 X2.8086 Y-11.1374
G01 X2.8023 Y-11.1507
G01 X2.7947 Y-11.1633
G01 X2.7860 Y-11.1752
G01 X2.7761 Y-11.1861
G01 X2.7652 Y-11.1960
G01 X2.7533 Y-11.2047
G01 X2.7407 Y-11.2123
G01 X2.7274 Y-11.2186
G01 X2.7135 Y-11.2235
G01 X2.6993 Y-11.2271
G01 X2.6847 Y-11.2293
G01 X2.6700 Y-11.2300
G01 X2.6553 Y-11.2293
G01 X2.6407 Y-11.2271
G01 X2.6265 Y-11.2235
G01 X2.6126 Y-11.2186
G01 X2.5993 Y-11.2123
G01 X2.5867 Y-11.2047
G01 X2.5748 Y-11.1960
G01 X2.5639 Y-11.1861
G01 X2.5540 Y-11.1752
G01 X2.5453 Y-11.1633
G01 X2.5377 Y-11.1507
G01 X2.5314 Y-11.1374
G01 X2.5265 Y-11.1235
G01 X2.5229 Y-11.1093
G01 X2.5207 Y-11.0947
G01 X2.5200 Y-11.0800
G01 X2.5207 Y-11.0653
G01 X2.5229 Y-11.0507
G01 X2.5265 Y-11.0365
G01 X2.5314 Y-11.0226
G01 X2.5377 Y-11.0093
G01 X2.5453 Y-10.9967
G01 X2.5540 Y-10.9848
G01 X2.5639 Y-10.9739
G01 X2.5748 Y-10.9640
G01 X2.5867 Y-10.9553
G01 X2.5993 Y-10.9477
G01 X2.6126 Y-10.9414
G01 X2.6265 Y-10.9365
G01 X2.6407 Y-10.9329
G01 X2.6553 Y-10.9307
G01 X2.6700 Y-10.9300
G01 X2.6847 Y-10.9307
G01 X2.6993 Y-10.9329
G01 X2.7135 Y-10.9365
G01 X2.7274 Y-10.9414
G01 X2.7407 Y-10.9477
G01 X2.7533 Y-10.9553
G01 X2.7652 Y-10.9640
G01 X2.7761 Y-10.9739
G01 X2.7860 Y-10.9848
G01 X2.7947 Y-10.9967
G01 X2.8023 Y-11.0093
G01 X2.8086 Y-11.0226
G01 X2.8135 Y-11.0365
G01 X2.8171 Y-11.0507
G01 X2.8193 Y-11.0653
G01 X2.8200 Y-11.0800
G00 X2.8200 Y-11.0800
G01 F80.00
G01 Z-0.6400
G01 F40.00
G01 X2.8193 Y-11.0947
G01 X2.8171 Y-11.1093
G01 X2.8135 Y-11.1235
G01 X2.8086 Y-11.1374
G01 X2.8023 Y-11.1507
G01 X2.7947 Y-11.1633
G01 X2.7860 Y-11.1752
G01 X2.7761 Y-11.1861
G01 X2.7652 Y-11.1960
G01 X2.7533 Y-11.2047
G01 X2.7407 Y-11.2123
G01 X2.7274 Y-11.2186
G01 X2.7135 Y-11.2235
G01 X2.6993 Y-11.2271
G01 X2.6847 Y-11.2293
G01 X2.6700 Y-11.2300
G01 X2.6553 Y-11.2293
G01 X2.6407 Y-11.2271
G01 X2.6265 Y-11.2235
G01 X2.6126 Y-11.2186
G01 X2.5993 Y-11.2123
G01 X2.5867 Y-11.2047
G01 X2.5748 Y-11.1960
G01 X2.5639 Y-11.1861
G01 X2.5540 Y-11.1752
G01 X2.5453 Y-11.1633
G01 X2.5377 Y-11.1507
G01 X2.5314 Y-11.1374
G01 X2.5265 Y-11.1235
G01 X2.5229 Y-11.1093
G01 X2.5207 Y-11.0947
G01 X2.5200 Y-11.0800
G01 X2.5207 Y-11.0653
G01 X2.5229 Y-11.0507
G01 X2.5265 Y-11.0365
G01 X2.5314 Y-11.0226
G01 X2.5377 Y-11.0093
G01 X2.5453 Y-10.9967
G01 X2.5540 Y-10.9848
G01 X2.5639 Y-10.9739
G01 X2.5748 Y-10.9640
G01 X2.5867 Y-10.9553
G01 X2.5993 Y-10.9477
G01 X2.6126 Y-10.9414
G01 X2.6265 Y-10.9365
G01 X2.6407 Y-10.9329
G01 X2.6553 Y-10.9307
G01 X2.6700 Y-10.9300
G01 X2.6847 Y-10.9307
G01 X2.6993 Y-10.9329
G01 X2.7135 Y-10.9365
G01 X2.7274 Y-10.9414
G01 X2.7407 Y-10.9477
G01 X2.7533 Y-10.9553
G01 X2.7652 Y-10.9640
G01 X2.7761 Y-10.9739
G01 X2.7860 Y-10.9848
G01 X2.7947 Y-10.9967
G01 X2.8023 Y-11.0093
G01 X2.8086 Y-11.0226
G01 X2.8135 Y-11.0365
G01 X2.8171 Y-11.0507
G01 X2.8193 Y-11.0653
G01 X2.8200 Y-11.0800
G00 X2.8200 Y-11.0800
G01 F80.00
G01 Z-0.6800
G01 F40.00
G01 X2.8193 Y-11.0947
G01 X2.8171 Y-11.1093
G01 X2.8135 Y-11.1235
G01 X2.8086 Y-11.1374
G01 X2.8023 Y-11.1507
G01 X2.7947 Y-11.1633
G01 X2.7860 Y-11.1752
G01 X2.7761 Y-11.1861
G01 X2.7652 Y-11.1960
G01 X2.7533 Y-11.2047
G01 X2.7407 Y-11.2123
G01 X2.7274 Y-11.2186
G01 X2.7135 Y-11.2235
G01 X2.6993 Y-11.2271
G01 X2.6847 Y-11.2293
G01 X2.6700 Y-11.2300
G01 X2.6553 Y-11.2293
G01 X2.6407 Y-11.2271
G01 X2.6265 Y-11.2235
G01 X2.6126 Y-11.2186
G01 X2.5993 Y-11.2123
G01 X2.5867 Y-11.2047
G01 X2.5748 Y-11.1960
G01 X2.5639 Y-11.1861
G01 X2.5540 Y-11.1752
G01 X2.5453 Y-11.1633
G01 X2.5377 Y-11.1507
G01 X2.5314 Y-11.1374
G01 X2.5265 Y-11.1235
G01 X2.5229 Y-11.1093
G01 X2.5207 Y-11.0947
G01 X2.5200 Y-11.0800
G01 X2.5207 Y-11.0653
G01 X2.5229 Y-11.0507
G01 X2.5265 Y-11.0365
G01 X2.5314 Y-11.0226
G01 X2.5377 Y-11.0093
G01 X2.5453 Y-10.9967
G01 X2.5540 Y-10.9848
G01 X2.5639 Y-10.9739
G01 X2.5748 Y-10.9640
G01 X2.5867 Y-10.9553
G01 X2.5993 Y-10.9477
G01 X2.6126 Y-10.9414
G01 X2.6265 Y-10.9365
G01 X2.6407 Y-10.9329
G01 X2.6553 Y-10.9307
G01 X2.6700 Y-10.9300
G01 X2.6847 Y-10.9307
G01 X2.6993 Y-10.9329
G01 X2.7135 Y-10.9365
G01 X2.7274 Y-10.9414
G01 X2.7407 Y-10.9477
G01 X2.7533 Y-10.9553
G01 X2.7652 Y-10.9640
G01 X2.7761 Y-10.9739
G01 X2.7860 Y-10.9848
G01 X2.7947 Y-10.9967
G01 X2.8023 Y-11.0093
G01 X2.8086 Y-11.0226
G01 X2.8135 Y-11.0365
G01 X2.8171 Y-11.0507
G01 X2.8193 Y-11.0653
G01 X2.8200 Y-11.0800
G00 X2.8200 Y-11.0800
G01 F80.00
G01 Z-0.7200
G01 F40.00
G01 X2.8193 Y-11.0947
G01 X2.8171 Y-11.1093
G01 X2.8135 Y-11.1235
G01 X2.8086 Y-11.1374
G01 X2.8023 Y-11.1507
G01 X2.7947 Y-11.1633
G01 X2.7860 Y-11.1752
G01 X2.7761 Y-11.1861
G01 X2.7652 Y-11.1960
G01 X2.7533 Y-11.2047
G01 X2.7407 Y-11.2123
G01 X2.7274 Y-11.2186
G01 X2.7135 Y-11.2235
G01 X2.6993 Y-11.2271
G01 X2.6847 Y-11.2293
G01 X2.6700 Y-11.2300
G01 X2.6553 Y-11.2293
G01 X2.6407 Y-11.2271
G01 X2.6265 Y-11.2235
G01 X2.6126 Y-11.2186
G01 X2.5993 Y-11.2123
G01 X2.5867 Y-11.2047
G01 X2.5748 Y-11.1960
G01 X2.5639 Y-11.1861
G01 X2.5540 Y-11.1752
G01 X2.5453 Y-11.1633
G01 X2.5377 Y-11.1507
G01 X2.5314 Y-11.1374
G01 X2.5265 Y-11.1235
G01 X2.5229 Y-11.1093
G01 X2.5207 Y-11.0947
G01 X2.5200 Y-11.0800
G01 X2.5207 Y-11.0653
G01 X2.5229 Y-11.0507
G01 X2.5265 Y-11.0365
G01 X2.5314 Y-11.0226
G01 X2.5377 Y-11.0093
G01 X2.5453 Y-10.9967
G01 X2.5540 Y-10.9848
G01 X2.5639 Y-10.9739
G01 X2.5748 Y-10.9640
G01 X2.5867 Y-10.9553
G01 X2.5993 Y-10.9477
G01 X2.6126 Y-10.9414
G01 X2.6265 Y-10.9365
G01 X2.6407 Y-10.9329
G01 X2.6553 Y-10.9307
G01 X2.6700 Y-10.9300
G01 X2.6847 Y-10.9307
G01 X2.6993 Y-10.9329
G01 X2.7135 Y-10.9365
G01 X2.7274 Y-10.9414
G01 X2.7407 Y-10.9477
G01 X2.7533 Y-10.9553
G01 X2.7652 Y-10.9640
G01 X2.7761 Y-10.9739
G01 X2.7860 Y-10.9848
G01 X2.7947 Y-10.9967
G01 X2.8023 Y-11.0093
G01 X2.8086 Y-11.0226
G01 X2.8135 Y-11.0365
G01 X2.8171 Y-11.0507
G01 X2.8193 Y-11.0653
G01 X2.8200 Y-11.0800
G00 X2.8200 Y-11.0800
G01 F80.00
G01 Z-0.7600
G01 F40.00
G01 X2.8193 Y-11.0947
G01 X2.8171 Y-11.1093
G01 X2.8135 Y-11.1235
G01 X2.8086 Y-11.1374
G01 X2.8023 Y-11.1507
G01 X2.7947 Y-11.1633
G01 X2.7860 Y-11.1752
G01 X2.7761 Y-11.1861
G01 X2.7652 Y-11.1960
G01 X2.7533 Y-11.2047
G01 X2.7407 Y-11.2123
G01 X2.7274 Y-11.2186
G01 X2.7135 Y-11.2235
G01 X2.6993 Y-11.2271
G01 X2.6847 Y-11.2293
G01 X2.6700 Y-11.2300
G01 X2.6553 Y-11.2293
G01 X2.6407 Y-11.2271
G01 X2.6265 Y-11.2235
G01 X2.6126 Y-11.2186
G01 X2.5993 Y-11.2123
G01 X2.5867 Y-11.2047
G01 X2.5748 Y-11.1960
G01 X2.5639 Y-11.1861
G01 X2.5540 Y-11.1752
G01 X2.5453 Y-11.1633
G01 X2.5377 Y-11.1507
G01 X2.5314 Y-11.1374
G01 X2.5265 Y-11.1235
G01 X2.5229 Y-11.1093
G01 X2.5207 Y-11.0947
G01 X2.5200 Y-11.0800
G01 X2.5207 Y-11.0653
G01 X2.5229 Y-11.0507
G01 X2.5265 Y-11.0365
G01 X2.5314 Y-11.0226
G01 X2.5377 Y-11.0093
G01 X2.5453 Y-10.9967
G01 X2.5540 Y-10.9848
G01 X2.5639 Y-10.9739
G01 X2.5748 Y-10.9640
G01 X2.5867 Y-10.9553
G01 X2.5993 Y-10.9477
G01 X2.6126 Y-10.9414
G01 X2.6265 Y-10.9365
G01 X2.6407 Y-10.9329
G01 X2.6553 Y-10.9307
G01 X2.6700 Y-10.9300
G01 X2.6847 Y-10.9307
G01 X2.6993 Y-10.9329
G01 X2.7135 Y-10.9365
G01 X2.7274 Y-10.9414
G01 X2.7407 Y-10.9477
G01 X2.7533 Y-10.9553
G01 X2.7652 Y-10.9640
G01 X2.7761 Y-10.9739
G01 X2.7860 Y-10.9848
G01 X2.7947 Y-10.9967
G01 X2.8023 Y-11.0093
G01 X2.8086 Y-11.0226
G01 X2.8135 Y-11.0365
G01 X2.8171 Y-11.0507
G01 X2.8193 Y-11.0653
G01 X2.8200 Y-11.0800
G00 X2.8200 Y-11.0800
G01 F80.00
G01 Z-0.8000
G01 F40.00
G01 X2.8193 Y-11.0947
G01 X2.8171 Y-11.1093
G01 X2.8135 Y-11.1235
G01 X2.8086 Y-11.1374
G01 X2.8023 Y-11.1507
G01 X2.7947 Y-11.1633
G01 X2.7860 Y-11.1752
G01 X2.7761 Y-11.1861
G01 X2.7652 Y-11.1960
G01 X2.7533 Y-11.2047
G01 X2.7407 Y-11.2123
G01 X2.7274 Y-11.2186
G01 X2.7135 Y-11.2235
G01 X2.6993 Y-11.2271
G01 X2.6847 Y-11.2293
G01 X2.6700 Y-11.2300
G01 X2.6553 Y-11.2293
G01 X2.6407 Y-11.2271
G01 X2.6265 Y-11.2235
G01 X2.6126 Y-11.2186
G01 X2.5993 Y-11.2123
G01 X2.5867 Y-11.2047
G01 X2.5748 Y-11.1960
G01 X2.5639 Y-11.1861
G01 X2.5540 Y-11.1752
G01 X2.5453 Y-11.1633
G01 X2.5377 Y-11.1507
G01 X2.5314 Y-11.1374
G01 X2.5265 Y-11.1235
G01 X2.5229 Y-11.1093
G01 X2.5207 Y-11.0947
G01 X2.5200 Y-11.0800
G01 X2.5207 Y-11.0653
G01 X2.5229 Y-11.0507
G01 X2.5265 Y-11.0365
G01 X2.5314 Y-11.0226
G01 X2.5377 Y-11.0093
G01 X2.5453 Y-10.9967
G01 X2.5540 Y-10.9848
G01 X2.5639 Y-10.9739
G01 X2.5748 Y-10.9640
G01 X2.5867 Y-10.9553
G01 X2.5993 Y-10.9477
G01 X2.6126 Y-10.9414
G01 X2.6265 Y-10.9365
G01 X2.6407 Y-10.9329
G01 X2.6553 Y-10.9307
G01 X2.6700 Y-10.9300
G01 X2.6847 Y-10.9307
G01 X2.6993 Y-10.9329
G01 X2.7135 Y-10.9365
G01 X2.7274 Y-10.9414
G01 X2.7407 Y-10.9477
G01 X2.7533 Y-10.9553
G01 X2.7652 Y-10.9640
G01 X2.7761 Y-10.9739
G01 X2.7860 Y-10.9848
G01 X2.7947 Y-10.9967
G01 X2.8023 Y-11.0093
G01 X2.8086 Y-11.0226
G01 X2.8135 Y-11.0365
G01 X2.8171 Y-11.0507
G01 X2.8193 Y-11.0653
G01 X2.8200 Y-11.0800
G00 X2.8200 Y-11.0800
G01 F80.00
G01 Z-0.8400
G01 F40.00
G01 X2.8193 Y-11.0947
G01 X2.8171 Y-11.1093
G01 X2.8135 Y-11.1235
G01 X2.8086 Y-11.1374
G01 X2.8023 Y-11.1507
G01 X2.7947 Y-11.1633
G01 X2.7860 Y-11.1752
G01 X2.7761 Y-11.1861
G01 X2.7652 Y-11.1960
G01 X2.7533 Y-11.2047
G01 X2.7407 Y-11.2123
G01 X2.7274 Y-11.2186
G01 X2.7135 Y-11.2235
G01 X2.6993 Y-11.2271
G01 X2.6847 Y-11.2293
G01 X2.6700 Y-11.2300
G01 X2.6553 Y-11.2293
G01 X2.6407 Y-11.2271
G01 X2.6265 Y-11.2235
G01 X2.6126 Y-11.2186
G01 X2.5993 Y-11.2123
G01 X2.5867 Y-11.2047
G01 X2.5748 Y-11.1960
G01 X2.5639 Y-11.1861
G01 X2.5540 Y-11.1752
G01 X2.5453 Y-11.1633
G01 X2.5377 Y-11.1507
G01 X2.5314 Y-11.1374
G01 X2.5265 Y-11.1235
G01 X2.5229 Y-11.1093
G01 X2.5207 Y-11.0947
G01 X2.5200 Y-11.0800
G01 X2.5207 Y-11.0653
G01 X2.5229 Y-11.0507
G01 X2.5265 Y-11.0365
G01 X2.5314 Y-11.0226
G01 X2.5377 Y-11.0093
G01 X2.5453 Y-10.9967
G01 X2.5540 Y-10.9848
G01 X2.5639 Y-10.9739
G01 X2.5748 Y-10.9640
G01 X2.5867 Y-10.9553
G01 X2.5993 Y-10.9477
G01 X2.6126 Y-10.9414
G01 X2.6265 Y-10.9365
G01 X2.6407 Y-10.9329
G01 X2.6553 Y-10.9307
G01 X2.6700 Y-10.9300
G01 X2.6847 Y-10.9307
G01 X2.6993 Y-10.9329
G01 X2.7135 Y-10.9365
G01 X2.7274 Y-10.9414
G01 X2.7407 Y-10.9477
G01 X2.7533 Y-10.9553
G01 X2.7652 Y-10.9640
G01 X2.7761 Y-10.9739
G01 X2.7860 Y-10.9848
G01 X2.7947 Y-10.9967
G01 X2.8023 Y-11.0093
G01 X2.8086 Y-11.0226
G01 X2.8135 Y-11.0365
G01 X2.8171 Y-11.0507
G01 X2.8193 Y-11.0653
G01 X2.8200 Y-11.0800
G00 X2.8200 Y-11.0800
G01 F80.00
G01 Z-0.8800
G01 F40.00
G01 X2.8193 Y-11.0947
G01 X2.8171 Y-11.1093
G01 X2.8135 Y-11.1235
G01 X2.8086 Y-11.1374
G01 X2.8023 Y-11.1507
G01 X2.7947 Y-11.1633
G01 X2.7860 Y-11.1752
G01 X2.7761 Y-11.1861
G01 X2.7652 Y-11.1960
G01 X2.7533 Y-11.2047
G01 X2.7407 Y-11.2123
G01 X2.7274 Y-11.2186
G01 X2.7135 Y-11.2235
G01 X2.6993 Y-11.2271
G01 X2.6847 Y-11.2293
G01 X2.6700 Y-11.2300
G01 X2.6553 Y-11.2293
G01 X2.6407 Y-11.2271
G01 X2.6265 Y-11.2235
G01 X2.6126 Y-11.2186
G01 X2.5993 Y-11.2123
G01 X2.5867 Y-11.2047
G01 X2.5748 Y-11.1960
G01 X2.5639 Y-11.1861
G01 X2.5540 Y-11.1752
G01 X2.5453 Y-11.1633
G01 X2.5377 Y-11.1507
G01 X2.5314 Y-11.1374
G01 X2.5265 Y-11.1235
G01 X2.5229 Y-11.1093
G01 X2.5207 Y-11.0947
G01 X2.5200 Y-11.0800
G01 X2.5207 Y-11.0653
G01 X2.5229 Y-11.0507
G01 X2.5265 Y-11.0365
G01 X2.5314 Y-11.0226
G01 X2.5377 Y-11.0093
G01 X2.5453 Y-10.9967
G01 X2.5540 Y-10.9848
G01 X2.5639 Y-10.9739
G01 X2.5748 Y-10.9640
G01 X2.5867 Y-10.9553
G01 X2.5993 Y-10.9477
G01 X2.6126 Y-10.9414
G01 X2.6265 Y-10.9365
G01 X2.6407 Y-10.9329
G01 X2.6553 Y-10.9307
G01 X2.6700 Y-10.9300
G01 X2.6847 Y-10.9307
G01 X2.6993 Y-10.9329
G01 X2.7135 Y-10.9365
G01 X2.7274 Y-10.9414
G01 X2.7407 Y-10.9477
G01 X2.7533 Y-10.9553
G01 X2.7652 Y-10.9640
G01 X2.7761 Y-10.9739
G01 X2.7860 Y-10.9848
G01 X2.7947 Y-10.9967
G01 X2.8023 Y-11.0093
G01 X2.8086 Y-11.0226
G01 X2.8135 Y-11.0365
G01 X2.8171 Y-11.0507
G01 X2.8193 Y-11.0653
G01 X2.8200 Y-11.0800
G00 X2.8200 Y-11.0800
G01 F80.00
G01 Z-0.9200
G01 F40.00
G01 X2.8193 Y-11.0947
G01 X2.8171 Y-11.1093
G01 X2.8135 Y-11.1235
G01 X2.8086 Y-11.1374
G01 X2.8023 Y-11.1507
G01 X2.7947 Y-11.1633
G01 X2.7860 Y-11.1752
G01 X2.7761 Y-11.1861
G01 X2.7652 Y-11.1960
G01 X2.7533 Y-11.2047
G01 X2.7407 Y-11.2123
G01 X2.7274 Y-11.2186
G01 X2.7135 Y-11.2235
G01 X2.6993 Y-11.2271
G01 X2.6847 Y-11.2293
G01 X2.6700 Y-11.2300
G01 X2.6553 Y-11.2293
G01 X2.6407 Y-11.2271
G01 X2.6265 Y-11.2235
G01 X2.6126 Y-11.2186
G01 X2.5993 Y-11.2123
G01 X2.5867 Y-11.2047
G01 X2.5748 Y-11.1960
G01 X2.5639 Y-11.1861
G01 X2.5540 Y-11.1752
G01 X2.5453 Y-11.1633
G01 X2.5377 Y-11.1507
G01 X2.5314 Y-11.1374
G01 X2.5265 Y-11.1235
G01 X2.5229 Y-11.1093
G01 X2.5207 Y-11.0947
G01 X2.5200 Y-11.0800
G01 X2.5207 Y-11.0653
G01 X2.5229 Y-11.0507
G01 X2.5265 Y-11.0365
G01 X2.5314 Y-11.0226
G01 X2.5377 Y-11.0093
G01 X2.5453 Y-10.9967
G01 X2.5540 Y-10.9848
G01 X2.5639 Y-10.9739
G01 X2.5748 Y-10.9640
G01 X2.5867 Y-10.9553
G01 X2.5993 Y-10.9477
G01 X2.6126 Y-10.9414
G01 X2.6265 Y-10.9365
G01 X2.6407 Y-10.9329
G01 X2.6553 Y-10.9307
G01 X2.6700 Y-10.9300
G01 X2.6847 Y-10.9307
G01 X2.6993 Y-10.9329
G01 X2.7135 Y-10.9365
G01 X2.7274 Y-10.9414
G01 X2.7407 Y-10.9477
G01 X2.7533 Y-10.9553
G01 X2.7652 Y-10.9640
G01 X2.7761 Y-10.9739
G01 X2.7860 Y-10.9848
G01 X2.7947 Y-10.9967
G01 X2.8023 Y-11.0093
G01 X2.8086 Y-11.0226
G01 X2.8135 Y-11.0365
G01 X2.8171 Y-11.0507
G01 X2.8193 Y-11.0653
G01 X2.8200 Y-11.0800
G00 X2.8200 Y-11.0800
G01 F80.00
G01 Z-0.9600
G01 F40.00
G01 X2.8193 Y-11.0947
G01 X2.8171 Y-11.1093
G01 X2.8135 Y-11.1235
G01 X2.8086 Y-11.1374
G01 X2.8023 Y-11.1507
G01 X2.7947 Y-11.1633
G01 X2.7860 Y-11.1752
G01 X2.7761 Y-11.1861
G01 X2.7652 Y-11.1960
G01 X2.7533 Y-11.2047
G01 X2.7407 Y-11.2123
G01 X2.7274 Y-11.2186
G01 X2.7135 Y-11.2235
G01 X2.6993 Y-11.2271
G01 X2.6847 Y-11.2293
G01 X2.6700 Y-11.2300
G01 X2.6553 Y-11.2293
G01 X2.6407 Y-11.2271
G01 X2.6265 Y-11.2235
G01 X2.6126 Y-11.2186
G01 X2.5993 Y-11.2123
G01 X2.5867 Y-11.2047
G01 X2.5748 Y-11.1960
G01 X2.5639 Y-11.1861
G01 X2.5540 Y-11.1752
G01 X2.5453 Y-11.1633
G01 X2.5377 Y-11.1507
G01 X2.5314 Y-11.1374
G01 X2.5265 Y-11.1235
G01 X2.5229 Y-11.1093
G01 X2.5207 Y-11.0947
G01 X2.5200 Y-11.0800
G01 X2.5207 Y-11.0653
G01 X2.5229 Y-11.0507
G01 X2.5265 Y-11.0365
G01 X2.5314 Y-11.0226
G01 X2.5377 Y-11.0093
G01 X2.5453 Y-10.9967
G01 X2.5540 Y-10.9848
G01 X2.5639 Y-10.9739
G01 X2.5748 Y-10.9640
G01 X2.5867 Y-10.9553
G01 X2.5993 Y-10.9477
G01 X2.6126 Y-10.9414
G01 X2.6265 Y-10.9365
G01 X2.6407 Y-10.9329
G01 X2.6553 Y-10.9307
G01 X2.6700 Y-10.9300
G01 X2.6847 Y-10.9307
G01 X2.6993 Y-10.9329
G01 X2.7135 Y-10.9365
G01 X2.7274 Y-10.9414
G01 X2.7407 Y-10.9477
G01 X2.7533 Y-10.9553
G01 X2.7652 Y-10.9640
G01 X2.7761 Y-10.9739
G01 X2.7860 Y-10.9848
G01 X2.7947 Y-10.9967
G01 X2.8023 Y-11.0093
G01 X2.8086 Y-11.0226
G01 X2.8135 Y-11.0365
G01 X2.8171 Y-11.0507
G01 X2.8193 Y-11.0653
G01 X2.8200 Y-11.0800
G00 X2.8200 Y-11.0800
G01 F80.00
G01 Z-1.0000
G01 F40.00
G01 X2.8193 Y-11.0947
G01 X2.8171 Y-11.1093
G01 X2.8135 Y-11.1235
G01 X2.8086 Y-11.1374
G01 X2.8023 Y-11.1507
G01 X2.7947 Y-11.1633
G01 X2.7860 Y-11.1752
G01 X2.7761 Y-11.1861
G01 X2.7652 Y-11.1960
G01 X2.7533 Y-11.2047
G01 X2.7407 Y-11.2123
G01 X2.7274 Y-11.2186
G01 X2.7135 Y-11.2235
G01 X2.6993 Y-11.2271
G01 X2.6847 Y-11.2293
G01 X2.6700 Y-11.2300
G01 X2.6553 Y-11.2293
G01 X2.6407 Y-11.2271
G01 X2.6265 Y-11.2235
G01 X2.6126 Y-11.2186
G01 X2.5993 Y-11.2123
G01 X2.5867 Y-11.2047
G01 X2.5748 Y-11.1960
G01 X2.5639 Y-11.1861
G01 X2.5540 Y-11.1752
G01 X2.5453 Y-11.1633
G01 X2.5377 Y-11.1507
G01 X2.5314 Y-11.1374
G01 X2.5265 Y-11.1235
G01 X2.5229 Y-11.1093
G01 X2.5207 Y-11.0947
G01 X2.5200 Y-11.0800
G01 X2.5207 Y-11.0653
G01 X2.5229 Y-11.0507
G01 X2.5265 Y-11.0365
G01 X2.5314 Y-11.0226
G01 X2.5377 Y-11.0093
G01 X2.5453 Y-10.9967
G01 X2.5540 Y-10.9848
G01 X2.5639 Y-10.9739
G01 X2.5748 Y-10.9640
G01 X2.5867 Y-10.9553
G01 X2.5993 Y-10.9477
G01 X2.6126 Y-10.9414
G01 X2.6265 Y-10.9365
G01 X2.6407 Y-10.9329
G01 X2.6553 Y-10.9307
G01 X2.6700 Y-10.9300
G01 X2.6847 Y-10.9307
G01 X2.6993 Y-10.9329
G01 X2.7135 Y-10.9365
G01 X2.7274 Y-10.9414
G01 X2.7407 Y-10.9477
G01 X2.7533 Y-10.9553
G01 X2.7652 Y-10.9640
G01 X2.7761 Y-10.9739
G01 X2.7860 Y-10.9848
G01 X2.7947 Y-10.9967
G01 X2.8023 Y-11.0093
G01 X2.8086 Y-11.0226
G01 X2.8135 Y-11.0365
G01 X2.8171 Y-11.0507
G01 X2.8193 Y-11.0653
G01 X2.8200 Y-11.0800
G00 X2.8200 Y-11.0800
G01 F80.00
G01 Z-1.0400
G01 F40.00
G01 X2.8193 Y-11.0947
G01 X2.8171 Y-11.1093
G01 X2.8135 Y-11.1235
G01 X2.8086 Y-11.1374
G01 X2.8023 Y-11.1507
G01 X2.7947 Y-11.1633
G01 X2.7860 Y-11.1752
G01 X2.7761 Y-11.1861
G01 X2.7652 Y-11.1960
G01 X2.7533 Y-11.2047
G01 X2.7407 Y-11.2123
G01 X2.7274 Y-11.2186
G01 X2.7135 Y-11.2235
G01 X2.6993 Y-11.2271
G01 X2.6847 Y-11.2293
G01 X2.6700 Y-11.2300
G01 X2.6553 Y-11.2293
G01 X2.6407 Y-11.2271
G01 X2.6265 Y-11.2235
G01 X2.6126 Y-11.2186
G01 X2.5993 Y-11.2123
G01 X2.5867 Y-11.2047
G01 X2.5748 Y-11.1960
G01 X2.5639 Y-11.1861
G01 X2.5540 Y-11.1752
G01 X2.5453 Y-11.1633
G01 X2.5377 Y-11.1507
G01 X2.5314 Y-11.1374
G01 X2.5265 Y-11.1235
G01 X2.5229 Y-11.1093
G01 X2.5207 Y-11.0947
G01 X2.5200 Y-11.0800
G01 X2.5207 Y-11.0653
G01 X2.5229 Y-11.0507
G01 X2.5265 Y-11.0365
G01 X2.5314 Y-11.0226
G01 X2.5377 Y-11.0093
G01 X2.5453 Y-10.9967
G01 X2.5540 Y-10.9848
G01 X2.5639 Y-10.9739
G01 X2.5748 Y-10.9640
G01 X2.5867 Y-10.9553
G01 X2.5993 Y-10.9477
G01 X2.6126 Y-10.9414
G01 X2.6265 Y-10.9365
G01 X2.6407 Y-10.9329
G01 X2.6553 Y-10.9307
G01 X2.6700 Y-10.9300
G01 X2.6847 Y-10.9307
G01 X2.6993 Y-10.9329
G01 X2.7135 Y-10.9365
G01 X2.7274 Y-10.9414
G01 X2.7407 Y-10.9477
G01 X2.7533 Y-10.9553
G01 X2.7652 Y-10.9640
G01 X2.7761 Y-10.9739
G01 X2.7860 Y-10.9848
G01 X2.7947 Y-10.9967
G01 X2.8023 Y-11.0093
G01 X2.8086 Y-11.0226
G01 X2.8135 Y-11.0365
G01 X2.8171 Y-11.0507
G01 X2.8193 Y-11.0653
G01 X2.8200 Y-11.0800
G00 X2.8200 Y-11.0800
G01 F80.00
G01 Z-1.0800
G01 F40.00
G01 X2.8193 Y-11.0947
G01 X2.8171 Y-11.1093
G01 X2.8135 Y-11.1235
G01 X2.8086 Y-11.1374
G01 X2.8023 Y-11.1507
G01 X2.7947 Y-11.1633
G01 X2.7860 Y-11.1752
G01 X2.7761 Y-11.1861
G01 X2.7652 Y-11.1960
G01 X2.7533 Y-11.2047
G01 X2.7407 Y-11.2123
G01 X2.7274 Y-11.2186
G01 X2.7135 Y-11.2235
G01 X2.6993 Y-11.2271
G01 X2.6847 Y-11.2293
G01 X2.6700 Y-11.2300
G01 X2.6553 Y-11.2293
G01 X2.6407 Y-11.2271
G01 X2.6265 Y-11.2235
G01 X2.6126 Y-11.2186
G01 X2.5993 Y-11.2123
G01 X2.5867 Y-11.2047
G01 X2.5748 Y-11.1960
G01 X2.5639 Y-11.1861
G01 X2.5540 Y-11.1752
G01 X2.5453 Y-11.1633
G01 X2.5377 Y-11.1507
G01 X2.5314 Y-11.1374
G01 X2.5265 Y-11.1235
G01 X2.5229 Y-11.1093
G01 X2.5207 Y-11.0947
G01 X2.5200 Y-11.0800
G01 X2.5207 Y-11.0653
G01 X2.5229 Y-11.0507
G01 X2.5265 Y-11.0365
G01 X2.5314 Y-11.0226
G01 X2.5377 Y-11.0093
G01 X2.5453 Y-10.9967
G01 X2.5540 Y-10.9848
G01 X2.5639 Y-10.9739
G01 X2.5748 Y-10.9640
G01 X2.5867 Y-10.9553
G01 X2.5993 Y-10.9477
G01 X2.6126 Y-10.9414
G01 X2.6265 Y-10.9365
G01 X2.6407 Y-10.9329
G01 X2.6553 Y-10.9307
G01 X2.6700 Y-10.9300
G01 X2.6847 Y-10.9307
G01 X2.6993 Y-10.9329
G01 X2.7135 Y-10.9365
G01 X2.7274 Y-10.9414
G01 X2.7407 Y-10.9477
G01 X2.7533 Y-10.9553
G01 X2.7652 Y-10.9640
G01 X2.7761 Y-10.9739
G01 X2.7860 Y-10.9848
G01 X2.7947 Y-10.9967
G01 X2.8023 Y-11.0093
G01 X2.8086 Y-11.0226
G01 X2.8135 Y-11.0365
G01 X2.8171 Y-11.0507
G01 X2.8193 Y-11.0653
G01 X2.8200 Y-11.0800
G00 X2.8200 Y-11.0800
G01 F80.00
G01 Z-1.1200
G01 F40.00
G01 X2.8193 Y-11.0947
G01 X2.8171 Y-11.1093
G01 X2.8135 Y-11.1235
G01 X2.8086 Y-11.1374
G01 X2.8023 Y-11.1507
G01 X2.7947 Y-11.1633
G01 X2.7860 Y-11.1752
G01 X2.7761 Y-11.1861
G01 X2.7652 Y-11.1960
G01 X2.7533 Y-11.2047
G01 X2.7407 Y-11.2123
G01 X2.7274 Y-11.2186
G01 X2.7135 Y-11.2235
G01 X2.6993 Y-11.2271
G01 X2.6847 Y-11.2293
G01 X2.6700 Y-11.2300
G01 X2.6553 Y-11.2293
G01 X2.6407 Y-11.2271
G01 X2.6265 Y-11.2235
G01 X2.6126 Y-11.2186
G01 X2.5993 Y-11.2123
G01 X2.5867 Y-11.2047
G01 X2.5748 Y-11.1960
G01 X2.5639 Y-11.1861
G01 X2.5540 Y-11.1752
G01 X2.5453 Y-11.1633
G01 X2.5377 Y-11.1507
G01 X2.5314 Y-11.1374
G01 X2.5265 Y-11.1235
G01 X2.5229 Y-11.1093
G01 X2.5207 Y-11.0947
G01 X2.5200 Y-11.0800
G01 X2.5207 Y-11.0653
G01 X2.5229 Y-11.0507
G01 X2.5265 Y-11.0365
G01 X2.5314 Y-11.0226
G01 X2.5377 Y-11.0093
G01 X2.5453 Y-10.9967
G01 X2.5540 Y-10.9848
G01 X2.5639 Y-10.9739
G01 X2.5748 Y-10.9640
G01 X2.5867 Y-10.9553
G01 X2.5993 Y-10.9477
G01 X2.6126 Y-10.9414
G01 X2.6265 Y-10.9365
G01 X2.6407 Y-10.9329
G01 X2.6553 Y-10.9307
G01 X2.6700 Y-10.9300
G01 X2.6847 Y-10.9307
G01 X2.6993 Y-10.9329
G01 X2.7135 Y-10.9365
G01 X2.7274 Y-10.9414
G01 X2.7407 Y-10.9477
G01 X2.7533 Y-10.9553
G01 X2.7652 Y-10.9640
G01 X2.7761 Y-10.9739
G01 X2.7860 Y-10.9848
G01 X2.7947 Y-10.9967
G01 X2.8023 Y-11.0093
G01 X2.8086 Y-11.0226
G01 X2.8135 Y-11.0365
G01 X2.8171 Y-11.0507
G01 X2.8193 Y-11.0653
G01 X2.8200 Y-11.0800
G00 X2.8200 Y-11.0800
G01 F80.00
G01 Z-1.1600
G01 F40.00
G01 X2.8193 Y-11.0947
G01 X2.8171 Y-11.1093
G01 X2.8135 Y-11.1235
G01 X2.8086 Y-11.1374
G01 X2.8023 Y-11.1507
G01 X2.7947 Y-11.1633
G01 X2.7860 Y-11.1752
G01 X2.7761 Y-11.1861
G01 X2.7652 Y-11.1960
G01 X2.7533 Y-11.2047
G01 X2.7407 Y-11.2123
G01 X2.7274 Y-11.2186
G01 X2.7135 Y-11.2235
G01 X2.6993 Y-11.2271
G01 X2.6847 Y-11.2293
G01 X2.6700 Y-11.2300
G01 X2.6553 Y-11.2293
G01 X2.6407 Y-11.2271
G01 X2.6265 Y-11.2235
G01 X2.6126 Y-11.2186
G01 X2.5993 Y-11.2123
G01 X2.5867 Y-11.2047
G01 X2.5748 Y-11.1960
G01 X2.5639 Y-11.1861
G01 X2.5540 Y-11.1752
G01 X2.5453 Y-11.1633
G01 X2.5377 Y-11.1507
G01 X2.5314 Y-11.1374
G01 X2.5265 Y-11.1235
G01 X2.5229 Y-11.1093
G01 X2.5207 Y-11.0947
G01 X2.5200 Y-11.0800
G01 X2.5207 Y-11.0653
G01 X2.5229 Y-11.0507
G01 X2.5265 Y-11.0365
G01 X2.5314 Y-11.0226
G01 X2.5377 Y-11.0093
G01 X2.5453 Y-10.9967
G01 X2.5540 Y-10.9848
G01 X2.5639 Y-10.9739
G01 X2.5748 Y-10.9640
G01 X2.5867 Y-10.9553
G01 X2.5993 Y-10.9477
G01 X2.6126 Y-10.9414
G01 X2.6265 Y-10.9365
G01 X2.6407 Y-10.9329
G01 X2.6553 Y-10.9307
G01 X2.6700 Y-10.9300
G01 X2.6847 Y-10.9307
G01 X2.6993 Y-10.9329
G01 X2.7135 Y-10.9365
G01 X2.7274 Y-10.9414
G01 X2.7407 Y-10.9477
G01 X2.7533 Y-10.9553
G01 X2.7652 Y-10.9640
G01 X2.7761 Y-10.9739
G01 X2.7860 Y-10.9848
G01 X2.7947 Y-10.9967
G01 X2.8023 Y-11.0093
G01 X2.8086 Y-11.0226
G01 X2.8135 Y-11.0365
G01 X2.8171 Y-11.0507
G01 X2.8193 Y-11.0653
G01 X2.8200 Y-11.0800
G00 X2.8200 Y-11.0800
G01 F80.00
G01 Z-1.2000
G01 F40.00
G01 X2.8193 Y-11.0947
G01 X2.8171 Y-11.1093
G01 X2.8135 Y-11.1235
G01 X2.8086 Y-11.1374
G01 X2.8023 Y-11.1507
G01 X2.7947 Y-11.1633
G01 X2.7860 Y-11.1752
G01 X2.7761 Y-11.1861
G01 X2.7652 Y-11.1960
G01 X2.7533 Y-11.2047
G01 X2.7407 Y-11.2123
G01 X2.7274 Y-11.2186
G01 X2.7135 Y-11.2235
G01 X2.6993 Y-11.2271
G01 X2.6847 Y-11.2293
G01 X2.6700 Y-11.2300
G01 X2.6553 Y-11.2293
G01 X2.6407 Y-11.2271
G01 X2.6265 Y-11.2235
G01 X2.6126 Y-11.2186
G01 X2.5993 Y-11.2123
G01 X2.5867 Y-11.2047
G01 X2.5748 Y-11.1960
G01 X2.5639 Y-11.1861
G01 X2.5540 Y-11.1752
G01 X2.5453 Y-11.1633
G01 X2.5377 Y-11.1507
G01 X2.5314 Y-11.1374
G01 X2.5265 Y-11.1235
G01 X2.5229 Y-11.1093
G01 X2.5207 Y-11.0947
G01 X2.5200 Y-11.0800
G01 X2.5207 Y-11.0653
G01 X2.5229 Y-11.0507
G01 X2.5265 Y-11.0365
G01 X2.5314 Y-11.0226
G01 X2.5377 Y-11.0093
G01 X2.5453 Y-10.9967
G01 X2.5540 Y-10.9848
G01 X2.5639 Y-10.9739
G01 X2.5748 Y-10.9640
G01 X2.5867 Y-10.9553
G01 X2.5993 Y-10.9477
G01 X2.6126 Y-10.9414
G01 X2.6265 Y-10.9365
G01 X2.6407 Y-10.9329
G01 X2.6553 Y-10.9307
G01 X2.6700 Y-10.9300
G01 X2.6847 Y-10.9307
G01 X2.6993 Y-10.9329
G01 X2.7135 Y-10.9365
G01 X2.7274 Y-10.9414
G01 X2.7407 Y-10.9477
G01 X2.7533 Y-10.9553
G01 X2.7652 Y-10.9640
G01 X2.7761 Y-10.9739
G01 X2.7860 Y-10.9848
G01 X2.7947 Y-10.9967
G01 X2.8023 Y-11.0093
G01 X2.8086 Y-11.0226
G01 X2.8135 Y-11.0365
G01 X2.8171 Y-11.0507
G01 X2.8193 Y-11.0653
G01 X2.8200 Y-11.0800
G00 X2.8200 Y-11.0800
G01 F80.00
G01 Z-1.2400
G01 F40.00
G01 X2.8193 Y-11.0947
G01 X2.8171 Y-11.1093
G01 X2.8135 Y-11.1235
G01 X2.8086 Y-11.1374
G01 X2.8023 Y-11.1507
G01 X2.7947 Y-11.1633
G01 X2.7860 Y-11.1752
G01 X2.7761 Y-11.1861
G01 X2.7652 Y-11.1960
G01 X2.7533 Y-11.2047
G01 X2.7407 Y-11.2123
G01 X2.7274 Y-11.2186
G01 X2.7135 Y-11.2235
G01 X2.6993 Y-11.2271
G01 X2.6847 Y-11.2293
G01 X2.6700 Y-11.2300
G01 X2.6553 Y-11.2293
G01 X2.6407 Y-11.2271
G01 X2.6265 Y-11.2235
G01 X2.6126 Y-11.2186
G01 X2.5993 Y-11.2123
G01 X2.5867 Y-11.2047
G01 X2.5748 Y-11.1960
G01 X2.5639 Y-11.1861
G01 X2.5540 Y-11.1752
G01 X2.5453 Y-11.1633
G01 X2.5377 Y-11.1507
G01 X2.5314 Y-11.1374
G01 X2.5265 Y-11.1235
G01 X2.5229 Y-11.1093
G01 X2.5207 Y-11.0947
G01 X2.5200 Y-11.0800
G01 X2.5207 Y-11.0653
G01 X2.5229 Y-11.0507
G01 X2.5265 Y-11.0365
G01 X2.5314 Y-11.0226
G01 X2.5377 Y-11.0093
G01 X2.5453 Y-10.9967
G01 X2.5540 Y-10.9848
G01 X2.5639 Y-10.9739
G01 X2.5748 Y-10.9640
G01 X2.5867 Y-10.9553
G01 X2.5993 Y-10.9477
G01 X2.6126 Y-10.9414
G01 X2.6265 Y-10.9365
G01 X2.6407 Y-10.9329
G01 X2.6553 Y-10.9307
G01 X2.6700 Y-10.9300
G01 X2.6847 Y-10.9307
G01 X2.6993 Y-10.9329
G01 X2.7135 Y-10.9365
G01 X2.7274 Y-10.9414
G01 X2.7407 Y-10.9477
G01 X2.7533 Y-10.9553
G01 X2.7652 Y-10.9640
G01 X2.7761 Y-10.9739
G01 X2.7860 Y-10.9848
G01 X2.7947 Y-10.9967
G01 X2.8023 Y-11.0093
G01 X2.8086 Y-11.0226
G01 X2.8135 Y-11.0365
G01 X2.8171 Y-11.0507
G01 X2.8193 Y-11.0653
G01 X2.8200 Y-11.0800
G00 X2.8200 Y-11.0800
G01 F80.00
G01 Z-1.2800
G01 F40.00
G01 X2.8193 Y-11.0947
G01 X2.8171 Y-11.1093
G01 X2.8135 Y-11.1235
G01 X2.8086 Y-11.1374
G01 X2.8023 Y-11.1507
G01 X2.7947 Y-11.1633
G01 X2.7860 Y-11.1752
G01 X2.7761 Y-11.1861
G01 X2.7652 Y-11.1960
G01 X2.7533 Y-11.2047
G01 X2.7407 Y-11.2123
G01 X2.7274 Y-11.2186
G01 X2.7135 Y-11.2235
G01 X2.6993 Y-11.2271
G01 X2.6847 Y-11.2293
G01 X2.6700 Y-11.2300
G01 X2.6553 Y-11.2293
G01 X2.6407 Y-11.2271
G01 X2.6265 Y-11.2235
G01 X2.6126 Y-11.2186
G01 X2.5993 Y-11.2123
G01 X2.5867 Y-11.2047
G01 X2.5748 Y-11.1960
G01 X2.5639 Y-11.1861
G01 X2.5540 Y-11.1752
G01 X2.5453 Y-11.1633
G01 X2.5377 Y-11.1507
G01 X2.5314 Y-11.1374
G01 X2.5265 Y-11.1235
G01 X2.5229 Y-11.1093
G01 X2.5207 Y-11.0947
G01 X2.5200 Y-11.0800
G01 X2.5207 Y-11.0653
G01 X2.5229 Y-11.0507
G01 X2.5265 Y-11.0365
G01 X2.5314 Y-11.0226
G01 X2.5377 Y-11.0093
G01 X2.5453 Y-10.9967
G01 X2.5540 Y-10.9848
G01 X2.5639 Y-10.9739
G01 X2.5748 Y-10.9640
G01 X2.5867 Y-10.9553
G01 X2.5993 Y-10.9477
G01 X2.6126 Y-10.9414
G01 X2.6265 Y-10.9365
G01 X2.6407 Y-10.9329
G01 X2.6553 Y-10.9307
G01 X2.6700 Y-10.9300
G01 X2.6847 Y-10.9307
G01 X2.6993 Y-10.9329
G01 X2.7135 Y-10.9365
G01 X2.7274 Y-10.9414
G01 X2.7407 Y-10.9477
G01 X2.7533 Y-10.9553
G01 X2.7652 Y-10.9640
G01 X2.7761 Y-10.9739
G01 X2.7860 Y-10.9848
G01 X2.7947 Y-10.9967
G01 X2.8023 Y-11.0093
G01 X2.8086 Y-11.0226
G01 X2.8135 Y-11.0365
G01 X2.8171 Y-11.0507
G01 X2.8193 Y-11.0653
G01 X2.8200 Y-11.0800
G00 X2.8200 Y-11.0800
G01 F80.00
G01 Z-1.3200
G01 F40.00
G01 X2.8193 Y-11.0947
G01 X2.8171 Y-11.1093
G01 X2.8135 Y-11.1235
G01 X2.8086 Y-11.1374
G01 X2.8023 Y-11.1507
G01 X2.7947 Y-11.1633
G01 X2.7860 Y-11.1752
G01 X2.7761 Y-11.1861
G01 X2.7652 Y-11.1960
G01 X2.7533 Y-11.2047
G01 X2.7407 Y-11.2123
G01 X2.7274 Y-11.2186
G01 X2.7135 Y-11.2235
G01 X2.6993 Y-11.2271
G01 X2.6847 Y-11.2293
G01 X2.6700 Y-11.2300
G01 X2.6553 Y-11.2293
G01 X2.6407 Y-11.2271
G01 X2.6265 Y-11.2235
G01 X2.6126 Y-11.2186
G01 X2.5993 Y-11.2123
G01 X2.5867 Y-11.2047
G01 X2.5748 Y-11.1960
G01 X2.5639 Y-11.1861
G01 X2.5540 Y-11.1752
G01 X2.5453 Y-11.1633
G01 X2.5377 Y-11.1507
G01 X2.5314 Y-11.1374
G01 X2.5265 Y-11.1235
G01 X2.5229 Y-11.1093
G01 X2.5207 Y-11.0947
G01 X2.5200 Y-11.0800
G01 X2.5207 Y-11.0653
G01 X2.5229 Y-11.0507
G01 X2.5265 Y-11.0365
G01 X2.5314 Y-11.0226
G01 X2.5377 Y-11.0093
G01 X2.5453 Y-10.9967
G01 X2.5540 Y-10.9848
G01 X2.5639 Y-10.9739
G01 X2.5748 Y-10.9640
G01 X2.5867 Y-10.9553
G01 X2.5993 Y-10.9477
G01 X2.6126 Y-10.9414
G01 X2.6265 Y-10.9365
G01 X2.6407 Y-10.9329
G01 X2.6553 Y-10.9307
G01 X2.6700 Y-10.9300
G01 X2.6847 Y-10.9307
G01 X2.6993 Y-10.9329
G01 X2.7135 Y-10.9365
G01 X2.7274 Y-10.9414
G01 X2.7407 Y-10.9477
G01 X2.7533 Y-10.9553
G01 X2.7652 Y-10.9640
G01 X2.7761 Y-10.9739
G01 X2.7860 Y-10.9848
G01 X2.7947 Y-10.9967
G01 X2.8023 Y-11.0093
G01 X2.8086 Y-11.0226
G01 X2.8135 Y-11.0365
G01 X2.8171 Y-11.0507
G01 X2.8193 Y-11.0653
G01 X2.8200 Y-11.0800
G00 X2.8200 Y-11.0800
G01 F80.00
G01 Z-1.3600
G01 F40.00
G01 X2.8193 Y-11.0947
G01 X2.8171 Y-11.1093
G01 X2.8135 Y-11.1235
G01 X2.8086 Y-11.1374
G01 X2.8023 Y-11.1507
G01 X2.7947 Y-11.1633
G01 X2.7860 Y-11.1752
G01 X2.7761 Y-11.1861
G01 X2.7652 Y-11.1960
G01 X2.7533 Y-11.2047
G01 X2.7407 Y-11.2123
G01 X2.7274 Y-11.2186
G01 X2.7135 Y-11.2235
G01 X2.6993 Y-11.2271
G01 X2.6847 Y-11.2293
G01 X2.6700 Y-11.2300
G01 X2.6553 Y-11.2293
G01 X2.6407 Y-11.2271
G01 X2.6265 Y-11.2235
G01 X2.6126 Y-11.2186
G01 X2.5993 Y-11.2123
G01 X2.5867 Y-11.2047
G01 X2.5748 Y-11.1960
G01 X2.5639 Y-11.1861
G01 X2.5540 Y-11.1752
G01 X2.5453 Y-11.1633
G01 X2.5377 Y-11.1507
G01 X2.5314 Y-11.1374
G01 X2.5265 Y-11.1235
G01 X2.5229 Y-11.1093
G01 X2.5207 Y-11.0947
G01 X2.5200 Y-11.0800
G01 X2.5207 Y-11.0653
G01 X2.5229 Y-11.0507
G01 X2.5265 Y-11.0365
G01 X2.5314 Y-11.0226
G01 X2.5377 Y-11.0093
G01 X2.5453 Y-10.9967
G01 X2.5540 Y-10.9848
G01 X2.5639 Y-10.9739
G01 X2.5748 Y-10.9640
G01 X2.5867 Y-10.9553
G01 X2.5993 Y-10.9477
G01 X2.6126 Y-10.9414
G01 X2.6265 Y-10.9365
G01 X2.6407 Y-10.9329
G01 X2.6553 Y-10.9307
G01 X2.6700 Y-10.9300
G01 X2.6847 Y-10.9307
G01 X2.6993 Y-10.9329
G01 X2.7135 Y-10.9365
G01 X2.7274 Y-10.9414
G01 X2.7407 Y-10.9477
G01 X2.7533 Y-10.9553
G01 X2.7652 Y-10.9640
G01 X2.7761 Y-10.9739
G01 X2.7860 Y-10.9848
G01 X2.7947 Y-10.9967
G01 X2.8023 Y-11.0093
G01 X2.8086 Y-11.0226
G01 X2.8135 Y-11.0365
G01 X2.8171 Y-11.0507
G01 X2.8193 Y-11.0653
G01 X2.8200 Y-11.0800
G00 X2.8200 Y-11.0800
G01 F80.00
G01 Z-1.4000
G01 F40.00
G01 X2.8193 Y-11.0947
G01 X2.8171 Y-11.1093
G01 X2.8135 Y-11.1235
G01 X2.8086 Y-11.1374
G01 X2.8023 Y-11.1507
G01 X2.7947 Y-11.1633
G01 X2.7860 Y-11.1752
G01 X2.7761 Y-11.1861
G01 X2.7652 Y-11.1960
G01 X2.7533 Y-11.2047
G01 X2.7407 Y-11.2123
G01 X2.7274 Y-11.2186
G01 X2.7135 Y-11.2235
G01 X2.6993 Y-11.2271
G01 X2.6847 Y-11.2293
G01 X2.6700 Y-11.2300
G01 X2.6553 Y-11.2293
G01 X2.6407 Y-11.2271
G01 X2.6265 Y-11.2235
G01 X2.6126 Y-11.2186
G01 X2.5993 Y-11.2123
G01 X2.5867 Y-11.2047
G01 X2.5748 Y-11.1960
G01 X2.5639 Y-11.1861
G01 X2.5540 Y-11.1752
G01 X2.5453 Y-11.1633
G01 X2.5377 Y-11.1507
G01 X2.5314 Y-11.1374
G01 X2.5265 Y-11.1235
G01 X2.5229 Y-11.1093
G01 X2.5207 Y-11.0947
G01 X2.5200 Y-11.0800
G01 X2.5207 Y-11.0653
G01 X2.5229 Y-11.0507
G01 X2.5265 Y-11.0365
G01 X2.5314 Y-11.0226
G01 X2.5377 Y-11.0093
G01 X2.5453 Y-10.9967
G01 X2.5540 Y-10.9848
G01 X2.5639 Y-10.9739
G01 X2.5748 Y-10.9640
G01 X2.5867 Y-10.9553
G01 X2.5993 Y-10.9477
G01 X2.6126 Y-10.9414
G01 X2.6265 Y-10.9365
G01 X2.6407 Y-10.9329
G01 X2.6553 Y-10.9307
G01 X2.6700 Y-10.9300
G01 X2.6847 Y-10.9307
G01 X2.6993 Y-10.9329
G01 X2.7135 Y-10.9365
G01 X2.7274 Y-10.9414
G01 X2.7407 Y-10.9477
G01 X2.7533 Y-10.9553
G01 X2.7652 Y-10.9640
G01 X2.7761 Y-10.9739
G01 X2.7860 Y-10.9848
G01 X2.7947 Y-10.9967
G01 X2.8023 Y-11.0093
G01 X2.8086 Y-11.0226
G01 X2.8135 Y-11.0365
G01 X2.8171 Y-11.0507
G01 X2.8193 Y-11.0653
G01 X2.8200 Y-11.0800
G00 X2.8200 Y-11.0800
G01 F80.00
G01 Z-1.4400
G01 F40.00
G01 X2.8193 Y-11.0947
G01 X2.8171 Y-11.1093
G01 X2.8135 Y-11.1235
G01 X2.8086 Y-11.1374
G01 X2.8023 Y-11.1507
G01 X2.7947 Y-11.1633
G01 X2.7860 Y-11.1752
G01 X2.7761 Y-11.1861
G01 X2.7652 Y-11.1960
G01 X2.7533 Y-11.2047
G01 X2.7407 Y-11.2123
G01 X2.7274 Y-11.2186
G01 X2.7135 Y-11.2235
G01 X2.6993 Y-11.2271
G01 X2.6847 Y-11.2293
G01 X2.6700 Y-11.2300
G01 X2.6553 Y-11.2293
G01 X2.6407 Y-11.2271
G01 X2.6265 Y-11.2235
G01 X2.6126 Y-11.2186
G01 X2.5993 Y-11.2123
G01 X2.5867 Y-11.2047
G01 X2.5748 Y-11.1960
G01 X2.5639 Y-11.1861
G01 X2.5540 Y-11.1752
G01 X2.5453 Y-11.1633
G01 X2.5377 Y-11.1507
G01 X2.5314 Y-11.1374
G01 X2.5265 Y-11.1235
G01 X2.5229 Y-11.1093
G01 X2.5207 Y-11.0947
G01 X2.5200 Y-11.0800
G01 X2.5207 Y-11.0653
G01 X2.5229 Y-11.0507
G01 X2.5265 Y-11.0365
G01 X2.5314 Y-11.0226
G01 X2.5377 Y-11.0093
G01 X2.5453 Y-10.9967
G01 X2.5540 Y-10.9848
G01 X2.5639 Y-10.9739
G01 X2.5748 Y-10.9640
G01 X2.5867 Y-10.9553
G01 X2.5993 Y-10.9477
G01 X2.6126 Y-10.9414
G01 X2.6265 Y-10.9365
G01 X2.6407 Y-10.9329
G01 X2.6553 Y-10.9307
G01 X2.6700 Y-10.9300
G01 X2.6847 Y-10.9307
G01 X2.6993 Y-10.9329
G01 X2.7135 Y-10.9365
G01 X2.7274 Y-10.9414
G01 X2.7407 Y-10.9477
G01 X2.7533 Y-10.9553
G01 X2.7652 Y-10.9640
G01 X2.7761 Y-10.9739
G01 X2.7860 Y-10.9848
G01 X2.7947 Y-10.9967
G01 X2.8023 Y-11.0093
G01 X2.8086 Y-11.0226
G01 X2.8135 Y-11.0365
G01 X2.8171 Y-11.0507
G01 X2.8193 Y-11.0653
G01 X2.8200 Y-11.0800
G00 X2.8200 Y-11.0800
G01 F80.00
G01 Z-1.4800
G01 F40.00
G01 X2.8193 Y-11.0947
G01 X2.8171 Y-11.1093
G01 X2.8135 Y-11.1235
G01 X2.8086 Y-11.1374
G01 X2.8023 Y-11.1507
G01 X2.7947 Y-11.1633
G01 X2.7860 Y-11.1752
G01 X2.7761 Y-11.1861
G01 X2.7652 Y-11.1960
G01 X2.7533 Y-11.2047
G01 X2.7407 Y-11.2123
G01 X2.7274 Y-11.2186
G01 X2.7135 Y-11.2235
G01 X2.6993 Y-11.2271
G01 X2.6847 Y-11.2293
G01 X2.6700 Y-11.2300
G01 X2.6553 Y-11.2293
G01 X2.6407 Y-11.2271
G01 X2.6265 Y-11.2235
G01 X2.6126 Y-11.2186
G01 X2.5993 Y-11.2123
G01 X2.5867 Y-11.2047
G01 X2.5748 Y-11.1960
G01 X2.5639 Y-11.1861
G01 X2.5540 Y-11.1752
G01 X2.5453 Y-11.1633
G01 X2.5377 Y-11.1507
G01 X2.5314 Y-11.1374
G01 X2.5265 Y-11.1235
G01 X2.5229 Y-11.1093
G01 X2.5207 Y-11.0947
G01 X2.5200 Y-11.0800
G01 X2.5207 Y-11.0653
G01 X2.5229 Y-11.0507
G01 X2.5265 Y-11.0365
G01 X2.5314 Y-11.0226
G01 X2.5377 Y-11.0093
G01 X2.5453 Y-10.9967
G01 X2.5540 Y-10.9848
G01 X2.5639 Y-10.9739
G01 X2.5748 Y-10.9640
G01 X2.5867 Y-10.9553
G01 X2.5993 Y-10.9477
G01 X2.6126 Y-10.9414
G01 X2.6265 Y-10.9365
G01 X2.6407 Y-10.9329
G01 X2.6553 Y-10.9307
G01 X2.6700 Y-10.9300
G01 X2.6847 Y-10.9307
G01 X2.6993 Y-10.9329
G01 X2.7135 Y-10.9365
G01 X2.7274 Y-10.9414
G01 X2.7407 Y-10.9477
G01 X2.7533 Y-10.9553
G01 X2.7652 Y-10.9640
G01 X2.7761 Y-10.9739
G01 X2.7860 Y-10.9848
G01 X2.7947 Y-10.9967
G01 X2.8023 Y-11.0093
G01 X2.8086 Y-11.0226
G01 X2.8135 Y-11.0365
G01 X2.8171 Y-11.0507
G01 X2.8193 Y-11.0653
G01 X2.8200 Y-11.0800
G00 X2.8200 Y-11.0800
G01 F80.00
G01 Z-1.5000
G01 F40.00
G01 X2.8193 Y-11.0947
G01 X2.8171 Y-11.1093
G01 X2.8135 Y-11.1235
G01 X2.8086 Y-11.1374
G01 X2.8023 Y-11.1507
G01 X2.7947 Y-11.1633
G01 X2.7860 Y-11.1752
G01 X2.7761 Y-11.1861
G01 X2.7652 Y-11.1960
G01 X2.7533 Y-11.2047
G01 X2.7407 Y-11.2123
G01 X2.7274 Y-11.2186
G01 X2.7135 Y-11.2235
G01 X2.6993 Y-11.2271
G01 X2.6847 Y-11.2293
G01 X2.6700 Y-11.2300
G01 X2.6553 Y-11.2293
G01 X2.6407 Y-11.2271
G01 X2.6265 Y-11.2235
G01 X2.6126 Y-11.2186
G01 X2.5993 Y-11.2123
G01 X2.5867 Y-11.2047
G01 X2.5748 Y-11.1960
G01 X2.5639 Y-11.1861
G01 X2.5540 Y-11.1752
G01 X2.5453 Y-11.1633
G01 X2.5377 Y-11.1507
G01 X2.5314 Y-11.1374
G01 X2.5265 Y-11.1235
G01 X2.5229 Y-11.1093
G01 X2.5207 Y-11.0947
G01 X2.5200 Y-11.0800
G01 X2.5207 Y-11.0653
G01 X2.5229 Y-11.0507
G01 X2.5265 Y-11.0365
G01 X2.5314 Y-11.0226
G01 X2.5377 Y-11.0093
G01 X2.5453 Y-10.9967
G01 X2.5540 Y-10.9848
G01 X2.5639 Y-10.9739
G01 X2.5748 Y-10.9640
G01 X2.5867 Y-10.9553
G01 X2.5993 Y-10.9477
G01 X2.6126 Y-10.9414
G01 X2.6265 Y-10.9365
G01 X2.6407 Y-10.9329
G01 X2.6553 Y-10.9307
G01 X2.6700 Y-10.9300
G01 X2.6847 Y-10.9307
G01 X2.6993 Y-10.9329
G01 X2.7135 Y-10.9365
G01 X2.7274 Y-10.9414
G01 X2.7407 Y-10.9477
G01 X2.7533 Y-10.9553
G01 X2.7652 Y-10.9640
G01 X2.7761 Y-10.9739
G01 X2.7860 Y-10.9848
G01 X2.7947 Y-10.9967
G01 X2.8023 Y-11.0093
G01 X2.8086 Y-11.0226
G01 X2.8135 Y-11.0365
G01 X2.8171 Y-11.0507
G01 X2.8193 Y-11.0653
G01 X2.8200 Y-11.0800
G00 Z5.0000
G00 X8.8500 Y-20.6000
G01 F80.00
G01 Z-0.0400
G01 F40.00
G01 X8.8493 Y-20.6147
G01 X8.8471 Y-20.6293
G01 X8.8435 Y-20.6435
G01 X8.8386 Y-20.6574
G01 X8.8323 Y-20.6707
G01 X8.8247 Y-20.6833
G01 X8.8160 Y-20.6952
G01 X8.8061 Y-20.7061
G01 X8.7952 Y-20.7160
G01 X8.7833 Y-20.7247
G01 X8.7707 Y-20.7323
G01 X8.7574 Y-20.7386
G01 X8.7435 Y-20.7435
G01 X8.7293 Y-20.7471
G01 X8.7147 Y-20.7493
G01 X8.7000 Y-20.7500
G01 X8.6853 Y-20.7493
G01 X8.6707 Y-20.7471
G01 X8.6565 Y-20.7435
G01 X8.6426 Y-20.7386
G01 X8.6293 Y-20.7323
G01 X8.6167 Y-20.7247
G01 X8.6048 Y-20.7160
G01 X8.5939 Y-20.7061
G01 X8.5840 Y-20.6952
G01 X8.5753 Y-20.6833
G01 X8.5677 Y-20.6707
G01 X8.5614 Y-20.6574
G01 X8.5565 Y-20.6435
G01 X8.5529 Y-20.6293
G01 X8.5507 Y-20.6147
G01 X8.5500 Y-20.6000
G01 X8.5507 Y-20.5853
G01 X8.5529 Y-20.5707
G01 X8.5565 Y-20.5565
G01 X8.5614 Y-20.5426
G01 X8.5677 Y-20.5293
G01 X8.5753 Y-20.5167
G01 X8.5840 Y-20.5048
G01 X8.5939 Y-20.4939
G01 X8.6048 Y-20.4840
G01 X8.6167 Y-20.4753
G01 X8.6293 Y-20.4677
G01 X8.6426 Y-20.4614
G01 X8.6565 Y-20.4565
G01 X8.6707 Y-20.4529
G01 X8.6853 Y-20.4507
G01 X8.7000 Y-20.4500
G01 X8.7147 Y-20.4507
G01 X8.7293 Y-20.4529
G01 X8.7435 Y-20.4565
G01 X8.7574 Y-20.4614
G01 X8.7707 Y-20.4677
G01 X8.7833 Y-20.4753
G01 X8.7952 Y-20.4840
G01 X8.8061 Y-20.4939
G01 X8.8160 Y-20.5048
G01 X8.8247 Y-20.5167
G01 X8.8323 Y-20.5293
G01 X8.8386 Y-20.5426
G01 X8.8435 Y-20.5565
G01 X8.8471 Y-20.5707
G01 X8.8493 Y-20.5853
G01 X8.8500 Y-20.6000
G00 X8.8500 Y-20.6000
G01 F80.00
G01 Z-0.0800
G01 F40.00
G01 X8.8493 Y-20.6147
G01 X8.8471 Y-20.6293
G01 X8.8435 Y-20.6435
G01 X8.8386 Y-20.6574
G01 X8.8323 Y-20.6707
G01 X8.8247 Y-20.6833
G01 X8.8160 Y-20.6952
G01 X8.8061 Y-20.7061
G01 X8.7952 Y-20.7160
G01 X8.7833 Y-20.7247
G01 X8.7707 Y-20.7323
G01 X8.7574 Y-20.7386
G01 X8.7435 Y-20.7435
G01 X8.7293 Y-20.7471
G01 X8.7147 Y-20.7493
G01 X8.7000 Y-20.7500
G01 X8.6853 Y-20.7493
G01 X8.6707 Y-20.7471
G01 X8.6565 Y-20.7435
G01 X8.6426 Y-20.7386
G01 X8.6293 Y-20.7323
G01 X8.6167 Y-20.7247
G01 X8.6048 Y-20.7160
G01 X8.5939 Y-20.7061
G01 X8.5840 Y-20.6952
G01 X8.5753 Y-20.6833
G01 X8.5677 Y-20.6707
G01 X8.5614 Y-20.6574
G01 X8.5565 Y-20.6435
G01 X8.5529 Y-20.6293
G01 X8.5507 Y-20.6147
G01 X8.5500 Y-20.6000
G01 X8.5507 Y-20.5853
G01 X8.5529 Y-20.5707
G01 X8.5565 Y-20.5565
G01 X8.5614 Y-20.5426
G01 X8.5677 Y-20.5293
G01 X8.5753 Y-20.5167
G01 X8.5840 Y-20.5048
G01 X8.5939 Y-20.4939
G01 X8.6048 Y-20.4840
G01 X8.6167 Y-20.4753
G01 X8.6293 Y-20.4677
G01 X8.6426 Y-20.4614
G01 X8.6565 Y-20.4565
G01 X8.6707 Y-20.4529
G01 X8.6853 Y-20.4507
G01 X8.7000 Y-20.4500
G01 X8.7147 Y-20.4507
G01 X8.7293 Y-20.4529
G01 X8.7435 Y-20.4565
G01 X8.7574 Y-20.4614
G01 X8.7707 Y-20.4677
G01 X8.7833 Y-20.4753
G01 X8.7952 Y-20.4840
G01 X8.8061 Y-20.4939
G01 X8.8160 Y-20.5048
G01 X8.8247 Y-20.5167
G01 X8.8323 Y-20.5293
G01 X8.8386 Y-20.5426
G01 X8.8435 Y-20.5565
G01 X8.8471 Y-20.5707
G01 X8.8493 Y-20.5853
G01 X8.8500 Y-20.6000
G00 X8.8500 Y-20.6000
G01 F80.00
G01 Z-0.1200
G01 F40.00
G01 X8.8493 Y-20.6147
G01 X8.8471 Y-20.6293
G01 X8.8435 Y-20.6435
G01 X8.8386 Y-20.6574
G01 X8.8323 Y-20.6707
G01 X8.8247 Y-20.6833
G01 X8.8160 Y-20.6952
G01 X8.8061 Y-20.7061
G01 X8.7952 Y-20.7160
G01 X8.7833 Y-20.7247
G01 X8.7707 Y-20.7323
G01 X8.7574 Y-20.7386
G01 X8.7435 Y-20.7435
G01 X8.7293 Y-20.7471
G01 X8.7147 Y-20.7493
G01 X8.7000 Y-20.7500
G01 X8.6853 Y-20.7493
G01 X8.6707 Y-20.7471
G01 X8.6565 Y-20.7435
G01 X8.6426 Y-20.7386
G01 X8.6293 Y-20.7323
G01 X8.6167 Y-20.7247
G01 X8.6048 Y-20.7160
G01 X8.5939 Y-20.7061
G01 X8.5840 Y-20.6952
G01 X8.5753 Y-20.6833
G01 X8.5677 Y-20.6707
G01 X8.5614 Y-20.6574
G01 X8.5565 Y-20.6435
G01 X8.5529 Y-20.6293
G01 X8.5507 Y-20.6147
G01 X8.5500 Y-20.6000
G01 X8.5507 Y-20.5853
G01 X8.5529 Y-20.5707
G01 X8.5565 Y-20.5565
G01 X8.5614 Y-20.5426
G01 X8.5677 Y-20.5293
G01 X8.5753 Y-20.5167
G01 X8.5840 Y-20.5048
G01 X8.5939 Y-20.4939
G01 X8.6048 Y-20.4840
G01 X8.6167 Y-20.4753
G01 X8.6293 Y-20.4677
G01 X8.6426 Y-20.4614
G01 X8.6565 Y-20.4565
G01 X8.6707 Y-20.4529
G01 X8.6853 Y-20.4507
G01 X8.7000 Y-20.4500
G01 X8.7147 Y-20.4507
G01 X8.7293 Y-20.4529
G01 X8.7435 Y-20.4565
G01 X8.7574 Y-20.4614
G01 X8.7707 Y-20.4677
G01 X8.7833 Y-20.4753
G01 X8.7952 Y-20.4840
G01 X8.8061 Y-20.4939
G01 X8.8160 Y-20.5048
G01 X8.8247 Y-20.5167
G01 X8.8323 Y-20.5293
G01 X8.8386 Y-20.5426
G01 X8.8435 Y-20.5565
G01 X8.8471 Y-20.5707
G01 X8.8493 Y-20.5853
G01 X8.8500 Y-20.6000
G00 X8.8500 Y-20.6000
G01 F80.00
G01 Z-0.1600
G01 F40.00
G01 X8.8493 Y-20.6147
G01 X8.8471 Y-20.6293
G01 X8.8435 Y-20.6435
G01 X8.8386 Y-20.6574
G01 X8.8323 Y-20.6707
G01 X8.8247 Y-20.6833
G01 X8.8160 Y-20.6952
G01 X8.8061 Y-20.7061
G01 X8.7952 Y-20.7160
G01 X8.7833 Y-20.7247
G01 X8.7707 Y-20.7323
G01 X8.7574 Y-20.7386
G01 X8.7435 Y-20.7435
G01 X8.7293 Y-20.7471
G01 X8.7147 Y-20.7493
G01 X8.7000 Y-20.7500
G01 X8.6853 Y-20.7493
G01 X8.6707 Y-20.7471
G01 X8.6565 Y-20.7435
G01 X8.6426 Y-20.7386
G01 X8.6293 Y-20.7323
G01 X8.6167 Y-20.7247
G01 X8.6048 Y-20.7160
G01 X8.5939 Y-20.7061
G01 X8.5840 Y-20.6952
G01 X8.5753 Y-20.6833
G01 X8.5677 Y-20.6707
G01 X8.5614 Y-20.6574
G01 X8.5565 Y-20.6435
G01 X8.5529 Y-20.6293
G01 X8.5507 Y-20.6147
G01 X8.5500 Y-20.6000
G01 X8.5507 Y-20.5853
G01 X8.5529 Y-20.5707
G01 X8.5565 Y-20.5565
G01 X8.5614 Y-20.5426
G01 X8.5677 Y-20.5293
G01 X8.5753 Y-20.5167
G01 X8.5840 Y-20.5048
G01 X8.5939 Y-20.4939
G01 X8.6048 Y-20.4840
G01 X8.6167 Y-20.4753
G01 X8.6293 Y-20.4677
G01 X8.6426 Y-20.4614
G01 X8.6565 Y-20.4565
G01 X8.6707 Y-20.4529
G01 X8.6853 Y-20.4507
G01 X8.7000 Y-20.4500
G01 X8.7147 Y-20.4507
G01 X8.7293 Y-20.4529
G01 X8.7435 Y-20.4565
G01 X8.7574 Y-20.4614
G01 X8.7707 Y-20.4677
G01 X8.7833 Y-20.4753
G01 X8.7952 Y-20.4840
G01 X8.8061 Y-20.4939
G01 X8.8160 Y-20.5048
G01 X8.8247 Y-20.5167
G01 X8.8323 Y-20.5293
G01 X8.8386 Y-20.5426
G01 X8.8435 Y-20.5565
G01 X8.8471 Y-20.5707
G01 X8.8493 Y-20.5853
G01 X8.8500 Y-20.6000
G00 X8.8500 Y-20.6000
G01 F80.00
G01 Z-0.2000
G01 F40.00
G01 X8.8493 Y-20.6147
G01 X8.8471 Y-20.6293
G01 X8.8435 Y-20.6435
G01 X8.8386 Y-20.6574
G01 X8.8323 Y-20.6707
G01 X8.8247 Y-20.6833
G01 X8.8160 Y-20.6952
G01 X8.8061 Y-20.7061
G01 X8.7952 Y-20.7160
G01 X8.7833 Y-20.7247
G01 X8.7707 Y-20.7323
G01 X8.7574 Y-20.7386
G01 X8.7435 Y-20.7435
G01 X8.7293 Y-20.7471
G01 X8.7147 Y-20.7493
G01 X8.7000 Y-20.7500
G01 X8.6853 Y-20.7493
G01 X8.6707 Y-20.7471
G01 X8.6565 Y-20.7435
G01 X8.6426 Y-20.7386
G01 X8.6293 Y-20.7323
G01 X8.6167 Y-20.7247
G01 X8.6048 Y-20.7160
G01 X8.5939 Y-20.7061
G01 X8.5840 Y-20.6952
G01 X8.5753 Y-20.6833
G01 X8.5677 Y-20.6707
G01 X8.5614 Y-20.6574
G01 X8.5565 Y-20.6435
G01 X8.5529 Y-20.6293
G01 X8.5507 Y-20.6147
G01 X8.5500 Y-20.6000
G01 X8.5507 Y-20.5853
G01 X8.5529 Y-20.5707
G01 X8.5565 Y-20.5565
G01 X8.5614 Y-20.5426
G01 X8.5677 Y-20.5293
G01 X8.5753 Y-20.5167
G01 X8.5840 Y-20.5048
G01 X8.5939 Y-20.4939
G01 X8.6048 Y-20.4840
G01 X8.6167 Y-20.4753
G01 X8.6293 Y-20.4677
G01 X8.6426 Y-20.4614
G01 X8.6565 Y-20.4565
G01 X8.6707 Y-20.4529
G01 X8.6853 Y-20.4507
G01 X8.7000 Y-20.4500
G01 X8.7147 Y-20.4507
G01 X8.7293 Y-20.4529
G01 X8.7435 Y-20.4565
G01 X8.7574 Y-20.4614
G01 X8.7707 Y-20.4677
G01 X8.7833 Y-20.4753
G01 X8.7952 Y-20.4840
G01 X8.8061 Y-20.4939
G01 X8.8160 Y-20.5048
G01 X8.8247 Y-20.5167
G01 X8.8323 Y-20.5293
G01 X8.8386 Y-20.5426
G01 X8.8435 Y-20.5565
G01 X8.8471 Y-20.5707
G01 X8.8493 Y-20.5853
G01 X8.8500 Y-20.6000
G00 X8.8500 Y-20.6000
G01 F80.00
G01 Z-0.2400
G01 F40.00
G01 X8.8493 Y-20.6147
G01 X8.8471 Y-20.6293
G01 X8.8435 Y-20.6435
G01 X8.8386 Y-20.6574
G01 X8.8323 Y-20.6707
G01 X8.8247 Y-20.6833
G01 X8.8160 Y-20.6952
G01 X8.8061 Y-20.7061
G01 X8.7952 Y-20.7160
G01 X8.7833 Y-20.7247
G01 X8.7707 Y-20.7323
G01 X8.7574 Y-20.7386
G01 X8.7435 Y-20.7435
G01 X8.7293 Y-20.7471
G01 X8.7147 Y-20.7493
G01 X8.7000 Y-20.7500
G01 X8.6853 Y-20.7493
G01 X8.6707 Y-20.7471
G01 X8.6565 Y-20.7435
G01 X8.6426 Y-20.7386
G01 X8.6293 Y-20.7323
G01 X8.6167 Y-20.7247
G01 X8.6048 Y-20.7160
G01 X8.5939 Y-20.7061
G01 X8.5840 Y-20.6952
G01 X8.5753 Y-20.6833
G01 X8.5677 Y-20.6707
G01 X8.5614 Y-20.6574
G01 X8.5565 Y-20.6435
G01 X8.5529 Y-20.6293
G01 X8.5507 Y-20.6147
G01 X8.5500 Y-20.6000
G01 X8.5507 Y-20.5853
G01 X8.5529 Y-20.5707
G01 X8.5565 Y-20.5565
G01 X8.5614 Y-20.5426
G01 X8.5677 Y-20.5293
G01 X8.5753 Y-20.5167
G01 X8.5840 Y-20.5048
G01 X8.5939 Y-20.4939
G01 X8.6048 Y-20.4840
G01 X8.6167 Y-20.4753
G01 X8.6293 Y-20.4677
G01 X8.6426 Y-20.4614
G01 X8.6565 Y-20.4565
G01 X8.6707 Y-20.4529
G01 X8.6853 Y-20.4507
G01 X8.7000 Y-20.4500
G01 X8.7147 Y-20.4507
G01 X8.7293 Y-20.4529
G01 X8.7435 Y-20.4565
G01 X8.7574 Y-20.4614
G01 X8.7707 Y-20.4677
G01 X8.7833 Y-20.4753
G01 X8.7952 Y-20.4840
G01 X8.8061 Y-20.4939
G01 X8.8160 Y-20.5048
G01 X8.8247 Y-20.5167
G01 X8.8323 Y-20.5293
G01 X8.8386 Y-20.5426
G01 X8.8435 Y-20.5565
G01 X8.8471 Y-20.5707
G01 X8.8493 Y-20.5853
G01 X8.8500 Y-20.6000
G00 X8.8500 Y-20.6000
G01 F80.00
G01 Z-0.2800
G01 F40.00
G01 X8.8493 Y-20.6147
G01 X8.8471 Y-20.6293
G01 X8.8435 Y-20.6435
G01 X8.8386 Y-20.6574
G01 X8.8323 Y-20.6707
G01 X8.8247 Y-20.6833
G01 X8.8160 Y-20.6952
G01 X8.8061 Y-20.7061
G01 X8.7952 Y-20.7160
G01 X8.7833 Y-20.7247
G01 X8.7707 Y-20.7323
G01 X8.7574 Y-20.7386
G01 X8.7435 Y-20.7435
G01 X8.7293 Y-20.7471
G01 X8.7147 Y-20.7493
G01 X8.7000 Y-20.7500
G01 X8.6853 Y-20.7493
G01 X8.6707 Y-20.7471
G01 X8.6565 Y-20.7435
G01 X8.6426 Y-20.7386
G01 X8.6293 Y-20.7323
G01 X8.6167 Y-20.7247
G01 X8.6048 Y-20.7160
G01 X8.5939 Y-20.7061
G01 X8.5840 Y-20.6952
G01 X8.5753 Y-20.6833
G01 X8.5677 Y-20.6707
G01 X8.5614 Y-20.6574
G01 X8.5565 Y-20.6435
G01 X8.5529 Y-20.6293
G01 X8.5507 Y-20.6147
G01 X8.5500 Y-20.6000
G01 X8.5507 Y-20.5853
G01 X8.5529 Y-20.5707
G01 X8.5565 Y-20.5565
G01 X8.5614 Y-20.5426
G01 X8.5677 Y-20.5293
G01 X8.5753 Y-20.5167
G01 X8.5840 Y-20.5048
G01 X8.5939 Y-20.4939
G01 X8.6048 Y-20.4840
G01 X8.6167 Y-20.4753
G01 X8.6293 Y-20.4677
G01 X8.6426 Y-20.4614
G01 X8.6565 Y-20.4565
G01 X8.6707 Y-20.4529
G01 X8.6853 Y-20.4507
G01 X8.7000 Y-20.4500
G01 X8.7147 Y-20.4507
G01 X8.7293 Y-20.4529
G01 X8.7435 Y-20.4565
G01 X8.7574 Y-20.4614
G01 X8.7707 Y-20.4677
G01 X8.7833 Y-20.4753
G01 X8.7952 Y-20.4840
G01 X8.8061 Y-20.4939
G01 X8.8160 Y-20.5048
G01 X8.8247 Y-20.5167
G01 X8.8323 Y-20.5293
G01 X8.8386 Y-20.5426
G01 X8.8435 Y-20.5565
G01 X8.8471 Y-20.5707
G01 X8.8493 Y-20.5853
G01 X8.8500 Y-20.6000
G00 X8.8500 Y-20.6000
G01 F80.00
G01 Z-0.3200
G01 F40.00
G01 X8.8493 Y-20.6147
G01 X8.8471 Y-20.6293
G01 X8.8435 Y-20.6435
G01 X8.8386 Y-20.6574
G01 X8.8323 Y-20.6707
G01 X8.8247 Y-20.6833
G01 X8.8160 Y-20.6952
G01 X8.8061 Y-20.7061
G01 X8.7952 Y-20.7160
G01 X8.7833 Y-20.7247
G01 X8.7707 Y-20.7323
G01 X8.7574 Y-20.7386
G01 X8.7435 Y-20.7435
G01 X8.7293 Y-20.7471
G01 X8.7147 Y-20.7493
G01 X8.7000 Y-20.7500
G01 X8.6853 Y-20.7493
G01 X8.6707 Y-20.7471
G01 X8.6565 Y-20.7435
G01 X8.6426 Y-20.7386
G01 X8.6293 Y-20.7323
G01 X8.6167 Y-20.7247
G01 X8.6048 Y-20.7160
G01 X8.5939 Y-20.7061
G01 X8.5840 Y-20.6952
G01 X8.5753 Y-20.6833
G01 X8.5677 Y-20.6707
G01 X8.5614 Y-20.6574
G01 X8.5565 Y-20.6435
G01 X8.5529 Y-20.6293
G01 X8.5507 Y-20.6147
G01 X8.5500 Y-20.6000
G01 X8.5507 Y-20.5853
G01 X8.5529 Y-20.5707
G01 X8.5565 Y-20.5565
G01 X8.5614 Y-20.5426
G01 X8.5677 Y-20.5293
G01 X8.5753 Y-20.5167
G01 X8.5840 Y-20.5048
G01 X8.5939 Y-20.4939
G01 X8.6048 Y-20.4840
G01 X8.6167 Y-20.4753
G01 X8.6293 Y-20.4677
G01 X8.6426 Y-20.4614
G01 X8.6565 Y-20.4565
G01 X8.6707 Y-20.4529
G01 X8.6853 Y-20.4507
G01 X8.7000 Y-20.4500
G01 X8.7147 Y-20.4507
G01 X8.7293 Y-20.4529
G01 X8.7435 Y-20.4565
G01 X8.7574 Y-20.4614
G01 X8.7707 Y-20.4677
G01 X8.7833 Y-20.4753
G01 X8.7952 Y-20.4840
G01 X8.8061 Y-20.4939
G01 X8.8160 Y-20.5048
G01 X8.8247 Y-20.5167
G01 X8.8323 Y-20.5293
G01 X8.8386 Y-20.5426
G01 X8.8435 Y-20.5565
G01 X8.8471 Y-20.5707
G01 X8.8493 Y-20.5853
G01 X8.8500 Y-20.6000
G00 X8.8500 Y-20.6000
G01 F80.00
G01 Z-0.3600
G01 F40.00
G01 X8.8493 Y-20.6147
G01 X8.8471 Y-20.6293
G01 X8.8435 Y-20.6435
G01 X8.8386 Y-20.6574
G01 X8.8323 Y-20.6707
G01 X8.8247 Y-20.6833
G01 X8.8160 Y-20.6952
G01 X8.8061 Y-20.7061
G01 X8.7952 Y-20.7160
G01 X8.7833 Y-20.7247
G01 X8.7707 Y-20.7323
G01 X8.7574 Y-20.7386
G01 X8.7435 Y-20.7435
G01 X8.7293 Y-20.7471
G01 X8.7147 Y-20.7493
G01 X8.7000 Y-20.7500
G01 X8.6853 Y-20.7493
G01 X8.6707 Y-20.7471
G01 X8.6565 Y-20.7435
G01 X8.6426 Y-20.7386
G01 X8.6293 Y-20.7323
G01 X8.6167 Y-20.7247
G01 X8.6048 Y-20.7160
G01 X8.5939 Y-20.7061
G01 X8.5840 Y-20.6952
G01 X8.5753 Y-20.6833
G01 X8.5677 Y-20.6707
G01 X8.5614 Y-20.6574
G01 X8.5565 Y-20.6435
G01 X8.5529 Y-20.6293
G01 X8.5507 Y-20.6147
G01 X8.5500 Y-20.6000
G01 X8.5507 Y-20.5853
G01 X8.5529 Y-20.5707
G01 X8.5565 Y-20.5565
G01 X8.5614 Y-20.5426
G01 X8.5677 Y-20.5293
G01 X8.5753 Y-20.5167
G01 X8.5840 Y-20.5048
G01 X8.5939 Y-20.4939
G01 X8.6048 Y-20.4840
G01 X8.6167 Y-20.4753
G01 X8.6293 Y-20.4677
G01 X8.6426 Y-20.4614
G01 X8.6565 Y-20.4565
G01 X8.6707 Y-20.4529
G01 X8.6853 Y-20.4507
G01 X8.7000 Y-20.4500
G01 X8.7147 Y-20.4507
G01 X8.7293 Y-20.4529
G01 X8.7435 Y-20.4565
G01 X8.7574 Y-20.4614
G01 X8.7707 Y-20.4677
G01 X8.7833 Y-20.4753
G01 X8.7952 Y-20.4840
G01 X8.8061 Y-20.4939
G01 X8.8160 Y-20.5048
G01 X8.8247 Y-20.5167
G01 X8.8323 Y-20.5293
G01 X8.8386 Y-20.5426
G01 X8.8435 Y-20.5565
G01 X8.8471 Y-20.5707
G01 X8.8493 Y-20.5853
G01 X8.8500 Y-20.6000
G00 X8.8500 Y-20.6000
G01 F80.00
G01 Z-0.4000
G01 F40.00
G01 X8.8493 Y-20.6147
G01 X8.8471 Y-20.6293
G01 X8.8435 Y-20.6435
G01 X8.8386 Y-20.6574
G01 X8.8323 Y-20.6707
G01 X8.8247 Y-20.6833
G01 X8.8160 Y-20.6952
G01 X8.8061 Y-20.7061
G01 X8.7952 Y-20.7160
G01 X8.7833 Y-20.7247
G01 X8.7707 Y-20.7323
G01 X8.7574 Y-20.7386
G01 X8.7435 Y-20.7435
G01 X8.7293 Y-20.7471
G01 X8.7147 Y-20.7493
G01 X8.7000 Y-20.7500
G01 X8.6853 Y-20.7493
G01 X8.6707 Y-20.7471
G01 X8.6565 Y-20.7435
G01 X8.6426 Y-20.7386
G01 X8.6293 Y-20.7323
G01 X8.6167 Y-20.7247
G01 X8.6048 Y-20.7160
G01 X8.5939 Y-20.7061
G01 X8.5840 Y-20.6952
G01 X8.5753 Y-20.6833
G01 X8.5677 Y-20.6707
G01 X8.5614 Y-20.6574
G01 X8.5565 Y-20.6435
G01 X8.5529 Y-20.6293
G01 X8.5507 Y-20.6147
G01 X8.5500 Y-20.6000
G01 X8.5507 Y-20.5853
G01 X8.5529 Y-20.5707
G01 X8.5565 Y-20.5565
G01 X8.5614 Y-20.5426
G01 X8.5677 Y-20.5293
G01 X8.5753 Y-20.5167
G01 X8.5840 Y-20.5048
G01 X8.5939 Y-20.4939
G01 X8.6048 Y-20.4840
G01 X8.6167 Y-20.4753
G01 X8.6293 Y-20.4677
G01 X8.6426 Y-20.4614
G01 X8.6565 Y-20.4565
G01 X8.6707 Y-20.4529
G01 X8.6853 Y-20.4507
G01 X8.7000 Y-20.4500
G01 X8.7147 Y-20.4507
G01 X8.7293 Y-20.4529
G01 X8.7435 Y-20.4565
G01 X8.7574 Y-20.4614
G01 X8.7707 Y-20.4677
G01 X8.7833 Y-20.4753
G01 X8.7952 Y-20.4840
G01 X8.8061 Y-20.4939
G01 X8.8160 Y-20.5048
G01 X8.8247 Y-20.5167
G01 X8.8323 Y-20.5293
G01 X8.8386 Y-20.5426
G01 X8.8435 Y-20.5565
G01 X8.8471 Y-20.5707
G01 X8.8493 Y-20.5853
G01 X8.8500 Y-20.6000
G00 X8.8500 Y-20.6000
G01 F80.00
G01 Z-0.4400
G01 F40.00
G01 X8.8493 Y-20.6147
G01 X8.8471 Y-20.6293
G01 X8.8435 Y-20.6435
G01 X8.8386 Y-20.6574
G01 X8.8323 Y-20.6707
G01 X8.8247 Y-20.6833
G01 X8.8160 Y-20.6952
G01 X8.8061 Y-20.7061
G01 X8.7952 Y-20.7160
G01 X8.7833 Y-20.7247
G01 X8.7707 Y-20.7323
G01 X8.7574 Y-20.7386
G01 X8.7435 Y-20.7435
G01 X8.7293 Y-20.7471
G01 X8.7147 Y-20.7493
G01 X8.7000 Y-20.7500
G01 X8.6853 Y-20.7493
G01 X8.6707 Y-20.7471
G01 X8.6565 Y-20.7435
G01 X8.6426 Y-20.7386
G01 X8.6293 Y-20.7323
G01 X8.6167 Y-20.7247
G01 X8.6048 Y-20.7160
G01 X8.5939 Y-20.7061
G01 X8.5840 Y-20.6952
G01 X8.5753 Y-20.6833
G01 X8.5677 Y-20.6707
G01 X8.5614 Y-20.6574
G01 X8.5565 Y-20.6435
G01 X8.5529 Y-20.6293
G01 X8.5507 Y-20.6147
G01 X8.5500 Y-20.6000
G01 X8.5507 Y-20.5853
G01 X8.5529 Y-20.5707
G01 X8.5565 Y-20.5565
G01 X8.5614 Y-20.5426
G01 X8.5677 Y-20.5293
G01 X8.5753 Y-20.5167
G01 X8.5840 Y-20.5048
G01 X8.5939 Y-20.4939
G01 X8.6048 Y-20.4840
G01 X8.6167 Y-20.4753
G01 X8.6293 Y-20.4677
G01 X8.6426 Y-20.4614
G01 X8.6565 Y-20.4565
G01 X8.6707 Y-20.4529
G01 X8.6853 Y-20.4507
G01 X8.7000 Y-20.4500
G01 X8.7147 Y-20.4507
G01 X8.7293 Y-20.4529
G01 X8.7435 Y-20.4565
G01 X8.7574 Y-20.4614
G01 X8.7707 Y-20.4677
G01 X8.7833 Y-20.4753
G01 X8.7952 Y-20.4840
G01 X8.8061 Y-20.4939
G01 X8.8160 Y-20.5048
G01 X8.8247 Y-20.5167
G01 X8.8323 Y-20.5293
G01 X8.8386 Y-20.5426
G01 X8.8435 Y-20.5565
G01 X8.8471 Y-20.5707
G01 X8.8493 Y-20.5853
G01 X8.8500 Y-20.6000
G00 X8.8500 Y-20.6000
G01 F80.00
G01 Z-0.4800
G01 F40.00
G01 X8.8493 Y-20.6147
G01 X8.8471 Y-20.6293
G01 X8.8435 Y-20.6435
G01 X8.8386 Y-20.6574
G01 X8.8323 Y-20.6707
G01 X8.8247 Y-20.6833
G01 X8.8160 Y-20.6952
G01 X8.8061 Y-20.7061
G01 X8.7952 Y-20.7160
G01 X8.7833 Y-20.7247
G01 X8.7707 Y-20.7323
G01 X8.7574 Y-20.7386
G01 X8.7435 Y-20.7435
G01 X8.7293 Y-20.7471
G01 X8.7147 Y-20.7493
G01 X8.7000 Y-20.7500
G01 X8.6853 Y-20.7493
G01 X8.6707 Y-20.7471
G01 X8.6565 Y-20.7435
G01 X8.6426 Y-20.7386
G01 X8.6293 Y-20.7323
G01 X8.6167 Y-20.7247
G01 X8.6048 Y-20.7160
G01 X8.5939 Y-20.7061
G01 X8.5840 Y-20.6952
G01 X8.5753 Y-20.6833
G01 X8.5677 Y-20.6707
G01 X8.5614 Y-20.6574
G01 X8.5565 Y-20.6435
G01 X8.5529 Y-20.6293
G01 X8.5507 Y-20.6147
G01 X8.5500 Y-20.6000
G01 X8.5507 Y-20.5853
G01 X8.5529 Y-20.5707
G01 X8.5565 Y-20.5565
G01 X8.5614 Y-20.5426
G01 X8.5677 Y-20.5293
G01 X8.5753 Y-20.5167
G01 X8.5840 Y-20.5048
G01 X8.5939 Y-20.4939
G01 X8.6048 Y-20.4840
G01 X8.6167 Y-20.4753
G01 X8.6293 Y-20.4677
G01 X8.6426 Y-20.4614
G01 X8.6565 Y-20.4565
G01 X8.6707 Y-20.4529
G01 X8.6853 Y-20.4507
G01 X8.7000 Y-20.4500
G01 X8.7147 Y-20.4507
G01 X8.7293 Y-20.4529
G01 X8.7435 Y-20.4565
G01 X8.7574 Y-20.4614
G01 X8.7707 Y-20.4677
G01 X8.7833 Y-20.4753
G01 X8.7952 Y-20.4840
G01 X8.8061 Y-20.4939
G01 X8.8160 Y-20.5048
G01 X8.8247 Y-20.5167
G01 X8.8323 Y-20.5293
G01 X8.8386 Y-20.5426
G01 X8.8435 Y-20.5565
G01 X8.8471 Y-20.5707
G01 X8.8493 Y-20.5853
G01 X8.8500 Y-20.6000
G00 X8.8500 Y-20.6000
G01 F80.00
G01 Z-0.5200
G01 F40.00
G01 X8.8493 Y-20.6147
G01 X8.8471 Y-20.6293
G01 X8.8435 Y-20.6435
G01 X8.8386 Y-20.6574
G01 X8.8323 Y-20.6707
G01 X8.8247 Y-20.6833
G01 X8.8160 Y-20.6952
G01 X8.8061 Y-20.7061
G01 X8.7952 Y-20.7160
G01 X8.7833 Y-20.7247
G01 X8.7707 Y-20.7323
G01 X8.7574 Y-20.7386
G01 X8.7435 Y-20.7435
G01 X8.7293 Y-20.7471
G01 X8.7147 Y-20.7493
G01 X8.7000 Y-20.7500
G01 X8.6853 Y-20.7493
G01 X8.6707 Y-20.7471
G01 X8.6565 Y-20.7435
G01 X8.6426 Y-20.7386
G01 X8.6293 Y-20.7323
G01 X8.6167 Y-20.7247
G01 X8.6048 Y-20.7160
G01 X8.5939 Y-20.7061
G01 X8.5840 Y-20.6952
G01 X8.5753 Y-20.6833
G01 X8.5677 Y-20.6707
G01 X8.5614 Y-20.6574
G01 X8.5565 Y-20.6435
G01 X8.5529 Y-20.6293
G01 X8.5507 Y-20.6147
G01 X8.5500 Y-20.6000
G01 X8.5507 Y-20.5853
G01 X8.5529 Y-20.5707
G01 X8.5565 Y-20.5565
G01 X8.5614 Y-20.5426
G01 X8.5677 Y-20.5293
G01 X8.5753 Y-20.5167
G01 X8.5840 Y-20.5048
G01 X8.5939 Y-20.4939
G01 X8.6048 Y-20.4840
G01 X8.6167 Y-20.4753
G01 X8.6293 Y-20.4677
G01 X8.6426 Y-20.4614
G01 X8.6565 Y-20.4565
G01 X8.6707 Y-20.4529
G01 X8.6853 Y-20.4507
G01 X8.7000 Y-20.4500
G01 X8.7147 Y-20.4507
G01 X8.7293 Y-20.4529
G01 X8.7435 Y-20.4565
G01 X8.7574 Y-20.4614
G01 X8.7707 Y-20.4677
G01 X8.7833 Y-20.4753
G01 X8.7952 Y-20.4840
G01 X8.8061 Y-20.4939
G01 X8.8160 Y-20.5048
G01 X8.8247 Y-20.5167
G01 X8.8323 Y-20.5293
G01 X8.8386 Y-20.5426
G01 X8.8435 Y-20.5565
G01 X8.8471 Y-20.5707
G01 X8.8493 Y-20.5853
G01 X8.8500 Y-20.6000
G00 X8.8500 Y-20.6000
G01 F80.00
G01 Z-0.5600
G01 F40.00
G01 X8.8493 Y-20.6147
G01 X8.8471 Y-20.6293
G01 X8.8435 Y-20.6435
G01 X8.8386 Y-20.6574
G01 X8.8323 Y-20.6707
G01 X8.8247 Y-20.6833
G01 X8.8160 Y-20.6952
G01 X8.8061 Y-20.7061
G01 X8.7952 Y-20.7160
G01 X8.7833 Y-20.7247
G01 X8.7707 Y-20.7323
G01 X8.7574 Y-20.7386
G01 X8.7435 Y-20.7435
G01 X8.7293 Y-20.7471
G01 X8.7147 Y-20.7493
G01 X8.7000 Y-20.7500
G01 X8.6853 Y-20.7493
G01 X8.6707 Y-20.7471
G01 X8.6565 Y-20.7435
G01 X8.6426 Y-20.7386
G01 X8.6293 Y-20.7323
G01 X8.6167 Y-20.7247
G01 X8.6048 Y-20.7160
G01 X8.5939 Y-20.7061
G01 X8.5840 Y-20.6952
G01 X8.5753 Y-20.6833
G01 X8.5677 Y-20.6707
G01 X8.5614 Y-20.6574
G01 X8.5565 Y-20.6435
G01 X8.5529 Y-20.6293
G01 X8.5507 Y-20.6147
G01 X8.5500 Y-20.6000
G01 X8.5507 Y-20.5853
G01 X8.5529 Y-20.5707
G01 X8.5565 Y-20.5565
G01 X8.5614 Y-20.5426
G01 X8.5677 Y-20.5293
G01 X8.5753 Y-20.5167
G01 X8.5840 Y-20.5048
G01 X8.5939 Y-20.4939
G01 X8.6048 Y-20.4840
G01 X8.6167 Y-20.4753
G01 X8.6293 Y-20.4677
G01 X8.6426 Y-20.4614
G01 X8.6565 Y-20.4565
G01 X8.6707 Y-20.4529
G01 X8.6853 Y-20.4507
G01 X8.7000 Y-20.4500
G01 X8.7147 Y-20.4507
G01 X8.7293 Y-20.4529
G01 X8.7435 Y-20.4565
G01 X8.7574 Y-20.4614
G01 X8.7707 Y-20.4677
G01 X8.7833 Y-20.4753
G01 X8.7952 Y-20.4840
G01 X8.8061 Y-20.4939
G01 X8.8160 Y-20.5048
G01 X8.8247 Y-20.5167
G01 X8.8323 Y-20.5293
G01 X8.8386 Y-20.5426
G01 X8.8435 Y-20.5565
G01 X8.8471 Y-20.5707
G01 X8.8493 Y-20.5853
G01 X8.8500 Y-20.6000
G00 X8.8500 Y-20.6000
G01 F80.00
G01 Z-0.6000
G01 F40.00
G01 X8.8493 Y-20.6147
G01 X8.8471 Y-20.6293
G01 X8.8435 Y-20.6435
G01 X8.8386 Y-20.6574
G01 X8.8323 Y-20.6707
G01 X8.8247 Y-20.6833
G01 X8.8160 Y-20.6952
G01 X8.8061 Y-20.7061
G01 X8.7952 Y-20.7160
G01 X8.7833 Y-20.7247
G01 X8.7707 Y-20.7323
G01 X8.7574 Y-20.7386
G01 X8.7435 Y-20.7435
G01 X8.7293 Y-20.7471
G01 X8.7147 Y-20.7493
G01 X8.7000 Y-20.7500
G01 X8.6853 Y-20.7493
G01 X8.6707 Y-20.7471
G01 X8.6565 Y-20.7435
G01 X8.6426 Y-20.7386
G01 X8.6293 Y-20.7323
G01 X8.6167 Y-20.7247
G01 X8.6048 Y-20.7160
G01 X8.5939 Y-20.7061
G01 X8.5840 Y-20.6952
G01 X8.5753 Y-20.6833
G01 X8.5677 Y-20.6707
G01 X8.5614 Y-20.6574
G01 X8.5565 Y-20.6435
G01 X8.5529 Y-20.6293
G01 X8.5507 Y-20.6147
G01 X8.5500 Y-20.6000
G01 X8.5507 Y-20.5853
G01 X8.5529 Y-20.5707
G01 X8.5565 Y-20.5565
G01 X8.5614 Y-20.5426
G01 X8.5677 Y-20.5293
G01 X8.5753 Y-20.5167
G01 X8.5840 Y-20.5048
G01 X8.5939 Y-20.4939
G01 X8.6048 Y-20.4840
G01 X8.6167 Y-20.4753
G01 X8.6293 Y-20.4677
G01 X8.6426 Y-20.4614
G01 X8.6565 Y-20.4565
G01 X8.6707 Y-20.4529
G01 X8.6853 Y-20.4507
G01 X8.7000 Y-20.4500
G01 X8.7147 Y-20.4507
G01 X8.7293 Y-20.4529
G01 X8.7435 Y-20.4565
G01 X8.7574 Y-20.4614
G01 X8.7707 Y-20.4677
G01 X8.7833 Y-20.4753
G01 X8.7952 Y-20.4840
G01 X8.8061 Y-20.4939
G01 X8.8160 Y-20.5048
G01 X8.8247 Y-20.5167
G01 X8.8323 Y-20.5293
G01 X8.8386 Y-20.5426
G01 X8.8435 Y-20.5565
G01 X8.8471 Y-20.5707
G01 X8.8493 Y-20.5853
G01 X8.8500 Y-20.6000
G00 X8.8500 Y-20.6000
G01 F80.00
G01 Z-0.6400
G01 F40.00
G01 X8.8493 Y-20.6147
G01 X8.8471 Y-20.6293
G01 X8.8435 Y-20.6435
G01 X8.8386 Y-20.6574
G01 X8.8323 Y-20.6707
G01 X8.8247 Y-20.6833
G01 X8.8160 Y-20.6952
G01 X8.8061 Y-20.7061
G01 X8.7952 Y-20.7160
G01 X8.7833 Y-20.7247
G01 X8.7707 Y-20.7323
G01 X8.7574 Y-20.7386
G01 X8.7435 Y-20.7435
G01 X8.7293 Y-20.7471
G01 X8.7147 Y-20.7493
G01 X8.7000 Y-20.7500
G01 X8.6853 Y-20.7493
G01 X8.6707 Y-20.7471
G01 X8.6565 Y-20.7435
G01 X8.6426 Y-20.7386
G01 X8.6293 Y-20.7323
G01 X8.6167 Y-20.7247
G01 X8.6048 Y-20.7160
G01 X8.5939 Y-20.7061
G01 X8.5840 Y-20.6952
G01 X8.5753 Y-20.6833
G01 X8.5677 Y-20.6707
G01 X8.5614 Y-20.6574
G01 X8.5565 Y-20.6435
G01 X8.5529 Y-20.6293
G01 X8.5507 Y-20.6147
G01 X8.5500 Y-20.6000
G01 X8.5507 Y-20.5853
G01 X8.5529 Y-20.5707
G01 X8.5565 Y-20.5565
G01 X8.5614 Y-20.5426
G01 X8.5677 Y-20.5293
G01 X8.5753 Y-20.5167
G01 X8.5840 Y-20.5048
G01 X8.5939 Y-20.4939
G01 X8.6048 Y-20.4840
G01 X8.6167 Y-20.4753
G01 X8.6293 Y-20.4677
G01 X8.6426 Y-20.4614
G01 X8.6565 Y-20.4565
G01 X8.6707 Y-20.4529
G01 X8.6853 Y-20.4507
G01 X8.7000 Y-20.4500
G01 X8.7147 Y-20.4507
G01 X8.7293 Y-20.4529
G01 X8.7435 Y-20.4565
G01 X8.7574 Y-20.4614
G01 X8.7707 Y-20.4677
G01 X8.7833 Y-20.4753
G01 X8.7952 Y-20.4840
G01 X8.8061 Y-20.4939
G01 X8.8160 Y-20.5048
G01 X8.8247 Y-20.5167
G01 X8.8323 Y-20.5293
G01 X8.8386 Y-20.5426
G01 X8.8435 Y-20.5565
G01 X8.8471 Y-20.5707
G01 X8.8493 Y-20.5853
G01 X8.8500 Y-20.6000
G00 X8.8500 Y-20.6000
G01 F80.00
G01 Z-0.6800
G01 F40.00
G01 X8.8493 Y-20.6147
G01 X8.8471 Y-20.6293
G01 X8.8435 Y-20.6435
G01 X8.8386 Y-20.6574
G01 X8.8323 Y-20.6707
G01 X8.8247 Y-20.6833
G01 X8.8160 Y-20.6952
G01 X8.8061 Y-20.7061
G01 X8.7952 Y-20.7160
G01 X8.7833 Y-20.7247
G01 X8.7707 Y-20.7323
G01 X8.7574 Y-20.7386
G01 X8.7435 Y-20.7435
G01 X8.7293 Y-20.7471
G01 X8.7147 Y-20.7493
G01 X8.7000 Y-20.7500
G01 X8.6853 Y-20.7493
G01 X8.6707 Y-20.7471
G01 X8.6565 Y-20.7435
G01 X8.6426 Y-20.7386
G01 X8.6293 Y-20.7323
G01 X8.6167 Y-20.7247
G01 X8.6048 Y-20.7160
G01 X8.5939 Y-20.7061
G01 X8.5840 Y-20.6952
G01 X8.5753 Y-20.6833
G01 X8.5677 Y-20.6707
G01 X8.5614 Y-20.6574
G01 X8.5565 Y-20.6435
G01 X8.5529 Y-20.6293
G01 X8.5507 Y-20.6147
G01 X8.5500 Y-20.6000
G01 X8.5507 Y-20.5853
G01 X8.5529 Y-20.5707
G01 X8.5565 Y-20.5565
G01 X8.5614 Y-20.5426
G01 X8.5677 Y-20.5293
G01 X8.5753 Y-20.5167
G01 X8.5840 Y-20.5048
G01 X8.5939 Y-20.4939
G01 X8.6048 Y-20.4840
G01 X8.6167 Y-20.4753
G01 X8.6293 Y-20.4677
G01 X8.6426 Y-20.4614
G01 X8.6565 Y-20.4565
G01 X8.6707 Y-20.4529
G01 X8.6853 Y-20.4507
G01 X8.7000 Y-20.4500
G01 X8.7147 Y-20.4507
G01 X8.7293 Y-20.4529
G01 X8.7435 Y-20.4565
G01 X8.7574 Y-20.4614
G01 X8.7707 Y-20.4677
G01 X8.7833 Y-20.4753
G01 X8.7952 Y-20.4840
G01 X8.8061 Y-20.4939
G01 X8.8160 Y-20.5048
G01 X8.8247 Y-20.5167
G01 X8.8323 Y-20.5293
G01 X8.8386 Y-20.5426
G01 X8.8435 Y-20.5565
G01 X8.8471 Y-20.5707
G01 X8.8493 Y-20.5853
G01 X8.8500 Y-20.6000
G00 X8.8500 Y-20.6000
G01 F80.00
G01 Z-0.7200
G01 F40.00
G01 X8.8493 Y-20.6147
G01 X8.8471 Y-20.6293
G01 X8.8435 Y-20.6435
G01 X8.8386 Y-20.6574
G01 X8.8323 Y-20.6707
G01 X8.8247 Y-20.6833
G01 X8.8160 Y-20.6952
G01 X8.8061 Y-20.7061
G01 X8.7952 Y-20.7160
G01 X8.7833 Y-20.7247
G01 X8.7707 Y-20.7323
G01 X8.7574 Y-20.7386
G01 X8.7435 Y-20.7435
G01 X8.7293 Y-20.7471
G01 X8.7147 Y-20.7493
G01 X8.7000 Y-20.7500
G01 X8.6853 Y-20.7493
G01 X8.6707 Y-20.7471
G01 X8.6565 Y-20.7435
G01 X8.6426 Y-20.7386
G01 X8.6293 Y-20.7323
G01 X8.6167 Y-20.7247
G01 X8.6048 Y-20.7160
G01 X8.5939 Y-20.7061
G01 X8.5840 Y-20.6952
G01 X8.5753 Y-20.6833
G01 X8.5677 Y-20.6707
G01 X8.5614 Y-20.6574
G01 X8.5565 Y-20.6435
G01 X8.5529 Y-20.6293
G01 X8.5507 Y-20.6147
G01 X8.5500 Y-20.6000
G01 X8.5507 Y-20.5853
G01 X8.5529 Y-20.5707
G01 X8.5565 Y-20.5565
G01 X8.5614 Y-20.5426
G01 X8.5677 Y-20.5293
G01 X8.5753 Y-20.5167
G01 X8.5840 Y-20.5048
G01 X8.5939 Y-20.4939
G01 X8.6048 Y-20.4840
G01 X8.6167 Y-20.4753
G01 X8.6293 Y-20.4677
G01 X8.6426 Y-20.4614
G01 X8.6565 Y-20.4565
G01 X8.6707 Y-20.4529
G01 X8.6853 Y-20.4507
G01 X8.7000 Y-20.4500
G01 X8.7147 Y-20.4507
G01 X8.7293 Y-20.4529
G01 X8.7435 Y-20.4565
G01 X8.7574 Y-20.4614
G01 X8.7707 Y-20.4677
G01 X8.7833 Y-20.4753
G01 X8.7952 Y-20.4840
G01 X8.8061 Y-20.4939
G01 X8.8160 Y-20.5048
G01 X8.8247 Y-20.5167
G01 X8.8323 Y-20.5293
G01 X8.8386 Y-20.5426
G01 X8.8435 Y-20.5565
G01 X8.8471 Y-20.5707
G01 X8.8493 Y-20.5853
G01 X8.8500 Y-20.6000
G00 X8.8500 Y-20.6000
G01 F80.00
G01 Z-0.7600
G01 F40.00
G01 X8.8493 Y-20.6147
G01 X8.8471 Y-20.6293
G01 X8.8435 Y-20.6435
G01 X8.8386 Y-20.6574
G01 X8.8323 Y-20.6707
G01 X8.8247 Y-20.6833
G01 X8.8160 Y-20.6952
G01 X8.8061 Y-20.7061
G01 X8.7952 Y-20.7160
G01 X8.7833 Y-20.7247
G01 X8.7707 Y-20.7323
G01 X8.7574 Y-20.7386
G01 X8.7435 Y-20.7435
G01 X8.7293 Y-20.7471
G01 X8.7147 Y-20.7493
G01 X8.7000 Y-20.7500
G01 X8.6853 Y-20.7493
G01 X8.6707 Y-20.7471
G01 X8.6565 Y-20.7435
G01 X8.6426 Y-20.7386
G01 X8.6293 Y-20.7323
G01 X8.6167 Y-20.7247
G01 X8.6048 Y-20.7160
G01 X8.5939 Y-20.7061
G01 X8.5840 Y-20.6952
G01 X8.5753 Y-20.6833
G01 X8.5677 Y-20.6707
G01 X8.5614 Y-20.6574
G01 X8.5565 Y-20.6435
G01 X8.5529 Y-20.6293
G01 X8.5507 Y-20.6147
G01 X8.5500 Y-20.6000
G01 X8.5507 Y-20.5853
G01 X8.5529 Y-20.5707
G01 X8.5565 Y-20.5565
G01 X8.5614 Y-20.5426
G01 X8.5677 Y-20.5293
G01 X8.5753 Y-20.5167
G01 X8.5840 Y-20.5048
G01 X8.5939 Y-20.4939
G01 X8.6048 Y-20.4840
G01 X8.6167 Y-20.4753
G01 X8.6293 Y-20.4677
G01 X8.6426 Y-20.4614
G01 X8.6565 Y-20.4565
G01 X8.6707 Y-20.4529
G01 X8.6853 Y-20.4507
G01 X8.7000 Y-20.4500
G01 X8.7147 Y-20.4507
G01 X8.7293 Y-20.4529
G01 X8.7435 Y-20.4565
G01 X8.7574 Y-20.4614
G01 X8.7707 Y-20.4677
G01 X8.7833 Y-20.4753
G01 X8.7952 Y-20.4840
G01 X8.8061 Y-20.4939
G01 X8.8160 Y-20.5048
G01 X8.8247 Y-20.5167
G01 X8.8323 Y-20.5293
G01 X8.8386 Y-20.5426
G01 X8.8435 Y-20.5565
G01 X8.8471 Y-20.5707
G01 X8.8493 Y-20.5853
G01 X8.8500 Y-20.6000
G00 X8.8500 Y-20.6000
G01 F80.00
G01 Z-0.8000
G01 F40.00
G01 X8.8493 Y-20.6147
G01 X8.8471 Y-20.6293
G01 X8.8435 Y-20.6435
G01 X8.8386 Y-20.6574
G01 X8.8323 Y-20.6707
G01 X8.8247 Y-20.6833
G01 X8.8160 Y-20.6952
G01 X8.8061 Y-20.7061
G01 X8.7952 Y-20.7160
G01 X8.7833 Y-20.7247
G01 X8.7707 Y-20.7323
G01 X8.7574 Y-20.7386
G01 X8.7435 Y-20.7435
G01 X8.7293 Y-20.7471
G01 X8.7147 Y-20.7493
G01 X8.7000 Y-20.7500
G01 X8.6853 Y-20.7493
G01 X8.6707 Y-20.7471
G01 X8.6565 Y-20.7435
G01 X8.6426 Y-20.7386
G01 X8.6293 Y-20.7323
G01 X8.6167 Y-20.7247
G01 X8.6048 Y-20.7160
G01 X8.5939 Y-20.7061
G01 X8.5840 Y-20.6952
G01 X8.5753 Y-20.6833
G01 X8.5677 Y-20.6707
G01 X8.5614 Y-20.6574
G01 X8.5565 Y-20.6435
G01 X8.5529 Y-20.6293
G01 X8.5507 Y-20.6147
G01 X8.5500 Y-20.6000
G01 X8.5507 Y-20.5853
G01 X8.5529 Y-20.5707
G01 X8.5565 Y-20.5565
G01 X8.5614 Y-20.5426
G01 X8.5677 Y-20.5293
G01 X8.5753 Y-20.5167
G01 X8.5840 Y-20.5048
G01 X8.5939 Y-20.4939
G01 X8.6048 Y-20.4840
G01 X8.6167 Y-20.4753
G01 X8.6293 Y-20.4677
G01 X8.6426 Y-20.4614
G01 X8.6565 Y-20.4565
G01 X8.6707 Y-20.4529
G01 X8.6853 Y-20.4507
G01 X8.7000 Y-20.4500
G01 X8.7147 Y-20.4507
G01 X8.7293 Y-20.4529
G01 X8.7435 Y-20.4565
G01 X8.7574 Y-20.4614
G01 X8.7707 Y-20.4677
G01 X8.7833 Y-20.4753
G01 X8.7952 Y-20.4840
G01 X8.8061 Y-20.4939
G01 X8.8160 Y-20.5048
G01 X8.8247 Y-20.5167
G01 X8.8323 Y-20.5293
G01 X8.8386 Y-20.5426
G01 X8.8435 Y-20.5565
G01 X8.8471 Y-20.5707
G01 X8.8493 Y-20.5853
G01 X8.8500 Y-20.6000
G00 X8.8500 Y-20.6000
G01 F80.00
G01 Z-0.8400
G01 F40.00
G01 X8.8493 Y-20.6147
G01 X8.8471 Y-20.6293
G01 X8.8435 Y-20.6435
G01 X8.8386 Y-20.6574
G01 X8.8323 Y-20.6707
G01 X8.8247 Y-20.6833
G01 X8.8160 Y-20.6952
G01 X8.8061 Y-20.7061
G01 X8.7952 Y-20.7160
G01 X8.7833 Y-20.7247
G01 X8.7707 Y-20.7323
G01 X8.7574 Y-20.7386
G01 X8.7435 Y-20.7435
G01 X8.7293 Y-20.7471
G01 X8.7147 Y-20.7493
G01 X8.7000 Y-20.7500
G01 X8.6853 Y-20.7493
G01 X8.6707 Y-20.7471
G01 X8.6565 Y-20.7435
G01 X8.6426 Y-20.7386
G01 X8.6293 Y-20.7323
G01 X8.6167 Y-20.7247
G01 X8.6048 Y-20.7160
G01 X8.5939 Y-20.7061
G01 X8.5840 Y-20.6952
G01 X8.5753 Y-20.6833
G01 X8.5677 Y-20.6707
G01 X8.5614 Y-20.6574
G01 X8.5565 Y-20.6435
G01 X8.5529 Y-20.6293
G01 X8.5507 Y-20.6147
G01 X8.5500 Y-20.6000
G01 X8.5507 Y-20.5853
G01 X8.5529 Y-20.5707
G01 X8.5565 Y-20.5565
G01 X8.5614 Y-20.5426
G01 X8.5677 Y-20.5293
G01 X8.5753 Y-20.5167
G01 X8.5840 Y-20.5048
G01 X8.5939 Y-20.4939
G01 X8.6048 Y-20.4840
G01 X8.6167 Y-20.4753
G01 X8.6293 Y-20.4677
G01 X8.6426 Y-20.4614
G01 X8.6565 Y-20.4565
G01 X8.6707 Y-20.4529
G01 X8.6853 Y-20.4507
G01 X8.7000 Y-20.4500
G01 X8.7147 Y-20.4507
G01 X8.7293 Y-20.4529
G01 X8.7435 Y-20.4565
G01 X8.7574 Y-20.4614
G01 X8.7707 Y-20.4677
G01 X8.7833 Y-20.4753
G01 X8.7952 Y-20.4840
G01 X8.8061 Y-20.4939
G01 X8.8160 Y-20.5048
G01 X8.8247 Y-20.5167
G01 X8.8323 Y-20.5293
G01 X8.8386 Y-20.5426
G01 X8.8435 Y-20.5565
G01 X8.8471 Y-20.5707
G01 X8.8493 Y-20.5853
G01 X8.8500 Y-20.6000
G00 X8.8500 Y-20.6000
G01 F80.00
G01 Z-0.8800
G01 F40.00
G01 X8.8493 Y-20.6147
G01 X8.8471 Y-20.6293
G01 X8.8435 Y-20.6435
G01 X8.8386 Y-20.6574
G01 X8.8323 Y-20.6707
G01 X8.8247 Y-20.6833
G01 X8.8160 Y-20.6952
G01 X8.8061 Y-20.7061
G01 X8.7952 Y-20.7160
G01 X8.7833 Y-20.7247
G01 X8.7707 Y-20.7323
G01 X8.7574 Y-20.7386
G01 X8.7435 Y-20.7435
G01 X8.7293 Y-20.7471
G01 X8.7147 Y-20.7493
G01 X8.7000 Y-20.7500
G01 X8.6853 Y-20.7493
G01 X8.6707 Y-20.7471
G01 X8.6565 Y-20.7435
G01 X8.6426 Y-20.7386
G01 X8.6293 Y-20.7323
G01 X8.6167 Y-20.7247
G01 X8.6048 Y-20.7160
G01 X8.5939 Y-20.7061
G01 X8.5840 Y-20.6952
G01 X8.5753 Y-20.6833
G01 X8.5677 Y-20.6707
G01 X8.5614 Y-20.6574
G01 X8.5565 Y-20.6435
G01 X8.5529 Y-20.6293
G01 X8.5507 Y-20.6147
G01 X8.5500 Y-20.6000
G01 X8.5507 Y-20.5853
G01 X8.5529 Y-20.5707
G01 X8.5565 Y-20.5565
G01 X8.5614 Y-20.5426
G01 X8.5677 Y-20.5293
G01 X8.5753 Y-20.5167
G01 X8.5840 Y-20.5048
G01 X8.5939 Y-20.4939
G01 X8.6048 Y-20.4840
G01 X8.6167 Y-20.4753
G01 X8.6293 Y-20.4677
G01 X8.6426 Y-20.4614
G01 X8.6565 Y-20.4565
G01 X8.6707 Y-20.4529
G01 X8.6853 Y-20.4507
G01 X8.7000 Y-20.4500
G01 X8.7147 Y-20.4507
G01 X8.7293 Y-20.4529
G01 X8.7435 Y-20.4565
G01 X8.7574 Y-20.4614
G01 X8.7707 Y-20.4677
G01 X8.7833 Y-20.4753
G01 X8.7952 Y-20.4840
G01 X8.8061 Y-20.4939
G01 X8.8160 Y-20.5048
G01 X8.8247 Y-20.5167
G01 X8.8323 Y-20.5293
G01 X8.8386 Y-20.5426
G01 X8.8435 Y-20.5565
G01 X8.8471 Y-20.5707
G01 X8.8493 Y-20.5853
G01 X8.8500 Y-20.6000
G00 X8.8500 Y-20.6000
G01 F80.00
G01 Z-0.9200
G01 F40.00
G01 X8.8493 Y-20.6147
G01 X8.8471 Y-20.6293
G01 X8.8435 Y-20.6435
G01 X8.8386 Y-20.6574
G01 X8.8323 Y-20.6707
G01 X8.8247 Y-20.6833
G01 X8.8160 Y-20.6952
G01 X8.8061 Y-20.7061
G01 X8.7952 Y-20.7160
G01 X8.7833 Y-20.7247
G01 X8.7707 Y-20.7323
G01 X8.7574 Y-20.7386
G01 X8.7435 Y-20.7435
G01 X8.7293 Y-20.7471
G01 X8.7147 Y-20.7493
G01 X8.7000 Y-20.7500
G01 X8.6853 Y-20.7493
G01 X8.6707 Y-20.7471
G01 X8.6565 Y-20.7435
G01 X8.6426 Y-20.7386
G01 X8.6293 Y-20.7323
G01 X8.6167 Y-20.7247
G01 X8.6048 Y-20.7160
G01 X8.5939 Y-20.7061
G01 X8.5840 Y-20.6952
G01 X8.5753 Y-20.6833
G01 X8.5677 Y-20.6707
G01 X8.5614 Y-20.6574
G01 X8.5565 Y-20.6435
G01 X8.5529 Y-20.6293
G01 X8.5507 Y-20.6147
G01 X8.5500 Y-20.6000
G01 X8.5507 Y-20.5853
G01 X8.5529 Y-20.5707
G01 X8.5565 Y-20.5565
G01 X8.5614 Y-20.5426
G01 X8.5677 Y-20.5293
G01 X8.5753 Y-20.5167
G01 X8.5840 Y-20.5048
G01 X8.5939 Y-20.4939
G01 X8.6048 Y-20.4840
G01 X8.6167 Y-20.4753
G01 X8.6293 Y-20.4677
G01 X8.6426 Y-20.4614
G01 X8.6565 Y-20.4565
G01 X8.6707 Y-20.4529
G01 X8.6853 Y-20.4507
G01 X8.7000 Y-20.4500
G01 X8.7147 Y-20.4507
G01 X8.7293 Y-20.4529
G01 X8.7435 Y-20.4565
G01 X8.7574 Y-20.4614
G01 X8.7707 Y-20.4677
G01 X8.7833 Y-20.4753
G01 X8.7952 Y-20.4840
G01 X8.8061 Y-20.4939
G01 X8.8160 Y-20.5048
G01 X8.8247 Y-20.5167
G01 X8.8323 Y-20.5293
G01 X8.8386 Y-20.5426
G01 X8.8435 Y-20.5565
G01 X8.8471 Y-20.5707
G01 X8.8493 Y-20.5853
G01 X8.8500 Y-20.6000
G00 X8.8500 Y-20.6000
G01 F80.00
G01 Z-0.9600
G01 F40.00
G01 X8.8493 Y-20.6147
G01 X8.8471 Y-20.6293
G01 X8.8435 Y-20.6435
G01 X8.8386 Y-20.6574
G01 X8.8323 Y-20.6707
G01 X8.8247 Y-20.6833
G01 X8.8160 Y-20.6952
G01 X8.8061 Y-20.7061
G01 X8.7952 Y-20.7160
G01 X8.7833 Y-20.7247
G01 X8.7707 Y-20.7323
G01 X8.7574 Y-20.7386
G01 X8.7435 Y-20.7435
G01 X8.7293 Y-20.7471
G01 X8.7147 Y-20.7493
G01 X8.7000 Y-20.7500
G01 X8.6853 Y-20.7493
G01 X8.6707 Y-20.7471
G01 X8.6565 Y-20.7435
G01 X8.6426 Y-20.7386
G01 X8.6293 Y-20.7323
G01 X8.6167 Y-20.7247
G01 X8.6048 Y-20.7160
G01 X8.5939 Y-20.7061
G01 X8.5840 Y-20.6952
G01 X8.5753 Y-20.6833
G01 X8.5677 Y-20.6707
G01 X8.5614 Y-20.6574
G01 X8.5565 Y-20.6435
G01 X8.5529 Y-20.6293
G01 X8.5507 Y-20.6147
G01 X8.5500 Y-20.6000
G01 X8.5507 Y-20.5853
G01 X8.5529 Y-20.5707
G01 X8.5565 Y-20.5565
G01 X8.5614 Y-20.5426
G01 X8.5677 Y-20.5293
G01 X8.5753 Y-20.5167
G01 X8.5840 Y-20.5048
G01 X8.5939 Y-20.4939
G01 X8.6048 Y-20.4840
G01 X8.6167 Y-20.4753
G01 X8.6293 Y-20.4677
G01 X8.6426 Y-20.4614
G01 X8.6565 Y-20.4565
G01 X8.6707 Y-20.4529
G01 X8.6853 Y-20.4507
G01 X8.7000 Y-20.4500
G01 X8.7147 Y-20.4507
G01 X8.7293 Y-20.4529
G01 X8.7435 Y-20.4565
G01 X8.7574 Y-20.4614
G01 X8.7707 Y-20.4677
G01 X8.7833 Y-20.4753
G01 X8.7952 Y-20.4840
G01 X8.8061 Y-20.4939
G01 X8.8160 Y-20.5048
G01 X8.8247 Y-20.5167
G01 X8.8323 Y-20.5293
G01 X8.8386 Y-20.5426
G01 X8.8435 Y-20.5565
G01 X8.8471 Y-20.5707
G01 X8.8493 Y-20.5853
G01 X8.8500 Y-20.6000
G00 X8.8500 Y-20.6000
G01 F80.00
G01 Z-1.0000
G01 F40.00
G01 X8.8493 Y-20.6147
G01 X8.8471 Y-20.6293
G01 X8.8435 Y-20.6435
G01 X8.8386 Y-20.6574
G01 X8.8323 Y-20.6707
G01 X8.8247 Y-20.6833
G01 X8.8160 Y-20.6952
G01 X8.8061 Y-20.7061
G01 X8.7952 Y-20.7160
G01 X8.7833 Y-20.7247
G01 X8.7707 Y-20.7323
G01 X8.7574 Y-20.7386
G01 X8.7435 Y-20.7435
G01 X8.7293 Y-20.7471
G01 X8.7147 Y-20.7493
G01 X8.7000 Y-20.7500
G01 X8.6853 Y-20.7493
G01 X8.6707 Y-20.7471
G01 X8.6565 Y-20.7435
G01 X8.6426 Y-20.7386
G01 X8.6293 Y-20.7323
G01 X8.6167 Y-20.7247
G01 X8.6048 Y-20.7160
G01 X8.5939 Y-20.7061
G01 X8.5840 Y-20.6952
G01 X8.5753 Y-20.6833
G01 X8.5677 Y-20.6707
G01 X8.5614 Y-20.6574
G01 X8.5565 Y-20.6435
G01 X8.5529 Y-20.6293
G01 X8.5507 Y-20.6147
G01 X8.5500 Y-20.6000
G01 X8.5507 Y-20.5853
G01 X8.5529 Y-20.5707
G01 X8.5565 Y-20.5565
G01 X8.5614 Y-20.5426
G01 X8.5677 Y-20.5293
G01 X8.5753 Y-20.5167
G01 X8.5840 Y-20.5048
G01 X8.5939 Y-20.4939
G01 X8.6048 Y-20.4840
G01 X8.6167 Y-20.4753
G01 X8.6293 Y-20.4677
G01 X8.6426 Y-20.4614
G01 X8.6565 Y-20.4565
G01 X8.6707 Y-20.4529
G01 X8.6853 Y-20.4507
G01 X8.7000 Y-20.4500
G01 X8.7147 Y-20.4507
G01 X8.7293 Y-20.4529
G01 X8.7435 Y-20.4565
G01 X8.7574 Y-20.4614
G01 X8.7707 Y-20.4677
G01 X8.7833 Y-20.4753
G01 X8.7952 Y-20.4840
G01 X8.8061 Y-20.4939
G01 X8.8160 Y-20.5048
G01 X8.8247 Y-20.5167
G01 X8.8323 Y-20.5293
G01 X8.8386 Y-20.5426
G01 X8.8435 Y-20.5565
G01 X8.8471 Y-20.5707
G01 X8.8493 Y-20.5853
G01 X8.8500 Y-20.6000
G00 X8.8500 Y-20.6000
G01 F80.00
G01 Z-1.0400
G01 F40.00
G01 X8.8493 Y-20.6147
G01 X8.8471 Y-20.6293
G01 X8.8435 Y-20.6435
G01 X8.8386 Y-20.6574
G01 X8.8323 Y-20.6707
G01 X8.8247 Y-20.6833
G01 X8.8160 Y-20.6952
G01 X8.8061 Y-20.7061
G01 X8.7952 Y-20.7160
G01 X8.7833 Y-20.7247
G01 X8.7707 Y-20.7323
G01 X8.7574 Y-20.7386
G01 X8.7435 Y-20.7435
G01 X8.7293 Y-20.7471
G01 X8.7147 Y-20.7493
G01 X8.7000 Y-20.7500
G01 X8.6853 Y-20.7493
G01 X8.6707 Y-20.7471
G01 X8.6565 Y-20.7435
G01 X8.6426 Y-20.7386
G01 X8.6293 Y-20.7323
G01 X8.6167 Y-20.7247
G01 X8.6048 Y-20.7160
G01 X8.5939 Y-20.7061
G01 X8.5840 Y-20.6952
G01 X8.5753 Y-20.6833
G01 X8.5677 Y-20.6707
G01 X8.5614 Y-20.6574
G01 X8.5565 Y-20.6435
G01 X8.5529 Y-20.6293
G01 X8.5507 Y-20.6147
G01 X8.5500 Y-20.6000
G01 X8.5507 Y-20.5853
G01 X8.5529 Y-20.5707
G01 X8.5565 Y-20.5565
G01 X8.5614 Y-20.5426
G01 X8.5677 Y-20.5293
G01 X8.5753 Y-20.5167
G01 X8.5840 Y-20.5048
G01 X8.5939 Y-20.4939
G01 X8.6048 Y-20.4840
G01 X8.6167 Y-20.4753
G01 X8.6293 Y-20.4677
G01 X8.6426 Y-20.4614
G01 X8.6565 Y-20.4565
G01 X8.6707 Y-20.4529
G01 X8.6853 Y-20.4507
G01 X8.7000 Y-20.4500
G01 X8.7147 Y-20.4507
G01 X8.7293 Y-20.4529
G01 X8.7435 Y-20.4565
G01 X8.7574 Y-20.4614
G01 X8.7707 Y-20.4677
G01 X8.7833 Y-20.4753
G01 X8.7952 Y-20.4840
G01 X8.8061 Y-20.4939
G01 X8.8160 Y-20.5048
G01 X8.8247 Y-20.5167
G01 X8.8323 Y-20.5293
G01 X8.8386 Y-20.5426
G01 X8.8435 Y-20.5565
G01 X8.8471 Y-20.5707
G01 X8.8493 Y-20.5853
G01 X8.8500 Y-20.6000
G00 X8.8500 Y-20.6000
G01 F80.00
G01 Z-1.0800
G01 F40.00
G01 X8.8493 Y-20.6147
G01 X8.8471 Y-20.6293
G01 X8.8435 Y-20.6435
G01 X8.8386 Y-20.6574
G01 X8.8323 Y-20.6707
G01 X8.8247 Y-20.6833
G01 X8.8160 Y-20.6952
G01 X8.8061 Y-20.7061
G01 X8.7952 Y-20.7160
G01 X8.7833 Y-20.7247
G01 X8.7707 Y-20.7323
G01 X8.7574 Y-20.7386
G01 X8.7435 Y-20.7435
G01 X8.7293 Y-20.7471
G01 X8.7147 Y-20.7493
G01 X8.7000 Y-20.7500
G01 X8.6853 Y-20.7493
G01 X8.6707 Y-20.7471
G01 X8.6565 Y-20.7435
G01 X8.6426 Y-20.7386
G01 X8.6293 Y-20.7323
G01 X8.6167 Y-20.7247
G01 X8.6048 Y-20.7160
G01 X8.5939 Y-20.7061
G01 X8.5840 Y-20.6952
G01 X8.5753 Y-20.6833
G01 X8.5677 Y-20.6707
G01 X8.5614 Y-20.6574
G01 X8.5565 Y-20.6435
G01 X8.5529 Y-20.6293
G01 X8.5507 Y-20.6147
G01 X8.5500 Y-20.6000
G01 X8.5507 Y-20.5853
G01 X8.5529 Y-20.5707
G01 X8.5565 Y-20.5565
G01 X8.5614 Y-20.5426
G01 X8.5677 Y-20.5293
G01 X8.5753 Y-20.5167
G01 X8.5840 Y-20.5048
G01 X8.5939 Y-20.4939
G01 X8.6048 Y-20.4840
G01 X8.6167 Y-20.4753
G01 X8.6293 Y-20.4677
G01 X8.6426 Y-20.4614
G01 X8.6565 Y-20.4565
G01 X8.6707 Y-20.4529
G01 X8.6853 Y-20.4507
G01 X8.7000 Y-20.4500
G01 X8.7147 Y-20.4507
G01 X8.7293 Y-20.4529
G01 X8.7435 Y-20.4565
G01 X8.7574 Y-20.4614
G01 X8.7707 Y-20.4677
G01 X8.7833 Y-20.4753
G01 X8.7952 Y-20.4840
G01 X8.8061 Y-20.4939
G01 X8.8160 Y-20.5048
G01 X8.8247 Y-20.5167
G01 X8.8323 Y-20.5293
G01 X8.8386 Y-20.5426
G01 X8.8435 Y-20.5565
G01 X8.8471 Y-20.5707
G01 X8.8493 Y-20.5853
G01 X8.8500 Y-20.6000
G00 X8.8500 Y-20.6000
G01 F80.00
G01 Z-1.1200
G01 F40.00
G01 X8.8493 Y-20.6147
G01 X8.8471 Y-20.6293
G01 X8.8435 Y-20.6435
G01 X8.8386 Y-20.6574
G01 X8.8323 Y-20.6707
G01 X8.8247 Y-20.6833
G01 X8.8160 Y-20.6952
G01 X8.8061 Y-20.7061
G01 X8.7952 Y-20.7160
G01 X8.7833 Y-20.7247
G01 X8.7707 Y-20.7323
G01 X8.7574 Y-20.7386
G01 X8.7435 Y-20.7435
G01 X8.7293 Y-20.7471
G01 X8.7147 Y-20.7493
G01 X8.7000 Y-20.7500
G01 X8.6853 Y-20.7493
G01 X8.6707 Y-20.7471
G01 X8.6565 Y-20.7435
G01 X8.6426 Y-20.7386
G01 X8.6293 Y-20.7323
G01 X8.6167 Y-20.7247
G01 X8.6048 Y-20.7160
G01 X8.5939 Y-20.7061
G01 X8.5840 Y-20.6952
G01 X8.5753 Y-20.6833
G01 X8.5677 Y-20.6707
G01 X8.5614 Y-20.6574
G01 X8.5565 Y-20.6435
G01 X8.5529 Y-20.6293
G01 X8.5507 Y-20.6147
G01 X8.5500 Y-20.6000
G01 X8.5507 Y-20.5853
G01 X8.5529 Y-20.5707
G01 X8.5565 Y-20.5565
G01 X8.5614 Y-20.5426
G01 X8.5677 Y-20.5293
G01 X8.5753 Y-20.5167
G01 X8.5840 Y-20.5048
G01 X8.5939 Y-20.4939
G01 X8.6048 Y-20.4840
G01 X8.6167 Y-20.4753
G01 X8.6293 Y-20.4677
G01 X8.6426 Y-20.4614
G01 X8.6565 Y-20.4565
G01 X8.6707 Y-20.4529
G01 X8.6853 Y-20.4507
G01 X8.7000 Y-20.4500
G01 X8.7147 Y-20.4507
G01 X8.7293 Y-20.4529
G01 X8.7435 Y-20.4565
G01 X8.7574 Y-20.4614
G01 X8.7707 Y-20.4677
G01 X8.7833 Y-20.4753
G01 X8.7952 Y-20.4840
G01 X8.8061 Y-20.4939
G01 X8.8160 Y-20.5048
G01 X8.8247 Y-20.5167
G01 X8.8323 Y-20.5293
G01 X8.8386 Y-20.5426
G01 X8.8435 Y-20.5565
G01 X8.8471 Y-20.5707
G01 X8.8493 Y-20.5853
G01 X8.8500 Y-20.6000
G00 X8.8500 Y-20.6000
G01 F80.00
G01 Z-1.1600
G01 F40.00
G01 X8.8493 Y-20.6147
G01 X8.8471 Y-20.6293
G01 X8.8435 Y-20.6435
G01 X8.8386 Y-20.6574
G01 X8.8323 Y-20.6707
G01 X8.8247 Y-20.6833
G01 X8.8160 Y-20.6952
G01 X8.8061 Y-20.7061
G01 X8.7952 Y-20.7160
G01 X8.7833 Y-20.7247
G01 X8.7707 Y-20.7323
G01 X8.7574 Y-20.7386
G01 X8.7435 Y-20.7435
G01 X8.7293 Y-20.7471
G01 X8.7147 Y-20.7493
G01 X8.7000 Y-20.7500
G01 X8.6853 Y-20.7493
G01 X8.6707 Y-20.7471
G01 X8.6565 Y-20.7435
G01 X8.6426 Y-20.7386
G01 X8.6293 Y-20.7323
G01 X8.6167 Y-20.7247
G01 X8.6048 Y-20.7160
G01 X8.5939 Y-20.7061
G01 X8.5840 Y-20.6952
G01 X8.5753 Y-20.6833
G01 X8.5677 Y-20.6707
G01 X8.5614 Y-20.6574
G01 X8.5565 Y-20.6435
G01 X8.5529 Y-20.6293
G01 X8.5507 Y-20.6147
G01 X8.5500 Y-20.6000
G01 X8.5507 Y-20.5853
G01 X8.5529 Y-20.5707
G01 X8.5565 Y-20.5565
G01 X8.5614 Y-20.5426
G01 X8.5677 Y-20.5293
G01 X8.5753 Y-20.5167
G01 X8.5840 Y-20.5048
G01 X8.5939 Y-20.4939
G01 X8.6048 Y-20.4840
G01 X8.6167 Y-20.4753
G01 X8.6293 Y-20.4677
G01 X8.6426 Y-20.4614
G01 X8.6565 Y-20.4565
G01 X8.6707 Y-20.4529
G01 X8.6853 Y-20.4507
G01 X8.7000 Y-20.4500
G01 X8.7147 Y-20.4507
G01 X8.7293 Y-20.4529
G01 X8.7435 Y-20.4565
G01 X8.7574 Y-20.4614
G01 X8.7707 Y-20.4677
G01 X8.7833 Y-20.4753
G01 X8.7952 Y-20.4840
G01 X8.8061 Y-20.4939
G01 X8.8160 Y-20.5048
G01 X8.8247 Y-20.5167
G01 X8.8323 Y-20.5293
G01 X8.8386 Y-20.5426
G01 X8.8435 Y-20.5565
G01 X8.8471 Y-20.5707
G01 X8.8493 Y-20.5853
G01 X8.8500 Y-20.6000
G00 X8.8500 Y-20.6000
G01 F80.00
G01 Z-1.2000
G01 F40.00
G01 X8.8493 Y-20.6147
G01 X8.8471 Y-20.6293
G01 X8.8435 Y-20.6435
G01 X8.8386 Y-20.6574
G01 X8.8323 Y-20.6707
G01 X8.8247 Y-20.6833
G01 X8.8160 Y-20.6952
G01 X8.8061 Y-20.7061
G01 X8.7952 Y-20.7160
G01 X8.7833 Y-20.7247
G01 X8.7707 Y-20.7323
G01 X8.7574 Y-20.7386
G01 X8.7435 Y-20.7435
G01 X8.7293 Y-20.7471
G01 X8.7147 Y-20.7493
G01 X8.7000 Y-20.7500
G01 X8.6853 Y-20.7493
G01 X8.6707 Y-20.7471
G01 X8.6565 Y-20.7435
G01 X8.6426 Y-20.7386
G01 X8.6293 Y-20.7323
G01 X8.6167 Y-20.7247
G01 X8.6048 Y-20.7160
G01 X8.5939 Y-20.7061
G01 X8.5840 Y-20.6952
G01 X8.5753 Y-20.6833
G01 X8.5677 Y-20.6707
G01 X8.5614 Y-20.6574
G01 X8.5565 Y-20.6435
G01 X8.5529 Y-20.6293
G01 X8.5507 Y-20.6147
G01 X8.5500 Y-20.6000
G01 X8.5507 Y-20.5853
G01 X8.5529 Y-20.5707
G01 X8.5565 Y-20.5565
G01 X8.5614 Y-20.5426
G01 X8.5677 Y-20.5293
G01 X8.5753 Y-20.5167
G01 X8.5840 Y-20.5048
G01 X8.5939 Y-20.4939
G01 X8.6048 Y-20.4840
G01 X8.6167 Y-20.4753
G01 X8.6293 Y-20.4677
G01 X8.6426 Y-20.4614
G01 X8.6565 Y-20.4565
G01 X8.6707 Y-20.4529
G01 X8.6853 Y-20.4507
G01 X8.7000 Y-20.4500
G01 X8.7147 Y-20.4507
