(G-CODE GENERATED BY FLATCAM v8.95 - www.flatcam.org - Version Date: 2019/08/17)

(Name: Sintez1.drl_cnc)
(Type: G-code from Excellon)
(Units: MM)

(Created on Monday, 27 July 2020 at 17:36)

(Feedrate: 79.9998 mm/min)
(Feedrate rapids 800.0009 mm/min)

(Z_Cut: -1.5011 mm)
(Z_Move: 1.999 mm)
(Z Toolchange: 12.7 mm)
(X,Y Toolchange: 0.0000, 0.0000 mm)
(Z Start: None mm)
(Z End: 12.7 mm)
(Steps per circle: 128)
(Postprocessor Excellon: default)

(X range:    2.2700 ...   37.5500  mm)
(Y range:  -50.9800 ...  -11.6300  mm)

(Spindle Speed: None RPM)

G21
G90
G94

G01 F80.00
G00 Z1.9990

M03
G00 X23.6200 Y-50.5800
G01 Z-1.5011
G01 Z0
G00 Z1.9990
G00 X23.6200 Y-48.0400
G01 Z-1.5011
G01 Z0
G00 Z1.9990
G00 X23.6200 Y-45.5000
G01 Z-1.5011
G01 Z0
G00 Z1.9990
G00 X23.9400 Y-36.8000
G01 Z-1.5011
G01 Z0
G00 Z1.9990
G00 X13.7800 Y-36.8000
G01 Z-1.5011
G01 Z0
G00 Z1.9990
G00 X8.7000 Y-21.5600
G01 Z-1.5011
G01 Z0
G00 Z1.9990
G00 X2.6700 Y-12.0300
G01 Z-1.5011
G01 Z0
G00 Z1.9990
G00 X13.7800 Y-21.5600
G01 Z-1.5011
G01 Z0
G00 Z1.9990
G00 X21.4000 Y-21.5600
G01 Z-1.5011
G01 Z0
G00 Z1.9990
G00 X23.9400 Y-21.5600
G01 Z-1.5011
G01 Z0
G00 Z1.9990
G00 X24.1300 Y-12.8800
G01 Z-1.5011
G01 Z0
G00 Z1.9990
G00 X26.6300 Y-12.8800
G01 Z-1.5011
G01 Z0
G00 Z1.9990
G00 X29.1300 Y-12.8800
G01 Z-1.5011
G01 Z0
G00 Z1.9990
G00 X34.7300 Y-15.2100
G01 Z-1.5011
G01 Z0
G00 Z1.9990
G00 X34.1000 Y-30.1300
G01 Z-1.5011
G01 Z0
G00 Z1.9990
G00 X34.1000 Y-32.6700
G01 Z-1.5011
G01 Z0
G00 Z1.9990
G00 X37.1500 Y-44.1000
G01 Z-1.5011
G01 Z0
G00 Z1.9990
G00 X33.1500 Y-44.1000
G01 Z-1.5011
G01 Z0
G00 Z1.9990
G00 X30.6100 Y-50.1300
G01 Z-1.5011
G01 Z0
G00 Z1.9990
M05
G00 Z12.70
G00 X0.0 Y0.0

M02