(G-CODE GENERATED BY FLATCAM v8.993 - www.flatcam.org - Version Date: 2020/06/05)

(Name: Syntez2_Ф1_верх.gbr_iso_combined_cnc_1V)
(Type: G-code from Geometry)
(Units: MM)

(Created on Tuesday, 22 September 2020 at 06:15)

(This preprocessor is the default preprocessor used by FlatCAM.)
(It is made to work with MACH3 compatible motion controllers.)

(TOOL DIAMETER: 0.13 mm)
(Feedrate_XY: 50.0 mm/min)
(Feedrate_Z: 60.0 mm/min)
(Feedrate rapids 1500.0 mm/min)

(Z_Cut: -0.056 mm)
(Z_Move: 2.0 mm)
(Z Start: None mm)
(Z End: 25.0 mm)
(Steps per circle: 128)
(Preprocessor Geometry: default)

(X range:    0.7076 ...   98.5464  mm)
(Y range:  -33.1413 ...   -0.6723  mm)

(Spindle Speed: None RPM)
G21
G90
G94



G01 F50.00
G00 Z2.0000

M03
G00 X0.8669 Y-1.4213
G01 F60.00
G01 Z-0.0560
G01 F50.00
G01 X1.1989 Y-1.0892
G01 X1.2022 Y-1.0867
G01 X1.2058 Y-1.0858
G01 X1.2095 Y-1.0863
G01 X1.2130 Y-1.0886
G01 X1.2153 Y-1.0921
G01 X1.2158 Y-1.0962
G01 X1.2158 Y-1.9833
G01 X1.2147 Y-1.9887
G01 X1.2112 Y-1.9924
G01 X1.2063 Y-1.9937
G01 X1.2018 Y-1.9926
G01 X1.1981 Y-1.9891
G01 X1.1968 Y-1.9847
G01 X1.1968 Y-1.2865
G01 X1.1960 Y-1.2771
G01 X1.1942 Y-1.2687
G01 X1.1911 Y-1.2598
G01 X1.1868 Y-1.2514
G01 X1.1786 Y-1.2404
G01 X1.1691 Y-1.2317
G01 X1.1582 Y-1.2248
G01 X1.1454 Y-1.2199
G01 X1.1319 Y-1.2176
G01 X1.1190 Y-1.2178
G01 X1.1064 Y-1.2204
G01 X1.0938 Y-1.2256
G01 X1.0851 Y-1.2311
G01 X1.0779 Y-1.2373
G01 X0.8790 Y-1.4361
G01 X0.8758 Y-1.4378
G01 X0.8721 Y-1.4382
G01 X0.8685 Y-1.4371
G01 X0.8656 Y-1.4347
G01 X0.8639 Y-1.4315
G01 X0.8635 Y-1.4278
G01 X0.8646 Y-1.4242
G01 X0.8669 Y-1.4213
G00 Z2.0000
G00 X1.5754 Y-1.1467
G01 F60.00
G01 Z-0.0560
G01 F50.00
G01 X1.5776 Y-1.1439
G01 X1.5811 Y-1.1418
G01 X1.7155 Y-1.0860
G01 X1.8530 Y-1.0861
G01 X1.9900 Y-1.1435
G01 X1.9926 Y-1.1467
G01 X2.0591 Y-1.2575
G01 X2.0602 Y-1.2629
G01 X2.0598 Y-1.3759
G01 X1.9926 Y-1.4884
G01 X1.9847 Y-1.4981
G01 X1.9796 Y-1.5060
G01 X1.9759 Y-1.5138
G01 X1.9732 Y-1.5219
G01 X1.9715 Y-1.5303
G01 X1.9709 Y-1.5398
G01 X1.9714 Y-1.5483
G01 X1.9730 Y-1.5568
G01 X1.9759 Y-1.5657
G01 X1.9796 Y-1.5735
G01 X1.9847 Y-1.5814
G01 X1.9926 Y-1.5911
G01 X2.0598 Y-1.7036
G01 X2.0602 Y-1.8184
G01 X2.0584 Y-1.8231
G01 X1.9926 Y-1.9329
G01 X1.9885 Y-1.9371
G01 X1.8526 Y-1.9935
G01 X1.7151 Y-1.9934
G01 X1.5780 Y-1.9361
G01 X1.5754 Y-1.9329
G01 X1.5090 Y-1.8220
G01 X1.5080 Y-1.8189
G01 X1.5082 Y-1.8152
G01 X1.5095 Y-1.8122
G01 X1.5121 Y-1.8096
G01 X1.5155 Y-1.8082
G01 X1.5188 Y-1.8081
G01 X1.5219 Y-1.8091
G01 X1.5245 Y-1.8111
G01 X1.5820 Y-1.9063
G01 X1.5880 Y-1.9136
G01 X1.5943 Y-1.9194
G01 X1.6020 Y-1.9249
G01 X1.6095 Y-1.9289
G01 X1.7072 Y-1.9696
G01 X1.7196 Y-1.9733
G01 X1.7324 Y-1.9747
G01 X1.8374 Y-1.9746
G01 X1.8494 Y-1.9731
G01 X1.8609 Y-1.9696
G01 X1.9577 Y-1.9293
G01 X1.9668 Y-1.9244
G01 X1.9744 Y-1.9189
G01 X1.9817 Y-1.9117
G01 X1.9879 Y-1.9035
G01 X2.0321 Y-1.8300
G01 X2.0379 Y-1.8166
G01 X2.0408 Y-1.8023
G01 X2.0411 Y-1.7267
G01 X2.0403 Y-1.7173
G01 X2.0381 Y-1.7081
G01 X2.0316 Y-1.6932
G01 X1.9850 Y-1.6163
G01 X1.9744 Y-1.6051
G01 X1.9616 Y-1.5966
G01 X1.8466 Y-1.5484
G01 X1.8428 Y-1.5451
G01 X1.8412 Y-1.5407
G01 X1.8425 Y-1.5349
G01 X1.8466 Y-1.5312
G01 X1.9578 Y-1.4848
G01 X1.9668 Y-1.4799
G01 X1.9744 Y-1.4744
G01 X1.9817 Y-1.4672
G01 X1.9884 Y-1.4583
G01 X2.0316 Y-1.3863
G01 X2.0361 Y-1.3771
G01 X2.0398 Y-1.3647
G01 X2.0411 Y-1.3528
G01 X2.0411 Y-1.2823
G01 X2.0391 Y-1.2670
G01 X2.0361 Y-1.2580
G01 X2.0320 Y-1.2495
G01 X1.9865 Y-1.1739
G01 X1.9806 Y-1.1666
G01 X1.9744 Y-1.1607
G01 X1.9675 Y-1.1556
G01 X1.9601 Y-1.1514
G01 X1.8617 Y-1.1102
G01 X1.8519 Y-1.1070
G01 X1.8434 Y-1.1054
G01 X1.8348 Y-1.1048
G01 X1.7324 Y-1.1048
G01 X1.7196 Y-1.1062
G01 X1.7072 Y-1.1099
G01 X1.6110 Y-1.1500
G01 X1.6027 Y-1.1543
G01 X1.5950 Y-1.1596
G01 X1.5869 Y-1.1673
G01 X1.5801 Y-1.1761
G01 X1.5250 Y-1.2677
G01 X1.5227 Y-1.2699
G01 X1.5197 Y-1.2712
G01 X1.5165 Y-1.2715
G01 X1.5133 Y-1.2706
G01 X1.5103 Y-1.2684
G01 X1.5084 Y-1.2652
G01 X1.5079 Y-1.2615
G01 X1.5088 Y-1.2579
G01 X1.5754 Y-1.1467
G00 Z2.0000
G00 X2.3523 Y-1.2629
G01 F60.00
G01 Z-0.0560
G01 F50.00
G01 X2.3527 Y-1.2592
G01 X2.3541 Y-1.2564
G01 X2.4198 Y-1.1467
G01 X2.4224 Y-1.1435
G01 X2.5595 Y-1.0861
G01 X2.6970 Y-1.0860
G01 X2.8313 Y-1.1418
G01 X2.8360 Y-1.1452
G01 X2.9029 Y-1.2564
G01 X2.9046 Y-1.2611
G01 X2.9046 Y-1.8166
G01 X2.9042 Y-1.8203
G01 X2.9028 Y-1.8231
G01 X2.8370 Y-1.9329
G01 X2.8341 Y-1.9363
G01 X2.6970 Y-1.9935
G01 X2.5627 Y-1.9937
G01 X2.5573 Y-1.9927
G01 X2.4255 Y-1.9378
G01 X2.4208 Y-1.9344
G01 X2.3541 Y-1.8231
G01 X2.3523 Y-1.8184
G01 X2.3523 Y-1.2629
G00 Z2.0000
G00 X2.8756 Y-1.2480
G01 F60.00
G01 Z-0.0560
G01 F50.00
G01 X2.8318 Y-1.1753
G01 X2.8244 Y-1.1660
G01 X2.8161 Y-1.1586
G01 X2.8083 Y-1.1534
G01 X2.8006 Y-1.1496
G01 X2.7053 Y-1.1099
G01 X2.6904 Y-1.1057
G01 X2.6800 Y-1.1048
G01 X2.5768 Y-1.1048
G01 X2.5682 Y-1.1055
G01 X2.5598 Y-1.1072
G01 X2.5508 Y-1.1102
G01 X2.4516 Y-1.1518
G01 X2.4435 Y-1.1566
G01 X2.4361 Y-1.1624
G01 X2.4296 Y-1.1692
G01 X2.4240 Y-1.1768
G01 X2.3792 Y-1.2518
G01 X2.3741 Y-1.2645
G01 X2.3716 Y-1.2780
G01 X2.3714 Y-1.7972
G01 X2.3722 Y-1.8066
G01 X2.3741 Y-1.8150
G01 X2.3770 Y-1.8231
G01 X2.3809 Y-1.8307
G01 X2.4254 Y-1.9049
G01 X2.4349 Y-1.9160
G01 X2.4456 Y-1.9244
G01 X2.4555 Y-1.9296
G01 X2.5508 Y-1.9693
G01 X2.5631 Y-1.9731
G01 X2.5768 Y-1.9747
G01 X2.6835 Y-1.9745
G01 X2.6946 Y-1.9729
G01 X2.7045 Y-1.9699
G01 X2.8037 Y-1.9286
G01 X2.8126 Y-1.9235
G01 X2.8201 Y-1.9177
G01 X2.8272 Y-1.9104
G01 X2.8328 Y-1.9028
G01 X2.8781 Y-1.8270
G01 X2.8830 Y-1.8142
G01 X2.8854 Y-1.7998
G01 X2.8856 Y-1.2832
G01 X2.8848 Y-1.2738
G01 X2.8830 Y-1.2653
G01 X2.8799 Y-1.2564
G01 X2.8756 Y-1.2480
G00 Z2.0000
G00 X3.1967 Y-1.4851
G01 F60.00
G01 Z-0.0560
G01 F50.00
G01 X3.1971 Y-1.4814
G01 X3.1988 Y-1.4782
G01 X3.2017 Y-1.4758
G01 X3.2053 Y-1.4747
G01 X3.2090 Y-1.4751
G01 X3.2122 Y-1.4768
G01 X3.2146 Y-1.4797
G01 X3.2157 Y-1.4833
G01 X3.2157 Y-1.8475
G01 X3.2173 Y-1.8612
G01 X3.2215 Y-1.8744
G01 X3.2287 Y-1.8872
G01 X3.2634 Y-1.9335
G01 X3.2732 Y-1.9431
G01 X3.2847 Y-1.9507
G01 X3.2942 Y-1.9548
G01 X3.3041 Y-1.9575
G01 X3.3955 Y-1.9728
G01 X3.4075 Y-1.9736
G01 X3.4169 Y-1.9727
G01 X3.5082 Y-1.9575
G01 X3.5182 Y-1.9548
G01 X3.5284 Y-1.9503
G01 X3.5398 Y-1.9426
G01 X3.5494 Y-1.9328
G01 X3.5837 Y-1.8872
G01 X3.5912 Y-1.8736
G01 X3.5953 Y-1.8604
G01 X3.5967 Y-1.8474
G01 X3.5967 Y-1.4837
G01 X3.5986 Y-1.4785
G01 X3.6030 Y-1.4752
G01 X3.6090 Y-1.4751
G01 X3.6136 Y-1.4782
G01 X3.6153 Y-1.4814
G01 X3.6157 Y-1.4851
G01 X3.6157 Y-1.9833
G01 X3.6150 Y-1.9878
G01 X3.6122 Y-1.9916
G01 X3.6081 Y-1.9935
G01 X3.6030 Y-1.9932
G01 X3.5899 Y-1.9831
G01 X3.5802 Y-1.9775
G01 X3.5680 Y-1.9731
G01 X3.5552 Y-1.9710
G01 X3.5397 Y-1.9716
G01 X3.4060 Y-1.9937
G01 X3.2721 Y-1.9715
G01 X3.2682 Y-1.9704
G01 X3.2655 Y-1.9681
G01 X3.1991 Y-1.8795
G01 X3.1968 Y-1.8745
G01 X3.1967 Y-1.4851
G00 Z2.0000
G00 X3.9078 Y-1.2629
G01 F60.00
G01 Z-0.0560
G01 F50.00
G01 X3.9082 Y-1.2592
G01 X3.9096 Y-1.2564
G01 X3.9753 Y-1.1467
G01 X3.9779 Y-1.1435
G01 X4.1150 Y-1.0861
G01 X4.2525 Y-1.0860
G01 X4.3868 Y-1.1418
G01 X4.3915 Y-1.1452
G01 X4.4584 Y-1.2564
G01 X4.4601 Y-1.2611
G01 X4.4601 Y-1.8166
G01 X4.4597 Y-1.8203
G01 X4.4583 Y-1.8231
G01 X4.3925 Y-1.9329
G01 X4.3896 Y-1.9363
G01 X4.2525 Y-1.9935
G01 X4.1182 Y-1.9937
G01 X4.1128 Y-1.9927
G01 X3.9810 Y-1.9378
G01 X3.9763 Y-1.9344
G01 X3.9096 Y-1.8231
G01 X3.9078 Y-1.8184
G01 X3.9078 Y-1.2629
G00 Z2.0000
G00 X4.4311 Y-1.2480
G01 F60.00
G01 Z-0.0560
G01 F50.00
G01 X4.3873 Y-1.1753
G01 X4.3805 Y-1.1666
G01 X4.3716 Y-1.1586
G01 X4.3638 Y-1.1534
G01 X4.3561 Y-1.1496
G01 X4.2608 Y-1.1099
G01 X4.2459 Y-1.1057
G01 X4.2355 Y-1.1048
G01 X4.1323 Y-1.1048
G01 X4.1237 Y-1.1055
G01 X4.1153 Y-1.1072
G01 X4.1063 Y-1.1102
G01 X4.0071 Y-1.1518
G01 X3.9990 Y-1.1566
G01 X3.9916 Y-1.1624
G01 X3.9851 Y-1.1692
G01 X3.9795 Y-1.1768
G01 X3.9347 Y-1.2518
G01 X3.9296 Y-1.2645
G01 X3.9271 Y-1.2780
G01 X3.9269 Y-1.7972
G01 X3.9277 Y-1.8066
G01 X3.9296 Y-1.8150
G01 X3.9325 Y-1.8231
G01 X3.9364 Y-1.8307
G01 X3.9809 Y-1.9049
G01 X3.9904 Y-1.9160
G01 X4.0011 Y-1.9244
G01 X4.0110 Y-1.9296
G01 X4.1063 Y-1.9693
G01 X4.1186 Y-1.9731
G01 X4.1323 Y-1.9747
G01 X4.2390 Y-1.9745
G01 X4.2501 Y-1.9729
G01 X4.2600 Y-1.9699
G01 X4.3592 Y-1.9286
G01 X4.3674 Y-1.9240
G01 X4.3756 Y-1.9177
G01 X4.3827 Y-1.9104
G01 X4.3883 Y-1.9028
G01 X4.4336 Y-1.8270
G01 X4.4385 Y-1.8142
G01 X4.4409 Y-1.7998
G01 X4.4411 Y-1.2832
G01 X4.4403 Y-1.2738
G01 X4.4383 Y-1.2645
G01 X4.4354 Y-1.2564
G01 X4.4311 Y-1.2480
G00 Z2.0000
G00 X4.7522 Y-1.9296
G01 F60.00
G01 Z-0.0560
G01 F50.00
G01 X4.7526 Y-1.9259
G01 X4.7540 Y-1.9231
G01 X4.8215 Y-1.8108
G01 X5.2118 Y-1.4855
G01 X5.2182 Y-1.4795
G01 X5.2266 Y-1.4685
G01 X5.2768 Y-1.3849
G01 X5.2824 Y-1.3714
G01 X5.2852 Y-1.3571
G01 X5.2854 Y-1.2806
G01 X5.2838 Y-1.2687
G01 X5.2804 Y-1.2580
G01 X5.2759 Y-1.2488
G01 X5.2303 Y-1.1732
G01 X5.2243 Y-1.1660
G01 X5.2174 Y-1.1596
G01 X5.2096 Y-1.1543
G01 X5.2021 Y-1.1503
G01 X5.1052 Y-1.1099
G01 X5.0911 Y-1.1059
G01 X5.0799 Y-1.1048
G01 X4.9767 Y-1.1048
G01 X4.9681 Y-1.1055
G01 X4.9597 Y-1.1072
G01 X4.9507 Y-1.1102
G01 X4.8553 Y-1.1500
G01 X4.8470 Y-1.1543
G01 X4.8393 Y-1.1596
G01 X4.8312 Y-1.1673
G01 X4.8244 Y-1.1761
G01 X4.7693 Y-1.2677
G01 X4.7670 Y-1.2699
G01 X4.7640 Y-1.2712
G01 X4.7608 Y-1.2715
G01 X4.7576 Y-1.2706
G01 X4.7546 Y-1.2684
G01 X4.7527 Y-1.2652
G01 X4.7522 Y-1.2615
G01 X4.7531 Y-1.2579
G01 X4.8197 Y-1.1467
G01 X4.8223 Y-1.1435
G01 X4.8254 Y-1.1418
G01 X4.9572 Y-1.0868
G01 X4.9626 Y-1.0858
G01 X5.0969 Y-1.0860
G01 X5.2332 Y-1.1427
G01 X5.2369 Y-1.1467
G01 X5.3041 Y-1.2592
G01 X5.3045 Y-1.3722
G01 X5.3034 Y-1.3776
G01 X5.2347 Y-1.4912
G01 X4.8448 Y-1.8162
G01 X4.8384 Y-1.8222
G01 X4.8300 Y-1.8332
G01 X4.8048 Y-1.8763
G01 X4.8016 Y-1.8852
G01 X4.7997 Y-1.8936
G01 X4.7989 Y-1.9021
G01 X4.7991 Y-1.9107
G01 X4.8009 Y-1.9217
G01 X4.8048 Y-1.9330
G01 X4.8106 Y-1.9436
G01 X4.8175 Y-1.9523
G01 X4.8264 Y-1.9604
G01 X4.8358 Y-1.9664
G01 X4.8460 Y-1.9709
G01 X4.8577 Y-1.9738
G01 X4.8688 Y-1.9747
G01 X5.2955 Y-1.9747
G01 X5.2999 Y-1.9760
G01 X5.3034 Y-1.9797
G01 X5.3045 Y-1.9842
G01 X5.3032 Y-1.9891
G01 X5.2995 Y-1.9926
G01 X5.2941 Y-1.9937
G01 X4.7608 Y-1.9937
G01 X4.7576 Y-1.9928
G01 X4.7550 Y-1.9909
G01 X4.7523 Y-1.9856
G01 X4.7522 Y-1.9296
G00 Z2.0000
G00 X8.2151 Y-1.0876
G01 F60.00
G01 Z-0.0560
G01 F50.00
G01 X8.2156 Y-1.0824
G01 X8.2180 Y-1.0769
G01 X8.2905 Y-0.9561
G01 X8.2949 Y-0.9509
G01 X8.3000 Y-0.9479
G01 X8.4483 Y-0.8863
G01 X8.4535 Y-0.8858
G01 X8.6027 Y-0.8861
G01 X8.7520 Y-0.9479
G01 X8.7565 Y-0.9503
G01 X8.7601 Y-0.9540
G01 X8.8339 Y-1.0769
G01 X8.8358 Y-1.0808
G01 X8.8367 Y-1.0850
G01 X8.8368 Y-1.6969
G01 X8.8363 Y-1.7021
G01 X8.8339 Y-1.7076
G01 X8.7615 Y-1.8283
G01 X8.7565 Y-1.8341
G01 X8.7520 Y-1.8365
G01 X8.6027 Y-1.8983
G01 X8.4535 Y-1.8986
G01 X8.4451 Y-1.8970
G01 X8.3000 Y-1.8365
G01 X8.2955 Y-1.8341
G01 X8.2919 Y-1.8304
G01 X8.2180 Y-1.7076
G01 X8.2161 Y-1.7037
G01 X8.2152 Y-1.6995
G01 X8.2151 Y-1.0876
G00 Z2.0000
G00 X8.7918 Y-1.0749
G01 F60.00
G01 Z-0.0560
G01 F50.00
G01 X8.7439 Y-0.9953
G01 X8.7365 Y-0.9859
G01 X8.7282 Y-0.9785
G01 X8.7211 Y-0.9737
G01 X8.7126 Y-0.9695
G01 X8.6079 Y-0.9259
G01 X8.5930 Y-0.9217
G01 X8.5827 Y-0.9208
G01 X8.4692 Y-0.9208
G01 X8.4606 Y-0.9215
G01 X8.4522 Y-0.9232
G01 X8.4432 Y-0.9262
G01 X8.3347 Y-0.9717
G01 X8.3266 Y-0.9765
G01 X8.3192 Y-0.9823
G01 X8.3127 Y-0.9891
G01 X8.3071 Y-0.9967
G01 X8.2580 Y-1.0787
G01 X8.2529 Y-1.0914
G01 X8.2504 Y-1.1049
G01 X8.2502 Y-1.6752
G01 X8.2510 Y-1.6847
G01 X8.2529 Y-1.6931
G01 X8.2558 Y-1.7012
G01 X8.2597 Y-1.7088
G01 X8.3085 Y-1.7899
G01 X8.3173 Y-1.8003
G01 X8.3287 Y-1.8094
G01 X8.3385 Y-1.8145
G01 X8.4432 Y-1.8582
G01 X8.4555 Y-1.8620
G01 X8.4692 Y-1.8636
G01 X8.5852 Y-1.8635
G01 X8.5964 Y-1.8620
G01 X8.6071 Y-1.8588
G01 X8.7158 Y-1.8135
G01 X8.7240 Y-1.8089
G01 X8.7322 Y-1.8027
G01 X8.7388 Y-1.7960
G01 X8.7449 Y-1.7877
G01 X8.7939 Y-1.7058
G01 X8.7992 Y-1.6922
G01 X8.8016 Y-1.6779
G01 X8.8018 Y-1.1101
G01 X8.8011 Y-1.1015
G01 X8.7992 Y-1.0923
G01 X8.7961 Y-1.0833
G01 X8.7918 Y-1.0749
G00 Z2.0000
G00 X9.1440 Y-1.3320
G01 F60.00
G01 Z-0.0560
G01 F50.00
G01 X9.1450 Y-1.3252
G01 X9.1485 Y-1.3193
G01 X9.1540 Y-1.3153
G01 X9.1606 Y-1.3136
G01 X9.1674 Y-1.3146
G01 X9.1733 Y-1.3181
G01 X9.1773 Y-1.3236
G01 X9.1789 Y-1.3294
G01 X9.1790 Y-1.7306
G01 X9.1806 Y-1.7443
G01 X9.1852 Y-1.7583
G01 X9.1920 Y-1.7703
G01 X9.2300 Y-1.8208
G01 X9.2398 Y-1.8305
G01 X9.2513 Y-1.8380
G01 X9.2615 Y-1.8424
G01 X9.2715 Y-1.8450
G01 X9.3709 Y-1.8615
G01 X9.3836 Y-1.8623
G01 X9.3930 Y-1.8614
G01 X9.4924 Y-1.8449
G01 X9.5032 Y-1.8419
G01 X9.5126 Y-1.8376
G01 X9.5233 Y-1.8305
G01 X9.5331 Y-1.8208
G01 X9.5710 Y-1.7703
G01 X9.5782 Y-1.7575
G01 X9.5824 Y-1.7443
G01 X9.5840 Y-1.7306
G01 X9.5841 Y-1.3294
G01 X9.5853 Y-1.3244
G01 X9.5880 Y-1.3200
G01 X9.5918 Y-1.3165
G01 X9.5964 Y-1.3143
G01 X9.6015 Y-1.3136
G01 X9.6066 Y-1.3143
G01 X9.6112 Y-1.3165
G01 X9.6150 Y-1.3200
G01 X9.6180 Y-1.3252
G01 X9.6190 Y-1.3320
G01 X9.6190 Y-1.8802
G01 X9.6187 Y-1.8845
G01 X9.6173 Y-1.8886
G01 X9.6126 Y-1.8946
G01 X9.6090 Y-1.8969
G01 X9.6049 Y-1.8983
G01 X9.6006 Y-1.8986
G01 X9.5964 Y-1.8979
G01 X9.5911 Y-1.8952
G01 X9.5782 Y-1.8848
G01 X9.5675 Y-1.8791
G01 X9.5535 Y-1.8748
G01 X9.5389 Y-1.8735
G01 X9.5295 Y-1.8743
G01 X9.3803 Y-1.8986
G01 X9.2312 Y-1.8738
G01 X9.2258 Y-1.8717
G01 X9.2214 Y-1.8679
G01 X9.1480 Y-1.7701
G01 X9.1453 Y-1.7657
G01 X9.1442 Y-1.7615
G01 X9.1440 Y-1.3320
G00 Z2.0000
G00 X9.9446 Y-1.3486
G01 F60.00
G01 Z-0.0560
G01 F50.00
G01 X9.9386 Y-1.3479
G01 X9.9333 Y-1.3452
G01 X9.9296 Y-1.3415
G01 X9.9269 Y-1.3362
G01 X9.9262 Y-1.3311
G01 X9.9272 Y-1.3252
G01 X9.9296 Y-1.3207
G01 X9.9340 Y-1.3165
G01 X9.9386 Y-1.3143
G01 X9.9428 Y-1.3136
G01 X10.0080 Y-1.3134
G01 X10.0182 Y-1.3119
G01 X10.0272 Y-1.3092
G01 X10.0410 Y-1.3022
G01 X10.0536 Y-1.2918
G01 X10.0629 Y-1.2795
G01 X10.0693 Y-1.2655
G01 X10.0720 Y-1.2547
G01 X10.0729 Y-1.2444
G01 X10.0729 Y-0.9024
G01 X10.0749 Y-0.8950
G01 X10.0800 Y-0.8892
G01 X10.0870 Y-0.8861
G01 X10.0913 Y-0.8858
G01 X10.0955 Y-0.8865
G01 X10.1001 Y-0.8887
G01 X10.1045 Y-0.8929
G01 X10.1069 Y-0.8974
G01 X10.1079 Y-0.9024
G01 X10.1079 Y-1.2444
G01 X10.1091 Y-1.2564
G01 X10.1120 Y-1.2671
G01 X10.1179 Y-1.2795
G01 X10.1267 Y-1.2912
G01 X10.1369 Y-1.3003
G01 X10.1496 Y-1.3076
G01 X10.1609 Y-1.3115
G01 X10.1728 Y-1.3134
G01 X10.2405 Y-1.3139
G01 X10.2461 Y-1.3161
G01 X10.2506 Y-1.3200
G01 X10.2536 Y-1.3252
G01 X10.2546 Y-1.3311
G01 X10.2539 Y-1.3362
G01 X10.2512 Y-1.3415
G01 X10.2468 Y-1.3457
G01 X10.2414 Y-1.3481
G01 X10.1728 Y-1.3488
G01 X10.1601 Y-1.3510
G01 X10.1488 Y-1.3550
G01 X10.1362 Y-1.3624
G01 X10.1255 Y-1.3723
G01 X10.1170 Y-1.3841
G01 X10.1112 Y-1.3975
G01 X10.1088 Y-1.4075
G01 X10.1079 Y-1.4178
G01 X10.1079 Y-1.7790
G01 X10.1087 Y-1.7893
G01 X10.1130 Y-1.8051
G01 X10.1203 Y-1.8188
G01 X10.1305 Y-1.8305
G01 X10.1459 Y-1.8424
G01 X10.1550 Y-1.8471
G01 X10.1639 Y-1.8502
G01 X10.1740 Y-1.8522
G01 X10.1842 Y-1.8526
G01 X10.2003 Y-1.8503
G01 X10.2332 Y-1.8396
G01 X10.2375 Y-1.8392
G01 X10.2417 Y-1.8398
G01 X10.2464 Y-1.8419
G01 X10.2503 Y-1.8452
G01 X10.2531 Y-1.8496
G01 X10.2545 Y-1.8545
G01 X10.2544 Y-1.8597
G01 X10.2528 Y-1.8645
G01 X10.2498 Y-1.8688
G01 X10.2458 Y-1.8719
G01 X10.1684 Y-1.8980
G01 X10.1634 Y-1.8986
G01 X10.1592 Y-1.8980
G01 X10.1518 Y-1.8940
G01 X10.0798 Y-1.8340
G01 X10.0753 Y-1.8289
G01 X10.0734 Y-1.8242
G01 X10.0729 Y-1.8191
G01 X10.0729 Y-1.4186
G01 X10.0722 Y-1.4092
G01 X10.0703 Y-1.4000
G01 X10.0646 Y-1.3856
G01 X10.0553 Y-1.3723
G01 X10.0432 Y-1.3614
G01 X10.0296 Y-1.3540
G01 X10.0182 Y-1.3503
G01 X10.0071 Y-1.3488
G01 X9.9446 Y-1.3486
G00 Z2.0000
G00 X11.0236 Y-1.3747
G01 F60.00
G01 Z-0.0560
G01 F50.00
G01 X11.2853 Y-1.3747
G01 X11.2956 Y-1.3739
G01 X11.3114 Y-1.3696
G01 X11.4169 Y-1.3256
G01 X11.4275 Y-1.3200
G01 X11.4369 Y-1.3126
G01 X11.4428 Y-1.3064
G01 X11.4484 Y-1.2988
G01 X11.4970 Y-1.2177
G01 X11.5029 Y-1.2025
G01 X11.5046 Y-1.1941
G01 X11.5053 Y-1.1855
G01 X11.5052 Y-1.1083
G01 X11.5042 Y-1.0990
G01 X11.5017 Y-1.0890
G01 X11.4953 Y-1.0749
G01 X11.4488 Y-0.9974
G01 X11.4405 Y-0.9865
G01 X11.4303 Y-0.9775
G01 X11.4177 Y-0.9702
G01 X11.3106 Y-0.9256
G01 X11.3016 Y-0.9228
G01 X11.2922 Y-0.9212
G01 X11.0194 Y-0.9210
G01 X11.0075 Y-0.9227
G01 X10.9961 Y-0.9265
G01 X10.9855 Y-0.9322
G01 X10.9760 Y-0.9396
G01 X10.9674 Y-0.9491
G01 X10.9604 Y-0.9609
G01 X10.9560 Y-0.9730
G01 X10.9538 Y-0.9866
G01 X10.9541 Y-1.3124
G01 X10.9567 Y-1.3250
G01 X10.9615 Y-1.3369
G01 X10.9685 Y-1.3477
G01 X10.9773 Y-1.3571
G01 X10.9877 Y-1.3647
G01 X10.9993 Y-1.3703
G01 X11.0117 Y-1.3736
G01 X11.0236 Y-1.3747
G00 Z2.0000
G00 X10.9186 Y-1.8802
G01 F60.00
G01 Z-0.0560
G01 F50.00
G01 X10.9186 Y-0.9042
G01 X10.9191 Y-0.8990
G01 X10.9211 Y-0.8943
G01 X10.9243 Y-0.8903
G01 X10.9278 Y-0.8878
G01 X10.9318 Y-0.8863
G01 X10.9370 Y-0.8858
G01 X11.3045 Y-0.8859
G01 X11.3103 Y-0.8874
G01 X11.4585 Y-0.9494
G01 X11.4619 Y-0.9520
G01 X11.4650 Y-0.9561
G01 X11.5374 Y-1.0769
G01 X11.5396 Y-1.0816
G01 X11.5403 Y-1.0876
G01 X11.5403 Y-1.2080
G01 X11.5398 Y-1.2132
G01 X11.5374 Y-1.2187
G01 X11.4650 Y-1.3394
G01 X11.4606 Y-1.3446
G01 X11.4555 Y-1.3476
G01 X11.3087 Y-1.4087
G01 X11.3019 Y-1.4097
G01 X11.0185 Y-1.4099
G01 X11.0058 Y-1.4121
G01 X10.9929 Y-1.4168
G01 X10.9819 Y-1.4235
G01 X10.9724 Y-1.4321
G01 X10.9645 Y-1.4423
G01 X10.9590 Y-1.4530
G01 X10.9552 Y-1.4652
G01 X10.9537 Y-1.4772
G01 X10.9535 Y-1.8828
G01 X10.9519 Y-1.8886
G01 X10.9479 Y-1.8941
G01 X10.9420 Y-1.8976
G01 X10.9352 Y-1.8986
G01 X10.9286 Y-1.8969
G01 X10.9231 Y-1.8929
G01 X10.9196 Y-1.8870
G01 X10.9186 Y-1.8802
G00 Z2.0000
G00 X11.8475 Y-1.4909
G01 F60.00
G01 Z-0.0560
G01 F50.00
G01 X11.8480 Y-1.4857
G01 X11.8504 Y-1.4802
G01 X11.9229 Y-1.3595
G01 X11.9273 Y-1.3542
G01 X11.9325 Y-1.3513
G01 X12.0799 Y-1.3143
G01 X12.0850 Y-1.3136
G01 X12.0901 Y-1.3143
G01 X12.2351 Y-1.3506
G01 X12.2400 Y-1.3523
G01 X12.2441 Y-1.3554
G01 X12.2472 Y-1.3595
G01 X12.3196 Y-1.4802
G01 X12.3220 Y-1.4857
G01 X12.3225 Y-1.4909
G01 X12.3222 Y-1.7378
G01 X12.3196 Y-1.7442
G01 X12.2472 Y-1.8650
G01 X12.2442 Y-1.8690
G01 X12.2394 Y-1.8725
G01 X12.2337 Y-1.8741
G01 X12.0854 Y-1.8986
G01 X11.9363 Y-1.8741
G01 X11.9307 Y-1.8725
G01 X11.9266 Y-1.8696
G01 X11.9229 Y-1.8650
G01 X11.8504 Y-1.7442
G01 X11.8478 Y-1.7378
G01 X11.8475 Y-1.4909
G00 Z2.0000
G00 X12.2875 Y-1.7102
G01 F60.00
G01 Z-0.0560
G01 F50.00
G01 X12.2875 Y-1.5134
G01 X12.2861 Y-1.5006
G01 X12.2828 Y-1.4890
G01 X12.2779 Y-1.4790
G01 X12.2344 Y-1.4065
G01 X12.2288 Y-1.3988
G01 X12.2223 Y-1.3920
G01 X12.2090 Y-1.3826
G01 X12.1948 Y-1.3767
G01 X12.1003 Y-1.3530
G01 X12.0841 Y-1.3513
G01 X12.0688 Y-1.3532
G01 X11.9737 Y-1.3772
G01 X11.9649 Y-1.3806
G01 X11.9574 Y-1.3848
G01 X11.9498 Y-1.3903
G01 X11.9430 Y-1.3969
G01 X11.9352 Y-1.4072
G01 X11.8917 Y-1.4797
G01 X11.8869 Y-1.4898
G01 X11.8837 Y-1.5014
G01 X11.8825 Y-1.5143
G01 X11.8825 Y-1.7101
G01 X11.8831 Y-1.7187
G01 X11.8846 Y-1.7272
G01 X11.8872 Y-1.7354
G01 X11.8908 Y-1.7432
G01 X11.9335 Y-1.8145
G01 X11.9391 Y-1.8220
G01 X11.9456 Y-1.8288
G01 X11.9522 Y-1.8341
G01 X11.9595 Y-1.8386
G01 X11.9680 Y-1.8425
G01 X11.9761 Y-1.8450
G01 X12.0812 Y-1.8622
G01 X12.0965 Y-1.8614
G01 X12.1897 Y-1.8459
G01 X12.2005 Y-1.8431
G01 X12.2106 Y-1.8386
G01 X12.2206 Y-1.8321
G01 X12.2293 Y-1.8239
G01 X12.2361 Y-1.8151
G01 X12.2804 Y-1.7409
G01 X12.2858 Y-1.7255
G01 X12.2875 Y-1.7102
G00 Z2.0000
G00 X12.8838 Y-1.8868
G01 F60.00
G01 Z-0.0560
G01 F50.00
G01 X12.8814 Y-1.8914
G01 X12.8777 Y-1.8951
G01 X12.8732 Y-1.8976
G01 X12.8681 Y-1.8986
G01 X12.8629 Y-1.8981
G01 X12.8581 Y-1.8961
G01 X12.8541 Y-1.8928
G01 X12.8513 Y-1.8884
G01 X12.6312 Y-1.3384
G01 X12.6297 Y-1.3326
G01 X12.6301 Y-1.3275
G01 X12.6318 Y-1.3227
G01 X12.6350 Y-1.3186
G01 X12.6384 Y-1.3160
G01 X12.6423 Y-1.3143
G01 X12.6466 Y-1.3136
G01 X12.6508 Y-1.3140
G01 X12.6578 Y-1.3172
G01 X12.6609 Y-1.3201
G01 X12.6631 Y-1.3238
G01 X12.8022 Y-1.6714
G01 X12.8067 Y-1.6806
G01 X12.8120 Y-1.6885
G01 X12.8183 Y-1.6955
G01 X12.8255 Y-1.7016
G01 X12.8327 Y-1.7063
G01 X12.8412 Y-1.7104
G01 X12.8494 Y-1.7131
G01 X12.8578 Y-1.7147
G01 X12.8672 Y-1.7154
G01 X12.8766 Y-1.7147
G01 X12.8859 Y-1.7128
G01 X12.8948 Y-1.7097
G01 X12.9032 Y-1.7054
G01 X12.9109 Y-1.7000
G01 X12.9179 Y-1.6937
G01 X12.9239 Y-1.6864
G01 X12.9289 Y-1.6784
G01 X13.0706 Y-1.3254
G01 X13.0736 Y-1.3201
G01 X13.0774 Y-1.3166
G01 X13.0846 Y-1.3138
G01 X13.0923 Y-1.3143
G01 X13.0991 Y-1.3182
G01 X13.1031 Y-1.3238
G01 X13.2256 Y-1.6298
G01 X13.2305 Y-1.6398
G01 X13.2359 Y-1.6475
G01 X13.2417 Y-1.6539
G01 X13.2488 Y-1.6600
G01 X13.2560 Y-1.6647
G01 X13.2637 Y-1.6684
G01 X13.2727 Y-1.6715
G01 X13.2819 Y-1.6733
G01 X13.2905 Y-1.6738
G01 X13.3007 Y-1.6730
G01 X13.3099 Y-1.6711
G01 X13.3188 Y-1.6678
G01 X13.3272 Y-1.6635
G01 X13.3355 Y-1.6574
G01 X13.3423 Y-1.6509
G01 X13.3487 Y-1.6428
G01 X13.3534 Y-1.6347
G01 X13.3582 Y-1.6218
G01 X13.4375 Y-1.3249
G01 X13.4395 Y-1.3211
G01 X13.4423 Y-1.3179
G01 X13.4459 Y-1.3155
G01 X13.4499 Y-1.3140
G01 X13.4542 Y-1.3136
G01 X13.4592 Y-1.3144
G01 X13.4631 Y-1.3162
G01 X13.4665 Y-1.3189
G01 X13.4691 Y-1.3223
G01 X13.4710 Y-1.3271
G01 X13.4714 Y-1.3314
G01 X13.4706 Y-1.3365
G01 X13.3244 Y-1.8848
G01 X13.3225 Y-1.8896
G01 X13.3194 Y-1.8937
G01 X13.3160 Y-1.8963
G01 X13.3121 Y-1.8979
G01 X13.3044 Y-1.8984
G01 X13.3003 Y-1.8972
G01 X13.2966 Y-1.8950
G01 X13.2935 Y-1.8920
G01 X13.2913 Y-1.8884
G01 X13.1522 Y-1.5408
G01 X13.1477 Y-1.5316
G01 X13.1424 Y-1.5237
G01 X13.1367 Y-1.5173
G01 X13.1303 Y-1.5116
G01 X13.1224 Y-1.5063
G01 X13.1140 Y-1.5021
G01 X13.1059 Y-1.4994
G01 X13.0975 Y-1.4976
G01 X13.0881 Y-1.4968
G01 X13.0786 Y-1.4973
G01 X13.0694 Y-1.4991
G01 X13.0604 Y-1.5021
G01 X13.0512 Y-1.5068
G01 X13.0435 Y-1.5122
G01 X13.0365 Y-1.5185
G01 X13.0305 Y-1.5258
G01 X13.0251 Y-1.5346
G01 X12.8838 Y-1.8868
G00 Z2.0000
G00 X13.7786 Y-1.6970
G01 F60.00
G01 Z-0.0560
G01 F50.00
G01 X13.7786 Y-1.4909
G01 X13.7791 Y-1.4857
G01 X13.7815 Y-1.4802
G01 X13.8540 Y-1.3595
G01 X13.8571 Y-1.3554
G01 X13.8612 Y-1.3523
G01 X13.8661 Y-1.3506
G01 X14.0110 Y-1.3143
G01 X14.0161 Y-1.3136
G01 X14.0212 Y-1.3143
G01 X14.1663 Y-1.3506
G01 X14.1717 Y-1.3527
G01 X14.1767 Y-1.3570
G01 X14.2514 Y-1.4448
G01 X14.2531 Y-1.4489
G01 X14.2536 Y-1.4542
G01 X14.2536 Y-1.5764
G01 X14.2529 Y-1.5806
G01 X14.2507 Y-1.5852
G01 X14.2479 Y-1.5885
G01 X14.2436 Y-1.5913
G01 X14.2395 Y-1.5927
G01 X14.2352 Y-1.5930
G01 X13.8836 Y-1.5930
G01 X13.8725 Y-1.5939
G01 X13.8609 Y-1.5969
G01 X13.8491 Y-1.6021
G01 X13.8392 Y-1.6089
G01 X13.8306 Y-1.6173
G01 X13.8236 Y-1.6271
G01 X13.8183 Y-1.6379
G01 X13.8150 Y-1.6494
G01 X13.8137 Y-1.6613
G01 X13.8137 Y-1.6900
G01 X13.8154 Y-1.7029
G01 X13.8333 Y-1.7768
G01 X13.8381 Y-1.7886
G01 X13.8445 Y-1.7987
G01 X13.8558 Y-1.8104
G01 X13.8686 Y-1.8188
G01 X13.9635 Y-1.8585
G01 X13.9759 Y-1.8622
G01 X13.9879 Y-1.8635
G01 X14.0982 Y-1.8636
G01 X14.1119 Y-1.8620
G01 X14.1202 Y-1.8597
G01 X14.1282 Y-1.8564
G01 X14.2272 Y-1.8048
G01 X14.2346 Y-1.8025
G01 X14.2405 Y-1.8030
G01 X14.2460 Y-1.8055
G01 X14.2503 Y-1.8097
G01 X14.2529 Y-1.8151
G01 X14.2536 Y-1.8210
G01 X14.2522 Y-1.8269
G01 X14.2490 Y-1.8319
G01 X14.2434 Y-1.8360
G01 X14.1277 Y-1.8963
G01 X14.1230 Y-1.8981
G01 X14.1180 Y-1.8986
G01 X13.9730 Y-1.8986
G01 X13.9670 Y-1.8979
G01 X13.8195 Y-1.8365
G01 X13.8157 Y-1.8345
G01 X13.8125 Y-1.8317
G01 X13.8100 Y-1.8281
G01 X13.8082 Y-1.8233
G01 X13.7792 Y-1.7027
G01 X13.7786 Y-1.6970
G00 Z2.0000
G00 X13.8994 Y-1.5580
G01 F60.00
G01 Z-0.0560
G01 F50.00
G01 X14.1494 Y-1.5580
G01 X14.1588 Y-1.5572
G01 X14.1681 Y-1.5552
G01 X14.1808 Y-1.5501
G01 X14.1923 Y-1.5426
G01 X14.2027 Y-1.5324
G01 X14.2103 Y-1.5210
G01 X14.2155 Y-1.5083
G01 X14.2182 Y-1.4948
G01 X14.2183 Y-1.4797
G01 X14.2158 Y-1.4663
G01 X14.2111 Y-1.4543
G01 X14.2049 Y-1.4441
G01 X14.1659 Y-1.3985
G01 X14.1590 Y-1.3919
G01 X14.1513 Y-1.3864
G01 X14.1429 Y-1.3820
G01 X14.1340 Y-1.3787
G01 X14.0323 Y-1.3532
G01 X14.0170 Y-1.3513
G01 X14.0008 Y-1.3530
G01 X13.9064 Y-1.3767
G01 X13.8952 Y-1.3810
G01 X13.8856 Y-1.3867
G01 X13.8764 Y-1.3944
G01 X13.8687 Y-1.4036
G01 X13.8362 Y-1.4580
G01 X13.8316 Y-1.4709
G01 X13.8295 Y-1.4853
G01 X13.8305 Y-1.4999
G01 X13.8341 Y-1.5131
G01 X13.8403 Y-1.5254
G01 X13.8493 Y-1.5368
G01 X13.8598 Y-1.5457
G01 X13.8727 Y-1.5526
G01 X13.8858 Y-1.5566
G01 X13.8994 Y-1.5580
G00 Z2.0000
G00 X14.5608 Y-1.3320
G01 F60.00
G01 Z-0.0560
G01 F50.00
G01 X14.5611 Y-1.3277
G01 X14.5625 Y-1.3236
G01 X14.5672 Y-1.3176
G01 X14.5740 Y-1.3141
G01 X14.5817 Y-1.3139
G01 X14.5858 Y-1.3153
G01 X14.5894 Y-1.3176
G01 X14.6024 Y-1.3319
G01 X14.6091 Y-1.3373
G01 X14.6163 Y-1.3418
G01 X14.6241 Y-1.3454
G01 X14.6323 Y-1.3480
G01 X14.6407 Y-1.3496
G01 X14.6501 Y-1.3501
G01 X14.6662 Y-1.3481
G01 X14.6806 Y-1.3428
G01 X14.6915 Y-1.3360
G01 X14.7152 Y-1.3166
G01 X14.7190 Y-1.3146
G01 X14.7233 Y-1.3137
G01 X14.8734 Y-1.3137
G01 X14.8792 Y-1.3153
G01 X14.8841 Y-1.3187
G01 X14.8875 Y-1.3236
G01 X14.8892 Y-1.3302
G01 X14.8882 Y-1.3370
G01 X14.8852 Y-1.3422
G01 X14.8807 Y-1.3461
G01 X14.8743 Y-1.3484
G01 X14.7533 Y-1.3487
G01 X14.7406 Y-1.3505
G01 X14.7277 Y-1.3549
G01 X14.7202 Y-1.3589
G01 X14.7125 Y-1.3643
G01 X14.6204 Y-1.4411
G01 X14.6114 Y-1.4504
G01 X14.6042 Y-1.4611
G01 X14.5982 Y-1.4764
G01 X14.5959 Y-1.4926
G01 X14.5958 Y-1.8820
G01 X14.5941 Y-1.8886
G01 X14.5907 Y-1.8935
G01 X14.5850 Y-1.8973
G01 X14.5792 Y-1.8986
G01 X14.5724 Y-1.8976
G01 X14.5665 Y-1.8941
G01 X14.5625 Y-1.8886
G01 X14.5608 Y-1.8820
G01 X14.5608 Y-1.3320
G00 Z2.0000
G00 X15.8346 Y-1.4969
G01 F60.00
G01 Z-0.0560
G01 F50.00
G01 X16.0402 Y-1.4969
G01 X16.0531 Y-1.4957
G01 X16.0622 Y-1.4933
G01 X16.0710 Y-1.4897
G01 X16.0792 Y-1.4850
G01 X16.0867 Y-1.4792
G01 X16.0933 Y-1.4725
G01 X16.0990 Y-1.4649
G01 X16.1039 Y-1.4559
G01 X16.1073 Y-1.4470
G01 X16.1095 Y-1.4370
G01 X16.1102 Y-1.4258
G01 X16.1092 Y-1.4147
G01 X16.1067 Y-1.4047
G01 X16.0020 Y-1.1256
G01 X15.9945 Y-1.1122
G01 X15.9843 Y-1.1007
G01 X15.9718 Y-1.0917
G01 X15.9577 Y-1.0856
G01 X15.9459 Y-1.0831
G01 X15.9340 Y-1.0827
G01 X15.9229 Y-1.0841
G01 X15.9115 Y-1.0876
G01 X15.9008 Y-1.0930
G01 X15.8918 Y-1.0995
G01 X15.8839 Y-1.1074
G01 X15.8770 Y-1.1172
G01 X15.8719 Y-1.1280
G01 X15.7674 Y-1.4072
G01 X15.7646 Y-1.4233
G01 X15.7657 Y-1.4395
G01 X15.7705 Y-1.4551
G01 X15.7783 Y-1.4685
G01 X15.7894 Y-1.4804
G01 X15.8030 Y-1.4894
G01 X15.8184 Y-1.4950
G01 X15.8346 Y-1.4969
G00 Z2.0000
G00 X16.1059 Y-1.5319
G01 F60.00
G01 Z-0.0560
G01 F50.00
G01 X15.7672 Y-1.5320
G01 X15.7569 Y-1.5330
G01 X15.7478 Y-1.5352
G01 X15.7390 Y-1.5386
G01 X15.7308 Y-1.5432
G01 X15.7220 Y-1.5500
G01 X15.7149 Y-1.5574
G01 X15.7089 Y-1.5658
G01 X15.7043 Y-1.5750
G01 X15.5864 Y-1.8888
G01 X15.5835 Y-1.8931
G01 X15.5802 Y-1.8958
G01 X15.5755 Y-1.8979
G01 X15.5713 Y-1.8986
G01 X15.5662 Y-1.8980
G01 X15.5622 Y-1.8964
G01 X15.5587 Y-1.8939
G01 X15.5560 Y-1.8906
G01 X15.5541 Y-1.8868
G01 X15.5532 Y-1.8826
G01 X15.5534 Y-1.8783
G01 X15.5546 Y-1.8741
G01 X15.9207 Y-0.8980
G01 X15.9225 Y-0.8940
G01 X15.9252 Y-0.8907
G01 X15.9287 Y-0.8881
G01 X15.9327 Y-0.8864
G01 X15.9396 Y-0.8859
G01 X15.9453 Y-0.8877
G01 X15.9507 Y-0.8919
G01 X15.9541 Y-0.8980
G01 X16.3202 Y-1.8741
G01 X16.3216 Y-1.8808
G01 X16.3207 Y-1.8868
G01 X16.3178 Y-1.8920
G01 X16.3126 Y-1.8964
G01 X16.3061 Y-1.8985
G01 X16.2984 Y-1.8977
G01 X16.2919 Y-1.8937
G01 X16.2880 Y-1.8881
G01 X16.1715 Y-1.5774
G01 X16.1667 Y-1.5673
G01 X16.1615 Y-1.5594
G01 X16.1553 Y-1.5524
G01 X16.1482 Y-1.5462
G01 X16.1411 Y-1.5414
G01 X16.1326 Y-1.5372
G01 X16.1245 Y-1.5345
G01 X16.1153 Y-1.5326
G01 X16.1059 Y-1.5319
G00 Z2.0000
G00 X16.6471 Y-2.1430
G01 F60.00
G01 Z-0.0560
G01 F50.00
G01 X16.6411 Y-2.1423
G01 X16.6365 Y-2.1401
G01 X16.6327 Y-2.1366
G01 X16.6300 Y-2.1322
G01 X16.6288 Y-2.1272
G01 X16.6290 Y-2.1221
G01 X16.6307 Y-2.1172
G01 X16.6338 Y-2.1131
G01 X16.6387 Y-2.1097
G01 X16.6445 Y-2.1081
G01 X16.6784 Y-2.1079
G01 X16.6911 Y-2.1063
G01 X16.7048 Y-2.1017
G01 X16.7173 Y-2.0943
G01 X16.7239 Y-2.0889
G01 X16.7303 Y-2.0820
G01 X16.7634 Y-2.0378
G01 X16.7703 Y-2.0248
G01 X16.7743 Y-2.0107
G01 X16.7754 Y-1.9986
G01 X16.7754 Y-1.3302
G01 X16.7774 Y-1.3228
G01 X16.7825 Y-1.3170
G01 X16.7895 Y-1.3139
G01 X16.7963 Y-1.3139
G01 X16.8019 Y-1.3161
G01 X16.8064 Y-1.3200
G01 X16.8094 Y-1.3252
G01 X16.8104 Y-1.3320
G01 X16.8101 Y-2.0312
G01 X16.8087 Y-2.0354
G01 X16.8064 Y-2.0390
G01 X16.7341 Y-2.1353
G01 X16.7293 Y-2.1401
G01 X16.7247 Y-2.1423
G01 X16.7205 Y-2.1430
G01 X16.6471 Y-2.1430
G00 Z2.0000
G00 X23.1465 Y-3.8781
G01 F60.00
G01 Z-0.0560
G01 F50.00
G01 X23.1566 Y-3.9229
G01 X23.1693 Y-3.9688
G01 X23.1842 Y-4.0140
G01 X23.2007 Y-4.0568
G01 X23.2214 Y-4.1035
G01 X23.2420 Y-4.1445
G01 X23.2655 Y-4.1859
G01 X23.2910 Y-4.2261
G01 X23.3174 Y-4.2636
G01 X23.3488 Y-4.3039
G01 X23.3788 Y-4.3386
G01 X23.4116 Y-4.3731
G01 X23.4461 Y-4.4059
G01 X23.4808 Y-4.4359
G01 X23.5211 Y-4.4673
G01 X23.5586 Y-4.4937
G01 X23.5988 Y-4.5192
G01 X23.6402 Y-4.5427
G01 X23.6812 Y-4.5633
G01 X23.7279 Y-4.5840
G01 X23.7707 Y-4.6005
G01 X23.8159 Y-4.6154
G01 X23.8618 Y-4.6281
G01 X23.9066 Y-4.6382
G01 X23.9569 Y-4.6469
G01 X24.0024 Y-4.6525
G01 X24.0499 Y-4.6560
G01 X24.0975 Y-4.6572
G01 X24.1434 Y-4.6561
G01 X24.1943 Y-4.6523
G01 X24.2398 Y-4.6467
G01 X24.2867 Y-4.6386
G01 X24.3332 Y-4.6281
G01 X24.3774 Y-4.6159
G01 X24.4259 Y-4.5999
G01 X24.4687 Y-4.5834
G01 X24.5122 Y-4.5641
G01 X24.5548 Y-4.5427
G01 X24.5947 Y-4.5201
G01 X24.6364 Y-4.4937
G01 X24.6753 Y-4.4663
G01 X24.7115 Y-4.4381
G01 X24.7502 Y-4.4048
G01 X24.7834 Y-4.3731
G01 X24.8162 Y-4.3386
G01 X24.8473 Y-4.3026
G01 X24.8756 Y-4.2664
G01 X24.9050 Y-4.2247
G01 X24.9295 Y-4.1859
G01 X24.9530 Y-4.1445
G01 X24.9744 Y-4.1019
G01 X24.9930 Y-4.0600
G01 X25.0132 Y-4.0068
G01 X25.5401 Y-4.0065
G01 X25.5404 Y-4.7858
G01 X25.5426 Y-4.7985
G01 X25.5472 Y-4.8105
G01 X25.5539 Y-4.8215
G01 X25.5625 Y-4.8311
G01 X25.5727 Y-4.8389
G01 X25.5841 Y-4.8448
G01 X25.5964 Y-4.8485
G01 X25.6084 Y-4.8498
G01 X27.0101 Y-4.8498
G01 X27.0254 Y-4.8481
G01 X27.0392 Y-4.8434
G01 X27.0475 Y-4.8389
G01 X27.0558 Y-4.8328
G01 X27.0625 Y-4.8262
G01 X27.0683 Y-4.8187
G01 X27.0730 Y-4.8105
G01 X27.0766 Y-4.8018
G01 X27.0789 Y-4.7926
G01 X27.0800 Y-4.7832
G01 X27.0801 Y-4.0056
G01 X27.4713 Y-4.0054
G01 X27.4724 Y-4.0498
G01 X27.4757 Y-4.0956
G01 X27.4815 Y-4.1428
G01 X27.4898 Y-4.1914
G01 X27.5003 Y-4.2379
G01 X27.5130 Y-4.2838
G01 X27.5285 Y-4.3306
G01 X27.5450 Y-4.3734
G01 X27.5636 Y-4.4154
G01 X27.5857 Y-4.4595
G01 X27.6101 Y-4.5023
G01 X27.6347 Y-4.5411
G01 X27.6611 Y-4.5786
G01 X27.6914 Y-4.6176
G01 X27.7225 Y-4.6536
G01 X27.7553 Y-4.6881
G01 X27.7911 Y-4.7221
G01 X27.8272 Y-4.7531
G01 X27.8634 Y-4.7813
G01 X27.9009 Y-4.8078
G01 X27.9425 Y-4.8342
G01 X27.9855 Y-4.8585
G01 X28.0280 Y-4.8798
G01 X28.0700 Y-4.8984
G01 X28.1128 Y-4.9149
G01 X28.1596 Y-4.9304
G01 X28.2055 Y-4.9431
G01 X28.2520 Y-4.9536
G01 X28.3006 Y-4.9619
G01 X28.3461 Y-4.9675
G01 X28.3919 Y-4.9709
G01 X28.4395 Y-4.9722
G01 X28.4888 Y-4.9710
G01 X28.5363 Y-4.9675
G01 X28.5852 Y-4.9614
G01 X28.6304 Y-4.9536
G01 X28.6752 Y-4.9435
G01 X28.7228 Y-4.9304
G01 X28.7688 Y-4.9152
G01 X28.8124 Y-4.8984
G01 X28.8544 Y-4.8798
G01 X28.8985 Y-4.8577
G01 X28.9399 Y-4.8342
G01 X28.9787 Y-4.8097
G01 X29.0204 Y-4.7803
G01 X29.0566 Y-4.7520
G01 X29.0926 Y-4.7209
G01 X29.1271 Y-4.6881
G01 X29.1588 Y-4.6549
G01 X29.1921 Y-4.6162
G01 X29.2203 Y-4.5800
G01 X29.2468 Y-4.5425
G01 X29.2741 Y-4.4994
G01 X29.2967 Y-4.4595
G01 X29.3181 Y-4.4169
G01 X29.3374 Y-4.3734
G01 X29.3539 Y-4.3306
G01 X29.3694 Y-4.2838
G01 X29.3825 Y-4.2362
G01 X29.3926 Y-4.1914
G01 X29.4007 Y-4.1445
G01 X29.4065 Y-4.0973
G01 X29.4099 Y-4.0515
G01 X29.4112 Y-4.0013
G01 X29.4100 Y-3.9546
G01 X29.4067 Y-3.9088
G01 X29.4007 Y-3.8599
G01 X29.3922 Y-3.8113
G01 X29.3821 Y-3.7665
G01 X29.3699 Y-3.7223
G01 X29.3539 Y-3.6738
G01 X29.3374 Y-3.6310
G01 X29.3188 Y-3.5890
G01 X29.2967 Y-3.5449
G01 X29.2723 Y-3.5021
G01 X29.2477 Y-3.4633
G01 X29.2203 Y-3.4244
G01 X29.1910 Y-3.3868
G01 X29.1611 Y-3.3521
G01 X29.1259 Y-3.3151
G01 X29.0926 Y-3.2835
G01 X29.0559 Y-3.2518
G01 X29.0190 Y-3.2231
G01 X28.9801 Y-3.1957
G01 X28.9399 Y-3.1702
G01 X28.8992 Y-3.1471
G01 X28.8559 Y-3.1253
G01 X28.8132 Y-3.1064
G01 X28.7680 Y-3.0889
G01 X28.7363 Y-3.0784
G01 X28.7363 Y-2.9338
G01 X29.0722 Y-2.9335
G01 X29.0807 Y-2.9323
G01 X29.0890 Y-2.9300
G01 X29.1036 Y-2.9229
G01 X29.1163 Y-2.9127
G01 X29.1262 Y-2.8998
G01 X29.1305 Y-2.8914
G01 X29.1337 Y-2.8825
G01 X29.1356 Y-2.8732
G01 X29.1362 Y-2.8647
G01 X29.1362 Y-1.8682
G01 X29.6458 Y-1.4313
G01 X51.6409 Y-1.4313
G01 X51.6410 Y-3.3797
G01 X49.4239 Y-5.5741
G01 X46.7120 Y-5.5741
G01 X46.6904 Y-5.5752
G01 X46.6699 Y-5.5782
G01 X46.6465 Y-5.5841
G01 X46.6294 Y-5.5902
G01 X46.6179 Y-5.5953
G01 X46.6068 Y-5.6009
G01 X46.5912 Y-5.6103
G01 X46.5711 Y-5.6252
G01 X46.5564 Y-5.6386
G01 X46.4160 Y-5.7793
G01 X46.4007 Y-5.7980
G01 X46.3906 Y-5.8131
G01 X46.3844 Y-5.8240
G01 X46.3752 Y-5.8435
G01 X46.3679 Y-5.8638
G01 X46.3627 Y-5.8848
G01 X46.3593 Y-5.9078
G01 X46.3584 Y-5.9277
G01 X46.3584 Y-6.1639
G01 X43.0846 Y-6.1678
G01 X43.0734 Y-6.1648
G01 X43.0614 Y-6.1638
G01 X41.9614 Y-6.1638
G01 X41.9477 Y-6.1651
G01 X41.9346 Y-6.1691
G01 X39.4824 Y-6.1721
G01 X39.4461 Y-6.1739
G01 X39.4085 Y-6.1796
G01 X39.3766 Y-6.1876
G01 X39.3585 Y-6.1936
G01 X39.3234 Y-6.2081
G01 X39.3072 Y-6.2164
G01 X39.2879 Y-6.2276
G01 X38.9997 Y-6.2277
G01 X38.9878 Y-6.2295
G01 X38.9764 Y-6.2333
G01 X38.9651 Y-6.2394
G01 X38.9557 Y-6.2469
G01 X38.9468 Y-6.2573
G01 X38.9404 Y-6.2685
G01 X38.9361 Y-6.2806
G01 X38.9341 Y-6.2942
G01 X38.9340 Y-6.6664
G01 X38.1451 Y-6.6655
G01 X38.1451 Y-6.2849
G01 X38.1446 Y-6.2763
G01 X38.1423 Y-6.2654
G01 X38.1387 Y-6.2558
G01 X38.1338 Y-6.2467
G01 X38.1270 Y-6.2379
G01 X38.1195 Y-6.2308
G01 X38.1103 Y-6.2244
G01 X38.1003 Y-6.2196
G01 X38.0896 Y-6.2164
G01 X38.0751 Y-6.2149
G01 X36.7751 Y-6.2149
G01 X36.7640 Y-6.2158
G01 X36.7523 Y-6.2187
G01 X36.7413 Y-6.2236
G01 X36.7314 Y-6.2302
G01 X36.7227 Y-6.2385
G01 X36.7155 Y-6.2482
G01 X36.7101 Y-6.2589
G01 X36.7066 Y-6.2704
G01 X36.7051 Y-6.2823
G01 X36.7051 Y-7.6858
G01 X36.7066 Y-7.6994
G01 X36.7104 Y-7.7117
G01 X36.7169 Y-7.7238
G01 X36.7250 Y-7.7338
G01 X36.7348 Y-7.7421
G01 X36.7467 Y-7.7489
G01 X36.7589 Y-7.7530
G01 X36.7717 Y-7.7548
G01 X38.0751 Y-7.7549
G01 X38.0845 Y-7.7543
G01 X38.0929 Y-7.7526
G01 X38.1027 Y-7.7492
G01 X38.1118 Y-7.7445
G01 X38.1202 Y-7.7385
G01 X38.1281 Y-7.7306
G01 X38.1342 Y-7.7223
G01 X38.1394 Y-7.7125
G01 X38.1428 Y-7.7027
G01 X38.1447 Y-7.6926
G01 X38.1451 Y-7.3058
G01 X38.9340 Y-7.3066
G01 X38.9340 Y-7.5976
G01 X38.9349 Y-7.6087
G01 X38.9373 Y-7.6187
G01 X38.9415 Y-7.6291
G01 X38.9473 Y-7.6386
G01 X38.9545 Y-7.6471
G01 X38.9630 Y-7.6543
G01 X38.9725 Y-7.6601
G01 X38.9829 Y-7.6643
G01 X38.9937 Y-7.6668
G01 X39.0040 Y-7.6676
G01 X40.6040 Y-7.6676
G01 X40.6177 Y-7.6663
G01 X40.6284 Y-7.6632
G01 X40.6392 Y-7.6581
G01 X40.6484 Y-7.6517
G01 X40.6564 Y-7.6440
G01 X40.6631 Y-7.6350
G01 X40.6683 Y-7.6252
G01 X40.6721 Y-7.6138
G01 X40.6738 Y-7.6027
G01 X40.6740 Y-6.9109
G01 X46.3857 Y-6.9041
G01 X47.0991 Y-7.6168
G01 X47.1251 Y-7.6383
G01 X47.1414 Y-7.6498
G01 X47.1710 Y-7.6676
G01 X47.1887 Y-7.6766
G01 X47.2069 Y-7.6846
G01 X47.2396 Y-7.6962
G01 X47.2731 Y-7.7047
G01 X47.2935 Y-7.7083
G01 X47.3271 Y-7.7116
G01 X47.3470 Y-7.7121
G01 X51.0809 Y-7.7121
G01 X51.1171 Y-7.7103
G01 X51.1352 Y-7.7080
G01 X51.1578 Y-7.7038
G01 X51.7648 Y-7.7037
G01 X51.7734 Y-7.7028
G01 X51.7825 Y-7.7005
G01 X51.7913 Y-7.6971
G01 X51.7988 Y-7.6929
G01 X51.8090 Y-7.6851
G01 X51.8359 Y-7.6583
G01 X52.1466 Y-7.6602
G01 X52.1466 Y-8.6104
G01 X51.8380 Y-8.6114
G01 X51.8097 Y-8.5831
G01 X51.7996 Y-8.5751
G01 X51.7913 Y-8.5705
G01 X51.7825 Y-8.5671
G01 X51.7734 Y-8.5648
G01 X51.7640 Y-8.5638
G01 X50.6571 Y-8.5639
G01 X50.6452 Y-8.5657
G01 X50.6338 Y-8.5695
G01 X50.6232 Y-8.5751
G01 X50.6138 Y-8.5825
G01 X50.5090 Y-8.6874
G01 X50.5037 Y-8.6942
G01 X50.4993 Y-8.7016
G01 X50.4958 Y-8.7094
G01 X50.4933 Y-8.7176
G01 X50.4914 Y-8.7338
G01 X50.4914 Y-9.1338
G01 X50.4933 Y-9.1500
G01 X50.4961 Y-9.1590
G01 X50.4997 Y-9.1668
G01 X50.5047 Y-9.1748
G01 X50.5107 Y-9.1821
G01 X50.6131 Y-9.2845
G01 X50.6225 Y-9.2920
G01 X50.6322 Y-9.2974
G01 X50.6461 Y-9.3021
G01 X50.6614 Y-9.3038
G01 X51.7665 Y-9.3036
G01 X51.7759 Y-9.3023
G01 X51.7842 Y-9.3000
G01 X51.7929 Y-9.2963
G01 X51.8010 Y-9.2915
G01 X51.8097 Y-9.2845
G01 X51.8426 Y-9.2516
G01 X52.4686 Y-9.2496
G01 X52.5007 Y-9.2478
G01 X52.5283 Y-9.2436
G01 X52.5445 Y-9.2400
G01 X52.5753 Y-9.2306
G01 X52.6058 Y-9.2178
G01 X52.6304 Y-9.2046
G01 X52.6436 Y-9.1963
G01 X52.6702 Y-9.1766
G01 X52.6934 Y-9.1555
G01 X52.7155 Y-9.1309
G01 X52.7251 Y-9.1185
G01 X52.7406 Y-9.0952
G01 X52.7562 Y-9.0661
G01 X52.7682 Y-9.0371
G01 X52.7777 Y-9.0055
G01 X52.7831 Y-8.9781
G01 X52.7851 Y-8.9625
G01 X52.7868 Y-8.9304
G01 X52.7868 Y-7.3420
G01 X52.7851 Y-7.3090
G01 X52.7810 Y-7.2815
G01 X52.7773 Y-7.2645
G01 X52.7726 Y-7.2478
G01 X52.7633 Y-7.2215
G01 X52.7485 Y-7.1901
G01 X52.7333 Y-7.1648
G01 X52.7136 Y-7.1383
G01 X52.6949 Y-7.1176
G01 X52.6837 Y-7.1067
G01 X52.6597 Y-7.0866
G01 X52.6324 Y-7.0681
G01 X52.6048 Y-7.0532
G01 X52.5760 Y-7.0411
G01 X52.5444 Y-7.0315
G01 X52.5291 Y-7.0280
G01 X52.5016 Y-7.0238
G01 X52.4695 Y-7.0219
G01 X51.8447 Y-7.0181
G01 X51.8097 Y-6.9831
G01 X51.8010 Y-6.9761
G01 X51.7936 Y-6.9717
G01 X51.7850 Y-6.9679
G01 X51.7759 Y-6.9653
G01 X51.7665 Y-6.9640
G01 X50.6614 Y-6.9638
G01 X50.6528 Y-6.9643
G01 X50.6444 Y-6.9659
G01 X50.6288 Y-6.9719
G01 X49.9471 Y-6.9718
G01 X49.8689 Y-6.8936
G01 X49.8689 Y-5.8938
G01 X52.1011 Y-3.6844
G01 X52.1115 Y-3.6735
G01 X52.1274 Y-3.6542
G01 X52.1414 Y-3.6335
G01 X52.1493 Y-3.6197
G01 X52.1557 Y-3.6070
G01 X52.1646 Y-3.5856
G01 X52.1730 Y-3.5584
G01 X52.1785 Y-3.5306
G01 X52.1808 Y-3.5075
G01 X52.1812 Y-3.4933
G01 X52.1811 Y-1.4313
G01 X56.6710 Y-1.4313
G01 X56.6710 Y-8.7312
G01 X56.6715 Y-8.7486
G01 X56.6744 Y-8.7782
G01 X56.6802 Y-8.8073
G01 X56.6848 Y-8.8241
G01 X56.6960 Y-8.8553
G01 X56.7080 Y-8.8806
G01 X56.7165 Y-8.8958
G01 X56.7350 Y-8.9233
G01 X56.7528 Y-8.9449
G01 X56.7641 Y-8.9569
G01 X58.9302 Y-11.1231
G01 X58.9302 Y-12.1910
G01 X58.9308 Y-12.1995
G01 X58.9325 Y-12.2079
G01 X58.9355 Y-12.2169
G01 X58.9393 Y-12.2246
G01 X58.9440 Y-12.2318
G01 X58.9501 Y-12.2390
G01 X58.9565 Y-12.2448
G01 X58.9635 Y-12.2497
G01 X58.9711 Y-12.2537
G01 X58.9799 Y-12.2571
G01 X58.9882 Y-12.2591
G01 X58.9968 Y-12.2600
G01 X59.7070 Y-12.2601
G01 X60.2796 Y-13.4726
G01 X60.2796 Y-14.7827
G01 X58.7847 Y-17.1317
G01 X58.7761 Y-17.1461
G01 X58.7632 Y-17.1716
G01 X58.7567 Y-17.1870
G01 X58.7477 Y-17.2133
G01 X58.7432 Y-17.2303
G01 X58.7381 Y-17.2568
G01 X58.7350 Y-17.2901
G01 X58.7347 Y-17.7583
G01 X58.7031 Y-17.7583
G01 X58.6937 Y-17.7592
G01 X58.6796 Y-17.7630
G01 X58.6666 Y-17.7696
G01 X58.6541 Y-17.7800
G01 X58.6443 Y-17.7931
G01 X58.6378 Y-17.8080
G01 X58.6349 Y-17.8240
G01 X58.6348 Y-18.8958
G01 X57.2708 Y-20.2625
G01 X57.2583 Y-20.2770
G01 X57.2417 Y-20.2995
G01 X57.2238 Y-20.3294
G01 X57.2119 Y-20.3546
G01 X57.2056 Y-20.3709
G01 X57.2002 Y-20.3874
G01 X57.1932 Y-20.4154
G01 X57.1884 Y-20.4473
G01 X57.1869 Y-20.4786
G01 X57.1869 Y-27.8182
G01 X53.4328 Y-27.8182
G01 X52.3653 Y-26.7506
G01 X52.3420 Y-26.7295
G01 X52.3175 Y-26.7113
G01 X52.2883 Y-26.6939
G01 X52.2742 Y-26.6869
G01 X52.2484 Y-26.6762
G01 X52.2167 Y-26.6665
G01 X52.1850 Y-26.6602
G01 X52.1686 Y-26.6583
G01 X52.1398 Y-26.6569
G01 X51.9056 Y-26.6569
G01 X51.9055 Y-26.5745
G01 X51.9041 Y-26.5634
G01 X51.9009 Y-26.5527
G01 X51.8969 Y-26.5441
G01 X51.8923 Y-26.5369
G01 X51.8863 Y-26.5296
G01 X51.8800 Y-26.5238
G01 X51.8723 Y-26.5183
G01 X51.8647 Y-26.5143
G01 X51.8567 Y-26.5112
G01 X51.8484 Y-26.5091
G01 X51.8356 Y-26.5079
G01 X51.1871 Y-26.5079
G01 X50.4164 Y-25.7372
G01 X50.8036 Y-25.3497
G01 X50.8179 Y-25.3324
G01 X50.8299 Y-25.3144
G01 X50.8400 Y-25.2954
G01 X50.8480 Y-25.2762
G01 X50.8546 Y-25.2548
G01 X50.8588 Y-25.2336
G01 X50.8609 Y-25.2121
G01 X50.8608 Y-25.1888
G01 X50.8573 Y-25.1601
G01 X50.8522 Y-25.1391
G01 X50.8444 Y-25.1171
G01 X50.8352 Y-25.0976
G01 X50.8241 Y-25.0790
G01 X50.8112 Y-25.0617
G01 X50.7967 Y-25.0457
G01 X50.7794 Y-25.0301
G01 X50.7557 Y-25.0134
G01 X50.7367 Y-25.0031
G01 X50.7152 Y-24.9941
G01 X50.6954 Y-24.9880
G01 X50.6717 Y-24.9834
G01 X50.6428 Y-24.9812
G01 X50.6195 Y-24.9823
G01 X50.5965 Y-24.9858
G01 X50.5686 Y-24.9935
G01 X50.5470 Y-25.0024
G01 X50.5265 Y-25.0134
G01 X50.5028 Y-25.0301
G01 X50.4855 Y-25.0457
G01 X49.9941 Y-25.5370
G01 X49.0166 Y-25.5370
G01 X49.0071 Y-25.5316
G01 X48.9975 Y-25.5279
G01 X48.9875 Y-25.5257
G01 X48.9772 Y-25.5249
G01 X48.3763 Y-25.5249
G01 X48.3635 Y-25.5262
G01 X48.3504 Y-25.5302
G01 X48.3412 Y-25.5349
G01 X48.3328 Y-25.5408
G01 X48.3253 Y-25.5479
G01 X48.3190 Y-25.5560
G01 X48.3139 Y-25.5650
G01 X48.3102 Y-25.5746
G01 X48.3081 Y-25.5838
G01 X48.3072 Y-25.5940
G01 X48.3071 Y-27.2081
G01 X48.3007 Y-27.2372
G01 X48.2992 Y-27.2496
G01 X48.2983 Y-27.2695
G01 X48.2983 Y-28.9147
G01 X47.0103 Y-28.9147
G01 X46.9879 Y-28.9159
G01 X46.9691 Y-28.9186
G01 X46.9568 Y-28.9213
G01 X46.9378 Y-28.9270
G01 X46.9245 Y-28.9322
G01 X46.9073 Y-28.9403
G01 X46.8957 Y-28.9469
G01 X46.8792 Y-28.9580
G01 X46.8638 Y-28.9706
G01 X46.8535 Y-28.9804
G01 X46.8402 Y-28.9952
G01 X46.8283 Y-29.0111
G01 X46.8215 Y-29.0217
G01 X46.8121 Y-29.0392
G01 X46.8070 Y-29.0506
G01 X46.8002 Y-29.0693
G01 X46.7964 Y-29.0830
G01 X46.7915 Y-29.1115
G01 X46.7902 Y-29.1339
G01 X46.7902 Y-30.0476
G01 X46.7906 Y-30.0601
G01 X46.7925 Y-30.0790
G01 X46.7984 Y-30.1069
G01 X46.7984 Y-32.0018
G01 X46.7999 Y-32.0146
G01 X46.8037 Y-32.0269
G01 X46.8097 Y-32.0383
G01 X46.8183 Y-32.0490
G01 X46.8281 Y-32.0573
G01 X46.8400 Y-32.0641
G01 X46.8522 Y-32.0682
G01 X46.8650 Y-32.0700
G01 X47.1684 Y-32.0701
G01 X47.1795 Y-32.0692
G01 X47.1904 Y-32.0666
G01 X47.2006 Y-32.0622
G01 X47.2101 Y-32.0563
G01 X47.2185 Y-32.0490
G01 X47.2256 Y-32.0404
G01 X47.2313 Y-32.0308
G01 X47.2354 Y-32.0204
G01 X47.2378 Y-32.0095
G01 X47.2384 Y-32.0001
G01 X47.2384 Y-30.0001
G01 X47.2379 Y-29.9915
G01 X47.2363 Y-29.9831
G01 X47.2304 Y-29.9676
G01 X47.2304 Y-29.3549
G01 X48.5292 Y-29.3546
G01 X48.5507 Y-29.3525
G01 X48.5719 Y-29.3483
G01 X48.5925 Y-29.3420
G01 X48.6125 Y-29.3337
G01 X48.6315 Y-29.3236
G01 X48.6495 Y-29.3116
G01 X48.6662 Y-29.2979
G01 X48.6820 Y-29.2820
G01 X48.6952 Y-29.2659
G01 X48.7063 Y-29.2494
G01 X48.7133 Y-29.2370
G01 X48.7217 Y-29.2190
G01 X48.7290 Y-29.1987
G01 X48.7339 Y-29.1794
G01 X48.7363 Y-29.1654
G01 X48.7382 Y-29.1447
G01 X48.7385 Y-27.6649
G01 X48.9781 Y-27.6649
G01 X48.9937 Y-27.6629
G01 X50.1656 Y-27.6629
G01 X50.1656 Y-27.8788
G01 X50.1673 Y-27.8932
G01 X50.1706 Y-27.9039
G01 X50.1756 Y-27.9139
G01 X50.1820 Y-27.9230
G01 X50.1899 Y-27.9309
G01 X50.1989 Y-27.9375
G01 X50.2088 Y-27.9426
G01 X50.2194 Y-27.9460
G01 X50.2296 Y-27.9476
G01 X51.8433 Y-27.9475
G01 X51.8551 Y-27.9451
G01 X51.8663 Y-27.9408
G01 X51.8766 Y-27.9346
G01 X51.8857 Y-27.9268
G01 X51.8933 Y-27.9175
G01 X51.8989 Y-27.9078
G01 X51.9031 Y-27.8966
G01 X51.9053 Y-27.8848
G01 X51.9056 Y-27.2971
G01 X52.0063 Y-27.2971
G01 X53.0846 Y-28.3749
G01 X53.0985 Y-28.3868
G01 X53.1209 Y-28.4035
G01 X53.1508 Y-28.4214
G01 X53.1761 Y-28.4334
G01 X53.1924 Y-28.4397
G01 X53.2208 Y-28.4484
G01 X53.2386 Y-28.4524
G01 X53.2688 Y-28.4569
G01 X53.3002 Y-28.4584
G01 X57.5079 Y-28.4584
G01 X57.5384 Y-28.4569
G01 X57.5678 Y-28.4526
G01 X57.5864 Y-28.4484
G01 X57.6148 Y-28.4397
G01 X57.6439 Y-28.4277
G01 X57.6701 Y-28.4137
G01 X57.6863 Y-28.4035
G01 X57.7107 Y-28.3852
G01 X57.7346 Y-28.3634
G01 X57.7534 Y-28.3427
G01 X57.7631 Y-28.3304
G01 X57.7816 Y-28.3029
G01 X57.7964 Y-28.2752
G01 X57.8084 Y-28.2461
G01 X57.8179 Y-28.2144
G01 X57.8213 Y-28.1991
G01 X57.8254 Y-28.1714
G01 X57.8271 Y-28.1392
G01 X57.8271 Y-20.6110
G01 X58.6349 Y-19.8020
G01 X58.6349 Y-20.0283
G01 X58.6358 Y-20.0394
G01 X58.6379 Y-20.0486
G01 X58.6413 Y-20.0575
G01 X58.6458 Y-20.0658
G01 X58.6519 Y-20.0740
G01 X58.6592 Y-20.0813
G01 X58.6667 Y-20.0870
G01 X58.6750 Y-20.0916
G01 X58.6838 Y-20.0950
G01 X58.6946 Y-20.0975
G01 X58.7049 Y-20.0983
G01 X59.4075 Y-20.0983
G01 X59.4169 Y-20.0973
G01 X59.4252 Y-20.0953
G01 X59.4333 Y-20.0923
G01 X59.4416 Y-20.0879
G01 X59.4486 Y-20.0830
G01 X59.4556 Y-20.0766
G01 X59.4616 Y-20.0693
G01 X59.4662 Y-20.0621
G01 X59.4699 Y-20.0543
G01 X59.4726 Y-20.0461
G01 X59.4743 Y-20.0377
G01 X59.4749 Y-20.0283
G01 X59.4748 Y-17.8257
G01 X59.4723 Y-17.8096
G01 X59.4661 Y-17.7945
G01 X59.4615 Y-17.7873
G01 X59.4561 Y-17.7807
G01 X59.4437 Y-17.7701
G01 X59.4308 Y-17.7633
G01 X59.4168 Y-17.7593
G01 X59.4065 Y-17.7583
G01 X59.3749 Y-17.7583
G01 X59.3749 Y-17.3968
G01 X60.8254 Y-15.1176
G01 X61.6496 Y-15.1176
G01 X61.6590 Y-15.1170
G01 X61.6674 Y-15.1153
G01 X61.6764 Y-15.1123
G01 X61.6856 Y-15.1076
G01 X61.6933 Y-15.1023
G01 X61.7003 Y-15.0959
G01 X61.7063 Y-15.0886
G01 X61.7113 Y-15.0806
G01 X61.7152 Y-15.0720
G01 X61.7179 Y-15.0629
G01 X61.7196 Y-15.0485
G01 X61.7196 Y-14.8766
G01 X66.8733 Y-14.8766
G01 X66.8977 Y-14.8759
G01 X66.9187 Y-14.8744
G01 X66.9412 Y-14.8717
G01 X66.9636 Y-14.8678
G01 X66.9842 Y-14.8633
G01 X67.0078 Y-14.8570
G01 X67.0294 Y-14.8499
G01 X67.0522 Y-14.8412
G01 X67.0903 Y-14.8235
G01 X67.1117 Y-14.8117
G01 X72.2439 Y-11.7929
G01 X72.2838 Y-11.8182
G01 X72.3280 Y-11.8432
G01 X72.3764 Y-11.8677
G01 X72.4260 Y-11.8896
G01 X72.4734 Y-11.9079
G01 X72.5233 Y-11.9243
G01 X72.5756 Y-11.9387
G01 X72.6252 Y-11.9498
G01 X72.6769 Y-11.9588
G01 X72.7290 Y-11.9652
G01 X72.7797 Y-11.9690
G01 X72.8339 Y-11.9704
G01 X72.8864 Y-11.9691
G01 X72.9371 Y-11.9654
G01 X72.9909 Y-11.9588
G01 X73.0443 Y-11.9495
G01 X73.0939 Y-11.9383
G01 X73.1445 Y-11.9243
G01 X73.1960 Y-11.9073
G01 X73.2434 Y-11.8890
G01 X73.2914 Y-11.8677
G01 X73.3398 Y-11.8432
G01 X73.3840 Y-11.8182
G01 X73.4276 Y-11.7905
G01 X73.4727 Y-11.7588
G01 X73.5127 Y-11.7275
G01 X73.5525 Y-11.6932
G01 X73.5905 Y-11.6570
G01 X73.6255 Y-11.6202
G01 X73.6610 Y-11.5792
G01 X73.6933 Y-11.5378
G01 X73.7226 Y-11.4963
G01 X73.7517 Y-11.4505
G01 X73.7776 Y-11.4048
G01 X73.8004 Y-11.3594
G01 X73.8228 Y-11.3091
G01 X73.8414 Y-11.2609
G01 X73.8573 Y-11.2126
G01 X73.8718 Y-11.1604
G01 X73.8833 Y-11.1091
G01 X73.8920 Y-11.0591
G01 X73.8989 Y-11.0036
G01 X73.9026 Y-10.9529
G01 X73.9039 Y-10.9021
G01 X73.9025 Y-10.8462
G01 X73.8987 Y-10.7955
G01 X73.8923 Y-10.7434
G01 X73.8833 Y-10.6917
G01 X73.8747 Y-10.6529
G01 X74.7455 Y-9.7639
G01 X75.2124 Y-9.6533
G01 X75.2432 Y-9.6826
G01 X75.2830 Y-9.7169
G01 X75.3244 Y-9.7492
G01 X75.3673 Y-9.7795
G01 X75.4117 Y-9.8076
G01 X75.4574 Y-9.8335
G01 X75.5043 Y-9.8571
G01 X75.5523 Y-9.8784
G01 X75.6013 Y-9.8973
G01 X75.6512 Y-9.9137
G01 X75.7018 Y-9.9277
G01 X75.7531 Y-9.9392
G01 X75.8048 Y-9.9482
G01 X75.8569 Y-9.9546
G01 X75.9093 Y-9.9585
G01 X75.9618 Y-9.9598
G01 X76.0143 Y-9.9585
G01 X76.0650 Y-9.9548
G01 X76.1188 Y-9.9482
G01 X76.1722 Y-9.9389
G01 X76.2218 Y-9.9277
G01 X76.2708 Y-9.9142
G01 X76.3239 Y-9.8967
G01 X76.3713 Y-9.8784
G01 X76.4177 Y-9.8578
G01 X76.4662 Y-9.8335
G01 X76.5178 Y-9.8038
G01 X78.7407 Y-9.8038
G01 X78.7572 Y-9.8026
G01 X78.7733 Y-9.7991
G01 X78.7888 Y-9.7934
G01 X78.8014 Y-9.7869
G01 X78.8136 Y-9.7785
G01 X78.8236 Y-9.7698
G01 X80.2920 Y-8.3410
G01 X80.3002 Y-8.3322
G01 X80.3074 Y-8.3227
G01 X80.3137 Y-8.3125
G01 X80.3192 Y-8.3009
G01 X80.3230 Y-8.2904
G01 X80.3259 Y-8.2788
G01 X80.3277 Y-8.2670
G01 X80.3283 Y-8.2550
G01 X80.3283 Y-4.0185
G01 X81.7265 Y-2.6203
G01 X85.0005 Y-2.6203
G01 X86.2399 Y-3.8597
G01 X86.2399 Y-7.7797
G01 X86.2411 Y-7.7956
G01 X86.2437 Y-7.8088
G01 X86.2487 Y-7.8239
G01 X86.2545 Y-7.8361
G01 X86.2630 Y-7.8496
G01 X86.2715 Y-7.8600
G01 X86.2831 Y-7.8710
G01 X86.2939 Y-7.8791
G01 X86.3086 Y-7.8873
G01 X86.3251 Y-7.8937
G01 X86.3423 Y-7.8975
G01 X86.3599 Y-7.8988
G01 X89.8912 Y-7.8988
G01 X89.8912 Y-12.8597
G01 X89.8927 Y-12.8781
G01 X89.8976 Y-12.8976
G01 X89.9049 Y-12.9146
G01 X89.9148 Y-12.9303
G01 X89.9269 Y-12.9443
G01 X89.9411 Y-12.9562
G01 X89.9591 Y-12.9669
G01 X89.9764 Y-12.9737
G01 X89.9936 Y-12.9775
G01 X90.0112 Y-12.9788
G01 X91.9212 Y-12.9787
G01 X91.9388 Y-12.9767
G01 X91.9550 Y-12.9724
G01 X91.9691 Y-12.9665
G01 X91.9843 Y-12.9576
G01 X91.9974 Y-12.9472
G01 X92.0095 Y-12.9343
G01 X92.0196 Y-12.9198
G01 X92.0274 Y-12.9039
G01 X92.0311 Y-12.8936
G01 X92.0339 Y-12.8822
G01 X92.0356 Y-12.8706
G01 X92.0362 Y-12.8588
G01 X92.0362 Y-7.8988
G01 X98.2671 Y-7.8988
G01 X98.2780 Y-7.8982
G01 X98.2896 Y-7.8965
G01 X98.3010 Y-7.8937
G01 X98.3121 Y-7.8897
G01 X98.3228 Y-7.8847
G01 X98.3322 Y-7.8791
G01 X98.3417 Y-7.8721
G01 X98.3498 Y-7.8649
G01 X98.3636 Y-7.8489
G01 X98.3696 Y-7.8398
G01 X98.3751 Y-7.8293
G01 X98.3792 Y-7.8192
G01 X98.3826 Y-7.8080
G01 X98.3849 Y-7.7964
G01 X98.3861 Y-7.7847
G01 X98.3862 Y-0.9516
G01 X98.3848 Y-0.9340
G01 X98.3805 Y-0.9160
G01 X98.3728 Y-0.8974
G01 X98.3631 Y-0.8817
G01 X98.3511 Y-0.8676
G01 X98.3377 Y-0.8561
G01 X98.3220 Y-0.8462
G01 X98.3050 Y-0.8389
G01 X98.2847 Y-0.8339
G01 X98.2662 Y-0.8325
G01 X77.7874 Y-0.8325
G01 X77.7682 Y-0.8340
G01 X77.7576 Y-0.8362
G01 X77.7464 Y-0.8397
G01 X77.7364 Y-0.8439
G01 X77.7260 Y-0.8494
G01 X77.7163 Y-0.8558
G01 X77.7072 Y-0.8632
G01 X77.6989 Y-0.8715
G01 X77.6919 Y-0.8798
G01 X77.2142 Y-1.5169
G01 X77.2056 Y-1.5305
G01 X77.1986 Y-1.5459
G01 X77.1944 Y-1.5598
G01 X77.1918 Y-1.5756
G01 X77.1912 Y-1.5875
G01 X77.1912 Y-6.9353
G01 X76.2631 Y-7.8633
G01 X76.2218 Y-7.8519
G01 X76.1705 Y-7.8404
G01 X76.1188 Y-7.8314
G01 X76.0684 Y-7.8251
G01 X76.0126 Y-7.8210
G01 X75.9618 Y-7.8198
G01 X75.9093 Y-7.8211
G01 X75.8569 Y-7.8250
G01 X75.8048 Y-7.8314
G01 X75.7531 Y-7.8404
G01 X75.7035 Y-7.8515
G01 X75.6496 Y-7.8664
G01 X75.6013 Y-7.8823
G01 X75.5515 Y-7.9016
G01 X75.5043 Y-7.9225
G01 X75.4559 Y-7.9470
G01 X75.4102 Y-7.9729
G01 X75.3673 Y-8.0001
G01 X75.3258 Y-8.0294
G01 X75.2830 Y-8.0627
G01 X75.2432 Y-8.0970
G01 X75.2052 Y-8.1332
G01 X75.1696 Y-8.1706
G01 X75.1347 Y-8.2110
G01 X75.1024 Y-8.2524
G01 X75.0721 Y-8.2953
G01 X75.0436 Y-8.3404
G01 X75.0181 Y-8.3854
G01 X74.9942 Y-8.4331
G01 X74.9729 Y-8.4811
G01 X74.9546 Y-8.5285
G01 X74.9496 Y-8.5435
G01 X74.3222 Y-8.6921
G01 X74.2948 Y-8.6993
G01 X74.2645 Y-8.7090
G01 X74.2388 Y-8.7187
G01 X74.2121 Y-8.7304
G01 X74.1844 Y-8.7443
G01 X74.1606 Y-8.7578
G01 X74.1374 Y-8.7725
G01 X74.1121 Y-8.7903
G01 X74.0892 Y-8.8084
G01 X74.0672 Y-8.8276
G01 X74.0469 Y-8.8473
G01 X73.0599 Y-9.8548
G01 X73.0418 Y-9.8508
G01 X72.9918 Y-9.8421
G01 X72.9396 Y-9.8356
G01 X72.8864 Y-9.8317
G01 X72.8330 Y-9.8304
G01 X72.7797 Y-9.8318
G01 X72.7290 Y-9.8356
G01 X72.6786 Y-9.8418
G01 X72.6252 Y-9.8510
G01 X72.5731 Y-9.8627
G01 X72.5217 Y-9.8770
G01 X72.4734 Y-9.8929
G01 X72.4260 Y-9.9112
G01 X72.3764 Y-9.9331
G01 X72.3295 Y-9.9567
G01 X72.2823 Y-9.9835
G01 X72.2394 Y-10.0107
G01 X72.1979 Y-10.0400
G01 X72.1551 Y-10.0733
G01 X72.1147 Y-10.1082
G01 X72.0773 Y-10.1438
G01 X72.0399 Y-10.1831
G01 X72.0057 Y-10.2229
G01 X71.9745 Y-10.2630
G01 X71.9452 Y-10.3045
G01 X71.9161 Y-10.3503
G01 X71.8902 Y-10.3960
G01 X71.8666 Y-10.4429
G01 X71.8450 Y-10.4917
G01 X71.8259 Y-10.5416
G01 X71.8100 Y-10.5898
G01 X71.7964 Y-10.6387
G01 X71.7845 Y-10.6917
G01 X71.7756 Y-10.7425
G01 X71.7691 Y-10.7955
G01 X71.7652 Y-10.8488
G01 X71.7639 Y-10.9013
G01 X71.7652 Y-10.9520
G01 X71.7673 Y-10.9822
G01 X66.7453 Y-13.9362
G01 X61.7196 Y-13.9362
G01 X61.7196 Y-13.4459
G01 X61.7186 Y-13.4356
G01 X61.7158 Y-13.4248
G01 X61.7113 Y-13.4146
G01 X61.7053 Y-13.4052
G01 X61.6947 Y-13.3940
G01 X61.6818 Y-13.3855
G01 X61.6674 Y-13.3799
G01 X61.6522 Y-13.3776
G01 X60.9428 Y-13.3776
G01 X60.3702 Y-12.1651
G01 X60.3702 Y-10.5901
G01 X60.3683 Y-10.5739
G01 X60.3652 Y-10.5641
G01 X60.3607 Y-10.5549
G01 X60.3543 Y-10.5457
G01 X60.3472 Y-10.5382
G01 X60.3391 Y-10.5319
G01 X60.3293 Y-10.5265
G01 X60.3197 Y-10.5229
G01 X60.3096 Y-10.5207
G01 X60.3002 Y-10.5201
G01 X59.9703 Y-10.5201
G01 X59.9703 Y-7.5034
G01 X60.3033 Y-7.5034
G01 X60.3033 Y-7.5350
G01 X60.3043 Y-7.5453
G01 X60.3083 Y-7.5593
G01 X60.3151 Y-7.5722
G01 X60.3257 Y-7.5846
G01 X60.3323 Y-7.5900
G01 X60.3395 Y-7.5946
G01 X60.3546 Y-7.6008
G01 X60.3707 Y-7.6033
G01 X62.5733 Y-7.6033
G01 X62.5819 Y-7.6028
G01 X62.5911 Y-7.6010
G01 X62.6009 Y-7.5976
G01 X62.6107 Y-7.5924
G01 X62.6197 Y-7.5857
G01 X62.6274 Y-7.5777
G01 X62.6333 Y-7.5693
G01 X62.6383 Y-7.5593
G01 X62.6416 Y-7.5486
G01 X62.6432 Y-7.5376
G01 X62.6433 Y-6.8333
G01 X62.6423 Y-6.8213
G01 X62.6392 Y-6.8097
G01 X62.6346 Y-6.7995
G01 X62.6290 Y-6.7909
G01 X62.6222 Y-6.7832
G01 X62.6143 Y-6.7766
G01 X62.6055 Y-6.7712
G01 X62.5961 Y-6.7671
G01 X62.5853 Y-6.7643
G01 X62.5750 Y-6.7633
G01 X60.3699 Y-6.7634
G01 X60.3538 Y-6.7661
G01 X60.3388 Y-6.7724
G01 X60.3257 Y-6.7820
G01 X60.3151 Y-6.7944
G01 X60.3083 Y-6.8073
G01 X60.3043 Y-6.8213
G01 X60.3033 Y-6.8316
G01 X60.3033 Y-6.8632
G01 X59.6502 Y-6.8632
G01 X59.6171 Y-6.8649
G01 X59.5877 Y-6.8693
G01 X59.5573 Y-6.8770
G01 X59.5277 Y-6.8875
G01 X59.5008 Y-6.9002
G01 X59.4842 Y-6.9096
G01 X59.4581 Y-6.9272
G01 X59.4352 Y-6.9461
G01 X59.4124 Y-6.9690
G01 X59.3931 Y-6.9926
G01 X59.3765 Y-7.0173
G01 X59.3671 Y-7.0339
G01 X59.3538 Y-7.0624
G01 X59.3439 Y-7.0904
G01 X59.3362 Y-7.1208
G01 X59.3316 Y-7.1519
G01 X59.3301 Y-7.1816
G01 X59.3301 Y-10.5201
G01 X59.2327 Y-10.5201
G01 X57.3112 Y-8.5986
G01 X57.3109 Y-1.0964
G01 X57.3095 Y-1.0781
G01 X57.3051 Y-1.0487
G01 X57.2979 Y-1.0199
G01 X57.2919 Y-1.0017
G01 X57.2805 Y-0.9743
G01 X57.2665 Y-0.9481
G01 X57.2563 Y-0.9319
G01 X57.2386 Y-0.9081
G01 X57.2187 Y-0.8861
G01 X57.2061 Y-0.8740
G01 X57.1832 Y-0.8551
G01 X57.1675 Y-0.8441
G01 X57.1420 Y-0.8289
G01 X57.1152 Y-0.8161
G01 X57.0973 Y-0.8092
G01 X57.0697 Y-0.8009
G01 X57.0364 Y-0.7943
G01 X57.0085 Y-0.7916
G01 X56.9911 Y-0.7911
G01 X29.5274 Y-0.7911
G01 X29.4959 Y-0.7926
G01 X29.4613 Y-0.7980
G01 X29.4334 Y-0.8052
G01 X29.4163 Y-0.8110
G01 X29.3997 Y-0.8177
G01 X29.3737 Y-0.8304
G01 X29.3440 Y-0.8489
G01 X29.3190 Y-0.8682
G01 X28.9392 Y-1.1938
G01 X27.7645 Y-1.1938
G01 X27.7484 Y-1.1961
G01 X27.7332 Y-1.2021
G01 X27.7198 Y-1.2114
G01 X27.7138 Y-1.2174
G01 X27.7085 Y-1.2242
G01 X27.7033 Y-1.2331
G01 X27.6995 Y-1.2427
G01 X27.6971 Y-1.2527
G01 X27.6962 Y-1.2629
G01 X27.6962 Y-2.8638
G01 X27.6979 Y-2.8791
G01 X27.7012 Y-2.8898
G01 X27.7057 Y-2.8990
G01 X27.7115 Y-2.9075
G01 X27.7186 Y-2.9151
G01 X27.7273 Y-2.9220
G01 X27.7363 Y-2.9271
G01 X27.7467 Y-2.9310
G01 X27.7568 Y-2.9332
G01 X27.7662 Y-2.9338
G01 X28.0960 Y-2.9338
G01 X28.0960 Y-3.0960
G01 X28.0692 Y-3.1064
G01 X28.0273 Y-3.1250
G01 X27.9847 Y-3.1463
G01 X27.9425 Y-3.1702
G01 X27.9009 Y-3.1966
G01 X27.8634 Y-3.2231
G01 X27.8272 Y-3.2513
G01 X27.7904 Y-3.2829
G01 X27.7547 Y-3.3169
G01 X27.7231 Y-3.3502
G01 X27.7102 Y-3.3650
G01 X25.0128 Y-3.3665
G01 X24.9930 Y-3.3144
G01 X24.9744 Y-3.2725
G01 X24.9530 Y-3.2299
G01 X24.9295 Y-3.1885
G01 X24.9050 Y-3.1497
G01 X24.8756 Y-3.1080
G01 X24.8473 Y-3.0718
G01 X24.8162 Y-3.0358
G01 X24.7834 Y-3.0013
G01 X24.7502 Y-2.9696
G01 X24.7115 Y-2.9363
G01 X24.6753 Y-2.9081
G01 X24.6350 Y-2.8797
G01 X24.5962 Y-2.8552
G01 X24.5548 Y-2.8317
G01 X24.5122 Y-2.8103
G01 X24.4703 Y-2.7917
G01 X24.4227 Y-2.7733
G01 X24.3791 Y-2.7590
G01 X24.3332 Y-2.7463
G01 X24.2867 Y-2.7358
G01 X24.2398 Y-2.7277
G01 X24.1926 Y-2.7219
G01 X24.1468 Y-2.7185
G01 X24.0958 Y-2.7172
G01 X24.0499 Y-2.7184
G01 X24.0016 Y-2.7220
G01 X23.9552 Y-2.7277
G01 X23.9083 Y-2.7358
G01 X23.8618 Y-2.7463
G01 X23.8143 Y-2.7595
G01 X23.7691 Y-2.7745
G01 X23.7263 Y-2.7910
G01 X23.6843 Y-2.8096
G01 X23.6402 Y-2.8317
G01 X23.6003 Y-2.8543
G01 X23.5586 Y-2.8807
G01 X23.5197 Y-2.9081
G01 X23.4821 Y-2.9374
G01 X23.4461 Y-2.9685
G01 X23.4116 Y-3.0013
G01 X23.3788 Y-3.0358
G01 X23.3477 Y-3.0718
G01 X23.3184 Y-3.1094
G01 X23.2910 Y-3.1483
G01 X23.2655 Y-3.1885
G01 X23.2420 Y-3.2299
G01 X23.2199 Y-3.2740
G01 X23.2013 Y-3.3160
G01 X23.1848 Y-3.3588
G01 X23.1698 Y-3.4040
G01 X23.1566 Y-3.4515
G01 X23.1465 Y-3.4963
G01 X23.1380 Y-3.5449
G01 X23.1322 Y-3.5921
G01 X23.1287 Y-3.6396
G01 X23.1275 Y-3.6872
G01 X23.1287 Y-3.7348
G01 X23.1322 Y-3.7823
G01 X23.1380 Y-3.8295
G01 X23.1465 Y-3.8781
G00 Z2.0000
G00 X23.1465 Y-6.4181
G01 F60.00
G01 Z-0.0560
G01 F50.00
G01 X23.1566 Y-6.4629
G01 X23.1693 Y-6.5088
G01 X23.1842 Y-6.5540
G01 X23.2007 Y-6.5968
G01 X23.2214 Y-6.6435
G01 X23.2420 Y-6.6845
G01 X23.2655 Y-6.7259
G01 X23.2910 Y-6.7661
G01 X23.3174 Y-6.8036
G01 X23.3488 Y-6.8439
G01 X23.3788 Y-6.8786
G01 X23.4116 Y-6.9131
G01 X23.4461 Y-6.9459
G01 X23.4808 Y-6.9759
G01 X23.5197 Y-7.0063
G01 X23.5572 Y-7.0328
G01 X23.6003 Y-7.0601
G01 X23.6402 Y-7.0827
G01 X23.6828 Y-7.1041
G01 X23.7263 Y-7.1234
G01 X23.7691 Y-7.1399
G01 X23.8176 Y-7.1559
G01 X23.8618 Y-7.1681
G01 X23.9083 Y-7.1786
G01 X23.9552 Y-7.1867
G01 X24.0007 Y-7.1923
G01 X24.0516 Y-7.1961
G01 X24.0975 Y-7.1972
G01 X24.1451 Y-7.1960
G01 X24.1926 Y-7.1925
G01 X24.2381 Y-7.1869
G01 X24.2884 Y-7.1782
G01 X24.3332 Y-7.1681
G01 X24.3774 Y-7.1559
G01 X24.4259 Y-7.1399
G01 X24.4687 Y-7.1234
G01 X24.5122 Y-7.1041
G01 X24.5548 Y-7.0827
G01 X24.5947 Y-7.0601
G01 X24.6364 Y-7.0337
G01 X24.6753 Y-7.0063
G01 X24.7115 Y-6.9781
G01 X24.7502 Y-6.9448
G01 X24.7834 Y-6.9131
G01 X24.8162 Y-6.8786
G01 X24.8473 Y-6.8426
G01 X24.8756 Y-6.8064
G01 X24.9050 Y-6.7647
G01 X24.9295 Y-6.7259
G01 X24.9530 Y-6.6845
G01 X24.9744 Y-6.6419
G01 X24.9930 Y-6.6000
G01 X25.0132 Y-6.5468
G01 X25.5401 Y-6.5465
G01 X25.5401 Y-6.6815
G01 X25.5411 Y-6.6918
G01 X25.5434 Y-6.7009
G01 X25.5472 Y-6.7105
G01 X25.5524 Y-6.7194
G01 X25.5588 Y-6.7274
G01 X25.5657 Y-6.7339
G01 X25.5741 Y-6.7398
G01 X25.5833 Y-6.7445
G01 X25.5931 Y-6.7477
G01 X25.6032 Y-6.7495
G01 X27.0101 Y-6.7498
G01 X27.0212 Y-6.7489
G01 X27.0312 Y-6.7465
G01 X27.0416 Y-6.7423
G01 X27.0511 Y-6.7365
G01 X27.0596 Y-6.7293
G01 X27.0663 Y-6.7215
G01 X27.0718 Y-6.7128
G01 X27.0763 Y-6.7026
G01 X27.0789 Y-6.6926
G01 X27.0801 Y-6.6815
G01 X27.0801 Y-6.5456
G01 X27.4712 Y-6.5454
G01 X27.4712 Y-7.4448
G01 X27.4722 Y-7.4542
G01 X27.4745 Y-7.4633
G01 X27.4779 Y-7.4721
G01 X27.4825 Y-7.4804
G01 X27.4882 Y-7.4879
G01 X27.4948 Y-7.4946
G01 X27.5016 Y-7.4999
G01 X27.5097 Y-7.5047
G01 X27.5250 Y-7.5103
G01 X27.5412 Y-7.5122
G01 X29.3412 Y-7.5122
G01 X29.3540 Y-7.5110
G01 X29.3672 Y-7.5072
G01 X29.3764 Y-7.5027
G01 X29.3849 Y-7.4969
G01 X29.3925 Y-7.4898
G01 X29.3984 Y-7.4825
G01 X29.4037 Y-7.4737
G01 X29.4077 Y-7.4642
G01 X29.4102 Y-7.4542
G01 X29.4112 Y-7.4439
G01 X29.4112 Y-5.8128
G01 X29.7756 Y-5.4483
G01 X31.5911 Y-5.4483
G01 X31.6161 Y-5.4465
G01 X31.6396 Y-5.4413
G01 X31.6578 Y-5.4347
G01 X31.6785 Y-5.4242
G01 X31.6938 Y-5.4138
G01 X31.7107 Y-5.3991
G01 X32.3860 Y-4.7238
G01 X32.3973 Y-4.7115
G01 X32.4072 Y-4.6981
G01 X32.4195 Y-4.6763
G01 X32.4285 Y-4.6530
G01 X32.4340 Y-4.6286
G01 X32.4358 Y-4.6045
G01 X32.4358 Y-2.8484
G01 X32.6934 Y-2.5908
G01 X43.5063 Y-2.5908
G01 X43.9188 Y-3.0033
G01 X43.9106 Y-3.3856
G01 X43.7090 Y-3.5874
G01 X43.7018 Y-3.5971
G01 X43.6964 Y-3.6078
G01 X43.6929 Y-3.6193
G01 X43.6914 Y-3.6312
G01 X43.6914 Y-4.7338
G01 X43.6919 Y-4.7424
G01 X43.6939 Y-4.7525
G01 X43.6974 Y-4.7622
G01 X43.7023 Y-4.7712
G01 X43.7084 Y-4.7795
G01 X43.8125 Y-4.8839
G01 X43.8218 Y-4.8915
G01 X43.8322 Y-4.8974
G01 X43.8436 Y-4.9015
G01 X43.8554 Y-4.9035
G01 X44.2614 Y-4.9038
G01 X44.2700 Y-4.9033
G01 X44.2784 Y-4.9017
G01 X44.2866 Y-4.8991
G01 X44.2952 Y-4.8951
G01 X44.3024 Y-4.8905
G01 X44.3097 Y-4.8845
G01 X44.4121 Y-4.7821
G01 X44.4196 Y-4.7727
G01 X44.4254 Y-4.7622
G01 X44.4299 Y-4.7483
G01 X44.4314 Y-4.7338
G01 X44.4314 Y-3.6338
G01 X44.4308 Y-3.6244
G01 X44.4286 Y-3.6143
G01 X44.4250 Y-3.6046
G01 X44.4201 Y-3.5956
G01 X44.4133 Y-3.5868
G01 X44.2500 Y-3.4234
G01 X44.2604 Y-2.9295
G01 X44.2580 Y-2.9057
G01 X44.2538 Y-2.8872
G01 X44.2455 Y-2.8647
G01 X44.2364 Y-2.8472
G01 X44.2232 Y-2.8282
G01 X44.2113 Y-2.8148
G01 X43.6915 Y-2.2954
G01 X43.6712 Y-2.2794
G01 X43.6584 Y-2.2717
G01 X43.6478 Y-2.2664
G01 X43.6340 Y-2.2607
G01 X43.6197 Y-2.2563
G01 X43.5942 Y-2.2517
G01 X43.5767 Y-2.2508
G01 X32.6230 Y-2.2508
G01 X32.5989 Y-2.2525
G01 X32.5736 Y-2.2581
G01 X32.5595 Y-2.2631
G01 X32.5488 Y-2.2678
G01 X32.5356 Y-2.2749
G01 X32.5231 Y-2.2832
G01 X32.5034 Y-2.3000
G01 X32.1398 Y-2.6638
G01 X32.1254 Y-2.6821
G01 X32.1150 Y-2.6994
G01 X32.1057 Y-2.7207
G01 X32.0994 Y-2.7431
G01 X32.0966 Y-2.7613
G01 X32.0958 Y-2.7780
G01 X32.0958 Y-4.5332
G01 X31.5207 Y-5.1083
G01 X29.7052 Y-5.1083
G01 X29.6885 Y-5.1091
G01 X29.6720 Y-5.1115
G01 X29.6479 Y-5.1182
G01 X29.6266 Y-5.1275
G01 X29.6093 Y-5.1379
G01 X29.5904 Y-5.1529
G01 X29.1708 Y-5.5722
G01 X27.5412 Y-5.5722
G01 X27.5292 Y-5.5732
G01 X27.5176 Y-5.5763
G01 X27.5090 Y-5.5801
G01 X27.5002 Y-5.5855
G01 X27.4929 Y-5.5915
G01 X27.4865 Y-5.5985
G01 X27.4812 Y-5.6062
G01 X27.4769 Y-5.6146
G01 X27.4737 Y-5.6235
G01 X27.4718 Y-5.6328
G01 X27.4712 Y-5.6422
G01 X27.4712 Y-5.9051
G01 X27.0801 Y-5.9054
G01 X27.0798 Y-5.3729
G01 X27.0778 Y-5.3620
G01 X27.0737 Y-5.3507
G01 X27.0683 Y-5.3409
G01 X27.0614 Y-5.3322
G01 X27.0532 Y-5.3246
G01 X27.0439 Y-5.3185
G01 X27.0337 Y-5.3139
G01 X27.0229 Y-5.3110
G01 X27.0101 Y-5.3098
G01 X25.6101 Y-5.3098
G01 X25.6007 Y-5.3104
G01 X25.5906 Y-5.3126
G01 X25.5810 Y-5.3162
G01 X25.5712 Y-5.3216
G01 X25.5631 Y-5.3279
G01 X25.5560 Y-5.3354
G01 X25.5501 Y-5.3438
G01 X25.5451 Y-5.3538
G01 X25.5420 Y-5.3636
G01 X25.5404 Y-5.3738
G01 X25.5401 Y-5.9062
G01 X25.0128 Y-5.9065
G01 X24.9930 Y-5.8544
G01 X24.9744 Y-5.8125
G01 X24.9521 Y-5.7684
G01 X24.9295 Y-5.7285
G01 X24.9040 Y-5.6883
G01 X24.8766 Y-5.6494
G01 X24.8473 Y-5.6118
G01 X24.8162 Y-5.5758
G01 X24.7846 Y-5.5425
G01 X24.7476 Y-5.5073
G01 X24.7129 Y-5.4774
G01 X24.6753 Y-5.4481
G01 X24.6364 Y-5.4207
G01 X24.5962 Y-5.3952
G01 X24.5548 Y-5.3717
G01 X24.5122 Y-5.3503
G01 X24.4687 Y-5.3310
G01 X24.4259 Y-5.3145
G01 X24.3774 Y-5.2985
G01 X24.3332 Y-5.2863
G01 X24.2867 Y-5.2758
G01 X24.2398 Y-5.2677
G01 X24.1926 Y-5.2619
G01 X24.1451 Y-5.2584
G01 X24.0992 Y-5.2572
G01 X24.0482 Y-5.2585
G01 X24.0024 Y-5.2619
G01 X23.9543 Y-5.2678
G01 X23.9083 Y-5.2758
G01 X23.8618 Y-5.2863
G01 X23.8159 Y-5.2990
G01 X23.7707 Y-5.3139
G01 X23.7263 Y-5.3310
G01 X23.6828 Y-5.3503
G01 X23.6402 Y-5.3717
G01 X23.5974 Y-5.3961
G01 X23.5586 Y-5.4207
G01 X23.5211 Y-5.4471
G01 X23.4835 Y-5.4763
G01 X23.4461 Y-5.5085
G01 X23.4128 Y-5.5401
G01 X23.3788 Y-5.5758
G01 X23.3477 Y-5.6118
G01 X23.3184 Y-5.6494
G01 X23.2919 Y-5.6869
G01 X23.2655 Y-5.7285
G01 X23.2420 Y-5.7699
G01 X23.2206 Y-5.8125
G01 X23.2013 Y-5.8560
G01 X23.1842 Y-5.9004
G01 X23.1693 Y-5.9456
G01 X23.1566 Y-5.9915
G01 X23.1461 Y-6.0380
G01 X23.1380 Y-6.0849
G01 X23.1322 Y-6.1321
G01 X23.1287 Y-6.1796
G01 X23.1275 Y-6.2272
G01 X23.1287 Y-6.2748
G01 X23.1322 Y-6.3223
G01 X23.1380 Y-6.3695
G01 X23.1465 Y-6.4181
G00 Z2.0000
G00 X24.4675 Y-7.7972
G01 F60.00
G01 Z-0.0560
G01 F50.00
G01 X24.4675 Y-7.7372
G01 X25.1275 Y-7.7372
G01 X25.1275 Y-8.3972
G01 X25.0675 Y-8.3972
G01 X25.0675 Y-7.8646
G01 X25.0656 Y-7.8510
G01 X25.0611 Y-7.8381
G01 X25.0537 Y-7.8255
G01 X25.0445 Y-7.8153
G01 X25.0342 Y-7.8076
G01 X25.0235 Y-7.8022
G01 X25.0120 Y-7.7987
G01 X25.0001 Y-7.7972
G01 X24.4675 Y-7.7972
G00 Z2.0000
G00 X23.1275 Y-8.3972
G01 F60.00
G01 Z-0.0560
G01 F50.00
G01 X23.0675 Y-8.3972
G01 X23.0675 Y-7.7372
G01 X23.7275 Y-7.7372
G01 X23.7275 Y-7.7972
G01 X23.1949 Y-7.7972
G01 X23.1813 Y-7.7991
G01 X23.1684 Y-7.8036
G01 X23.1558 Y-7.8110
G01 X23.1456 Y-7.8202
G01 X23.1384 Y-7.8298
G01 X23.1328 Y-7.8404
G01 X23.1292 Y-7.8519
G01 X23.1275 Y-7.8646
G01 X23.1275 Y-8.3972
G00 Z2.0000
G00 X23.0675 Y-9.7972
G01 F60.00
G01 Z-0.0560
G01 F50.00
G01 X23.0675 Y-9.1372
G01 X23.1275 Y-9.1372
G01 X23.1275 Y-9.6698
G01 X23.1294 Y-9.6834
G01 X23.1339 Y-9.6963
G01 X23.1408 Y-9.7082
G01 X23.1505 Y-9.7191
G01 X23.1601 Y-9.7263
G01 X23.1715 Y-9.7322
G01 X23.1830 Y-9.7357
G01 X23.1949 Y-9.7372
G01 X23.7275 Y-9.7372
G01 X23.7275 Y-9.7972
G01 X23.0675 Y-9.7972
G00 Z2.0000
G00 X24.4675 Y-9.7972
G01 F60.00
G01 Z-0.0560
G01 F50.00
G01 X24.4675 Y-9.7372
G01 X25.0001 Y-9.7372
G01 X25.0128 Y-9.7355
G01 X25.0251 Y-9.7315
G01 X25.0364 Y-9.7254
G01 X25.0470 Y-9.7167
G01 X25.0552 Y-9.7068
G01 X25.0615 Y-9.6956
G01 X25.0658 Y-9.6825
G01 X25.0675 Y-9.6698
G01 X25.0675 Y-9.1372
G01 X25.1275 Y-9.1372
G01 X25.1275 Y-9.7972
G01 X24.4675 Y-9.7972
G00 Z2.0000
G00 X25.1813 Y-12.0411
G01 F60.00
G01 Z-0.0560
G01 F50.00
G01 X26.4813 Y-12.0411
G01 X26.4899 Y-12.0406
G01 X26.4991 Y-12.0388
G01 X26.5097 Y-12.0351
G01 X26.5187 Y-12.0302
G01 X26.5277 Y-12.0235
G01 X26.5349 Y-12.0162
G01 X26.5413 Y-12.0071
G01 X26.5460 Y-11.9979
G01 X26.5492 Y-11.9881
G01 X26.5510 Y-11.9780
G01 X26.5513 Y-11.4913
G01 X27.2174 Y-11.4913
G01 X30.0119 Y-14.1306
G01 X30.0209 Y-14.1385
G01 X30.0357 Y-14.1499
G01 X30.0576 Y-14.1635
G01 X30.0743 Y-14.1717
G01 X30.0863 Y-14.1765
G01 X30.0985 Y-14.1806
G01 X30.1174 Y-14.1854
G01 X30.1402 Y-14.1890
G01 X30.1624 Y-14.1901
G01 X35.0953 Y-14.1898
G01 X35.1186 Y-14.1873
G01 X35.1415 Y-14.1823
G01 X38.6057 Y-13.2376
G01 X40.7986 Y-13.2376
G01 X40.8202 Y-13.2365
G01 X40.8398 Y-13.2337
G01 X40.8537 Y-13.2305
G01 X40.8735 Y-13.2244
G01 X40.8942 Y-13.2157
G01 X40.9194 Y-13.2014
G01 X40.9382 Y-13.1876
G01 X40.9536 Y-13.1737
G01 X42.4235 Y-11.7038
G01 X43.0631 Y-11.7038
G01 X43.0759 Y-11.7023
G01 X43.0874 Y-11.6988
G01 X43.0981 Y-11.6934
G01 X43.1078 Y-11.6862
G01 X43.2138 Y-11.5802
G01 X43.2196 Y-11.5727
G01 X43.2239 Y-11.5653
G01 X43.2273 Y-11.5574
G01 X43.2297 Y-11.5491
G01 X43.2314 Y-11.5338
G01 X43.2313 Y-11.1304
G01 X43.2297 Y-11.1185
G01 X43.2257 Y-11.1062
G01 X43.2196 Y-11.0949
G01 X43.2115 Y-11.0849
G01 X43.1071 Y-10.9808
G01 X43.0988 Y-10.9747
G01 X43.0898 Y-10.9698
G01 X43.0801 Y-10.9663
G01 X43.0700 Y-10.9643
G01 X43.0614 Y-10.9638
G01 X41.9605 Y-10.9638
G01 X41.9503 Y-10.9647
G01 X41.9403 Y-10.9671
G01 X41.9307 Y-10.9709
G01 X41.9225 Y-10.9756
G01 X41.9119 Y-10.9843
G01 X41.7095 Y-11.1868
G01 X41.7027 Y-11.1956
G01 X41.6974 Y-11.2054
G01 X41.6935 Y-11.2168
G01 X41.6917 Y-11.2278
G01 X41.6914 Y-11.4355
G01 X41.6931 Y-11.4491
G01 X41.6971 Y-11.4614
G01 X41.7032 Y-11.4727
G01 X41.7107 Y-11.4821
G01 X41.8667 Y-11.6381
G01 X40.7074 Y-12.7974
G01 X38.5762 Y-12.7974
G01 X38.5547 Y-12.7985
G01 X38.5403 Y-12.8004
G01 X38.5183 Y-12.8052
G01 X35.0541 Y-13.7499
G01 X30.2499 Y-13.7499
G01 X27.4560 Y-11.1112
G01 X27.4464 Y-11.1027
G01 X27.4316 Y-11.0913
G01 X27.4097 Y-11.0777
G01 X27.3922 Y-11.0692
G01 X27.3794 Y-11.0641
G01 X27.3615 Y-11.0586
G01 X27.3490 Y-11.0556
G01 X27.3288 Y-11.0524
G01 X27.3160 Y-11.0514
G01 X26.5513 Y-11.0511
G01 X26.5509 Y-10.5634
G01 X26.5488 Y-10.5524
G01 X26.5449 Y-10.5420
G01 X26.5395 Y-10.5322
G01 X26.5326 Y-10.5235
G01 X26.5244 Y-10.5159
G01 X26.5143 Y-10.5094
G01 X26.5041 Y-10.5049
G01 X26.4933 Y-10.5021
G01 X26.4813 Y-10.5011
G01 X25.1804 Y-10.5011
G01 X25.1660 Y-10.5028
G01 X25.1522 Y-10.5075
G01 X25.1396 Y-10.5149
G01 X25.1283 Y-10.5254
G01 X25.1208 Y-10.5359
G01 X25.1157 Y-10.5467
G01 X25.1125 Y-10.5583
G01 X25.1113 Y-10.5702
G01 X25.1113 Y-11.9737
G01 X25.1130 Y-11.9864
G01 X25.1173 Y-11.9995
G01 X25.1241 Y-12.0114
G01 X25.1324 Y-12.0212
G01 X25.1424 Y-12.0293
G01 X25.1545 Y-12.0358
G01 X25.1676 Y-12.0398
G01 X25.1813 Y-12.0411
G00 Z2.0000
G00 X24.7199 Y-13.4224
G01 F60.00
G01 Z-0.0560
G01 F50.00
G01 X24.7131 Y-13.4214
G01 X24.7072 Y-13.4179
G01 X24.7032 Y-13.4124
G01 X24.7015 Y-13.4058
G01 X24.7025 Y-13.3990
G01 X24.7060 Y-13.3931
G01 X24.7115 Y-13.3891
G01 X24.7181 Y-13.3874
G01 X25.3048 Y-13.3874
G01 X25.3108 Y-13.3881
G01 X25.3161 Y-13.3908
G01 X25.3198 Y-13.3945
G01 X25.3225 Y-13.3998
G01 X25.3230 Y-13.4075
G01 X25.3203 Y-13.4146
G01 X25.3147 Y-13.4199
G01 X25.3074 Y-13.4223
G01 X25.0991 Y-13.4224
G01 X25.0829 Y-13.4245
G01 X25.0748 Y-13.4271
G01 X25.0662 Y-13.4311
G01 X25.0582 Y-13.4362
G01 X25.0517 Y-13.4417
G01 X25.0458 Y-13.4480
G01 X25.0403 Y-13.4557
G01 X25.0359 Y-13.4641
G01 X25.0330 Y-13.4721
G01 X25.0307 Y-13.4822
G01 X25.0299 Y-13.4924
G01 X25.0299 Y-14.3818
G01 X25.0292 Y-14.3878
G01 X25.0265 Y-14.3931
G01 X25.0228 Y-14.3968
G01 X25.0175 Y-14.3995
G01 X25.0098 Y-14.4000
G01 X25.0027 Y-14.3973
G01 X24.9974 Y-14.3917
G01 X24.9956 Y-14.3878
G01 X24.9949 Y-14.3836
G01 X24.9949 Y-13.4924
G01 X24.9941 Y-13.4822
G01 X24.9918 Y-13.4721
G01 X24.9885 Y-13.4633
G01 X24.9840 Y-13.4550
G01 X24.9784 Y-13.4474
G01 X24.9719 Y-13.4406
G01 X24.9637 Y-13.4342
G01 X24.9556 Y-13.4295
G01 X24.9468 Y-13.4260
G01 X24.9377 Y-13.4236
G01 X24.9249 Y-13.4224
G01 X24.7199 Y-13.4224
G00 Z2.0000
G00 X23.7910 Y-13.9724
G01 F60.00
G01 Z-0.0560
G01 F50.00
G01 X23.7842 Y-13.9714
G01 X23.7783 Y-13.9679
G01 X23.7743 Y-13.9624
G01 X23.7727 Y-13.9566
G01 X23.7733 Y-13.9498
G01 X23.7760 Y-13.9445
G01 X23.7804 Y-13.9403
G01 X23.7867 Y-13.9377
G01 X24.0011 Y-13.9372
G01 X24.0130 Y-13.9353
G01 X24.0243 Y-13.9314
G01 X24.0348 Y-13.9256
G01 X24.0442 Y-13.9181
G01 X24.0517 Y-13.9097
G01 X24.0577 Y-13.9004
G01 X24.0621 Y-13.8901
G01 X24.0649 Y-13.8793
G01 X24.0660 Y-13.8682
G01 X24.0661 Y-13.7087
G01 X24.0677 Y-13.7029
G01 X24.0711 Y-13.6980
G01 X24.0760 Y-13.6946
G01 X24.0826 Y-13.6929
G01 X24.0894 Y-13.6939
G01 X24.0953 Y-13.6974
G01 X24.0993 Y-13.7029
G01 X24.1009 Y-13.7087
G01 X24.1010 Y-13.8682
G01 X24.1022 Y-13.8802
G01 X24.1054 Y-13.8917
G01 X24.1106 Y-13.9026
G01 X24.1175 Y-13.9124
G01 X24.1260 Y-13.9209
G01 X24.1351 Y-13.9274
G01 X24.1451 Y-13.9324
G01 X24.1557 Y-13.9357
G01 X24.1668 Y-13.9372
G01 X24.3794 Y-13.9376
G01 X24.3851 Y-13.9394
G01 X24.3898 Y-13.9431
G01 X24.3930 Y-13.9482
G01 X24.3943 Y-13.9540
G01 X24.3933 Y-13.9608
G01 X24.3903 Y-13.9660
G01 X24.3858 Y-13.9699
G01 X24.3794 Y-13.9722
G01 X24.1668 Y-13.9726
G01 X24.1557 Y-13.9741
G01 X24.1451 Y-13.9774
G01 X24.1351 Y-13.9824
G01 X24.1260 Y-13.9889
G01 X24.1175 Y-13.9974
G01 X24.1106 Y-14.0072
G01 X24.1054 Y-14.0181
G01 X24.1022 Y-14.0296
G01 X24.1010 Y-14.0416
G01 X24.1009 Y-14.2010
G01 X24.0993 Y-14.2068
G01 X24.0959 Y-14.2117
G01 X24.0902 Y-14.2155
G01 X24.0844 Y-14.2168
G01 X24.0776 Y-14.2158
G01 X24.0717 Y-14.2123
G01 X24.0677 Y-14.2068
G01 X24.0661 Y-14.2010
G01 X24.0660 Y-14.0416
G01 X24.0648 Y-14.0296
G01 X24.0616 Y-14.0181
G01 X24.0564 Y-14.0072
G01 X24.0495 Y-13.9974
G01 X24.0410 Y-13.9889
G01 X24.0319 Y-13.9824
G01 X24.0219 Y-13.9774
G01 X24.0113 Y-13.9741
G01 X24.0002 Y-13.9726
G01 X23.7910 Y-13.9724
G00 Z2.0000
G00 X25.6344 Y-14.3715
G01 F60.00
G01 Z-0.0560
G01 F50.00
G01 X25.9622 Y-13.9344
G01 X25.9675 Y-13.9256
G01 X25.9718 Y-13.9153
G01 X25.9743 Y-13.9045
G01 X25.9752 Y-13.8934
G01 X25.9742 Y-13.8823
G01 X25.9718 Y-13.8723
G01 X25.9675 Y-13.8620
G01 X25.9622 Y-13.8532
G01 X25.6334 Y-13.4147
G01 X25.6309 Y-13.4092
G01 X25.6304 Y-13.4041
G01 X25.6314 Y-13.3991
G01 X25.6343 Y-13.3939
G01 X25.6403 Y-13.3891
G01 X25.6478 Y-13.3874
G01 X25.6553 Y-13.3890
G01 X25.6614 Y-13.3937
G01 X25.9624 Y-13.7946
G01 X25.9732 Y-13.8044
G01 X25.9858 Y-13.8117
G01 X26.0005 Y-13.8165
G01 X26.0150 Y-13.8179
G01 X26.0295 Y-13.8163
G01 X26.0434 Y-13.8117
G01 X26.0560 Y-13.8044
G01 X26.0674 Y-13.7939
G01 X26.3678 Y-13.3937
G01 X26.3731 Y-13.3894
G01 X26.3797 Y-13.3875
G01 X26.3865 Y-13.3882
G01 X26.3918 Y-13.3909
G01 X26.3964 Y-13.3960
G01 X26.3986 Y-13.4024
G01 X26.3983 Y-13.4092
G01 X26.3958 Y-13.4147
G01 X26.0670 Y-13.8532
G01 X26.0617 Y-13.8620
G01 X26.0574 Y-13.8723
G01 X26.0549 Y-13.8831
G01 X26.0540 Y-13.8942
G01 X26.0550 Y-13.9053
G01 X26.0574 Y-13.9153
G01 X26.0617 Y-13.9256
G01 X26.0670 Y-13.9344
G01 X26.3958 Y-14.3729
G01 X26.3983 Y-14.3784
G01 X26.3988 Y-14.3835
G01 X26.3978 Y-14.3885
G01 X26.3949 Y-14.3937
G01 X26.3889 Y-14.3985
G01 X26.3814 Y-14.4002
G01 X26.3739 Y-14.3986
G01 X26.3678 Y-14.3939
G01 X26.0668 Y-13.9930
G01 X26.0560 Y-13.9832
G01 X26.0442 Y-13.9762
G01 X26.0304 Y-13.9715
G01 X26.0167 Y-13.9697
G01 X26.0014 Y-13.9710
G01 X25.9858 Y-13.9759
G01 X25.9725 Y-13.9838
G01 X25.9607 Y-13.9950
G01 X25.6608 Y-14.3945
G01 X25.6553 Y-14.3986
G01 X25.6487 Y-14.4002
G01 X25.6427 Y-14.3994
G01 X25.6367 Y-14.3962
G01 X25.6324 Y-14.3909
G01 X25.6305 Y-14.3843
G01 X25.6312 Y-14.3775
G01 X25.6344 Y-14.3715
G00 Z2.0000
G00 X26.8577 Y-14.7831
G01 F60.00
G01 Z-0.0560
G01 F50.00
G01 X26.8689 Y-14.8326
G01 X26.8824 Y-14.8816
G01 X26.8994 Y-14.9332
G01 X26.9190 Y-14.9838
G01 X26.9396 Y-15.0302
G01 X26.9632 Y-15.0772
G01 X26.9891 Y-15.1229
G01 X27.0163 Y-15.1658
G01 X27.0475 Y-15.2102
G01 X27.0809 Y-15.2530
G01 X27.1141 Y-15.2914
G01 X27.1498 Y-15.3289
G01 X28.5647 Y-16.7437
G01 X28.6034 Y-16.7805
G01 X28.6439 Y-16.8153
G01 X28.6839 Y-16.8466
G01 X28.7255 Y-16.8758
G01 X28.7713 Y-16.9049
G01 X28.8170 Y-16.9308
G01 X28.8639 Y-16.9544
G01 X28.9136 Y-16.9764
G01 X28.9626 Y-16.9952
G01 X29.0109 Y-17.0111
G01 X29.0599 Y-17.0247
G01 X29.1128 Y-17.0366
G01 X29.1663 Y-17.0459
G01 X29.2167 Y-17.0520
G01 X29.2674 Y-17.0558
G01 X29.3216 Y-17.0572
G01 X29.3759 Y-17.0558
G01 X29.4266 Y-17.0520
G01 X29.4770 Y-17.0458
G01 X29.5305 Y-17.0366
G01 X29.5834 Y-17.0247
G01 X29.6340 Y-17.0106
G01 X29.6823 Y-16.9946
G01 X29.7297 Y-16.9763
G01 X29.7793 Y-16.9544
G01 X29.8278 Y-16.9300
G01 X29.8720 Y-16.9049
G01 X29.9149 Y-16.8777
G01 X29.9593 Y-16.8465
G01 X30.0021 Y-16.8131
G01 X30.0405 Y-16.7799
G01 X30.0774 Y-16.7448
G01 X30.1148 Y-16.7056
G01 X30.1502 Y-16.6644
G01 X30.1815 Y-16.6244
G01 X30.2107 Y-16.5828
G01 X30.2398 Y-16.5370
G01 X30.2657 Y-16.4913
G01 X30.2901 Y-16.4428
G01 X30.3106 Y-16.3963
G01 X30.3289 Y-16.3489
G01 X30.3460 Y-16.2974
G01 X30.3600 Y-16.2468
G01 X30.3719 Y-16.1938
G01 X30.3805 Y-16.1437
G01 X30.3868 Y-16.0933
G01 X30.3908 Y-16.0392
G01 X30.3921 Y-15.9849
G01 X30.3908 Y-15.9341
G01 X30.3871 Y-15.8834
G01 X30.3805 Y-15.8296
G01 X30.3696 Y-15.7691
G01 X30.9007 Y-15.8051
G01 X30.9010 Y-16.2936
G01 X30.9030 Y-16.3045
G01 X30.9064 Y-16.3143
G01 X30.9116 Y-16.3241
G01 X30.9177 Y-16.3324
G01 X30.9250 Y-16.3397
G01 X30.9340 Y-16.3463
G01 X30.9431 Y-16.3510
G01 X30.9529 Y-16.3544
G01 X30.9621 Y-16.3562
G01 X30.9707 Y-16.3567
G01 X32.3733 Y-16.3567
G01 X32.3844 Y-16.3554
G01 X32.3951 Y-16.3523
G01 X32.4052 Y-16.3476
G01 X32.4144 Y-16.3414
G01 X32.4226 Y-16.3337
G01 X32.4289 Y-16.3256
G01 X32.4343 Y-16.3158
G01 X32.4382 Y-16.3054
G01 X32.4401 Y-16.2961
G01 X32.4407 Y-16.2867
G01 X32.4407 Y-14.9850
G01 X32.4399 Y-14.9764
G01 X32.4382 Y-14.9680
G01 X32.4354 Y-14.9599
G01 X32.4316 Y-14.9522
G01 X32.4269 Y-14.9450
G01 X32.4214 Y-14.9384
G01 X32.4089 Y-14.9280
G01 X32.3998 Y-14.9231
G01 X32.3910 Y-14.9197
G01 X32.3810 Y-14.9175
G01 X32.3716 Y-14.9167
G01 X30.9707 Y-14.9167
G01 X30.9587 Y-14.9177
G01 X30.9479 Y-14.9205
G01 X30.9385 Y-14.9246
G01 X30.9290 Y-14.9305
G01 X30.9206 Y-14.9378
G01 X30.9135 Y-14.9464
G01 X30.9078 Y-14.9560
G01 X30.9037 Y-14.9664
G01 X30.9013 Y-14.9773
G01 X30.9007 Y-14.9867
G01 X30.9007 Y-15.3639
G01 X30.1536 Y-15.3133
G01 X30.1148 Y-15.2678
G01 X30.0785 Y-15.2297
G01 X28.6642 Y-13.8155
G01 X28.6262 Y-13.7793
G01 X28.5850 Y-13.7439
G01 X28.5450 Y-13.7126
G01 X28.5034 Y-13.6834
G01 X28.4576 Y-13.6543
G01 X28.4119 Y-13.6284
G01 X28.3650 Y-13.6048
G01 X28.3153 Y-13.5828
G01 X28.2663 Y-13.5640
G01 X28.2180 Y-13.5481
G01 X28.1690 Y-13.5345
G01 X28.1161 Y-13.5226
G01 X28.0626 Y-13.5133
G01 X28.0122 Y-13.5072
G01 X27.9615 Y-13.5034
G01 X27.9073 Y-13.5020
G01 X27.8530 Y-13.5034
G01 X27.8023 Y-13.5072
G01 X27.7519 Y-13.5134
G01 X27.6984 Y-13.5226
G01 X27.6455 Y-13.5345
G01 X27.5949 Y-13.5486
G01 X27.5466 Y-13.5646
G01 X27.4992 Y-13.5829
G01 X27.4496 Y-13.6048
G01 X27.4011 Y-13.6292
G01 X27.3569 Y-13.6543
G01 X27.3140 Y-13.6815
G01 X27.2696 Y-13.7127
G01 X27.2268 Y-13.7461
G01 X27.1884 Y-13.7793
G01 X27.1515 Y-13.8144
G01 X27.1141 Y-13.8536
G01 X27.0787 Y-13.8948
G01 X27.0474 Y-13.9348
G01 X27.0182 Y-13.9764
G01 X26.9891 Y-14.0222
G01 X26.9632 Y-14.0679
G01 X26.9388 Y-14.1164
G01 X26.9183 Y-14.1629
G01 X26.9000 Y-14.2103
G01 X26.8829 Y-14.2618
G01 X26.8689 Y-14.3124
G01 X26.8570 Y-14.3654
G01 X26.8484 Y-14.4155
G01 X26.8421 Y-14.4659
G01 X26.8381 Y-14.5200
G01 X26.8368 Y-14.5743
G01 X26.8381 Y-14.6251
G01 X26.8418 Y-14.6758
G01 X26.8484 Y-14.7296
G01 X26.8577 Y-14.7831
G00 Z2.0000
G00 X27.3040 Y-10.9910
G01 F60.00
G01 Z-0.0560
G01 F50.00
G01 X27.3190 Y-10.9914
G01 X27.3471 Y-10.9943
G01 X27.3748 Y-10.9999
G01 X27.4018 Y-11.0083
G01 X27.4278 Y-11.0194
G01 X27.4525 Y-11.0331
G01 X27.4758 Y-11.0492
G01 X27.4979 Y-11.0681
G01 X30.2536 Y-13.6707
G01 X30.2651 Y-13.6795
G01 X30.2790 Y-13.6861
G01 X30.2906 Y-13.6889
G01 X30.3016 Y-13.6898
G01 X35.0435 Y-13.6895
G01 X35.0551 Y-13.6874
G01 X38.5016 Y-12.7474
G01 X38.5316 Y-12.7409
G01 X38.5613 Y-12.7377
G01 X38.5771 Y-12.7373
G01 X40.6536 Y-12.7373
G01 X40.6697 Y-12.7354
G01 X40.6850 Y-12.7299
G01 X40.6946 Y-12.7241
G01 X40.7031 Y-12.7168
G01 X41.7322 Y-11.6876
G01 X41.7379 Y-11.6812
G01 X41.7432 Y-11.6734
G01 X41.7471 Y-11.6657
G01 X41.7500 Y-11.6576
G01 X41.7520 Y-11.6484
G01 X41.7527 Y-11.6398
G01 X41.7524 Y-11.6313
G01 X41.7510 Y-11.6228
G01 X41.7487 Y-11.6145
G01 X41.7453 Y-11.6067
G01 X41.7400 Y-11.5978
G01 X41.7340 Y-11.5905
G01 X41.6700 Y-11.5264
G01 X41.6569 Y-11.5113
G01 X41.6498 Y-11.5007
G01 X41.6412 Y-11.4836
G01 X41.6352 Y-11.4654
G01 X41.6327 Y-11.4529
G01 X41.6313 Y-11.4329
G01 X41.6313 Y-11.2347
G01 X41.6319 Y-11.2211
G01 X41.6352 Y-11.2022
G01 X41.6412 Y-11.1840
G01 X41.6498 Y-11.1669
G01 X41.6641 Y-11.1449
G01 X41.6678 Y-11.1362
G01 X41.6702 Y-11.1271
G01 X41.6716 Y-11.1143
G01 X41.6704 Y-11.1006
G01 X41.6666 Y-11.0875
G01 X41.6607 Y-11.0760
G01 X41.6523 Y-11.0652
G01 X41.6412 Y-11.0557
G01 X41.6284 Y-11.0488
G01 X41.6144 Y-11.0446
G01 X41.5999 Y-11.0435
G01 X41.5854 Y-11.0453
G01 X41.5717 Y-11.0502
G01 X41.5599 Y-11.0572
G01 X41.5521 Y-11.0639
G01 X41.1913 Y-11.4247
G01 X41.1789 Y-11.4365
G01 X41.1539 Y-11.4570
G01 X41.1269 Y-11.4750
G01 X41.1128 Y-11.4830
G01 X41.0984 Y-11.4903
G01 X41.0684 Y-11.5027
G01 X41.0374 Y-11.5121
G01 X41.0056 Y-11.5184
G01 X40.9734 Y-11.5216
G01 X40.9563 Y-11.5220
G01 X40.8032 Y-11.5223
G01 X40.7914 Y-11.5245
G01 X40.7794 Y-11.5291
G01 X40.7691 Y-11.5353
G01 X40.7600 Y-11.5431
G01 X40.7519 Y-11.5531
G01 X40.7458 Y-11.5644
G01 X40.7418 Y-11.5767
G01 X40.7401 Y-11.5894
G01 X40.7401 Y-12.0218
G01 X39.1801 Y-12.0218
G01 X39.1801 Y-10.3618
G01 X40.7401 Y-10.3618
G01 X40.7401 Y-10.7730
G01 X40.7411 Y-10.7849
G01 X40.7448 Y-10.7981
G01 X40.7514 Y-10.8111
G01 X40.7600 Y-10.8218
G01 X40.7705 Y-10.8307
G01 X40.7825 Y-10.8373
G01 X40.7956 Y-10.8414
G01 X40.8101 Y-10.8430
G01 X40.8238 Y-10.8416
G01 X40.8329 Y-10.8391
G01 X40.8423 Y-10.8351
G01 X40.8504 Y-10.8302
G01 X40.8584 Y-10.8237
G01 X41.3582 Y-10.3239
G01 X41.3829 Y-10.3016
G01 X41.4089 Y-10.2823
G01 X41.4367 Y-10.2656
G01 X41.4660 Y-10.2517
G01 X41.4811 Y-10.2459
G01 X41.5121 Y-10.2365
G01 X41.5439 Y-10.2302
G01 X41.5761 Y-10.2270
G01 X41.7565 Y-10.2266
G01 X41.7650 Y-10.2260
G01 X41.7735 Y-10.2243
G01 X41.7879 Y-10.2187
G01 X41.8000 Y-10.2107
G01 X41.8291 Y-10.1821
G01 X41.8371 Y-10.1720
G01 X41.8421 Y-10.1630
G01 X41.8454 Y-10.1541
G01 X41.8475 Y-10.1449
G01 X41.8484 Y-10.1355
G01 X41.8480 Y-10.1261
G01 X41.8461 Y-10.1160
G01 X41.8431 Y-10.1070
G01 X41.8385 Y-10.0978
G01 X41.8285 Y-10.0849
G01 X41.6700 Y-9.9264
G01 X41.6608 Y-9.9163
G01 X41.6498 Y-9.9007
G01 X41.6438 Y-9.8894
G01 X41.6389 Y-9.8776
G01 X41.6352 Y-9.8654
G01 X41.6327 Y-9.8529
G01 X41.6313 Y-9.8329
G01 X41.6315 Y-9.6274
G01 X41.6338 Y-9.6084
G01 X41.6389 Y-9.5900
G01 X41.6438 Y-9.5782
G01 X41.6498 Y-9.5669
G01 X41.6569 Y-9.5563
G01 X41.6650 Y-9.5464
G01 X41.8285 Y-9.3827
G01 X41.8371 Y-9.3720
G01 X41.8424 Y-9.3622
G01 X41.8461 Y-9.3516
G01 X41.8481 Y-9.3407
G01 X41.8483 Y-9.3295
G01 X41.8467 Y-9.3185
G01 X41.8434 Y-9.3078
G01 X41.8385 Y-9.2978
G01 X41.8325 Y-9.2893
G01 X41.9188 Y-9.2893
G01 X41.9284 Y-9.2955
G01 X41.9386 Y-9.3000
G01 X41.9494 Y-9.3028
G01 X41.9614 Y-9.3038
G01 X43.0623 Y-9.3038
G01 X43.0734 Y-9.3028
G01 X43.0842 Y-9.3000
G01 X43.0944 Y-9.2955
G01 X43.1040 Y-9.2893
G01 X43.1903 Y-9.2893
G01 X43.1848 Y-9.2971
G01 X43.1804 Y-9.3054
G01 X43.1772 Y-9.3143
G01 X43.1751 Y-9.3235
G01 X43.1744 Y-9.3338
G01 X43.1750 Y-9.3432
G01 X43.1769 Y-9.3525
G01 X43.1800 Y-9.3614
G01 X43.1852 Y-9.3712
G01 X43.1919 Y-9.3802
G01 X43.2528 Y-9.4412
G01 X43.2620 Y-9.4513
G01 X43.2696 Y-9.4615
G01 X43.2790 Y-9.4782
G01 X43.2839 Y-9.4900
G01 X43.2876 Y-9.5022
G01 X43.2909 Y-9.5211
G01 X43.2915 Y-9.5347
G01 X43.2915 Y-9.9329
G01 X43.2909 Y-9.9465
G01 X43.2890 Y-9.9592
G01 X43.2859 Y-9.9716
G01 X43.2790 Y-9.9894
G01 X43.2730 Y-10.0007
G01 X43.2659 Y-10.0113
G01 X43.2528 Y-10.0264
G01 X43.1937 Y-10.0855
G01 X43.1862 Y-10.0949
G01 X43.1811 Y-10.1039
G01 X43.1774 Y-10.1135
G01 X43.1751 Y-10.1235
G01 X43.1744 Y-10.1329
G01 X43.1751 Y-10.1441
G01 X43.1779 Y-10.1558
G01 X43.1822 Y-10.1660
G01 X43.1882 Y-10.1755
G01 X43.1943 Y-10.1827
G01 X43.2578 Y-10.2464
G01 X43.2659 Y-10.2563
G01 X43.2730 Y-10.2669
G01 X43.2816 Y-10.2840
G01 X43.2859 Y-10.2960
G01 X43.2890 Y-10.3084
G01 X43.2913 Y-10.3274
G01 X43.2915 Y-10.7329
G01 X43.2909 Y-10.7465
G01 X43.2890 Y-10.7592
G01 X43.2859 Y-10.7716
G01 X43.2790 Y-10.7894
G01 X43.2730 Y-10.8007
G01 X43.2659 Y-10.8113
G01 X43.2528 Y-10.8264
G01 X43.1937 Y-10.8855
G01 X43.1862 Y-10.8949
G01 X43.1811 Y-10.9039
G01 X43.1774 Y-10.9135
G01 X43.1751 Y-10.9235
G01 X43.1744 Y-10.9329
G01 X43.1750 Y-10.9432
G01 X43.1772 Y-10.9533
G01 X43.1807 Y-10.9630
G01 X43.1852 Y-10.9712
G01 X43.1937 Y-10.9821
G01 X43.2528 Y-11.0412
G01 X43.2659 Y-11.0563
G01 X43.2730 Y-11.0669
G01 X43.2816 Y-11.0840
G01 X43.2876 Y-11.1022
G01 X43.2901 Y-11.1147
G01 X43.2915 Y-11.1347
G01 X43.2913 Y-11.5402
G01 X43.2890 Y-11.5592
G01 X43.2859 Y-11.5716
G01 X43.2790 Y-11.5894
G01 X43.2730 Y-11.6007
G01 X43.2620 Y-11.6163
G01 X43.2528 Y-11.6264
G01 X43.1488 Y-11.7302
G01 X43.1389 Y-11.7383
G01 X43.1227 Y-11.7485
G01 X43.1052 Y-11.7563
G01 X43.0868 Y-11.7614
G01 X43.0741 Y-11.7633
G01 X43.0605 Y-11.7639
G01 X42.4757 Y-11.7639
G01 X42.4655 Y-11.7649
G01 X42.4555 Y-11.7674
G01 X42.4459 Y-11.7714
G01 X42.4371 Y-11.7767
G01 X42.4279 Y-11.7844
G01 X40.9973 Y-13.2150
G01 X40.9763 Y-13.2341
G01 X40.9542 Y-13.2504
G01 X40.9426 Y-13.2578
G01 X40.9184 Y-13.2708
G01 X40.9058 Y-13.2763
G01 X40.8930 Y-13.2813
G01 X40.8667 Y-13.2893
G01 X40.8397 Y-13.2946
G01 X40.8261 Y-13.2963
G01 X40.7977 Y-13.2977
G01 X38.6231 Y-13.2977
G01 X38.6113 Y-13.2987
G01 X35.1582 Y-14.2401
G01 X35.1428 Y-14.2438
G01 X35.1134 Y-14.2486
G01 X35.0827 Y-14.2502
G01 X30.1633 Y-14.2502
G01 X30.1342 Y-14.2487
G01 X30.1062 Y-14.2445
G01 X30.0925 Y-14.2413
G01 X30.0655 Y-14.2329
G01 X30.0524 Y-14.2276
G01 X30.0270 Y-14.2152
G01 X30.0148 Y-14.2081
G01 X29.9915 Y-14.1920
G01 X29.9694 Y-14.1731
G01 X27.2137 Y-11.5705
G01 X27.2044 Y-11.5631
G01 X27.1931 Y-11.5570
G01 X27.1801 Y-11.5529
G01 X27.1665 Y-11.5514
G01 X26.6796 Y-11.5514
G01 X26.6668 Y-11.5529
G01 X26.6545 Y-11.5567
G01 X26.6431 Y-11.5627
G01 X26.6337 Y-11.5701
G01 X26.6246 Y-11.5804
G01 X26.6177 Y-11.5922
G01 X26.6132 Y-11.6052
G01 X26.6113 Y-11.6188
G01 X26.6113 Y-12.1011
G01 X25.0513 Y-12.1011
G01 X25.0513 Y-10.4411
G01 X26.6113 Y-10.4411
G01 X26.6114 Y-10.9245
G01 X26.6136 Y-10.9389
G01 X26.6188 Y-10.9525
G01 X26.6272 Y-10.9654
G01 X26.6376 Y-10.9757
G01 X26.6468 Y-10.9819
G01 X26.6569 Y-10.9866
G01 X26.6685 Y-10.9898
G01 X26.6796 Y-10.9910
G01 X27.3040 Y-10.9910
G00 Z2.0000
G00 X28.9049 Y-9.9313
G01 F60.00
G01 Z-0.0560
G01 F50.00
G01 X30.0370 Y-10.0165
G01 X30.0370 Y-10.4034
G01 X30.0375 Y-10.4120
G01 X30.0395 Y-10.4221
G01 X30.0434 Y-10.4325
G01 X30.0488 Y-10.4423
G01 X30.0551 Y-10.4504
G01 X30.0633 Y-10.4581
G01 X30.0718 Y-10.4639
G01 X30.0818 Y-10.4687
G01 X30.0925 Y-10.4719
G01 X30.1070 Y-10.4734
G01 X31.5070 Y-10.4734
G01 X31.5173 Y-10.4726
G01 X31.5281 Y-10.4701
G01 X31.5385 Y-10.4659
G01 X31.5473 Y-10.4606
G01 X31.5553 Y-10.4541
G01 X31.5627 Y-10.4458
G01 X31.5687 Y-10.4364
G01 X31.5729 Y-10.4270
G01 X31.5758 Y-10.4162
G01 X31.5770 Y-10.4060
G01 X31.5770 Y-9.1034
G01 X31.5762 Y-9.0931
G01 X31.5737 Y-9.0823
G01 X31.5695 Y-9.0719
G01 X31.5642 Y-9.0631
G01 X31.5577 Y-9.0551
G01 X31.5494 Y-9.0477
G01 X31.5408 Y-9.0421
G01 X31.5306 Y-9.0375
G01 X31.5207 Y-9.0347
G01 X31.5096 Y-9.0334
G01 X30.1070 Y-9.0334
G01 X30.0942 Y-9.0346
G01 X30.0842 Y-9.0372
G01 X30.0748 Y-9.0413
G01 X30.0660 Y-9.0467
G01 X30.0575 Y-9.0539
G01 X30.0503 Y-9.0624
G01 X30.0449 Y-9.0712
G01 X30.0408 Y-9.0806
G01 X30.0380 Y-9.0914
G01 X30.0370 Y-9.1034
G01 X30.0370 Y-9.3744
G01 X28.9530 Y-9.2928
G01 X28.9381 Y-9.2594
G01 X28.9232 Y-9.2298
G01 X28.9060 Y-9.1995
G01 X28.8873 Y-9.1700
G01 X28.8683 Y-9.1429
G01 X28.8458 Y-9.1141
G01 X28.8219 Y-9.0864
G01 X28.7990 Y-9.0625
G01 X28.7738 Y-9.0384
G01 X28.7474 Y-9.0157
G01 X28.7213 Y-8.9953
G01 X28.6900 Y-8.9732
G01 X28.6620 Y-8.9555
G01 X28.6332 Y-8.9392
G01 X28.5990 Y-8.9220
G01 X28.5687 Y-8.9085
G01 X28.5362 Y-8.8960
G01 X28.5031 Y-8.8851
G01 X28.4712 Y-8.8762
G01 X28.4338 Y-8.8678
G01 X28.4012 Y-8.8622
G01 X28.3666 Y-8.8579
G01 X28.3301 Y-8.8553
G01 X28.2970 Y-8.8545
G01 X28.2639 Y-8.8553
G01 X28.2274 Y-8.8579
G01 X28.1911 Y-8.8625
G01 X28.1585 Y-8.8681
G01 X28.1262 Y-8.8754
G01 X28.0909 Y-8.8851
G01 X28.0578 Y-8.8960
G01 X28.0237 Y-8.9092
G01 X27.9934 Y-8.9227
G01 X27.9638 Y-8.9375
G01 X27.9320 Y-8.9555
G01 X27.9011 Y-8.9751
G01 X27.8741 Y-8.9942
G01 X27.8479 Y-9.0146
G01 X27.8202 Y-9.0384
G01 X27.7950 Y-9.0625
G01 X27.7709 Y-9.0877
G01 X27.7471 Y-9.1154
G01 X27.7267 Y-9.1416
G01 X27.7076 Y-9.1686
G01 X27.6880 Y-9.1995
G01 X27.6708 Y-9.2298
G01 X27.6552 Y-9.2609
G01 X27.6410 Y-9.2928
G01 X27.6285 Y-9.3253
G01 X27.6176 Y-9.3584
G01 X27.6083 Y-9.3920
G01 X27.6006 Y-9.4260
G01 X27.5947 Y-9.4603
G01 X27.5904 Y-9.4949
G01 X27.5879 Y-9.5297
G01 X27.5870 Y-9.5645
G01 X27.5879 Y-9.5993
G01 X27.5904 Y-9.6341
G01 X27.5947 Y-9.6687
G01 X27.6006 Y-9.7030
G01 X27.6083 Y-9.7370
G01 X27.6176 Y-9.7706
G01 X27.6285 Y-9.8037
G01 X27.6410 Y-9.8362
G01 X27.6552 Y-9.8681
G01 X27.6708 Y-9.8992
G01 X27.6880 Y-9.9295
G01 X27.7067 Y-9.9590
G01 X27.7267 Y-9.9874
G01 X27.7482 Y-10.0149
G01 X27.7709 Y-10.0413
G01 X27.7950 Y-10.0665
G01 X27.8202 Y-10.0906
G01 X27.8466 Y-10.1133
G01 X27.8741 Y-10.1348
G01 X27.9025 Y-10.1548
G01 X27.9320 Y-10.1735
G01 X27.9623 Y-10.1907
G01 X27.9934 Y-10.2063
G01 X28.0253 Y-10.2205
G01 X28.0578 Y-10.2330
G01 X28.0909 Y-10.2439
G01 X28.1245 Y-10.2532
G01 X28.1585 Y-10.2609
G01 X28.1928 Y-10.2668
G01 X28.2274 Y-10.2711
G01 X28.2622 Y-10.2736
G01 X28.2970 Y-10.2745
G01 X28.3318 Y-10.2736
G01 X28.3666 Y-10.2711
G01 X28.4012 Y-10.2668
G01 X28.4355 Y-10.2609
G01 X28.4695 Y-10.2532
G01 X28.5031 Y-10.2439
G01 X28.5362 Y-10.2330
G01 X28.5687 Y-10.2205
G01 X28.6006 Y-10.2063
G01 X28.6317 Y-10.1907
G01 X28.6620 Y-10.1735
G01 X28.6915 Y-10.1548
G01 X28.7199 Y-10.1348
G01 X28.7474 Y-10.1133
G01 X28.7738 Y-10.0906
G01 X28.7990 Y-10.0665
G01 X28.8231 Y-10.0413
G01 X28.8458 Y-10.0149
G01 X28.8673 Y-9.9874
G01 X28.8873 Y-9.9590
G01 X28.9049 Y-9.9313
G00 Z2.0000
G00 X30.1070 Y-12.3734
G01 F60.00
G01 Z-0.0560
G01 F50.00
G01 X31.5070 Y-12.3734
G01 X31.5181 Y-12.3725
G01 X31.5281 Y-12.3701
G01 X31.5377 Y-12.3663
G01 X31.5459 Y-12.3616
G01 X31.5540 Y-12.3553
G01 X31.5611 Y-12.3478
G01 X31.5670 Y-12.3394
G01 X31.5717 Y-12.3302
G01 X31.5747 Y-12.3212
G01 X31.5766 Y-12.3111
G01 X31.5770 Y-11.9089
G01 X32.3388 Y-11.9089
G01 X32.3388 Y-12.3086
G01 X32.3396 Y-12.3189
G01 X32.3426 Y-12.3314
G01 X32.3475 Y-12.3424
G01 X32.3541 Y-12.3523
G01 X32.3624 Y-12.3610
G01 X32.3728 Y-12.3686
G01 X32.3836 Y-12.3739
G01 X32.3960 Y-12.3774
G01 X32.4079 Y-12.3786
G01 X33.8088 Y-12.3786
G01 X33.8199 Y-12.3777
G01 X33.8299 Y-12.3753
G01 X33.8395 Y-12.3715
G01 X33.8477 Y-12.3668
G01 X33.8558 Y-12.3605
G01 X33.8629 Y-12.3530
G01 X33.8684 Y-12.3453
G01 X33.8731 Y-12.3362
G01 X33.8765 Y-12.3264
G01 X33.8784 Y-12.3163
G01 X33.8788 Y-11.9089
G01 X34.6596 Y-11.9089
G01 X34.6596 Y-12.3085
G01 X34.6604 Y-12.3188
G01 X34.6631 Y-12.3305
G01 X34.6679 Y-12.3415
G01 X34.6749 Y-12.3522
G01 X34.6832 Y-12.3609
G01 X34.6929 Y-12.3681
G01 X34.7044 Y-12.3738
G01 X34.7159 Y-12.3772
G01 X34.7287 Y-12.3785
G01 X36.3296 Y-12.3785
G01 X36.3458 Y-12.3766
G01 X36.3556 Y-12.3735
G01 X36.3656 Y-12.3685
G01 X36.3740 Y-12.3626
G01 X36.3815 Y-12.3555
G01 X36.3878 Y-12.3474
G01 X36.3932 Y-12.3376
G01 X36.3968 Y-12.3280
G01 X36.3990 Y-12.3179
G01 X36.3996 Y-12.3085
G01 X36.3996 Y-11.9786
G01 X37.5944 Y-11.9786
G01 X37.6232 Y-11.9772
G01 X37.6413 Y-11.9750
G01 X37.6705 Y-11.9692
G01 X37.6957 Y-11.9618
G01 X38.7102 Y-11.9618
G01 X38.7255 Y-11.9601
G01 X38.7370 Y-11.9565
G01 X38.7469 Y-11.9514
G01 X38.7566 Y-11.9442
G01 X38.7643 Y-11.9362
G01 X38.7707 Y-11.9270
G01 X38.7758 Y-11.9162
G01 X38.7789 Y-11.9055
G01 X38.7802 Y-11.8944
G01 X38.7801 Y-10.4918
G01 X38.7784 Y-10.4765
G01 X38.7751 Y-10.4658
G01 X38.7701 Y-10.4558
G01 X38.7631 Y-10.4461
G01 X38.7552 Y-10.4382
G01 X38.7453 Y-10.4313
G01 X38.7353 Y-10.4265
G01 X38.7238 Y-10.4231
G01 X38.7127 Y-10.4218
G01 X37.4092 Y-10.4218
G01 X37.3998 Y-10.4226
G01 X37.3914 Y-10.4243
G01 X37.3825 Y-10.4275
G01 X37.3741 Y-10.4318
G01 X37.3670 Y-10.4366
G01 X37.3606 Y-10.4423
G01 X37.3549 Y-10.4487
G01 X37.3501 Y-10.4558
G01 X37.3461 Y-10.4634
G01 X37.3431 Y-10.4715
G01 X37.3410 Y-10.4807
G01 X37.3401 Y-10.4892
G01 X37.3402 Y-11.3384
G01 X36.3996 Y-11.3384
G01 X36.3996 Y-11.0085
G01 X36.3987 Y-10.9974
G01 X36.3958 Y-10.9857
G01 X36.3913 Y-10.9755
G01 X36.3848 Y-10.9654
G01 X36.3766 Y-10.9566
G01 X36.3678 Y-10.9498
G01 X36.3572 Y-10.9442
G01 X36.3458 Y-10.9404
G01 X36.3339 Y-10.9386
G01 X34.7296 Y-10.9385
G01 X34.7159 Y-10.9398
G01 X34.7060 Y-10.9426
G01 X34.6966 Y-10.9468
G01 X34.6879 Y-10.9523
G01 X34.6795 Y-10.9596
G01 X34.6729 Y-10.9675
G01 X34.6671 Y-10.9770
G01 X34.6631 Y-10.9865
G01 X34.6606 Y-10.9965
G01 X34.6596 Y-11.0085
G01 X34.6596 Y-11.2687
G01 X33.8788 Y-11.2687
G01 X33.8788 Y-11.0086
G01 X33.8776 Y-10.9958
G01 X33.8747 Y-10.9850
G01 X33.8701 Y-10.9748
G01 X33.8645 Y-10.9662
G01 X33.8571 Y-10.9579
G01 X33.8484 Y-10.9509
G01 X33.8395 Y-10.9457
G01 X33.8299 Y-10.9419
G01 X33.8191 Y-10.9394
G01 X33.8088 Y-10.9386
G01 X32.4037 Y-10.9388
G01 X32.3926 Y-10.9405
G01 X32.3812 Y-10.9443
G01 X32.3714 Y-10.9495
G01 X32.3624 Y-10.9562
G01 X32.3547 Y-10.9642
G01 X32.3483 Y-10.9734
G01 X32.3432 Y-10.9842
G01 X32.3401 Y-10.9949
G01 X32.3388 Y-11.0086
G01 X32.3388 Y-11.2687
G01 X31.5770 Y-11.2687
G01 X31.5770 Y-11.0034
G01 X31.5761 Y-10.9923
G01 X31.5737 Y-10.9823
G01 X31.5699 Y-10.9727
G01 X31.5647 Y-10.9638
G01 X31.5583 Y-10.9558
G01 X31.5507 Y-10.9487
G01 X31.5422 Y-10.9429
G01 X31.5322 Y-10.9381
G01 X31.5223 Y-10.9351
G01 X31.5070 Y-10.9334
G01 X30.1070 Y-10.9334
G01 X30.0917 Y-10.9351
G01 X30.0810 Y-10.9384
G01 X30.0703 Y-10.9438
G01 X30.0613 Y-10.9504
G01 X30.0529 Y-10.9590
G01 X30.0465 Y-10.9682
G01 X30.0417 Y-10.9782
G01 X30.0383 Y-10.9897
G01 X30.0370 Y-11.0008
G01 X30.0370 Y-12.3043
G01 X30.0385 Y-12.3179
G01 X30.0427 Y-12.3310
G01 X30.0493 Y-12.3430
G01 X30.0581 Y-12.3535
G01 X30.0681 Y-12.3616
G01 X30.0802 Y-12.3681
G01 X30.0933 Y-12.3721
G01 X30.1070 Y-12.3734
G00 Z2.0000
G00 X31.6370 Y-10.5334
G01 F60.00
G01 Z-0.0560
G01 F50.00
G01 X29.9770 Y-10.5334
G01 X29.9767 Y-10.1312
G01 X29.9755 Y-10.1227
G01 X29.9732 Y-10.1144
G01 X29.9695 Y-10.1057
G01 X29.9652 Y-10.0983
G01 X29.9600 Y-10.0915
G01 X29.9541 Y-10.0853
G01 X29.9474 Y-10.0800
G01 X29.9401 Y-10.0755
G01 X29.9266 Y-10.0700
G01 X29.9131 Y-10.0674
G01 X28.9747 Y-9.9968
G01 X28.9618 Y-9.9972
G01 X28.9484 Y-10.0002
G01 X28.9358 Y-10.0057
G01 X28.9253 Y-10.0131
G01 X28.9167 Y-10.0216
G01 X28.8922 Y-10.0530
G01 X28.8675 Y-10.0816
G01 X28.8415 Y-10.1090
G01 X28.8141 Y-10.1350
G01 X28.7855 Y-10.1597
G01 X28.7557 Y-10.1830
G01 X28.7248 Y-10.2047
G01 X28.6928 Y-10.2249
G01 X28.6600 Y-10.2436
G01 X28.6262 Y-10.2606
G01 X28.5917 Y-10.2759
G01 X28.5564 Y-10.2895
G01 X28.5205 Y-10.3013
G01 X28.4841 Y-10.3114
G01 X28.4472 Y-10.3197
G01 X28.4100 Y-10.3261
G01 X28.3725 Y-10.3308
G01 X28.3348 Y-10.3336
G01 X28.2970 Y-10.3345
G01 X28.2592 Y-10.3336
G01 X28.2215 Y-10.3308
G01 X28.1840 Y-10.3261
G01 X28.1468 Y-10.3197
G01 X28.1099 Y-10.3114
G01 X28.0735 Y-10.3013
G01 X28.0376 Y-10.2895
G01 X28.0023 Y-10.2759
G01 X27.9678 Y-10.2606
G01 X27.9340 Y-10.2436
G01 X27.9012 Y-10.2249
G01 X27.8692 Y-10.2047
G01 X27.8383 Y-10.1830
G01 X27.8085 Y-10.1597
G01 X27.7799 Y-10.1350
G01 X27.7525 Y-10.1090
G01 X27.7265 Y-10.0816
G01 X27.7018 Y-10.0530
G01 X27.6785 Y-10.0232
G01 X27.6568 Y-9.9923
G01 X27.6366 Y-9.9603
G01 X27.6179 Y-9.9275
G01 X27.6009 Y-9.8937
G01 X27.5856 Y-9.8592
G01 X27.5720 Y-9.8239
G01 X27.5602 Y-9.7880
G01 X27.5501 Y-9.7516
G01 X27.5418 Y-9.7147
G01 X27.5354 Y-9.6775
G01 X27.5307 Y-9.6400
G01 X27.5279 Y-9.6023
G01 X27.5270 Y-9.5645
G01 X27.5279 Y-9.5267
G01 X27.5307 Y-9.4890
G01 X27.5354 Y-9.4515
G01 X27.5418 Y-9.4143
G01 X27.5501 Y-9.3774
G01 X27.5602 Y-9.3410
G01 X27.5720 Y-9.3051
G01 X27.5856 Y-9.2698
G01 X27.6009 Y-9.2353
G01 X27.6179 Y-9.2015
G01 X27.6366 Y-9.1687
G01 X27.6568 Y-9.1367
G01 X27.6785 Y-9.1058
G01 X27.7018 Y-9.0760
G01 X27.7265 Y-9.0474
G01 X27.7525 Y-9.0200
G01 X27.7799 Y-8.9940
G01 X27.8085 Y-8.9693
G01 X27.8383 Y-8.9460
G01 X27.8692 Y-8.9243
G01 X27.9012 Y-8.9041
G01 X27.9340 Y-8.8854
G01 X27.9678 Y-8.8684
G01 X28.0023 Y-8.8531
G01 X28.0376 Y-8.8395
G01 X28.0735 Y-8.8277
G01 X28.1099 Y-8.8176
G01 X28.1468 Y-8.8093
G01 X28.1840 Y-8.8029
G01 X28.2215 Y-8.7982
G01 X28.2592 Y-8.7954
G01 X28.2970 Y-8.7945
G01 X28.3348 Y-8.7954
G01 X28.3725 Y-8.7982
G01 X28.4100 Y-8.8029
G01 X28.4472 Y-8.8093
G01 X28.4841 Y-8.8176
G01 X28.5205 Y-8.8277
G01 X28.5564 Y-8.8395
G01 X28.5917 Y-8.8531
G01 X28.6262 Y-8.8684
G01 X28.6600 Y-8.8854
G01 X28.6928 Y-8.9041
G01 X28.7248 Y-8.9243
G01 X28.7557 Y-8.9460
G01 X28.7855 Y-8.9693
G01 X28.8141 Y-8.9940
G01 X28.8415 Y-9.0200
G01 X28.8675 Y-9.0474
G01 X28.8922 Y-9.0760
G01 X28.9155 Y-9.1058
G01 X28.9372 Y-9.1367
G01 X28.9574 Y-9.1686
G01 X28.9783 Y-9.2055
G01 X28.9838 Y-9.2131
G01 X28.9909 Y-9.2206
G01 X28.9990 Y-9.2269
G01 X29.0079 Y-9.2320
G01 X29.0175 Y-9.2357
G01 X29.0327 Y-9.2386
G01 X29.9035 Y-9.3041
G01 X29.9155 Y-9.3037
G01 X29.9272 Y-9.3012
G01 X29.9384 Y-9.2967
G01 X29.9493 Y-9.2899
G01 X29.9583 Y-9.2818
G01 X29.9661 Y-9.2716
G01 X29.9717 Y-9.2610
G01 X29.9753 Y-9.2495
G01 X29.9770 Y-9.2350
G01 X29.9770 Y-8.9734
G01 X31.6370 Y-8.9734
G01 X31.6370 Y-10.5334
G00 Z2.0000
G00 X32.3387 Y-10.0453
G01 F60.00
G01 Z-0.0560
G01 F50.00
G01 X32.3387 Y-10.4086
G01 X32.3396 Y-10.4197
G01 X32.3425 Y-10.4314
G01 X32.3478 Y-10.4431
G01 X32.3546 Y-10.4530
G01 X32.3636 Y-10.4622
G01 X32.3735 Y-10.4691
G01 X32.3851 Y-10.4745
G01 X32.3967 Y-10.4776
G01 X32.4087 Y-10.4786
G01 X33.8087 Y-10.4786
G01 X33.8181 Y-10.4780
G01 X33.8274 Y-10.4761
G01 X33.8371 Y-10.4726
G01 X33.8461 Y-10.4677
G01 X33.8544 Y-10.4616
G01 X33.8617 Y-10.4543
G01 X33.8678 Y-10.4460
G01 X33.8727 Y-10.4370
G01 X33.8762 Y-10.4273
G01 X33.8782 Y-10.4172
G01 X33.8787 Y-10.4086
G01 X33.8787 Y-10.0453
G01 X33.9387 Y-10.0453
G01 X33.9387 Y-10.5386
G01 X32.2787 Y-10.5386
G01 X32.2787 Y-10.0453
G01 X32.3387 Y-10.0453
G00 Z2.0000
G00 X32.3387 Y-9.4720
G01 F60.00
G01 Z-0.0560
G01 F50.00
G01 X32.2787 Y-9.4720
G01 X32.2787 Y-8.9786
G01 X32.8221 Y-8.9786
G01 X32.8221 Y-9.0386
G01 X32.4053 Y-9.0387
G01 X32.3925 Y-9.0405
G01 X32.3803 Y-9.0446
G01 X32.3684 Y-9.0514
G01 X32.3586 Y-9.0597
G01 X32.3505 Y-9.0697
G01 X32.3447 Y-9.0802
G01 X32.3406 Y-9.0924
G01 X32.3388 Y-9.1052
G01 X32.3387 Y-9.4720
G00 Z2.0000
G00 X33.3954 Y-9.0386
G01 F60.00
G01 Z-0.0560
G01 F50.00
G01 X33.3954 Y-8.9786
G01 X33.9387 Y-8.9786
G01 X33.9387 Y-9.4720
G01 X33.8787 Y-9.4720
G01 X33.8786 Y-9.1043
G01 X33.8762 Y-9.0899
G01 X33.8708 Y-9.0764
G01 X33.8628 Y-9.0642
G01 X33.8524 Y-9.0539
G01 X33.8432 Y-9.0477
G01 X33.8331 Y-9.0430
G01 X33.8224 Y-9.0399
G01 X33.8113 Y-9.0386
G01 X33.3954 Y-9.0386
G00 Z2.0000
G00 X34.6596 Y-10.0452
G01 F60.00
G01 Z-0.0560
G01 F50.00
G01 X34.6596 Y-10.4085
G01 X34.6601 Y-10.4171
G01 X34.6621 Y-10.4272
G01 X34.6656 Y-10.4369
G01 X34.6709 Y-10.4467
G01 X34.6772 Y-10.4549
G01 X34.6845 Y-10.4621
G01 X34.6929 Y-10.4681
G01 X34.7020 Y-10.4728
G01 X34.7118 Y-10.4762
G01 X34.7210 Y-10.4780
G01 X34.7296 Y-10.4785
G01 X36.3296 Y-10.4785
G01 X36.3416 Y-10.4775
G01 X36.3540 Y-10.4741
G01 X36.3648 Y-10.4690
G01 X36.3753 Y-10.4615
G01 X36.3843 Y-10.4522
G01 X36.3909 Y-10.4423
G01 X36.3958 Y-10.4313
G01 X36.3987 Y-10.4196
G01 X36.3996 Y-10.4085
G01 X36.3996 Y-10.0451
G01 X36.4596 Y-10.0451
G01 X36.4596 Y-10.5385
G01 X34.5996 Y-10.5385
G01 X34.5996 Y-10.0452
G01 X34.6596 Y-10.0452
G00 Z2.0000
G00 X35.2430 Y-9.0385
G01 F60.00
G01 Z-0.0560
G01 F50.00
G01 X34.7279 Y-9.0385
G01 X34.7185 Y-9.0394
G01 X34.7085 Y-9.0418
G01 X34.6997 Y-9.0452
G01 X34.6907 Y-9.0503
G01 X34.6783 Y-9.0609
G01 X34.6691 Y-9.0733
G01 X34.6629 Y-9.0874
G01 X34.6598 Y-9.1034
G01 X34.6596 Y-9.4719
G01 X34.5996 Y-9.4719
G01 X34.5996 Y-8.9785
G01 X35.2430 Y-8.9785
G01 X35.2430 Y-9.0385
G00 Z2.0000
G00 X35.8163 Y-9.0385
G01 F60.00
G01 Z-0.0560
G01 F50.00
G01 X35.8163 Y-8.9785
G01 X36.4596 Y-8.9785
G01 X36.4596 Y-9.4718
G01 X36.3996 Y-9.4718
G01 X36.3994 Y-9.1034
G01 X36.3963 Y-9.0874
G01 X36.3901 Y-9.0733
G01 X36.3803 Y-9.0602
G01 X36.3685 Y-9.0503
G01 X36.3595 Y-9.0452
G01 X36.3507 Y-9.0418
G01 X36.3416 Y-9.0395
G01 X36.3313 Y-9.0385
G01 X35.8163 Y-9.0385
G00 Z2.0000
G00 X34.4231 Y-7.0596
G01 F60.00
G01 Z-0.0560
G01 F50.00
G01 X34.4337 Y-7.0409
G01 X34.7351 Y-7.1074
G01 X34.7351 Y-7.1317
G01 X34.7218 Y-7.1262
G01 X34.7070 Y-7.1219
G01 X34.4231 Y-7.0596
G00 Z2.0000
G00 X34.7351 Y-6.4625
G01 F60.00
G01 Z-0.0560
G01 F50.00
G01 X34.7351 Y-6.5130
G01 X34.5587 Y-6.4738
G01 X34.5572 Y-6.4529
G01 X34.6466 Y-6.4731
G01 X34.6670 Y-6.4758
G01 X34.6841 Y-6.4757
G01 X34.7011 Y-6.4736
G01 X34.7177 Y-6.4694
G01 X34.7351 Y-6.4625
G00 Z2.0000
G00 X33.9941 Y-5.6162
G01 F60.00
G01 Z-0.0560
G01 F50.00
G01 X33.9659 Y-5.6021
G01 X33.9223 Y-5.5827
G01 X33.8856 Y-5.5684
G01 X34.0072 Y-5.5684
G01 X34.0024 Y-5.5797
G01 X33.9987 Y-5.5911
G01 X33.9960 Y-5.6028
G01 X33.9941 Y-5.6162
G00 Z2.0000
G00 X33.8511 Y-4.9882
G01 F60.00
G01 Z-0.0560
G01 F50.00
G01 X33.8732 Y-4.9808
G01 X33.9176 Y-4.9637
G01 X33.9748 Y-4.9379
G01 X33.9762 Y-4.9504
G01 X33.9791 Y-4.9638
G01 X33.9832 Y-4.9769
G01 X33.9880 Y-4.9882
G01 X33.8511 Y-4.9882
G00 Z2.0000
G00 X33.0544 Y-4.9882
G01 F60.00
G01 Z-0.0560
G01 F50.00
G01 X33.0592 Y-4.9769
G01 X33.0633 Y-4.9638
G01 X33.0662 Y-4.9504
G01 X33.0676 Y-4.9379
G01 X33.1248 Y-4.9637
G01 X33.1692 Y-4.9808
G01 X33.1913 Y-4.9882
G01 X33.0544 Y-4.9882
G00 Z2.0000
G00 X33.0352 Y-5.5684
G01 F60.00
G01 Z-0.0560
G01 F50.00
G01 X33.1568 Y-5.5684
G01 X33.1201 Y-5.5827
G01 X33.0765 Y-5.6021
G01 X33.0483 Y-5.6162
G01 X33.0464 Y-5.6028
G01 X33.0437 Y-5.5911
G01 X33.0400 Y-5.5797
G01 X33.0352 Y-5.5684
G00 Z2.0000
G00 X31.8940 Y-5.4780
G01 F60.00
G01 Z-0.0560
G01 F50.00
G01 X31.8887 Y-5.4650
G01 X31.8813 Y-5.4514
G01 X31.8735 Y-5.4401
G01 X31.8635 Y-5.4283
G01 X31.8522 Y-5.4177
G01 X31.8399 Y-5.4085
G01 X31.8266 Y-5.4006
G01 X31.8140 Y-5.3949
G01 X32.1686 Y-5.0403
G01 X32.1739 Y-5.0532
G01 X32.1813 Y-5.0668
G01 X32.1891 Y-5.0781
G01 X32.1991 Y-5.0899
G01 X32.2104 Y-5.1005
G01 X32.2227 Y-5.1098
G01 X32.2360 Y-5.1176
G01 X32.2486 Y-5.1234
G01 X31.8940 Y-5.4780
G00 Z2.0000
G00 X31.4765 Y-5.6394
G01 F60.00
G01 Z-0.0560
G01 F50.00
G01 X31.5107 Y-5.6588
G01 X31.5534 Y-5.6858
G01 X31.5935 Y-5.7140
G01 X31.6033 Y-5.7193
G01 X31.6172 Y-5.7238
G01 X31.6308 Y-5.7253
G01 X31.6445 Y-5.7241
G01 X31.6577 Y-5.7203
G01 X31.6699 Y-5.7140
G01 X31.6799 Y-5.7060
G01 X31.8116 Y-5.5744
G01 X31.8178 Y-5.5673
G01 X31.8226 Y-5.5601
G01 X31.8268 Y-5.5517
G01 X31.8298 Y-5.5427
G01 X31.8315 Y-5.5343
G01 X31.8321 Y-5.5249
G01 X31.8316 Y-5.5163
G01 X31.8298 Y-5.5070
G01 X31.8271 Y-5.4989
G01 X31.8221 Y-5.4889
G01 X31.8162 Y-5.4805
G01 X31.8085 Y-5.4724
G01 X31.8003 Y-5.4662
G01 X31.7913 Y-5.4612
G01 X31.7808 Y-5.4574
G01 X31.7707 Y-5.4554
G01 X31.7595 Y-5.4549
G01 X31.7476 Y-5.4564
G01 X31.7361 Y-5.4599
G01 X31.7269 Y-5.4644
G01 X31.6996 Y-5.4813
G01 X31.6792 Y-5.4909
G01 X31.6579 Y-5.4985
G01 X31.6360 Y-5.5040
G01 X31.6137 Y-5.5073
G01 X31.6024 Y-5.5082
G01 X31.5067 Y-5.5086
G01 X31.4956 Y-5.5102
G01 X31.4850 Y-5.5135
G01 X31.4757 Y-5.5180
G01 X31.4679 Y-5.5233
G01 X31.4609 Y-5.5296
G01 X31.4542 Y-5.5374
G01 X31.4488 Y-5.5462
G01 X31.4451 Y-5.5549
G01 X31.4423 Y-5.5648
G01 X31.4411 Y-5.5742
G01 X31.4412 Y-5.5836
G01 X31.4427 Y-5.5938
G01 X31.4457 Y-5.6036
G01 X31.4496 Y-5.6122
G01 X31.4547 Y-5.6201
G01 X31.4609 Y-5.6273
G01 X31.4686 Y-5.6342
G01 X31.4765 Y-5.6394
G00 Z2.0000
G00 X31.1622 Y-5.5183
G01 F60.00
G01 Z-0.0560
G01 F50.00
G01 X31.3845 Y-5.5183
G01 X31.3786 Y-5.5329
G01 X31.3744 Y-5.5478
G01 X31.3718 Y-5.5630
G01 X31.3710 Y-5.5781
G01 X31.3316 Y-5.5630
G01 X31.2814 Y-5.5465
G01 X31.2322 Y-5.5330
G01 X31.1858 Y-5.5225
G01 X31.1622 Y-5.5183
G00 Z2.0000
G00 X31.0694 Y-5.0383
G01 F60.00
G01 Z-0.0560
G01 F50.00
G01 X31.0848 Y-5.0370
G01 X31.1321 Y-5.0312
G01 X31.1824 Y-5.0225
G01 X31.2339 Y-5.0110
G01 X31.2847 Y-4.9969
G01 X31.3348 Y-4.9802
G01 X31.3792 Y-4.9630
G01 X31.4227 Y-4.9438
G01 X31.4715 Y-4.9194
G01 X31.5144 Y-4.8951
G01 X31.5590 Y-4.8669
G01 X31.6007 Y-4.8375
G01 X31.6410 Y-4.8061
G01 X31.6821 Y-4.7705
G01 X31.7166 Y-4.7376
G01 X31.7495 Y-4.7031
G01 X31.7829 Y-4.6646
G01 X31.8165 Y-4.6217
