(G-CODE GENERATED BY FLATCAM v8.993 - www.flatcam.org - Version Date: 2020/06/05)

(Name: Syntez2_Ф1_верх.gbr_iso_combined_cnc)
(Type: G-code from Geometry)
(Units: MM)

(Created on Friday, 02 October 2020 at 03:29)

(This preprocessor is the default preprocessor used by FlatCAM.)
(It is made to work with MACH3 compatible motion controllers.)

(TOOL DIAMETER: 0.15 mm)
(Feedrate_XY: 60.0 mm/min)
(Feedrate_Z: 70.0 mm/min)
(Feedrate rapids 1500.0 mm/min)

(Z_Cut: -0.06 mm)
(Z_Move: 2.0 mm)
(Z Start: None mm)
(Z End: 25.0 mm)
(Steps per circle: 128)
(Preprocessor Geometry: default)

(X range:   -0.2208 ...   98.5792  mm)
(Y range:  -33.3787 ...    0.2604  mm)

(Spindle Speed: None RPM)
G21
G90
G94



G01 F60.00
G00 Z2.0000

M03
G00 X0.0042 Y-0.0396
G01 F70.00
G01 Z-0.0600
G01 F60.00
G01 X0.0042 Y-13.6138
G01 X0.0048 Y-13.6230
G01 X0.0064 Y-13.6321
G01 X0.0096 Y-13.6417
G01 X0.0135 Y-13.6500
G01 X0.0190 Y-13.6585
G01 X0.0249 Y-13.6656
G01 X0.0323 Y-13.6724
G01 X0.0399 Y-13.6777
G01 X0.0488 Y-13.6824
G01 X0.0583 Y-13.6859
G01 X0.0691 Y-13.6882
G01 X0.0792 Y-13.6888
G01 X0.0999 Y-13.6868
G01 X20.5800 Y-13.6870
G01 X22.1709 Y-13.9654
G01 X23.5647 Y-14.3638
G01 X25.4332 Y-15.3180
G01 X26.3919 Y-16.1571
G01 X27.7032 Y-17.7073
G01 X28.4192 Y-19.0203
G01 X28.8577 Y-20.4160
G01 X29.0960 Y-21.8886
G01 X29.0960 Y-33.0787
G01 X29.0971 Y-33.0916
G01 X29.1006 Y-33.1049
G01 X29.1066 Y-33.1173
G01 X29.1142 Y-33.1277
G01 X29.1241 Y-33.1373
G01 X29.1356 Y-33.1449
G01 X29.1483 Y-33.1502
G01 X29.1609 Y-33.1531
G01 X29.1710 Y-33.1537
G01 X64.0746 Y-33.1537
G01 X64.0847 Y-33.1531
G01 X64.0947 Y-33.1510
G01 X64.1059 Y-33.1469
G01 X64.1171 Y-33.1406
G01 X64.1264 Y-33.1331
G01 X64.1343 Y-33.1242
G01 X64.1408 Y-33.1141
G01 X64.1456 Y-33.1031
G01 X64.1485 Y-33.0916
G01 X64.1496 Y-33.0787
G01 X64.1496 Y-21.9879
G01 X64.1811 Y-21.7905
G01 X64.2036 Y-21.4871
G01 X64.2549 Y-21.0718
G01 X64.3259 Y-20.6626
G01 X64.4175 Y-20.2543
G01 X64.5290 Y-19.8510
G01 X64.6602 Y-19.4537
G01 X64.8107 Y-19.0632
G01 X64.9802 Y-18.6807
G01 X65.1683 Y-18.3069
G01 X65.3745 Y-17.9428
G01 X65.5983 Y-17.5892
G01 X65.8391 Y-17.2471
G01 X66.0965 Y-16.9172
G01 X66.3697 Y-16.6003
G01 X66.6582 Y-16.2972
G01 X66.9612 Y-16.0086
G01 X67.2780 Y-15.7352
G01 X67.6078 Y-15.4778
G01 X67.9499 Y-15.2368
G01 X68.3060 Y-15.0113
G01 X68.6674 Y-14.8065
G01 X69.0411 Y-14.6183
G01 X69.4236 Y-14.4487
G01 X69.8140 Y-14.2980
G01 X70.2142 Y-14.1658
G01 X70.6145 Y-14.0550
G01 X71.0227 Y-13.9633
G01 X71.4350 Y-13.8917
G01 X71.8533 Y-13.8401
G01 X72.2676 Y-13.8095
G01 X72.5729 Y-13.8019
G01 X72.6667 Y-13.7862
G01 X98.2792 Y-13.7861
G01 X98.2929 Y-13.7849
G01 X98.3062 Y-13.7811
G01 X98.3178 Y-13.7755
G01 X98.3289 Y-13.7673
G01 X98.3378 Y-13.7580
G01 X98.3453 Y-13.7465
G01 X98.3507 Y-13.7338
G01 X98.3535 Y-13.7212
G01 X98.3542 Y-13.7111
G01 X98.3542 Y-0.0396
G01 X98.3531 Y-0.0268
G01 X98.3495 Y-0.0135
G01 X98.3435 Y-0.0010
G01 X98.3360 Y0.0094
G01 X98.3261 Y0.0190
G01 X98.3146 Y0.0265
G01 X98.3027 Y0.0316
G01 X98.2893 Y0.0347
G01 X98.2792 Y0.0354
G01 X0.0792 Y0.0354
G01 X0.0646 Y0.0340
G01 X0.0505 Y0.0297
G01 X0.0375 Y0.0228
G01 X0.0262 Y0.0134
G01 X0.0168 Y0.0021
G01 X0.0099 Y-0.0109
G01 X0.0056 Y-0.0250
G01 X0.0042 Y-0.0396
G00 Z2.0000
G00 X-0.0708 Y-0.0396
G01 F70.00
G01 Z-0.0600
G01 F60.00
G01 X-0.0708 Y-13.6138
G01 X-0.0694 Y-13.6340
G01 X-0.0658 Y-13.6521
G01 X-0.0601 Y-13.6695
G01 X-0.0522 Y-13.6862
G01 X-0.0413 Y-13.7032
G01 X-0.0294 Y-13.7173
G01 X-0.0160 Y-13.7298
G01 X0.0005 Y-13.7415
G01 X0.0184 Y-13.7510
G01 X0.0392 Y-13.7584
G01 X0.0590 Y-13.7625
G01 X0.0792 Y-13.7638
G01 X0.1035 Y-13.7618
G01 X20.5735 Y-13.7618
G01 X22.1541 Y-14.0385
G01 X23.5360 Y-14.4333
G01 X25.3915 Y-15.3808
G01 X26.3365 Y-16.2077
G01 X27.6405 Y-17.7488
G01 X28.3500 Y-19.0497
G01 X28.7841 Y-20.4306
G01 X29.0210 Y-21.8916
G01 X29.0210 Y-33.0806
G01 X29.0217 Y-33.0935
G01 X29.0235 Y-33.1062
G01 X29.0264 Y-33.1188
G01 X29.0310 Y-33.1327
G01 X29.0361 Y-33.1445
G01 X29.0423 Y-33.1559
G01 X29.0494 Y-33.1666
G01 X29.0586 Y-33.1781
G01 X29.0675 Y-33.1874
G01 X29.0772 Y-33.1959
G01 X29.0876 Y-33.2035
G01 X29.1002 Y-33.2110
G01 X29.1119 Y-33.2166
G01 X29.1256 Y-33.2217
G01 X29.1381 Y-33.2251
G01 X29.1508 Y-33.2274
G01 X29.1710 Y-33.2287
G01 X64.0746 Y-33.2287
G01 X64.0948 Y-33.2274
G01 X64.1147 Y-33.2233
G01 X64.1371 Y-33.2151
G01 X64.1580 Y-33.2035
G01 X64.1767 Y-33.1886
G01 X64.1929 Y-33.1710
G01 X64.2061 Y-33.1511
G01 X64.2159 Y-33.1293
G01 X64.2197 Y-33.1170
G01 X64.2224 Y-33.1044
G01 X64.2246 Y-33.0806
G01 X64.2246 Y-21.9909
G01 X64.2556 Y-21.7988
G01 X64.2781 Y-21.4953
G01 X64.3289 Y-21.0837
G01 X64.3996 Y-20.6763
G01 X64.4905 Y-20.2716
G01 X64.6011 Y-19.8719
G01 X64.7311 Y-19.4781
G01 X64.8804 Y-19.0911
G01 X65.0484 Y-18.7119
G01 X65.2349 Y-18.3414
G01 X65.4393 Y-17.9805
G01 X65.6611 Y-17.6301
G01 X65.8999 Y-17.2910
G01 X66.1551 Y-16.9640
G01 X66.4259 Y-16.6500
G01 X66.7119 Y-16.3496
G01 X67.0123 Y-16.0636
G01 X67.3263 Y-15.7926
G01 X67.6532 Y-15.5374
G01 X67.9923 Y-15.2986
G01 X68.3437 Y-15.0761
G01 X68.7035 Y-14.8722
G01 X69.0740 Y-14.6857
G01 X69.4531 Y-14.5176
G01 X69.8401 Y-14.3683
G01 X70.2351 Y-14.2379
G01 X70.6336 Y-14.1276
G01 X71.0383 Y-14.0367
G01 X71.4469 Y-13.9657
G01 X71.8598 Y-13.9148
G01 X72.2722 Y-13.8844
G01 X72.5776 Y-13.8768
G01 X72.5924 Y-13.8751
G01 X72.6721 Y-13.8611
G01 X98.2792 Y-13.8611
G01 X98.2921 Y-13.8606
G01 X98.3048 Y-13.8589
G01 X98.3192 Y-13.8557
G01 X98.3315 Y-13.8518
G01 X98.3433 Y-13.8467
G01 X98.3563 Y-13.8398
G01 X98.3671 Y-13.8327
G01 X98.3772 Y-13.8247
G01 X98.3878 Y-13.8146
G01 X98.3963 Y-13.8049
G01 X98.4049 Y-13.7929
G01 X98.4115 Y-13.7819
G01 X98.4171 Y-13.7702
G01 X98.4216 Y-13.7582
G01 X98.4251 Y-13.7458
G01 X98.4278 Y-13.7313
G01 X98.4292 Y-13.7111
G01 X98.4292 Y-0.0378
G01 X98.4285 Y-0.0249
G01 X98.4267 Y-0.0121
G01 X98.4233 Y0.0022
G01 X98.4191 Y0.0144
G01 X98.4140 Y0.0262
G01 X98.4069 Y0.0391
G01 X98.3997 Y0.0498
G01 X98.3916 Y0.0598
G01 X98.3826 Y0.0690
G01 X98.3729 Y0.0775
G01 X98.3625 Y0.0851
G01 X98.3499 Y0.0927
G01 X98.3383 Y0.0983
G01 X98.3245 Y0.1034
G01 X98.3121 Y0.1068
G01 X98.2994 Y0.1090
G01 X98.2792 Y0.1104
G01 X0.0792 Y0.1104
G01 X0.0645 Y0.1097
G01 X0.0499 Y0.1075
G01 X0.0357 Y0.1039
G01 X0.0218 Y0.0990
G01 X0.0085 Y0.0927
G01 X-0.0041 Y0.0851
G01 X-0.0160 Y0.0764
G01 X-0.0269 Y0.0665
G01 X-0.0368 Y0.0556
G01 X-0.0455 Y0.0437
G01 X-0.0531 Y0.0311
G01 X-0.0594 Y0.0178
G01 X-0.0643 Y0.0039
G01 X-0.0679 Y-0.0103
G01 X-0.0701 Y-0.0249
G01 X-0.0708 Y-0.0396
G00 Z2.0000
G00 X-0.1458 Y-0.0396
G01 F70.00
G01 Z-0.0600
G01 F60.00
G01 X-0.1458 Y-13.6166
G01 X-0.1452 Y-13.6304
G01 X-0.1434 Y-13.6468
G01 X-0.1376 Y-13.6738
G01 X-0.1287 Y-13.6999
G01 X-0.1166 Y-13.7247
G01 X-0.1015 Y-13.7479
G01 X-0.0838 Y-13.7690
G01 X-0.0719 Y-13.7805
G01 X-0.0614 Y-13.7895
G01 X-0.0388 Y-13.8054
G01 X-0.0244 Y-13.8136
G01 X-0.0120 Y-13.8195
G01 X0.0008 Y-13.8247
G01 X0.0165 Y-13.8299
G01 X0.0326 Y-13.8340
G01 X0.0489 Y-13.8368
G01 X0.0626 Y-13.8382
G01 X0.0792 Y-13.8388
G01 X0.1090 Y-13.8368
G01 X20.5669 Y-13.8368
G01 X22.1373 Y-14.1117
G01 X23.5084 Y-14.5034
G01 X25.3491 Y-15.4433
G01 X26.2829 Y-16.2605
G01 X27.5783 Y-17.7914
G01 X28.2807 Y-19.0792
G01 X28.7109 Y-20.4480
G01 X28.9460 Y-21.8977
G01 X28.9461 Y-33.0870
G01 X28.9476 Y-33.1063
G01 X28.9508 Y-33.1253
G01 X28.9565 Y-33.1467
G01 X28.9631 Y-33.1649
G01 X28.9712 Y-33.1824
G01 X28.9809 Y-33.1991
G01 X28.9919 Y-33.2150
G01 X29.0042 Y-33.2299
G01 X29.0178 Y-33.2436
G01 X29.0325 Y-33.2561
G01 X29.0483 Y-33.2674
G01 X29.0649 Y-33.2772
G01 X29.0823 Y-33.2856
G01 X29.1004 Y-33.2924
G01 X29.1190 Y-33.2977
G01 X29.1407 Y-33.3017
G01 X29.1572 Y-33.3033
G01 X29.1710 Y-33.3037
G01 X64.0746 Y-33.3037
G01 X64.0884 Y-33.3033
G01 X64.1049 Y-33.3017
G01 X64.1185 Y-33.2994
G01 X64.1347 Y-33.2956
G01 X64.1505 Y-33.2906
G01 X64.1683 Y-33.2833
G01 X64.1856 Y-33.2745
G01 X64.1997 Y-33.2658
G01 X64.2131 Y-33.2561
G01 X64.2278 Y-33.2436
G01 X64.2414 Y-33.2299
G01 X64.2520 Y-33.2172
G01 X64.2633 Y-33.2014
G01 X64.2731 Y-33.1848
G01 X64.2815 Y-33.1674
G01 X64.2874 Y-33.1519
G01 X64.2929 Y-33.1334
G01 X64.2963 Y-33.1172
G01 X64.2988 Y-33.0981
G01 X64.2996 Y-33.0815
G01 X64.2996 Y-21.9970
G01 X64.3301 Y-21.8071
G01 X64.3527 Y-21.5033
G01 X64.4030 Y-21.0953
G01 X64.4733 Y-20.6903
G01 X64.5634 Y-20.2892
G01 X64.6730 Y-19.8931
G01 X64.8020 Y-19.5027
G01 X64.9499 Y-19.1192
G01 X65.1165 Y-18.7434
G01 X65.3013 Y-18.3762
G01 X65.5039 Y-18.0186
G01 X65.7238 Y-17.6713
G01 X65.9605 Y-17.3352
G01 X66.2134 Y-17.0111
G01 X66.4819 Y-16.6999
G01 X66.7654 Y-16.4022
G01 X67.0631 Y-16.1187
G01 X67.3743 Y-15.8502
G01 X67.6984 Y-15.5973
G01 X68.0345 Y-15.3606
G01 X68.3818 Y-15.1407
G01 X68.7394 Y-14.9381
G01 X69.1066 Y-14.7533
G01 X69.4824 Y-14.5867
G01 X69.8659 Y-14.4388
G01 X70.2563 Y-14.3098
G01 X70.6524 Y-14.2002
G01 X71.0535 Y-14.1101
G01 X71.4585 Y-14.0398
G01 X71.8665 Y-13.9895
G01 X72.2765 Y-13.9593
G01 X72.5822 Y-13.9516
G01 X72.6044 Y-13.9491
G01 X72.6787 Y-13.9361
G01 X98.2820 Y-13.9361
G01 X98.3013 Y-13.9351
G01 X98.3204 Y-13.9323
G01 X98.3419 Y-13.9272
G01 X98.3602 Y-13.9211
G01 X98.3804 Y-13.9121
G01 X98.3972 Y-13.9027
G01 X98.4132 Y-13.8919
G01 X98.4282 Y-13.8797
G01 X98.4440 Y-13.8643
G01 X98.4566 Y-13.8496
G01 X98.4678 Y-13.8338
G01 X98.4776 Y-13.8172
G01 X98.4860 Y-13.7998
G01 X98.4937 Y-13.7791
G01 X98.4987 Y-13.7604
G01 X98.5022 Y-13.7414
G01 X98.5038 Y-13.7249
G01 X98.5042 Y-13.7111
G01 X98.5042 Y-0.0368
G01 X98.5031 Y-0.0175
G01 X98.5004 Y0.0016
G01 X98.4953 Y0.0231
G01 X98.4891 Y0.0414
G01 X98.4814 Y0.0591
G01 X98.4722 Y0.0761
G01 X98.4616 Y0.0922
G01 X98.4478 Y0.1094
G01 X98.4343 Y0.1234
G01 X98.4176 Y0.1378
G01 X98.4019 Y0.1490
G01 X98.3853 Y0.1588
G01 X98.3678 Y0.1672
G01 X98.3472 Y0.1749
G01 X98.3285 Y0.1799
G01 X98.3095 Y0.1834
G01 X98.2930 Y0.1850
G01 X98.2792 Y0.1854
G01 X0.0792 Y0.1854
G01 X0.0571 Y0.1843
G01 X0.0353 Y0.1811
G01 X0.0139 Y0.1757
G01 X-0.0069 Y0.1683
G01 X-0.0269 Y0.1588
G01 X-0.0458 Y0.1475
G01 X-0.0635 Y0.1343
G01 X-0.0799 Y0.1195
G01 X-0.0947 Y0.1031
G01 X-0.1079 Y0.0854
G01 X-0.1192 Y0.0665
G01 X-0.1287 Y0.0465
G01 X-0.1361 Y0.0257
G01 X-0.1415 Y0.0043
G01 X-0.1447 Y-0.0175
G01 X-0.1458 Y-0.0396
G00 Z2.0000
G00 X-0.2208 Y-0.0396
G01 F70.00
G01 Z-0.0600
G01 F60.00
G01 X-0.2208 Y-13.6175
G01 X-0.2200 Y-13.6359
G01 X-0.2181 Y-13.6542
G01 X-0.2143 Y-13.6760
G01 X-0.2099 Y-13.6938
G01 X-0.2045 Y-13.7114
G01 X-0.1980 Y-13.7286
G01 X-0.1904 Y-13.7454
G01 X-0.1818 Y-13.7617
G01 X-0.1723 Y-13.7774
G01 X-0.1618 Y-13.7925
G01 X-0.1504 Y-13.8070
G01 X-0.1381 Y-13.8207
G01 X-0.1223 Y-13.8361
G01 X-0.1083 Y-13.8481
G01 X-0.0935 Y-13.8591
G01 X-0.0782 Y-13.8692
G01 X-0.0622 Y-13.8784
G01 X-0.0424 Y-13.8881
G01 X-0.0219 Y-13.8963
G01 X-0.0008 Y-13.9030
G01 X0.0207 Y-13.9081
G01 X0.0388 Y-13.9111
G01 X0.0608 Y-13.9133
G01 X0.0792 Y-13.9138
G01 X0.1136 Y-13.9118
G01 X20.5604 Y-13.9118
G01 X22.1205 Y-14.1849
G01 X23.4808 Y-14.5735
G01 X25.3067 Y-15.5059
G01 X26.2292 Y-16.3132
G01 X27.5161 Y-17.8340
G01 X28.2113 Y-19.1087
G01 X28.6377 Y-20.4653
G01 X28.8710 Y-21.9037
G01 X28.8712 Y-33.0898
G01 X28.8737 Y-33.1191
G01 X28.8782 Y-33.1445
G01 X28.8850 Y-33.1694
G01 X28.8938 Y-33.1936
G01 X28.9047 Y-33.2169
G01 X28.9175 Y-33.2392
G01 X28.9322 Y-33.2604
G01 X28.9487 Y-33.2802
G01 X28.9695 Y-33.3010
G01 X28.9893 Y-33.3175
G01 X29.0105 Y-33.3322
G01 X29.0328 Y-33.3450
G01 X29.0561 Y-33.3559
G01 X29.0803 Y-33.3647
G01 X29.1052 Y-33.3715
G01 X29.1306 Y-33.3760
G01 X29.1489 Y-33.3779
G01 X29.1710 Y-33.3787
G01 X64.0746 Y-33.3787
G01 X64.0967 Y-33.3779
G01 X64.1150 Y-33.3760
G01 X64.1332 Y-33.3730
G01 X64.1547 Y-33.3679
G01 X64.1792 Y-33.3600
G01 X64.1996 Y-33.3515
G01 X64.2193 Y-33.3416
G01 X64.2413 Y-33.3282
G01 X64.2592 Y-33.3153
G01 X64.2788 Y-33.2985
G01 X64.2944 Y-33.2829
G01 X64.3112 Y-33.2633
G01 X64.3261 Y-33.2423
G01 X64.3375 Y-33.2234
G01 X64.3474 Y-33.2037
G01 X64.3571 Y-33.1798
G01 X64.3638 Y-33.1588
G01 X64.3689 Y-33.1373
G01 X64.3724 Y-33.1155
G01 X64.3744 Y-33.0898
G01 X64.3746 Y-22.0030
G01 X64.4047 Y-21.8154
G01 X64.4274 Y-21.5107
G01 X64.4772 Y-21.1063
G01 X64.5469 Y-20.7050
G01 X64.6362 Y-20.3075
G01 X64.7448 Y-19.9148
G01 X64.8726 Y-19.5280
G01 X65.0192 Y-19.1479
G01 X65.1843 Y-18.7755
G01 X65.3675 Y-18.4116
G01 X65.5683 Y-18.0572
G01 X65.7862 Y-17.7130
G01 X66.0208 Y-17.3799
G01 X66.2714 Y-17.0587
G01 X66.5375 Y-16.7503
G01 X66.8184 Y-16.4552
G01 X67.1135 Y-16.1743
G01 X67.4219 Y-15.9082
G01 X67.7431 Y-15.6576
G01 X68.0762 Y-15.4230
G01 X68.4204 Y-15.2051
G01 X68.7748 Y-15.0043
G01 X69.1387 Y-14.8211
G01 X69.5111 Y-14.6560
G01 X69.8912 Y-14.5094
G01 X70.2780 Y-14.3816
G01 X70.6707 Y-14.2730
G01 X71.0682 Y-14.1837
G01 X71.4695 Y-14.1140
G01 X71.8739 Y-14.0642
G01 X72.2801 Y-14.0342
G01 X72.5868 Y-14.0265
G01 X72.6127 Y-14.0237
G01 X72.6852 Y-14.0111
G01 X98.2829 Y-14.0111
G01 X98.3123 Y-14.0093
G01 X98.3377 Y-14.0054
G01 X98.3628 Y-13.9993
G01 X98.3872 Y-13.9910
G01 X98.4141 Y-13.9791
G01 X98.4366 Y-13.9666
G01 X98.4579 Y-13.9521
G01 X98.4779 Y-13.9359
G01 X98.4965 Y-13.9180
G01 X98.5134 Y-13.8986
G01 X98.5286 Y-13.8778
G01 X98.5438 Y-13.8526
G01 X98.5564 Y-13.8260
G01 X98.5652 Y-13.8018
G01 X98.5719 Y-13.7769
G01 X98.5765 Y-13.7515
G01 X98.5786 Y-13.7295
G01 X98.5792 Y-13.7111
G01 X98.5792 Y-0.0359
G01 X98.5778 Y-0.0102
G01 X98.5734 Y0.0189
G01 X98.5673 Y0.0440
G01 X98.5591 Y0.0684
G01 X98.5488 Y0.0920
G01 X98.5365 Y0.1146
G01 X98.5202 Y0.1391
G01 X98.5039 Y0.1591
G01 X98.4861 Y0.1777
G01 X98.4667 Y0.1946
G01 X98.4459 Y0.2098
G01 X98.4206 Y0.2250
G01 X98.3974 Y0.2361
G01 X98.3733 Y0.2453
G01 X98.3449 Y0.2531
G01 X98.3196 Y0.2577
G01 X98.3013 Y0.2596
G01 X98.2792 Y0.2604
G01 X0.0792 Y0.2604
G01 X0.0498 Y0.2590
G01 X0.0207 Y0.2546
G01 X-0.0079 Y0.2475
G01 X-0.0356 Y0.2376
G01 X-0.0622 Y0.2250
G01 X-0.0875 Y0.2098
G01 X-0.1111 Y0.1923
G01 X-0.1329 Y0.1725
G01 X-0.1527 Y0.1507
G01 X-0.1702 Y0.1271
G01 X-0.1854 Y0.1018
G01 X-0.1980 Y0.0752
G01 X-0.2079 Y0.0475
G01 X-0.2150 Y0.0189
G01 X-0.2194 Y-0.0102
G01 X-0.2208 Y-0.0396
G00 Z2.0000
G00 X1.0437 Y-0.8149
G01 F70.00
G01 Z-0.0600
G01 F60.00
G01 X0.7116 Y-1.1469
G01 X0.7097 Y-1.1508
G01 X0.7103 Y-1.1531
G01 X0.7123 Y-1.1549
G01 X0.7149 Y-1.1553
G01 X0.7172 Y-1.1541
G01 X0.9157 Y-0.9558
G01 X0.9234 Y-0.9492
G01 X0.9319 Y-0.9438
G01 X0.9454 Y-0.9380
G01 X0.9589 Y-0.9350
G01 X0.9736 Y-0.9347
G01 X0.9872 Y-0.9370
G01 X1.0010 Y-0.9421
G01 X1.0135 Y-0.9498
G01 X1.0236 Y-0.9591
G01 X1.0324 Y-0.9709
G01 X1.0370 Y-0.9799
G01 X1.0401 Y-0.9886
G01 X1.0422 Y-0.9985
G01 X1.0430 Y-1.0076
G01 X1.0431 Y-1.7055
G01 X1.0441 Y-1.7093
G01 X1.0476 Y-1.7109
G01 X1.0511 Y-1.7093
G01 X1.0521 Y-1.7055
G01 X1.0521 Y-0.8184
G01 X1.0516 Y-0.8154
G01 X1.0493 Y-0.8133
G01 X1.0463 Y-0.8132
G01 X1.0437 Y-0.8149
G00 Z2.0000
G00 X1.4209 Y-0.8715
G01 F70.00
G01 Z-0.0600
G01 F60.00
G01 X1.3546 Y-0.9821
G01 X1.3543 Y-0.9855
G01 X1.3565 Y-0.9882
G01 X1.3597 Y-0.9886
G01 X1.3624 Y-0.9867
G01 X1.4172 Y-0.8955
G01 X1.4245 Y-0.8861
G01 X1.4331 Y-0.8779
G01 X1.4414 Y-0.8722
G01 X1.4503 Y-0.8676
G01 X1.5465 Y-0.8275
G01 X1.5598 Y-0.8235
G01 X1.5736 Y-0.8220
G01 X1.6761 Y-0.8220
G01 X1.6853 Y-0.8226
G01 X1.6944 Y-0.8243
G01 X1.7049 Y-0.8278
G01 X1.8044 Y-0.8695
G01 X1.8123 Y-0.8742
G01 X1.8196 Y-0.8797
G01 X1.8261 Y-0.8861
G01 X1.8319 Y-0.8932
G01 X1.8777 Y-0.9692
G01 X1.8824 Y-0.9792
G01 X1.8854 Y-0.9889
G01 X1.8874 Y-1.0044
G01 X1.8874 Y-1.0751
G01 X1.8860 Y-1.0879
G01 X1.8824 Y-1.1003
G01 X1.8772 Y-1.1111
G01 X1.8339 Y-1.1832
G01 X1.8268 Y-1.1927
G01 X1.8182 Y-1.2010
G01 X1.8100 Y-1.2068
G01 X1.8011 Y-1.2115
G01 X1.6901 Y-1.2579
G01 X1.6881 Y-1.2597
G01 X1.6875 Y-1.2624
G01 X1.6886 Y-1.2650
G01 X1.6911 Y-1.2665
G01 X1.8044 Y-1.3139
G01 X1.8123 Y-1.3186
G01 X1.8189 Y-1.3235
G01 X1.8302 Y-1.3354
G01 X1.8772 Y-1.4128
G01 X1.8814 Y-1.4211
G01 X1.8842 Y-1.4288
G01 X1.8865 Y-1.4387
G01 X1.8874 Y-1.4488
G01 X1.8871 Y-1.5250
G01 X1.8839 Y-1.5403
G01 X1.8777 Y-1.5547
G01 X1.8334 Y-1.6284
G01 X1.8268 Y-1.6371
G01 X1.8189 Y-1.6448
G01 X1.8100 Y-1.6512
G01 X1.8011 Y-1.6559
G01 X1.7041 Y-1.6964
G01 X1.6917 Y-1.7002
G01 X1.6789 Y-1.7018
G01 X1.5736 Y-1.7019
G01 X1.5598 Y-1.7004
G01 X1.5465 Y-1.6964
G01 X1.4470 Y-1.6548
G01 X1.4390 Y-1.6503
G01 X1.4317 Y-1.6448
G01 X1.4251 Y-1.6385
G01 X1.4193 Y-1.6314
G01 X1.3621 Y-1.5368
G01 X1.3593 Y-1.5352
G01 X1.3561 Y-1.5359
G01 X1.3542 Y-1.5386
G01 X1.3546 Y-1.5418
G01 X1.4224 Y-1.6543
G01 X1.5575 Y-1.7108
G01 X1.6929 Y-1.7108
G01 X1.8274 Y-1.6548
G01 X1.8297 Y-1.6524
G01 X1.8963 Y-1.5410
G01 X1.8965 Y-1.4284
G01 X1.8954 Y-1.4255
G01 X1.8297 Y-1.3159
G01 X1.8214 Y-1.3059
G01 X1.8156 Y-1.2965
G01 X1.8113 Y-1.2863
G01 X1.8086 Y-1.2766
G01 X1.8073 Y-1.2656
G01 X1.8076 Y-1.2546
G01 X1.8107 Y-1.2393
G01 X1.8169 Y-1.2250
G01 X1.8219 Y-1.2173
G01 X1.8297 Y-1.2080
G01 X1.8963 Y-1.0966
G01 X1.8965 Y-0.9851
G01 X1.8960 Y-0.9821
G01 X1.8282 Y-0.8696
G01 X1.6931 Y-0.8131
G01 X1.5577 Y-0.8131
G01 X1.4244 Y-0.8686
G01 X1.4209 Y-0.8715
G00 Z2.0000
G00 X2.7212 Y-0.9676
G01 F70.00
G01 Z-0.0600
G01 F60.00
G01 X2.6773 Y-0.8948
G01 X2.6693 Y-0.8848
G01 X2.6604 Y-0.8768
G01 X2.6520 Y-0.8713
G01 X2.6438 Y-0.8672
G01 X2.5476 Y-0.8271
G01 X2.5315 Y-0.8229
G01 X2.5214 Y-0.8220
G01 X2.4180 Y-0.8220
G01 X2.4088 Y-0.8227
G01 X2.3997 Y-0.8245
G01 X2.3901 Y-0.8278
G01 X2.2898 Y-0.8699
G01 X2.2812 Y-0.8752
G01 X2.2734 Y-0.8815
G01 X2.2665 Y-0.8889
G01 X2.2611 Y-0.8963
G01 X2.2160 Y-0.9717
G01 X2.2105 Y-0.9853
G01 X2.2078 Y-0.9998
G01 X2.2076 Y-1.5195
G01 X2.2084 Y-1.5287
G01 X2.2103 Y-1.5377
G01 X2.2136 Y-1.5472
G01 X2.2178 Y-1.5555
G01 X2.2631 Y-1.6307
G01 X2.2727 Y-1.6417
G01 X2.2842 Y-1.6508
G01 X2.2947 Y-1.6563
G01 X2.3901 Y-1.6961
G01 X2.4033 Y-1.7002
G01 X2.4180 Y-1.7019
G01 X2.5251 Y-1.7017
G01 X2.5370 Y-1.7000
G01 X2.5476 Y-1.6968
G01 X2.6480 Y-1.6548
G01 X2.6567 Y-1.6497
G01 X2.6647 Y-1.6436
G01 X2.6718 Y-1.6364
G01 X2.6783 Y-1.6276
G01 X2.7238 Y-1.5514
G01 X2.7294 Y-1.5368
G01 X2.7317 Y-1.5223
G01 X2.7318 Y-1.0044
G01 X2.7309 Y-0.9943
G01 X2.7289 Y-0.9853
G01 X2.7258 Y-0.9767
G01 X2.7212 Y-0.9676
G00 Z2.0000
G00 X2.7398 Y-0.9811
G01 F70.00
G01 Z-0.0600
G01 F60.00
G01 X2.6726 Y-0.8696
G01 X2.5375 Y-0.8131
G01 X2.4021 Y-0.8131
G01 X2.2688 Y-0.8686
G01 X2.2659 Y-0.8706
G01 X2.1985 Y-0.9838
G01 X2.1985 Y-1.5388
G01 X2.1996 Y-1.5428
G01 X2.2672 Y-1.6546
G01 X2.4021 Y-1.7108
G01 X2.5355 Y-1.7109
G01 X2.5390 Y-1.7102
G01 X2.6706 Y-1.6553
G01 X2.6735 Y-1.6533
G01 X2.7409 Y-1.5401
G01 X2.7409 Y-0.9851
G01 X2.7398 Y-0.9811
G00 Z2.0000
G00 X3.4519 Y-1.7055
G01 F70.00
G01 Z-0.0600
G01 F60.00
G01 X3.4519 Y-1.2073
G01 X3.4509 Y-1.2035
G01 X3.4487 Y-1.2021
G01 X3.4461 Y-1.2021
G01 X3.4438 Y-1.2037
G01 X3.4429 Y-1.2062
G01 X3.4429 Y-1.5697
G01 X3.4414 Y-1.5836
G01 X3.4374 Y-1.5969
G01 X3.4295 Y-1.6115
G01 X3.3946 Y-1.6581
G01 X3.3842 Y-1.6686
G01 X3.3720 Y-1.6769
G01 X3.3611 Y-1.6818
G01 X3.3504 Y-1.6846
G01 X3.2588 Y-1.6999
G01 X3.2469 Y-1.7008
G01 X3.2360 Y-1.6999
G01 X3.1445 Y-1.6846
G01 X3.1338 Y-1.6818
G01 X3.1228 Y-1.6769
G01 X3.1107 Y-1.6686
G01 X3.1003 Y-1.6582
G01 X3.0653 Y-1.6115
G01 X3.0574 Y-1.5969
G01 X3.0534 Y-1.5835
G01 X3.0519 Y-1.5697
G01 X3.0519 Y-1.2062
G01 X3.0512 Y-1.2039
G01 X3.0493 Y-1.2023
G01 X3.0467 Y-1.2019
G01 X3.0445 Y-1.2029
G01 X3.0431 Y-1.2049
G01 X3.0429 Y-1.2073
G01 X3.0429 Y-1.5960
G01 X3.0443 Y-1.5988
G01 X3.1106 Y-1.6871
G01 X3.1142 Y-1.6888
G01 X3.2471 Y-1.7109
G01 X3.3793 Y-1.6891
G01 X3.3894 Y-1.6881
G01 X3.4041 Y-1.6891
G01 X3.4193 Y-1.6933
G01 X3.4324 Y-1.7001
G01 X3.4461 Y-1.7107
G01 X3.4485 Y-1.7108
G01 X3.4504 Y-1.7097
G01 X3.4517 Y-1.7079
G01 X3.4519 Y-1.7055
G00 Z2.0000
G00 X4.2767 Y-0.9676
G01 F70.00
G01 Z-0.0600
G01 F60.00
G01 X4.2328 Y-0.8948
G01 X4.2254 Y-0.8854
G01 X4.2159 Y-0.8768
G01 X4.2075 Y-0.8713
G01 X4.1993 Y-0.8672
G01 X4.1031 Y-0.8271
G01 X4.0870 Y-0.8229
G01 X4.0769 Y-0.8220
G01 X3.9735 Y-0.8220
G01 X3.9643 Y-0.8227
G01 X3.9552 Y-0.8245
G01 X3.9456 Y-0.8278
G01 X3.8453 Y-0.8699
G01 X3.8367 Y-0.8752
G01 X3.8289 Y-0.8815
G01 X3.8220 Y-0.8889
G01 X3.8166 Y-0.8963
G01 X3.7715 Y-0.9717
G01 X3.7660 Y-0.9853
G01 X3.7633 Y-0.9998
G01 X3.7631 Y-1.5195
G01 X3.7639 Y-1.5287
G01 X3.7658 Y-1.5377
G01 X3.7691 Y-1.5472
G01 X3.7733 Y-1.5555
G01 X3.8186 Y-1.6307
G01 X3.8282 Y-1.6417
G01 X3.8397 Y-1.6508
G01 X3.8502 Y-1.6563
G01 X3.9456 Y-1.6961
G01 X3.9588 Y-1.7002
G01 X3.9735 Y-1.7019
G01 X4.0806 Y-1.7017
G01 X4.0916 Y-1.7002
G01 X4.1031 Y-1.6968
G01 X4.2035 Y-1.6548
G01 X4.2122 Y-1.6497
G01 X4.2202 Y-1.6436
G01 X4.2278 Y-1.6357
G01 X4.2338 Y-1.6276
G01 X4.2793 Y-1.5514
G01 X4.2849 Y-1.5368
G01 X4.2872 Y-1.5223
G01 X4.2873 Y-1.0044
G01 X4.2864 Y-0.9943
G01 X4.2844 Y-0.9853
G01 X4.2809 Y-0.9758
G01 X4.2767 Y-0.9676
G00 Z2.0000
G00 X4.2953 Y-0.9811
G01 F70.00
G01 Z-0.0600
G01 F60.00
G01 X4.2281 Y-0.8696
G01 X4.0930 Y-0.8131
G01 X3.9576 Y-0.8131
G01 X3.8243 Y-0.8686
G01 X3.8214 Y-0.8706
G01 X3.7540 Y-0.9838
G01 X3.7540 Y-1.5388
G01 X3.7551 Y-1.5428
G01 X3.8227 Y-1.6546
G01 X3.9576 Y-1.7108
G01 X4.0910 Y-1.7109
G01 X4.0945 Y-1.7102
G01 X4.2261 Y-1.6553
G01 X4.2290 Y-1.6533
G01 X4.2964 Y-1.5401
G01 X4.2964 Y-0.9851
G01 X4.2953 Y-0.9811
G00 Z2.0000
G00 X4.6038 Y-1.7109
G01 F70.00
G01 Z-0.0600
G01 F60.00
G01 X5.1354 Y-1.7109
G01 X5.1382 Y-1.7105
G01 X5.1403 Y-1.7085
G01 X5.1408 Y-1.7062
G01 X5.1399 Y-1.7037
G01 X5.1380 Y-1.7022
G01 X5.1354 Y-1.7019
G01 X4.7100 Y-1.7019
G01 X4.6990 Y-1.7010
G01 X4.6865 Y-1.6981
G01 X4.6755 Y-1.6934
G01 X4.6646 Y-1.6865
G01 X4.6557 Y-1.6786
G01 X4.6477 Y-1.6685
G01 X4.6415 Y-1.6572
G01 X4.6373 Y-1.6451
G01 X4.6353 Y-1.6333
G01 X4.6351 Y-1.6241
G01 X4.6360 Y-1.6149
G01 X4.6383 Y-1.6050
G01 X4.6415 Y-1.5964
G01 X4.6670 Y-1.5528
G01 X4.6761 Y-1.5410
G01 X4.6829 Y-1.5346
G01 X5.0727 Y-1.2097
G01 X5.1397 Y-1.0984
G01 X5.1408 Y-1.0944
G01 X5.1406 Y-0.9829
G01 X5.0740 Y-0.8715
G01 X5.0717 Y-0.8691
G01 X4.9372 Y-0.8131
G01 X4.8018 Y-0.8131
G01 X4.6667 Y-0.8696
G01 X4.5989 Y-0.9821
G01 X4.5985 Y-0.9853
G01 X4.6004 Y-0.9880
G01 X4.6036 Y-0.9887
G01 X4.6064 Y-0.9871
G01 X4.6636 Y-0.8925
G01 X4.6694 Y-0.8854
G01 X4.6760 Y-0.8791
G01 X4.6833 Y-0.8736
G01 X4.6913 Y-0.8691
G01 X4.7908 Y-0.8275
G01 X4.8041 Y-0.8235
G01 X4.8179 Y-0.8220
G01 X4.9241 Y-0.8221
G01 X4.9369 Y-0.8239
G01 X4.9492 Y-0.8278
G01 X5.0462 Y-0.8683
G01 X5.0559 Y-0.8736
G01 X5.0646 Y-0.8803
G01 X5.0717 Y-0.8875
G01 X5.0777 Y-0.8955
G01 X5.1229 Y-0.9708
G01 X5.1267 Y-0.9792
G01 X5.1295 Y-0.9880
G01 X5.1311 Y-0.9961
G01 X5.1318 Y-1.0053
G01 X5.1317 Y-1.0760
G01 X5.1305 Y-1.0870
G01 X5.1280 Y-1.0968
G01 X5.1215 Y-1.1111
G01 X5.0685 Y-1.1987
G01 X5.0625 Y-1.2058
G01 X5.0563 Y-1.2115
G01 X4.6662 Y-1.5367
G01 X4.5986 Y-1.6493
G01 X4.5984 Y-1.7068
G01 X4.6002 Y-1.7100
G01 X4.6038 Y-1.7109
G00 Z2.0000
G00 X7.8039 Y-0.7945
G01 F70.00
G01 Z-0.0600
G01 F60.00
G01 X7.7559 Y-0.7147
G01 X7.7485 Y-0.7053
G01 X7.7390 Y-0.6967
G01 X7.7306 Y-0.6911
G01 X7.7224 Y-0.6871
G01 X7.6176 Y-0.6435
G01 X7.6016 Y-0.6390
G01 X7.5905 Y-0.6380
G01 X7.4770 Y-0.6380
G01 X7.4678 Y-0.6387
G01 X7.4587 Y-0.6405
G01 X7.4491 Y-0.6438
G01 X7.3402 Y-0.6894
G01 X7.3315 Y-0.6945
G01 X7.3236 Y-0.7008
G01 X7.3167 Y-0.7080
G01 X7.3107 Y-0.7162
G01 X7.2614 Y-0.7985
G01 X7.2559 Y-0.8121
G01 X7.2532 Y-0.8266
G01 X7.2530 Y-1.3976
G01 X7.2538 Y-1.4068
G01 X7.2559 Y-1.4167
G01 X7.2590 Y-1.4253
G01 X7.2632 Y-1.4336
G01 X7.3122 Y-1.5149
G01 X7.3216 Y-1.5261
G01 X7.3338 Y-1.5358
G01 X7.3443 Y-1.5413
G01 X7.4491 Y-1.5850
G01 X7.4623 Y-1.5891
G01 X7.4770 Y-1.5908
G01 X7.5933 Y-1.5907
G01 X7.6052 Y-1.5891
G01 X7.6167 Y-1.5857
G01 X7.7257 Y-1.5402
G01 X7.7353 Y-1.5348
G01 X7.7433 Y-1.5286
G01 X7.7509 Y-1.5207
G01 X7.7569 Y-1.5126
G01 X7.8061 Y-1.4303
G01 X7.8118 Y-1.4158
G01 X7.8144 Y-1.4004
G01 X7.8146 Y-0.8321
G01 X7.8137 Y-0.8220
G01 X7.8118 Y-0.8130
G01 X7.8085 Y-0.8035
G01 X7.8039 Y-0.7945
G00 Z2.0000
G00 X7.8374 Y-0.8016
G01 F70.00
G01 Z-0.0600
G01 F60.00
G01 X7.7650 Y-0.6809
G01 X7.7618 Y-0.6769
G01 X7.7578 Y-0.6747
G01 X7.6102 Y-0.6134
G01 X7.4579 Y-0.6132
G01 X7.3098 Y-0.6747
G01 X7.3063 Y-0.6765
G01 X7.3037 Y-0.6791
G01 X7.2301 Y-0.8016
G01 X7.2279 Y-0.8076
G01 X7.2279 Y-1.4191
G01 X7.2283 Y-1.4230
G01 X7.2301 Y-1.4272
G01 X7.3026 Y-1.5479
G01 X7.3063 Y-1.5523
G01 X7.4579 Y-1.6156
G01 X7.6062 Y-1.6158
G01 X7.6128 Y-1.6145
G01 X7.7578 Y-1.5541
G01 X7.7613 Y-1.5522
G01 X7.7639 Y-1.5497
G01 X7.8374 Y-1.4272
G01 X7.8396 Y-1.4212
G01 X7.8396 Y-0.8097
G01 X7.8392 Y-0.8058
G01 X7.8374 Y-0.8016
G00 Z2.0000
G00 X8.6218 Y-1.6024
G01 F70.00
G01 Z-0.0600
G01 F60.00
G01 X8.6218 Y-1.0542
G01 X8.6213 Y-1.0497
G01 X8.6190 Y-1.0454
G01 X8.6163 Y-1.0429
G01 X8.6129 Y-1.0413
G01 X8.6093 Y-1.0408
G01 X8.6057 Y-1.0413
G01 X8.6018 Y-1.0432
G01 X8.5992 Y-1.0458
G01 X8.5975 Y-1.0491
G01 X8.5968 Y-1.0527
G01 X8.5968 Y-1.4528
G01 X8.5953 Y-1.4667
G01 X8.5909 Y-1.4808
G01 X8.5828 Y-1.4954
G01 X8.5453 Y-1.5454
G01 X8.5350 Y-1.5559
G01 X8.5228 Y-1.5641
G01 X8.5127 Y-1.5687
G01 X8.5012 Y-1.5719
G01 X8.4008 Y-1.5887
G01 X8.3888 Y-1.5895
G01 X8.3779 Y-1.5887
G01 X8.2775 Y-1.5719
G01 X8.2660 Y-1.5687
G01 X8.2559 Y-1.5642
G01 X8.2437 Y-1.5559
G01 X8.2334 Y-1.5455
G01 X8.1958 Y-1.4955
G01 X8.1874 Y-1.4803
G01 X8.1834 Y-1.4673
G01 X8.1818 Y-1.4528
G01 X8.1818 Y-1.0527
G01 X8.1797 Y-1.0463
G01 X8.1747 Y-1.0420
G01 X8.1681 Y-1.0408
G01 X8.1645 Y-1.0417
G01 X8.1614 Y-1.0436
G01 X8.1577 Y-1.0485
G01 X8.1568 Y-1.0542
G01 X8.1569 Y-1.4830
G01 X8.1598 Y-1.4894
G01 X8.2331 Y-1.5868
G01 X8.2367 Y-1.5898
G01 X8.2415 Y-1.5913
G01 X8.3890 Y-1.6158
G01 X8.5437 Y-1.5907
G01 X8.5603 Y-1.5916
G01 X8.5755 Y-1.5959
G01 X8.5871 Y-1.6017
G01 X8.5939 Y-1.6064
G01 X8.6023 Y-1.6137
G01 X8.6075 Y-1.6157
G01 X8.6129 Y-1.6153
G01 X8.6177 Y-1.6126
G01 X8.6209 Y-1.6081
G01 X8.6218 Y-1.6024
G00 Z2.0000
G00 X9.1377 Y-1.5588
G01 F70.00
G01 Z-0.0600
G01 F60.00
G01 X9.1274 Y-1.5483
G01 X9.1188 Y-1.5351
G01 X9.1132 Y-1.5204
G01 X9.1109 Y-1.5058
G01 X9.1107 Y-1.1408
G01 X9.1113 Y-1.1317
G01 X9.1128 Y-1.1235
G01 X9.1183 Y-1.1079
G01 X9.1272 Y-1.0940
G01 X9.1389 Y-1.0823
G01 X9.1528 Y-1.0734
G01 X9.1657 Y-1.0686
G01 X9.1793 Y-1.0661
G01 X9.2473 Y-1.0656
G01 X9.2519 Y-1.0637
G01 X9.2550 Y-1.0608
G01 X9.2569 Y-1.0569
G01 X9.2574 Y-1.0527
G01 X9.2565 Y-1.0485
G01 X9.2542 Y-1.0449
G01 X9.2508 Y-1.0423
G01 X9.2473 Y-1.0410
G01 X9.1802 Y-1.0406
G01 X9.1684 Y-1.0387
G01 X9.1562 Y-1.0347
G01 X9.1433 Y-1.0276
G01 X9.1314 Y-1.0175
G01 X9.1219 Y-1.0051
G01 X9.1151 Y-0.9910
G01 X9.1118 Y-0.9786
G01 X9.1107 Y-0.9667
G01 X9.1107 Y-0.6249
G01 X9.1095 Y-0.6201
G01 X9.1066 Y-0.6162
G01 X9.1024 Y-0.6137
G01 X9.0976 Y-0.6130
G01 X9.0928 Y-0.6142
G01 X9.0893 Y-0.6166
G01 X9.0866 Y-0.6207
G01 X9.0857 Y-0.6249
G01 X9.0857 Y-0.9667
G01 X9.0846 Y-0.9786
G01 X9.0813 Y-0.9910
G01 X9.0745 Y-1.0051
G01 X9.0656 Y-1.0168
G01 X9.0546 Y-1.0265
G01 X9.0410 Y-1.0343
G01 X9.0289 Y-1.0385
G01 X9.0162 Y-1.0406
G01 X8.9491 Y-1.0410
G01 X8.9445 Y-1.0429
G01 X8.9414 Y-1.0458
G01 X8.9395 Y-1.0497
G01 X8.9390 Y-1.0539
G01 X8.9399 Y-1.0581
G01 X8.9422 Y-1.0617
G01 X8.9456 Y-1.0643
G01 X8.9491 Y-1.0656
G01 X9.0162 Y-1.0660
G01 X9.0298 Y-1.0683
G01 X9.0419 Y-1.0727
G01 X9.0553 Y-1.0806
G01 X9.0668 Y-1.0912
G01 X9.0764 Y-1.1047
G01 X9.0824 Y-1.1191
G01 X9.0847 Y-1.1289
G01 X9.0857 Y-1.1399
G01 X9.0857 Y-1.5413
G01 X9.0860 Y-1.5452
G01 X9.0874 Y-1.5486
G01 X9.0909 Y-1.5524
G01 X9.1628 Y-1.6124
G01 X9.1689 Y-1.6155
G01 X9.1725 Y-1.6158
G01 X9.1763 Y-1.6149
G01 X9.2494 Y-1.5905
G01 X9.2544 Y-1.5869
G01 X9.2572 Y-1.5809
G01 X9.2570 Y-1.5754
G01 X9.2544 Y-1.5706
G01 X9.2505 Y-1.5676
G01 X9.2452 Y-1.5663
G01 X9.2415 Y-1.5667
G01 X9.2121 Y-1.5765
G01 X9.2031 Y-1.5787
G01 X9.1903 Y-1.5798
G01 X9.1766 Y-1.5786
G01 X9.1660 Y-1.5758
G01 X9.1558 Y-1.5715
G01 X9.1472 Y-1.5663
G01 X9.1377 Y-1.5588
G00 Z2.0000
G00 X9.9314 Y-1.6024
G01 F70.00
G01 Z-0.0600
G01 F60.00
G01 X9.9319 Y-1.6069
G01 X9.9342 Y-1.6112
G01 X9.9380 Y-1.6143
G01 X9.9427 Y-1.6158
G01 X9.9475 Y-1.6153
G01 X9.9518 Y-1.6130
G01 X9.9549 Y-1.6092
G01 X9.9564 Y-1.6045
G01 X9.9565 Y-1.1983
G01 X9.9585 Y-1.1846
G01 X9.9625 Y-1.1724
G01 X9.9686 Y-1.1610
G01 X9.9765 Y-1.1509
G01 X9.9868 Y-1.1417
G01 X9.9985 Y-1.1345
G01 X10.0123 Y-1.1294
G01 X10.0259 Y-1.1271
G01 X10.3097 Y-1.1269
G01 X10.3148 Y-1.1262
G01 X10.4613 Y-1.0652
G01 X10.4653 Y-1.0630
G01 X10.4685 Y-1.0590
G01 X10.5409 Y-0.9383
G01 X10.5426 Y-0.9347
G01 X10.5431 Y-0.9302
G01 X10.5431 Y-0.8097
G01 X10.5426 Y-0.8052
G01 X10.4685 Y-0.6809
G01 X10.4638 Y-0.6759
G01 X10.3163 Y-0.6143
G01 X10.3118 Y-0.6130
G01 X9.9448 Y-0.6130
G01 X9.9380 Y-0.6145
G01 X9.9332 Y-0.6191
G01 X9.9318 Y-0.6225
G01 X9.9314 Y-0.6264
G01 X9.9314 Y-1.6024
G00 Z2.0000
G00 X10.0314 Y-1.1019
G01 F70.00
G01 Z-0.0600
G01 F60.00
G01 X10.2931 Y-1.1019
G01 X10.3042 Y-1.1010
G01 X10.3132 Y-1.0991
G01 X10.3211 Y-1.0964
G01 X10.4267 Y-1.0524
G01 X10.4388 Y-1.0459
G01 X10.4488 Y-1.0378
G01 X10.4550 Y-1.0311
G01 X10.4604 Y-1.0237
G01 X10.5092 Y-0.9422
G01 X10.5130 Y-0.9339
G01 X10.5158 Y-0.9251
G01 X10.5175 Y-0.9160
G01 X10.5181 Y-0.9078
G01 X10.5180 Y-0.8303
G01 X10.5168 Y-0.8193
G01 X10.5143 Y-0.8095
G01 X10.5074 Y-0.7945
G01 X10.4609 Y-0.7170
G01 X10.4514 Y-0.7046
G01 X10.4403 Y-0.6951
G01 X10.4276 Y-0.6878
G01 X10.3202 Y-0.6431
G01 X10.3105 Y-0.6401
G01 X10.3005 Y-0.6384
G01 X10.0268 Y-0.6382
G01 X10.0141 Y-0.6401
G01 X10.0011 Y-0.6445
G01 X9.9898 Y-0.6507
G01 X9.9797 Y-0.6587
G01 X9.9701 Y-0.6699
G01 X9.9633 Y-0.6818
G01 X9.9587 Y-0.6948
G01 X9.9566 Y-0.7084
G01 X9.9569 Y-1.0351
G01 X9.9597 Y-1.0486
G01 X9.9649 Y-1.0614
G01 X9.9718 Y-1.0723
G01 X9.9811 Y-1.0824
G01 X9.9921 Y-1.0907
G01 X10.0045 Y-1.0968
G01 X10.0177 Y-1.1006
G01 X10.0314 Y-1.1019
G00 Z2.0000
G00 X11.3003 Y-1.4324
G01 F70.00
G01 Z-0.0600
G01 F60.00
G01 X11.3003 Y-1.2355
G01 X11.2986 Y-1.2209
G01 X11.2952 Y-1.2094
G01 X11.2896 Y-1.1979
G01 X11.2459 Y-1.1252
G01 X11.2399 Y-1.1171
G01 X11.2327 Y-1.1099
G01 X11.2192 Y-1.1004
G01 X11.2039 Y-1.0941
G01 X11.1092 Y-1.0704
G01 X11.1001 Y-1.0689
G01 X11.0910 Y-1.0686
G01 X11.0755 Y-1.0706
G01 X10.9791 Y-1.0949
G01 X10.9697 Y-1.0987
G01 X10.9610 Y-1.1037
G01 X10.9530 Y-1.1099
G01 X10.9464 Y-1.1164
G01 X10.9388 Y-1.1267
G01 X10.8951 Y-1.1994
G01 X10.8897 Y-1.2112
G01 X10.8866 Y-1.2227
G01 X10.8853 Y-1.2365
G01 X10.8853 Y-1.4333
G01 X10.8860 Y-1.4424
G01 X10.8878 Y-1.4515
G01 X10.8907 Y-1.4602
G01 X10.8942 Y-1.4677
G01 X10.9371 Y-1.5393
G01 X10.9432 Y-1.5475
G01 X10.9502 Y-1.5548
G01 X10.9575 Y-1.5606
G01 X10.9654 Y-1.5654
G01 X10.9738 Y-1.5692
G01 X10.9827 Y-1.5720
G01 X11.0887 Y-1.5894
G01 X11.1052 Y-1.5885
G01 X11.1985 Y-1.5729
G01 X11.2101 Y-1.5699
G01 X11.2211 Y-1.5650
G01 X11.2312 Y-1.5584
G01 X11.2407 Y-1.5496
G01 X11.2481 Y-1.5400
G01 X11.2926 Y-1.4653
G01 X11.2982 Y-1.4497
G01 X11.2997 Y-1.4415
G01 X11.3003 Y-1.4324
G00 Z2.0000
G00 X11.3231 Y-1.4638
G01 F70.00
G01 Z-0.0600
G01 F60.00
G01 X11.3248 Y-1.4602
G01 X11.3253 Y-1.4557
G01 X11.3251 Y-1.2098
G01 X11.3231 Y-1.2050
G01 X11.2484 Y-1.0811
G01 X11.2454 Y-1.0790
G01 X11.2417 Y-1.0776
G01 X11.0928 Y-1.0408
G01 X10.9440 Y-1.0776
G01 X10.9403 Y-1.0790
G01 X10.9374 Y-1.0811
G01 X10.8625 Y-1.2050
G01 X10.8608 Y-1.2086
G01 X10.8603 Y-1.2131
G01 X10.8605 Y-1.4590
G01 X10.8625 Y-1.4638
G01 X10.9373 Y-1.5876
G01 X10.9407 Y-1.5901
G01 X10.9450 Y-1.5913
G01 X11.0925 Y-1.6158
G01 X11.2433 Y-1.5907
G01 X11.2475 Y-1.5884
G01 X11.2507 Y-1.5845
G01 X11.3231 Y-1.4638
G00 Z2.0000
G00 X11.9446 Y-1.3954
G01 F70.00
G01 Z-0.0600
G01 F60.00
G01 X11.9403 Y-1.4046
G01 X11.9352 Y-1.4123
G01 X11.9293 Y-1.4193
G01 X11.9219 Y-1.4261
G01 X11.9143 Y-1.4314
G01 X11.9054 Y-1.4361
G01 X11.8968 Y-1.4394
G01 X11.8869 Y-1.4416
G01 X11.8778 Y-1.4425
G01 X11.8676 Y-1.4422
G01 X11.8586 Y-1.4408
G01 X11.8489 Y-1.4379
G01 X11.8396 Y-1.4337
G01 X11.8318 Y-1.4289
G01 X11.8246 Y-1.4232
G01 X11.8176 Y-1.4159
G01 X11.8112 Y-1.4069
G01 X11.8057 Y-1.3963
G01 X11.6664 Y-1.0481
G01 X11.6631 Y-1.0437
G01 X11.6576 Y-1.0411
G01 X11.6515 Y-1.0413
G01 X11.6467 Y-1.0439
G01 X11.6440 Y-1.0473
G01 X11.6428 Y-1.0507
G01 X11.6426 Y-1.0550
G01 X11.6437 Y-1.0588
G01 X11.8630 Y-1.6071
G01 X11.8649 Y-1.6107
G01 X11.8675 Y-1.6133
G01 X11.8707 Y-1.6151
G01 X11.8750 Y-1.6158
G01 X11.8793 Y-1.6151
G01 X11.8825 Y-1.6133
G01 X11.8851 Y-1.6107
G01 X11.8870 Y-1.6071
G01 X12.0254 Y-1.2612
G01 X12.0293 Y-1.2529
G01 X12.0342 Y-1.2451
G01 X12.0407 Y-1.2373
G01 X12.0481 Y-1.2305
G01 X12.0564 Y-1.2247
G01 X12.0655 Y-1.2201
G01 X12.0750 Y-1.2167
G01 X12.0849 Y-1.2147
G01 X12.0941 Y-1.2140
G01 X12.1042 Y-1.2146
G01 X12.1132 Y-1.2163
G01 X12.1228 Y-1.2194
G01 X12.1320 Y-1.2238
G01 X12.1404 Y-1.2293
G01 X12.1474 Y-1.2353
G01 X12.1541 Y-1.2429
G01 X12.1598 Y-1.2512
G01 X12.1646 Y-1.2612
G01 X12.3036 Y-1.6085
G01 X12.3069 Y-1.6129
G01 X12.3124 Y-1.6155
G01 X12.3185 Y-1.6153
G01 X12.3237 Y-1.6123
G01 X12.3260 Y-1.6094
G01 X12.3274 Y-1.6056
G01 X12.4736 Y-1.0574
G01 X12.4741 Y-1.0517
G01 X12.4722 Y-1.0465
G01 X12.4672 Y-1.0421
G01 X12.4637 Y-1.0409
G01 X12.4601 Y-1.0409
G01 X12.4539 Y-1.0435
G01 X12.4514 Y-1.0462
G01 X12.4498 Y-1.0495
G01 X12.3708 Y-1.3453
G01 X12.3657 Y-1.3591
G01 X12.3601 Y-1.3686
G01 X12.3538 Y-1.3765
G01 X12.3458 Y-1.3841
G01 X12.3376 Y-1.3899
G01 X12.3278 Y-1.3950
G01 X12.3182 Y-1.3983
G01 X12.3074 Y-1.4004
G01 X12.2973 Y-1.4010
G01 X12.2882 Y-1.4003
G01 X12.2783 Y-1.3982
G01 X12.2696 Y-1.3953
G01 X12.2606 Y-1.3908
G01 X12.2522 Y-1.3851
G01 X12.2453 Y-1.3790
G01 X12.2387 Y-1.3714
G01 X12.2336 Y-1.3637
G01 X12.2287 Y-1.3538
G01 X12.1064 Y-1.0481
G01 X12.1035 Y-1.0441
G01 X12.0987 Y-1.0413
G01 X12.0931 Y-1.0409
G01 X12.0880 Y-1.0429
G01 X12.0849 Y-1.0459
G01 X12.0830 Y-1.0495
G01 X11.9446 Y-1.3954
G00 Z2.0000
G00 X12.7914 Y-1.4191
G01 F70.00
G01 Z-0.0600
G01 F60.00
G01 X12.7919 Y-1.4238
G01 X12.8209 Y-1.5442
G01 X12.8222 Y-1.5480
G01 X12.8244 Y-1.5510
G01 X12.8293 Y-1.5541
G01 X12.9762 Y-1.6153
G01 X12.9808 Y-1.6158
G01 X13.1296 Y-1.6155
G01 X13.2489 Y-1.5538
G01 X13.2527 Y-1.5511
G01 X13.2552 Y-1.5477
G01 X13.2563 Y-1.5436
G01 X13.2559 Y-1.5387
G01 X13.2537 Y-1.5344
G01 X13.2505 Y-1.5315
G01 X13.2465 Y-1.5299
G01 X13.2422 Y-1.5298
G01 X13.2373 Y-1.5315
G01 X13.1382 Y-1.5831
G01 X13.1288 Y-1.5869
G01 X13.1198 Y-1.5893
G01 X13.1061 Y-1.5908
G01 X12.9956 Y-1.5907
G01 X12.9827 Y-1.5893
G01 X12.9703 Y-1.5857
G01 X12.8742 Y-1.5454
G01 X12.8604 Y-1.5364
G01 X12.8543 Y-1.5309
G01 X12.8484 Y-1.5240
G01 X12.8415 Y-1.5131
G01 X12.8363 Y-1.5005
G01 X12.8183 Y-1.4263
G01 X12.8165 Y-1.4133
G01 X12.8164 Y-1.3843
G01 X12.8177 Y-1.3715
G01 X12.8211 Y-1.3591
G01 X12.8266 Y-1.3475
G01 X12.8341 Y-1.3370
G01 X12.8432 Y-1.3279
G01 X12.8545 Y-1.3200
G01 X12.8662 Y-1.3146
G01 X12.8786 Y-1.3113
G01 X12.8914 Y-1.3102
G01 X13.2430 Y-1.3102
G01 X13.2493 Y-1.3090
G01 X13.2543 Y-1.3047
G01 X13.2564 Y-1.2983
G01 X13.2564 Y-1.1764
G01 X13.2548 Y-1.1694
G01 X13.1807 Y-1.0825
G01 X13.1769 Y-1.0792
G01 X13.1728 Y-1.0776
G01 X13.0278 Y-1.0414
G01 X13.0239 Y-1.0408
G01 X13.0200 Y-1.0414
G01 X12.8714 Y-1.0790
G01 X12.8685 Y-1.0811
G01 X12.8661 Y-1.0843
G01 X12.7936 Y-1.2050
G01 X12.7918 Y-1.2092
G01 X12.7914 Y-1.4191
G00 Z2.0000
G00 X12.9072 Y-1.2852
G01 F70.00
G01 Z-0.0600
G01 F60.00
G01 X13.1573 Y-1.2852
G01 X13.1683 Y-1.2842
G01 X13.1790 Y-1.2817
G01 X13.1933 Y-1.2754
G01 X13.2053 Y-1.2669
G01 X13.2155 Y-1.2563
G01 X13.2233 Y-1.2439
G01 X13.2286 Y-1.2302
G01 X13.2312 Y-1.2157
G01 X13.2309 Y-1.1997
G01 X13.2279 Y-1.1853
G01 X13.2230 Y-1.1735
G01 X13.2167 Y-1.1634
G01 X13.1768 Y-1.1166
G01 X13.1700 Y-1.1103
G01 X13.1617 Y-1.1044
G01 X13.1527 Y-1.0996
G01 X13.1432 Y-1.0961
G01 X13.0412 Y-1.0706
G01 X13.0248 Y-1.0685
G01 X13.0166 Y-1.0689
G01 X13.0075 Y-1.0704
G01 X12.9111 Y-1.0946
G01 X12.8992 Y-1.0995
G01 X12.8891 Y-1.1059
G01 X12.8801 Y-1.1137
G01 X12.8719 Y-1.1236
G01 X12.8395 Y-1.1780
G01 X12.8343 Y-1.1928
G01 X12.8323 Y-1.2083
G01 X12.8335 Y-1.2238
G01 X12.8376 Y-1.2380
G01 X12.8444 Y-1.2510
G01 X12.8536 Y-1.2625
G01 X12.8648 Y-1.2720
G01 X12.8777 Y-1.2791
G01 X12.8917 Y-1.2835
G01 X12.9072 Y-1.2852
G00 Z2.0000
G00 X13.5736 Y-1.0542
G01 F70.00
G01 Z-0.0600
G01 F60.00
G01 X13.5736 Y-1.6024
G01 X13.5743 Y-1.6075
G01 X13.5768 Y-1.6117
G01 X13.5807 Y-1.6146
G01 X13.5861 Y-1.6158
G01 X13.5909 Y-1.6149
G01 X13.5950 Y-1.6122
G01 X13.5977 Y-1.6081
G01 X13.5986 Y-1.6039
G01 X13.5987 Y-1.2147
G01 X13.5995 Y-1.2054
G01 X13.6011 Y-1.1973
G01 X13.6041 Y-1.1885
G01 X13.6076 Y-1.1810
G01 X13.6153 Y-1.1694
G01 X13.6249 Y-1.1595
G01 X13.7179 Y-1.0821
G01 X13.7254 Y-1.0768
G01 X13.7335 Y-1.0726
G01 X13.7464 Y-1.0681
G01 X13.7608 Y-1.0659
G01 X13.8807 Y-1.0658
G01 X13.8854 Y-1.0643
G01 X13.8888 Y-1.0617
G01 X13.8911 Y-1.0581
G01 X13.8920 Y-1.0533
G01 X13.8913 Y-1.0491
G01 X13.8888 Y-1.0449
G01 X13.8854 Y-1.0423
G01 X13.8807 Y-1.0408
G01 X13.7316 Y-1.0408
G01 X13.7258 Y-1.0429
G01 X13.7024 Y-1.0622
G01 X13.6898 Y-1.0698
G01 X13.6822 Y-1.0730
G01 X13.6734 Y-1.0755
G01 X13.6570 Y-1.0773
G01 X13.6479 Y-1.0767
G01 X13.6389 Y-1.0750
G01 X13.6301 Y-1.0722
G01 X13.6218 Y-1.0684
G01 X13.6089 Y-1.0597
G01 X13.6023 Y-1.0533
G01 X13.5945 Y-1.0440
G01 X13.5891 Y-1.0412
G01 X13.5831 Y-1.0412
G01 X13.5782 Y-1.0436
G01 X13.5745 Y-1.0485
G01 X13.5736 Y-1.0542
G00 Z2.0000
G00 X14.8424 Y-1.2241
G01 F70.00
G01 Z-0.0600
G01 F60.00
G01 X15.0490 Y-1.2241
G01 X15.0627 Y-1.2226
G01 X15.0725 Y-1.2200
G01 X15.0818 Y-1.2160
G01 X15.0905 Y-1.2109
G01 X15.0985 Y-1.2046
G01 X15.1055 Y-1.1973
G01 X15.1120 Y-1.1883
G01 X15.1167 Y-1.1793
G01 X15.1201 Y-1.1698
G01 X15.1224 Y-1.1590
G01 X15.1230 Y-1.1480
G01 X15.1221 Y-1.1369
G01 X15.1195 Y-1.1262
G01 X15.0144 Y-0.8459
G01 X15.0064 Y-0.8315
G01 X14.9955 Y-0.8192
G01 X14.9890 Y-0.8140
G01 X14.9813 Y-0.8091
G01 X14.9660 Y-0.8028
G01 X14.9534 Y-0.8003
G01 X14.9415 Y-0.7999
G01 X14.9297 Y-0.8014
G01 X14.9183 Y-0.8048
G01 X14.9067 Y-0.8104
G01 X14.8970 Y-0.8173
G01 X14.8879 Y-0.8264
G01 X14.8810 Y-0.8361
G01 X14.8750 Y-0.8485
G01 X14.7704 Y-1.1280
G01 X14.7685 Y-1.1360
G01 X14.7675 Y-1.1452
G01 X14.7675 Y-1.1535
G01 X14.7686 Y-1.1626
G01 X14.7708 Y-1.1716
G01 X14.7737 Y-1.1793
G01 X14.7780 Y-1.1875
G01 X14.7826 Y-1.1944
G01 X14.7940 Y-1.2064
G01 X14.8006 Y-1.2114
G01 X14.8086 Y-1.2160
G01 X14.8170 Y-1.2197
G01 X14.8250 Y-1.2220
G01 X14.8341 Y-1.2236
G01 X14.8424 Y-1.2241
G00 Z2.0000
G00 X15.1137 Y-1.2491
G01 F70.00
G01 Z-0.0600
G01 F60.00
G01 X15.1238 Y-1.2498
G01 X15.1337 Y-1.2518
G01 X15.1432 Y-1.2552
G01 X15.1522 Y-1.2598
G01 X15.1605 Y-1.2655
G01 X15.1679 Y-1.2723
G01 X15.1744 Y-1.2801
G01 X15.1793 Y-1.2878
G01 X15.1839 Y-1.2978
G01 X15.3004 Y-1.6083
G01 X15.3032 Y-1.6123
G01 X15.3079 Y-1.6152
G01 X15.3127 Y-1.6158
G01 X15.3180 Y-1.6143
G01 X15.3213 Y-1.6116
G01 X15.3238 Y-1.6073
G01 X15.3244 Y-1.6025
G01 X15.3233 Y-1.5980
G01 X14.9573 Y-0.6220
G01 X14.9551 Y-0.6179
G01 X14.9514 Y-0.6146
G01 X14.9467 Y-0.6131
G01 X14.9418 Y-0.6134
G01 X14.9365 Y-0.6165
G01 X14.9331 Y-0.6220
G01 X14.5671 Y-1.5980
G01 X14.5660 Y-1.6043
G01 X14.5680 Y-1.6101
G01 X14.5730 Y-1.6145
G01 X14.5795 Y-1.6158
G01 X14.5858 Y-1.6135
G01 X14.5897 Y-1.6088
G01 X14.7075 Y-1.2952
G01 X14.7125 Y-1.2854
G01 X14.7188 Y-1.2764
G01 X14.7264 Y-1.2685
G01 X14.7351 Y-1.2617
G01 X14.7447 Y-1.2563
G01 X14.7541 Y-1.2526
G01 X14.7639 Y-1.2502
G01 X14.7739 Y-1.2492
G01 X15.1137 Y-1.2491
G00 Z2.0000
G00 X15.7436 Y-1.8052
G01 F70.00
G01 Z-0.0600
G01 F60.00
G01 X15.7358 Y-1.8141
G01 X15.7273 Y-1.8211
G01 X15.7172 Y-1.8272
G01 X15.7070 Y-1.8314
G01 X15.6991 Y-1.8335
G01 X15.6900 Y-1.8349
G01 X15.6534 Y-1.8352
G01 X15.6486 Y-1.8364
G01 X15.6447 Y-1.8393
G01 X15.6422 Y-1.8435
G01 X15.6415 Y-1.8483
G01 X15.6427 Y-1.8531
G01 X15.6470 Y-1.8581
G01 X15.6534 Y-1.8602
G01 X15.7265 Y-1.8602
G01 X15.7304 Y-1.8599
G01 X15.7338 Y-1.8585
G01 X15.7380 Y-1.8545
G01 X15.8102 Y-1.7583
G01 X15.8130 Y-1.7525
G01 X15.8132 Y-1.0542
G01 X15.8127 Y-1.0497
G01 X15.8104 Y-1.0454
G01 X15.8066 Y-1.0423
G01 X15.8019 Y-1.0408
G01 X15.7965 Y-1.0415
G01 X15.7918 Y-1.0444
G01 X15.7889 Y-1.0491
G01 X15.7882 Y-1.0542
G01 X15.7879 Y-1.7264
G01 X15.7851 Y-1.7419
G01 X15.7787 Y-1.7573
G01 X15.7737 Y-1.7651
G01 X15.7436 Y-1.8052
G00 Z2.0000
G00 X22.6872 Y-3.2606
G01 F70.00
G01 Z-0.0600
G01 F60.00
G01 X22.6906 Y-3.3065
G01 X22.6965 Y-3.3540
G01 X22.7046 Y-3.4011
G01 X22.7147 Y-3.4460
G01 X22.7284 Y-3.4957
G01 X22.7430 Y-3.5396
G01 X22.7601 Y-3.5839
G01 X22.7794 Y-3.6275
G01 X22.8002 Y-3.6689
G01 X22.8256 Y-3.7137
G01 X22.8502 Y-3.7525
G01 X22.8778 Y-3.7917
G01 X22.9072 Y-3.8294
G01 X22.9373 Y-3.8643
G01 X22.9728 Y-3.9016
G01 X23.0061 Y-3.9333
G01 X23.0424 Y-3.9646
G01 X23.0801 Y-3.9940
G01 X23.1177 Y-4.0205
G01 X23.1612 Y-4.0481
G01 X23.2013 Y-4.0708
G01 X23.2438 Y-4.0922
G01 X23.2878 Y-4.1117
G01 X23.3307 Y-4.1283
G01 X23.3796 Y-4.1444
G01 X23.4240 Y-4.1567
G01 X23.4698 Y-4.1670
G01 X23.5178 Y-4.1753
G01 X23.5653 Y-4.1812
G01 X23.6131 Y-4.1847
G01 X23.6591 Y-4.1859
G01 X23.7106 Y-4.1846
G01 X23.7565 Y-4.1812
G01 X23.8058 Y-4.1751
G01 X23.8511 Y-4.1672
G01 X23.8978 Y-4.1567
G01 X23.9439 Y-4.1439
G01 X23.9896 Y-4.1288
G01 X24.0339 Y-4.1117
G01 X24.0775 Y-4.0924
G01 X24.1205 Y-4.0708
G01 X24.1606 Y-4.0481
G01 X24.2025 Y-4.0216
G01 X24.2402 Y-3.9951
G01 X24.2808 Y-3.9634
G01 X24.3157 Y-3.9333
G01 X24.3503 Y-3.9003
G01 X24.3833 Y-3.8657
G01 X24.4146 Y-3.8294
G01 X24.4440 Y-3.7917
G01 X24.4716 Y-3.7526
G01 X24.4973 Y-3.7120
G01 X24.5199 Y-3.6721
G01 X24.5423 Y-3.6278
G01 X24.5610 Y-3.5857
G01 X24.5802 Y-3.5355
G01 X25.0985 Y-3.5352
G01 X25.0986 Y-4.3073
G01 X25.0996 Y-4.3164
G01 X25.1020 Y-4.3263
G01 X25.1053 Y-4.3348
G01 X25.1096 Y-4.3429
G01 X25.1149 Y-4.3505
G01 X25.1211 Y-4.3573
G01 X25.1281 Y-4.3633
G01 X25.1365 Y-4.3689
G01 X25.1457 Y-4.3732
G01 X25.1544 Y-4.3761
G01 X25.1634 Y-4.3779
G01 X25.1735 Y-4.3786
G01 X26.5735 Y-4.3786
G01 X26.5863 Y-4.3775
G01 X26.5979 Y-4.3745
G01 X26.6097 Y-4.3693
G01 X26.6196 Y-4.3627
G01 X26.6291 Y-4.3540
G01 X26.6364 Y-4.3445
G01 X26.6424 Y-4.3331
G01 X26.6463 Y-4.3218
G01 X26.6483 Y-4.3091
G01 X26.6485 Y-3.5344
G01 X27.0298 Y-3.5342
G01 X27.0308 Y-3.5738
G01 X27.0341 Y-3.6197
G01 X27.0399 Y-3.6672
G01 X27.0483 Y-3.7162
G01 X27.0588 Y-3.7629
G01 X27.0721 Y-3.8108
G01 X27.0867 Y-3.8547
G01 X27.1031 Y-3.8974
G01 X27.1231 Y-3.9426
G01 X27.1447 Y-3.9856
G01 X27.1693 Y-4.0288
G01 X27.1939 Y-4.0676
G01 X27.2204 Y-4.1053
G01 X27.2509 Y-4.1445
G01 X27.2822 Y-4.1808
G01 X27.3152 Y-4.2154
G01 X27.3512 Y-4.2496
G01 X27.3861 Y-4.2797
G01 X27.4223 Y-4.3080
G01 X27.4614 Y-4.3356
G01 X27.5035 Y-4.3624
G01 X27.5450 Y-4.3859
G01 X27.5875 Y-4.4073
G01 X27.6332 Y-4.4275
G01 X27.6759 Y-4.4439
G01 X27.7198 Y-4.4585
G01 X27.7659 Y-4.4713
G01 X27.8144 Y-4.4823
G01 X27.8634 Y-4.4907
G01 X27.9090 Y-4.4963
G01 X27.9549 Y-4.4997
G01 X28.0028 Y-4.5010
G01 X28.0524 Y-4.4998
G01 X28.1002 Y-4.4963
G01 X28.1477 Y-4.4904
G01 X28.1966 Y-4.4819
G01 X28.2415 Y-4.4718
G01 X28.2859 Y-4.4595
G01 X28.3323 Y-4.4443
G01 X28.3794 Y-4.4261
G01 X28.4212 Y-4.4075
G01 X28.4642 Y-4.3859
G01 X28.5060 Y-4.3622
G01 X28.5447 Y-4.3377
G01 X28.5869 Y-4.3080
G01 X28.6231 Y-4.2797
G01 X28.6594 Y-4.2484
G01 X28.6940 Y-4.2154
G01 X28.7258 Y-4.1821
G01 X28.7594 Y-4.1431
G01 X28.7877 Y-4.1068
G01 X28.8142 Y-4.0692
G01 X28.8418 Y-4.0257
G01 X28.8645 Y-3.9856
G01 X28.8859 Y-3.9431
G01 X28.9061 Y-3.8974
G01 X28.9225 Y-3.8547
G01 X28.9376 Y-3.8091
G01 X28.9508 Y-3.7611
G01 X28.9609 Y-3.7162
G01 X28.9690 Y-3.6691
G01 X28.9749 Y-3.6216
G01 X28.9783 Y-3.5757
G01 X28.9796 Y-3.5251
G01 X28.9784 Y-3.4782
G01 X28.9751 Y-3.4323
G01 X28.9690 Y-3.3829
G01 X28.9609 Y-3.3358
G01 X28.9508 Y-3.2909
G01 X28.9376 Y-3.2430
G01 X28.9220 Y-3.1958
G01 X28.9054 Y-3.1530
G01 X28.8861 Y-3.1094
G01 X28.8636 Y-3.0648
G01 X28.8408 Y-3.0246
G01 X28.8163 Y-2.9859
G01 X28.7866 Y-2.9437
G01 X28.7583 Y-2.9075
G01 X28.7258 Y-2.8699
G01 X28.6940 Y-2.8366
G01 X28.6594 Y-2.8036
G01 X28.6231 Y-2.7723
G01 X28.5861 Y-2.7434
G01 X28.5447 Y-2.7143
G01 X28.5057 Y-2.6896
G01 X28.4634 Y-2.6657
G01 X28.4217 Y-2.6447
G01 X28.3786 Y-2.6256
G01 X28.3333 Y-2.6081
G01 X28.3047 Y-2.5986
G01 X28.3047 Y-2.4625
G01 X28.6370 Y-2.4621
G01 X28.6460 Y-2.4607
G01 X28.6540 Y-2.4584
G01 X28.6625 Y-2.4549
G01 X28.6697 Y-2.4509
G01 X28.6765 Y-2.4461
G01 X28.6833 Y-2.4399
G01 X28.6893 Y-2.4329
G01 X28.6939 Y-2.4261
G01 X28.6985 Y-2.4170
G01 X28.7019 Y-2.4075
G01 X28.7039 Y-2.3976
G01 X28.7046 Y-2.3884
G01 X28.7046 Y-1.3943
G01 X29.2111 Y-0.9601
G01 X51.1494 Y-0.9601
G01 X51.1494 Y-2.8806
G01 X48.9142 Y-5.0929
G01 X46.2754 Y-5.0929
G01 X46.2533 Y-5.0940
G01 X46.2315 Y-5.0972
G01 X46.2189 Y-5.1001
G01 X46.2013 Y-5.1055
G01 X46.1792 Y-5.1145
G01 X46.1677 Y-5.1204
G01 X46.1519 Y-5.1299
G01 X46.1312 Y-5.1452
G01 X46.1162 Y-5.1588
G01 X45.9757 Y-5.2997
G01 X45.9600 Y-5.3189
G01 X45.9498 Y-5.3342
G01 X45.9434 Y-5.3454
G01 X45.9340 Y-5.3652
G01 X45.9265 Y-5.3861
G01 X45.9210 Y-5.4083
G01 X45.9178 Y-5.4313
G01 X45.9168 Y-5.4515
G01 X45.9168 Y-5.6826
G01 X42.6487 Y-5.6864
G01 X42.6367 Y-5.6835
G01 X42.6248 Y-5.6825
G01 X41.5248 Y-5.6825
G01 X41.5111 Y-5.6838
G01 X41.4972 Y-5.6878
G01 X38.8871 Y-5.6909
G01 X38.8503 Y-5.6927
G01 X38.8157 Y-5.6978
G01 X38.7959 Y-5.7022
G01 X38.7624 Y-5.7123
G01 X38.7418 Y-5.7203
G01 X38.7119 Y-5.7345
G01 X38.6927 Y-5.7454
G01 X38.6637 Y-5.7649
G01 X38.6379 Y-5.7860
G01 X38.5656 Y-5.7860
G01 X38.5501 Y-5.7880
G01 X38.5379 Y-5.7921
G01 X38.5257 Y-5.7986
G01 X38.5157 Y-5.8067
G01 X38.5066 Y-5.8171
G01 X38.5008 Y-5.8265
G01 X38.4965 Y-5.8366
G01 X38.4937 Y-5.8473
G01 X38.4925 Y-5.8582
G01 X38.4924 Y-6.1850
G01 X37.9120 Y-6.1843
G01 X37.9120 Y-5.8087
G01 X37.9113 Y-5.7986
G01 X37.9088 Y-5.7869
G01 X37.9048 Y-5.7766
G01 X37.8988 Y-5.7663
G01 X37.8919 Y-5.7577
G01 X37.8831 Y-5.7496
G01 X37.8740 Y-5.7434
G01 X37.8640 Y-5.7387
G01 X37.8534 Y-5.7355
G01 X37.8370 Y-5.7337
G01 X36.5370 Y-5.7337
G01 X36.5242 Y-5.7348
G01 X36.5117 Y-5.7381
G01 X36.5000 Y-5.7434
G01 X36.4894 Y-5.7507
G01 X36.4802 Y-5.7597
G01 X36.4731 Y-5.7694
G01 X36.4674 Y-5.7809
G01 X36.4636 Y-5.7932
G01 X36.4621 Y-5.8059
G01 X36.4625 Y-7.2170
G01 X36.4652 Y-7.2305
G01 X36.4700 Y-7.2424
G01 X36.4768 Y-7.2534
G01 X36.4853 Y-7.2630
G01 X36.4961 Y-7.2716
G01 X36.5075 Y-7.2776
G01 X36.5206 Y-7.2819
G01 X36.5333 Y-7.2836
G01 X37.8370 Y-7.2837
G01 X37.8507 Y-7.2824
G01 X37.8614 Y-7.2796
G01 X37.8724 Y-7.2748
G01 X37.8824 Y-7.2684
G01 X37.8913 Y-7.2604
G01 X37.8988 Y-7.2511
G01 X37.9048 Y-7.2408
G01 X37.9090 Y-7.2296
G01 X37.9113 Y-7.2188
G01 X37.9120 Y-7.2087
G01 X37.9120 Y-6.8346
G01 X38.4924 Y-6.8352
G01 X38.4924 Y-7.1610
G01 X38.4932 Y-7.1720
G01 X38.4959 Y-7.1837
G01 X38.5000 Y-7.1939
G01 X38.5056 Y-7.2034
G01 X38.5125 Y-7.2120
G01 X38.5205 Y-7.2196
G01 X38.5296 Y-7.2258
G01 X38.5396 Y-7.2306
G01 X38.5501 Y-7.2340
G01 X38.5591 Y-7.2355
G01 X38.5674 Y-7.2360
G01 X40.1674 Y-7.2360
G01 X40.1829 Y-7.2344
G01 X40.1944 Y-7.2310
G01 X40.2052 Y-7.2258
G01 X40.2150 Y-7.2190
G01 X40.2236 Y-7.2107
G01 X40.2308 Y-7.2011
G01 X40.2367 Y-7.1897
G01 X40.2404 Y-7.1783
G01 X40.2422 Y-7.1665
G01 X40.2424 Y-6.4396
G01 X45.9470 Y-6.4328
G01 X46.6592 Y-7.1443
G01 X46.6856 Y-7.1660
G01 X46.7021 Y-7.1777
G01 X46.7192 Y-7.1885
G01 X46.7499 Y-7.2048
G01 X46.7686 Y-7.2131
G01 X46.8016 Y-7.2248
G01 X46.8211 Y-7.2301
G01 X46.8555 Y-7.2369
G01 X46.8903 Y-7.2404
G01 X46.9105 Y-7.2409
G01 X50.6434 Y-7.2409
G01 X50.6802 Y-7.2391
G01 X50.6984 Y-7.2369
G01 X50.7193 Y-7.2332
G01 X51.6153 Y-7.2386
G01 X51.6153 Y-8.0793
G01 X50.6255 Y-8.0826
G01 X50.2248 Y-8.0826
G01 X50.2111 Y-8.0839
G01 X50.1978 Y-8.0876
G01 X50.1847 Y-8.0942
G01 X50.1738 Y-8.1026
G01 X50.0705 Y-8.2058
G01 X50.0640 Y-8.2135
G01 X50.0591 Y-8.2213
G01 X50.0548 Y-8.2305
G01 X50.0521 Y-8.2393
G01 X50.0504 Y-8.2483
G01 X50.0498 Y-8.2575
G01 X50.0498 Y-8.6575
G01 X50.0504 Y-8.6667
G01 X50.0520 Y-8.6757
G01 X50.0548 Y-8.6845
G01 X50.0582 Y-8.6920
G01 X50.0629 Y-8.6999
G01 X50.0686 Y-8.7072
G01 X50.1737 Y-8.8125
G01 X50.1831 Y-8.8199
G01 X50.1944 Y-8.8262
G01 X50.2066 Y-8.8303
G01 X50.2193 Y-8.8324
G01 X51.3248 Y-8.8326
G01 X51.3340 Y-8.8320
G01 X51.3426 Y-8.8305
G01 X52.0110 Y-8.8279
G01 X52.0466 Y-8.8242
G01 X52.0808 Y-8.8174
G01 X52.1160 Y-8.8068
G01 X52.1366 Y-8.7988
G01 X52.1680 Y-8.7838
G01 X52.1996 Y-8.7648
G01 X52.2290 Y-8.7429
G01 X52.2549 Y-8.7194
G01 X52.2796 Y-8.6923
G01 X52.2932 Y-8.6749
G01 X52.3124 Y-8.6459
G01 X52.3297 Y-8.6136
G01 X52.3432 Y-8.5811
G01 X52.3501 Y-8.5602
G01 X52.3585 Y-8.5262
G01 X52.3639 Y-8.4900
G01 X52.3656 Y-8.4533
G01 X52.3650 Y-6.8464
G01 X52.3615 Y-6.8108
G01 X52.3544 Y-6.7749
G01 X52.3437 Y-6.7395
G01 X52.3299 Y-6.7061
G01 X52.3126 Y-6.6735
G01 X52.2922 Y-6.6429
G01 X52.2691 Y-6.6145
G01 X52.2439 Y-6.5892
G01 X52.2164 Y-6.5663
G01 X52.1985 Y-6.5536
G01 X52.1686 Y-6.5356
G01 X52.1354 Y-6.5197
G01 X52.1028 Y-6.5078
G01 X52.0816 Y-6.5018
G01 X52.0474 Y-6.4949
G01 X52.0119 Y-6.4912
G01 X51.3494 Y-6.4867
G01 X51.3376 Y-6.4836
G01 X51.3248 Y-6.4825
G01 X50.2249 Y-6.4825
G01 X50.2166 Y-6.4830
G01 X50.2076 Y-6.4845
G01 X50.1988 Y-6.4872
G01 X50.1909 Y-6.4907
G01 X49.5127 Y-6.4906
G01 X49.4374 Y-6.4153
G01 X49.4374 Y-5.4900
G01 X51.7039 Y-3.2466
G01 X51.7249 Y-3.2236
G01 X51.7441 Y-3.1979
G01 X51.7607 Y-3.1704
G01 X51.7742 Y-3.1423
G01 X51.7854 Y-3.1112
G01 X51.7933 Y-3.0800
G01 X51.7980 Y-3.0483
G01 X51.7996 Y-3.0171
G01 X51.7996 Y-0.9601
G01 X56.2294 Y-0.9601
G01 X56.2294 Y-8.2550
G01 X56.2310 Y-8.2876
G01 X56.2359 Y-8.3199
G01 X56.2440 Y-8.3515
G01 X56.2553 Y-8.3823
G01 X56.2695 Y-8.4116
G01 X56.2862 Y-8.4386
G01 X57.9331 Y-10.8312
G01 X57.9331 Y-12.0323
G01 X57.9339 Y-12.0424
G01 X57.9363 Y-12.0532
G01 X57.9399 Y-12.0626
G01 X57.9452 Y-12.0723
G01 X57.9507 Y-12.0797
G01 X57.9571 Y-12.0863
G01 X57.9634 Y-12.0916
G01 X57.9711 Y-12.0967
G01 X57.9786 Y-12.1003
G01 X57.9872 Y-12.1034
G01 X57.9953 Y-12.1053
G01 X58.0044 Y-12.1063
G01 X58.6694 Y-12.1064
G01 X59.0692 Y-13.0346
G01 X59.0591 Y-13.0457
G01 X59.0511 Y-13.0592
G01 X59.0461 Y-13.0740
G01 X59.0443 Y-13.0895
G01 X59.0443 Y-14.6922
G01 X59.0459 Y-14.7059
G01 X59.0500 Y-14.7191
G01 X59.0564 Y-14.7313
G01 X59.0650 Y-14.7421
G01 X59.0754 Y-14.7512
G01 X59.0872 Y-14.7582
G01 X59.1002 Y-14.7629
G01 X59.1142 Y-14.7652
G01 X58.3175 Y-16.7038
G01 X58.3074 Y-16.7319
G01 X58.3027 Y-16.7489
G01 X58.2963 Y-16.7818
G01 X58.2936 Y-16.8098
G01 X58.2931 Y-16.8265
G01 X58.2931 Y-17.2770
G01 X58.2654 Y-17.2771
G01 X58.2536 Y-17.2784
G01 X58.2386 Y-17.2831
G01 X58.2250 Y-17.2907
G01 X58.2126 Y-17.3016
G01 X58.2069 Y-17.3088
G01 X58.2025 Y-17.3158
G01 X58.1962 Y-17.3311
G01 X58.1933 Y-17.3474
G01 X58.1932 Y-18.4176
G01 X56.8307 Y-19.7828
G01 X56.8179 Y-19.7977
G01 X56.8011 Y-19.8203
G01 X56.7915 Y-19.8353
G01 X56.7828 Y-19.8508
G01 X56.7708 Y-19.8763
G01 X56.7643 Y-19.8929
G01 X56.7556 Y-19.9216
G01 X56.7514 Y-19.9398
G01 X56.7469 Y-19.9705
G01 X56.7454 Y-20.0023
G01 X56.7454 Y-27.3369
G01 X52.9983 Y-27.3369
G01 X51.9323 Y-26.2709
G01 X51.9101 Y-26.2507
G01 X51.8953 Y-26.2391
G01 X51.8815 Y-26.2295
G01 X51.8573 Y-26.2150
G01 X51.8267 Y-26.2004
G01 X51.8102 Y-26.1941
G01 X51.7832 Y-26.1859
G01 X51.7658 Y-26.1819
G01 X51.7483 Y-26.1789
G01 X51.7202 Y-26.1762
G01 X51.7033 Y-26.1757
G01 X51.3946 Y-26.1757
G01 X51.3943 Y-25.8571
G01 X51.3911 Y-25.8408
G01 X51.3844 Y-25.8257
G01 X51.3745 Y-25.8125
G01 X51.3620 Y-25.8017
G01 X51.3525 Y-25.7961
G01 X51.3423 Y-25.7920
G01 X51.3315 Y-25.7895
G01 X51.3205 Y-25.7885
G01 X50.5145 Y-25.7885
G01 X49.9870 Y-25.2609
G01 X50.3707 Y-24.8769
G01 X50.3853 Y-24.8592
G01 X50.3976 Y-24.8408
G01 X50.4080 Y-24.8213
G01 X50.4164 Y-24.8009
G01 X50.4228 Y-24.7798
G01 X50.4274 Y-24.7563
G01 X50.4296 Y-24.7269
G01 X50.4286 Y-24.7049
G01 X50.4253 Y-24.6812
G01 X50.4199 Y-24.6598
G01 X50.4125 Y-24.6391
G01 X50.4028 Y-24.6187
G01 X50.3917 Y-24.6001
G01 X50.3784 Y-24.5823
G01 X50.3637 Y-24.5659
G01 X50.3458 Y-24.5500
G01 X50.3280 Y-24.5370
G01 X50.3024 Y-24.5224
G01 X50.2812 Y-24.5135
G01 X50.2601 Y-24.5070
G01 X50.2375 Y-24.5025
G01 X50.2137 Y-24.5002
G01 X50.1843 Y-24.5010
G01 X50.1606 Y-24.5043
G01 X50.1374 Y-24.5103
G01 X50.1099 Y-24.5209
G01 X50.0888 Y-24.5320
G01 X50.0690 Y-24.5454
G01 X50.0547 Y-24.5571
G01 X50.0453 Y-24.5659
G01 X49.5556 Y-25.0557
G01 X48.5815 Y-25.0557
G01 X48.5718 Y-25.0504
G01 X48.5615 Y-25.0466
G01 X48.5507 Y-25.0443
G01 X48.5406 Y-25.0436
G01 X47.9397 Y-25.0436
G01 X47.9251 Y-25.0452
G01 X47.9119 Y-25.0493
G01 X47.9020 Y-25.0543
G01 X47.8930 Y-25.0606
G01 X47.8850 Y-25.0682
G01 X47.8788 Y-25.0762
G01 X47.8732 Y-25.0857
G01 X47.8694 Y-25.0951
G01 X47.8667 Y-25.1058
G01 X47.8656 Y-25.1168
G01 X47.8655 Y-26.7311
G01 X47.8592 Y-26.7602
G01 X47.8577 Y-26.7730
G01 X47.8567 Y-26.7923
G01 X47.8567 Y-27.7832
G01 X46.4415 Y-28.7145
G01 X46.4250 Y-28.7278
G01 X46.4142 Y-28.7380
G01 X46.4004 Y-28.7531
G01 X46.3871 Y-28.7709
G01 X46.3756 Y-28.7899
G01 X46.3667 Y-28.8083
G01 X46.3614 Y-28.8221
G01 X46.3550 Y-28.8434
G01 X46.3499 Y-28.8727
G01 X46.3486 Y-28.8958
G01 X46.3487 Y-29.5714
G01 X46.3491 Y-29.5843
G01 X46.3510 Y-29.6035
G01 X46.3568 Y-29.6310
G01 X46.3568 Y-31.5257
G01 X46.3584 Y-31.5394
G01 X46.3629 Y-31.5534
G01 X46.3694 Y-31.5656
G01 X46.3781 Y-31.5763
G01 X46.3886 Y-31.5852
G01 X46.4006 Y-31.5921
G01 X46.4136 Y-31.5967
G01 X46.4281 Y-31.5988
G01 X46.7318 Y-31.5989
G01 X46.7446 Y-31.5978
G01 X46.7553 Y-31.5951
G01 X46.7663 Y-31.5905
G01 X46.7765 Y-31.5841
G01 X46.7855 Y-31.5763
G01 X46.7926 Y-31.5678
G01 X46.7988 Y-31.5576
G01 X46.8033 Y-31.5466
G01 X46.8060 Y-31.5349
G01 X46.8068 Y-31.5239
G01 X46.8068 Y-29.5239
G01 X46.8062 Y-29.5147
G01 X46.8048 Y-29.5066
G01 X46.7989 Y-29.4903
G01 X46.7988 Y-29.0180
G01 X48.2055 Y-28.0925
G01 X48.2161 Y-28.0851
G01 X48.2318 Y-28.0723
G01 X48.2413 Y-28.0632
G01 X48.2551 Y-28.0482
G01 X48.2631 Y-28.0379
G01 X48.2744 Y-28.0210
G01 X48.2841 Y-28.0030
G01 X48.2902 Y-27.9895
G01 X48.2970 Y-27.9703
G01 X48.3021 Y-27.9505
G01 X48.3045 Y-27.9368
G01 X48.3065 Y-27.9165
G01 X48.3069 Y-27.1936
G01 X48.5415 Y-27.1936
G01 X48.5577 Y-27.1916
G01 X49.6501 Y-27.1916
G01 X49.6548 Y-27.2013
G01 X49.6610 Y-27.2104
G01 X49.6686 Y-27.2184
G01 X49.6772 Y-27.2253
G01 X49.6867 Y-27.2309
G01 X49.6969 Y-27.2350
G01 X49.7077 Y-27.2375
G01 X49.7187 Y-27.2385
G01 X51.3279 Y-27.2380
G01 X51.3396 Y-27.2358
G01 X51.3508 Y-27.2317
G01 X51.3620 Y-27.2253
G01 X51.3713 Y-27.2178
G01 X51.3793 Y-27.2089
G01 X51.3857 Y-27.1989
G01 X51.3905 Y-27.1879
G01 X51.3936 Y-27.1754
G01 X51.3946 Y-27.1635
G01 X51.3946 Y-26.8259
G01 X51.5677 Y-26.8259
G01 X52.6446 Y-27.9023
G01 X52.6588 Y-27.9145
G01 X52.6830 Y-27.9323
G01 X52.6980 Y-27.9418
G01 X52.7229 Y-27.9551
G01 X52.7391 Y-27.9623
G01 X52.7558 Y-27.9687
G01 X52.7828 Y-27.9769
G01 X52.8011 Y-27.9811
G01 X52.8317 Y-27.9856
G01 X52.8636 Y-27.9871
G01 X57.0846 Y-27.9868
G01 X57.1182 Y-27.9836
G01 X57.1495 Y-27.9774
G01 X57.1800 Y-27.9681
G01 X57.2112 Y-27.9551
G01 X57.2361 Y-27.9418
G01 X57.2496 Y-27.9333
G01 X57.2753 Y-27.9145
G01 X57.3004 Y-27.8919
G01 X57.3224 Y-27.8675
G01 X57.3408 Y-27.8426
G01 X57.3563 Y-27.8169
G01 X57.3652 Y-27.7993
G01 X57.3766 Y-27.7715
G01 X57.3854 Y-27.7428
G01 X57.3897 Y-27.7236
G01 X57.3941 Y-27.6939
G01 X57.3956 Y-27.6629
G01 X57.3956 Y-20.1368
G01 X58.1933 Y-19.3379
G01 X58.1933 Y-19.5520
G01 X58.1946 Y-19.5657
G01 X58.1971 Y-19.5755
G01 X58.2009 Y-19.5849
G01 X58.2065 Y-19.5944
G01 X58.2127 Y-19.6024
G01 X58.2200 Y-19.6094
G01 X58.2282 Y-19.6154
G01 X58.2379 Y-19.6206
G01 X58.2474 Y-19.6240
G01 X58.2573 Y-19.6262
G01 X58.2683 Y-19.6270
G01 X58.9720 Y-19.6269
G01 X58.9820 Y-19.6257
G01 X58.9927 Y-19.6229
G01 X59.0020 Y-19.6190
G01 X59.0107 Y-19.6138
G01 X59.0187 Y-19.6076
G01 X59.0257 Y-19.6003
G01 X59.0317 Y-19.5921
G01 X59.0365 Y-19.5832
G01 X59.0417 Y-19.5675
G01 X59.0433 Y-19.5520
G01 X59.0431 Y-17.3492
G01 X59.0422 Y-17.3401
G01 X59.0405 Y-17.3320
G01 X59.0343 Y-17.3166
G01 X59.0300 Y-17.3096
G01 X59.0244 Y-17.3023
G01 X59.0121 Y-17.2912
G01 X58.9986 Y-17.2834
G01 X58.9837 Y-17.2786
G01 X58.9710 Y-17.2771
G01 X58.9434 Y-17.2770
G01 X58.9433 Y-16.8916
G01 X59.8172 Y-14.7654
G01 X60.4211 Y-14.7654
G01 X60.4312 Y-14.7644
G01 X60.4420 Y-14.7619
G01 X60.4514 Y-14.7582
G01 X60.4610 Y-14.7528
G01 X60.4676 Y-14.7478
G01 X60.4742 Y-14.7414
G01 X60.4841 Y-14.7282
G01 X60.4879 Y-14.7208
G01 X60.4911 Y-14.7122
G01 X60.4941 Y-14.6959
G01 X60.4943 Y-14.3157
G01 X64.9683 Y-14.3157
G01 X64.9910 Y-14.3151
G01 X65.0287 Y-14.3113
G01 X65.0511 Y-14.3075
G01 X65.0723 Y-14.3028
G01 X65.1113 Y-14.2909
G01 X65.1306 Y-14.2835
G01 X65.1498 Y-14.2750
G01 X71.6575 Y-11.2038
G01 X71.6761 Y-11.2213
G01 X71.7146 Y-11.2546
G01 X71.7577 Y-11.2882
G01 X71.8001 Y-11.3180
G01 X71.8431 Y-11.3453
G01 X71.8914 Y-11.3727
G01 X71.9374 Y-11.3959
G01 X71.9842 Y-11.4166
G01 X72.0351 Y-11.4364
G01 X72.0870 Y-11.4534
G01 X72.1361 Y-11.4670
G01 X72.1867 Y-11.4784
G01 X72.2414 Y-11.4878
G01 X72.2919 Y-11.4940
G01 X72.3446 Y-11.4979
G01 X72.3991 Y-11.4992
G01 X72.4500 Y-11.4979
G01 X72.5008 Y-11.4942
G01 X72.5550 Y-11.4876
G01 X72.6088 Y-11.4782
G01 X72.6585 Y-11.4670
G01 X72.7076 Y-11.4534
G01 X72.7603 Y-11.4360
G01 X72.8087 Y-11.4174
G01 X72.8552 Y-11.3968
G01 X72.9043 Y-11.3721
G01 X72.9501 Y-11.3462
G01 X72.9930 Y-11.3190
G01 X73.0377 Y-11.2876
G01 X73.0807 Y-11.2540
G01 X73.1192 Y-11.2207
G01 X73.1574 Y-11.1843
G01 X73.1938 Y-11.1462
G01 X73.2271 Y-11.1076
G01 X73.2613 Y-11.0638
G01 X73.2911 Y-11.0214
G01 X73.3203 Y-10.9753
G01 X73.3454 Y-10.9310
G01 X73.3683 Y-10.8855
G01 X73.3897 Y-10.8373
G01 X73.4095 Y-10.7864
G01 X73.4260 Y-10.7363
G01 X73.4401 Y-10.6854
G01 X73.4515 Y-10.6348
G01 X73.4607 Y-10.5819
G01 X73.4671 Y-10.5296
G01 X73.4710 Y-10.4769
G01 X73.4723 Y-10.4233
G01 X73.4710 Y-10.3715
G01 X73.4669 Y-10.3170
G01 X73.4604 Y-10.2646
G01 X73.4516 Y-10.2145
G01 X73.4435 Y-10.1782
G01 X74.3115 Y-9.2922
G01 X74.7743 Y-9.1826
G01 X74.8032 Y-9.2101
G01 X74.8432 Y-9.2446
G01 X74.8848 Y-9.2770
G01 X74.9280 Y-9.3074
G01 X74.9724 Y-9.3356
G01 X75.0184 Y-9.3617
G01 X75.0653 Y-9.3853
G01 X75.1138 Y-9.4068
G01 X75.1630 Y-9.4258
G01 X75.2131 Y-9.4423
G01 X75.2640 Y-9.4564
G01 X75.3155 Y-9.4679
G01 X75.3675 Y-9.4770
G01 X75.4198 Y-9.4834
G01 X75.4725 Y-9.4873
G01 X75.5252 Y-9.4886
G01 X75.5779 Y-9.4873
G01 X75.6287 Y-9.4836
G01 X75.6829 Y-9.4770
G01 X75.7367 Y-9.4676
G01 X75.7864 Y-9.4564
G01 X75.8355 Y-9.4428
G01 X75.8891 Y-9.4251
G01 X75.9366 Y-9.4068
G01 X75.9831 Y-9.3862
G01 X76.0322 Y-9.3615
G01 X76.0829 Y-9.3325
G01 X78.3042 Y-9.3325
G01 X78.3216 Y-9.3312
G01 X78.3378 Y-9.3277
G01 X78.3519 Y-9.3227
G01 X78.3668 Y-9.3152
G01 X78.3792 Y-9.3068
G01 X78.3917 Y-9.2959
G01 X79.7418 Y-7.9458
G01 X79.7531 Y-7.9326
G01 X79.7621 Y-7.9186
G01 X79.7685 Y-7.9053
G01 X79.7740 Y-7.8885
G01 X79.7766 Y-7.8746
G01 X79.7777 Y-7.8581
G01 X79.7777 Y-3.6634
G01 X81.3317 Y-2.1094
G01 X84.5222 Y-2.1094
G01 X85.7983 Y-3.3856
G01 X85.7983 Y-7.3034
G01 X85.7996 Y-7.3208
G01 X85.8034 Y-7.3379
G01 X85.8095 Y-7.3543
G01 X85.8170 Y-7.3683
G01 X85.8268 Y-7.3819
G01 X85.8393 Y-7.3951
G01 X85.8531 Y-7.4059
G01 X85.8682 Y-7.4147
G01 X85.8810 Y-7.4201
G01 X85.8938 Y-7.4240
G01 X85.9092 Y-7.4267
G01 X85.9233 Y-7.4275
G01 X91.9896 Y-7.4275
G01 X91.9896 Y-12.0668
G01 X91.9916 Y-12.0876
G01 X91.9966 Y-12.1064
G01 X92.0040 Y-12.1233
G01 X92.0142 Y-12.1395
G01 X92.0268 Y-12.1541
G01 X92.0416 Y-12.1665
G01 X92.0595 Y-12.1772
G01 X92.0774 Y-12.1844
G01 X92.0963 Y-12.1887
G01 X92.1146 Y-12.1900
G01 X94.0248 Y-12.1899
G01 X94.0431 Y-12.1878
G01 X94.0600 Y-12.1833
G01 X94.0747 Y-12.1772
G01 X94.0899 Y-12.1684
G01 X94.1036 Y-12.1576
G01 X94.1162 Y-12.1443
G01 X94.1268 Y-12.1294
G01 X94.1347 Y-12.1138
G01 X94.1392 Y-12.1013
G01 X94.1422 Y-12.0894
G01 X94.1440 Y-12.0773
G01 X94.1446 Y-12.0650
G01 X94.1446 Y-7.4275
G01 X97.8348 Y-7.4274
G01 X97.8470 Y-7.4263
G01 X97.8582 Y-7.4242
G01 X97.8791 Y-7.4173
G01 X97.8895 Y-7.4122
G01 X97.8999 Y-7.4059
G01 X97.9090 Y-7.3990
G01 X97.9180 Y-7.3909
G01 X97.9262 Y-7.3818
G01 X97.9330 Y-7.3727
G01 X97.9434 Y-7.3543
G01 X97.9476 Y-7.3438
G01 X97.9511 Y-7.3320
G01 X97.9533 Y-7.3208
G01 X97.9545 Y-7.3086
G01 X97.9546 Y-0.4753
G01 X97.9531 Y-0.4569
G01 X97.9487 Y-0.4382
G01 X97.9407 Y-0.4189
G01 X97.9306 Y-0.4025
G01 X97.9180 Y-0.3878
G01 X97.9041 Y-0.3758
G01 X97.8885 Y-0.3659
G01 X97.8709 Y-0.3582
G01 X97.8498 Y-0.3528
G01 X97.8296 Y-0.3512
G01 X77.3508 Y-0.3512
G01 X77.3317 Y-0.3527
G01 X77.3206 Y-0.3549
G01 X77.3089 Y-0.3584
G01 X77.2976 Y-0.3630
G01 X77.2867 Y-0.3688
G01 X77.2766 Y-0.3756
G01 X77.2679 Y-0.3826
G01 X77.2592 Y-0.3911
G01 X77.2519 Y-0.3997
G01 X76.7735 Y-1.0377
G01 X76.7646 Y-1.0518
G01 X76.7574 Y-1.0676
G01 X76.7530 Y-1.0824
G01 X76.7502 Y-1.0988
G01 X76.7496 Y-1.1112
G01 X76.7496 Y-6.4570
G01 X75.8250 Y-7.3815
G01 X75.7864 Y-7.3708
G01 X75.7349 Y-7.3593
G01 X75.6829 Y-7.3502
G01 X75.6306 Y-7.3438
G01 X75.5779 Y-7.3399
G01 X75.5252 Y-7.3386
G01 X75.4725 Y-7.3399
G01 X75.4198 Y-7.3438
G01 X75.3675 Y-7.3502
G01 X75.3155 Y-7.3593
G01 X75.2640 Y-7.3708
G01 X75.2131 Y-7.3849
G01 X75.1630 Y-7.4014
G01 X75.1138 Y-7.4204
G01 X75.0659 Y-7.4417
G01 X75.0182 Y-7.4657
G01 X74.9724 Y-7.4916
G01 X74.9279 Y-7.5198
G01 X74.8848 Y-7.5502
G01 X74.8431 Y-7.5827
G01 X74.8033 Y-7.6171
G01 X74.7651 Y-7.6535
G01 X74.7287 Y-7.6916
G01 X74.6954 Y-7.7302
G01 X74.6618 Y-7.7732
G01 X74.6314 Y-7.8164
G01 X74.6032 Y-7.8608
G01 X74.5780 Y-7.9052
G01 X74.5535 Y-7.9537
G01 X74.5328 Y-8.0005
G01 X74.5092 Y-8.0631
G01 X73.8844 Y-8.2110
G01 X73.8550 Y-8.2188
G01 X73.8279 Y-8.2275
G01 X73.8004 Y-8.2379
G01 X73.7731 Y-8.2498
G01 X73.7467 Y-8.2630
G01 X73.7214 Y-8.2773
G01 X73.6965 Y-8.2931
G01 X73.6726 Y-8.3101
G01 X73.6509 Y-8.3271
G01 X73.6272 Y-8.3477
G01 X73.6061 Y-8.3682
G01 X72.6217 Y-9.3731
G01 X72.6061 Y-9.3697
G01 X72.5559 Y-9.3610
G01 X72.5036 Y-9.3545
G01 X72.4500 Y-9.3505
G01 X72.3982 Y-9.3492
G01 X72.3446 Y-9.3505
G01 X72.2919 Y-9.3544
G01 X72.2396 Y-9.3608
G01 X72.1885 Y-9.3697
G01 X72.1361 Y-9.3814
G01 X72.0852 Y-9.3955
G01 X72.0351 Y-9.4120
G01 X71.9859 Y-9.4310
G01 X71.9380 Y-9.4523
G01 X71.8903 Y-9.4763
G01 X71.8445 Y-9.5022
G01 X71.8000 Y-9.5304
G01 X71.7555 Y-9.5619
G01 X71.7152 Y-9.5933
G01 X71.6768 Y-9.6265
G01 X71.6372 Y-9.6641
G01 X71.6008 Y-9.7022
G01 X71.5663 Y-9.7422
G01 X71.5328 Y-9.7853
G01 X71.5035 Y-9.8270
G01 X71.4762 Y-9.8700
G01 X71.4492 Y-9.9174
G01 X71.4247 Y-9.9663
G01 X71.4041 Y-10.0128
G01 X71.3858 Y-10.0603
G01 X71.3686 Y-10.1121
G01 X71.3545 Y-10.1630
G01 X71.3430 Y-10.2145
G01 X71.3337 Y-10.2683
G01 X71.3273 Y-10.3207
G01 X71.3236 Y-10.3715
G01 X71.3223 Y-10.4217
G01 X64.8730 Y-13.4653
G01 X60.4943 Y-13.4653
G01 X60.4940 Y-13.0840
G01 X60.4929 Y-13.0758
G01 X60.4905 Y-13.0669
G01 X60.4871 Y-13.0583
G01 X60.4832 Y-13.0511
G01 X60.4779 Y-13.0435
G01 X60.4723 Y-13.0374
G01 X60.4662 Y-13.0318
G01 X60.4586 Y-13.0265
G01 X60.4497 Y-13.0218
G01 X60.4402 Y-13.0184
G01 X60.4303 Y-13.0162
G01 X60.4202 Y-13.0154
G01 X59.7690 Y-13.0154
G01 X59.3658 Y-12.0793
G01 X59.3734 Y-12.0684
G01 X59.3787 Y-12.0567
G01 X59.3820 Y-12.0442
G01 X59.3831 Y-12.0314
G01 X59.3831 Y-10.4305
G01 X59.3821 Y-10.4195
G01 X59.3796 Y-10.4087
G01 X59.3755 Y-10.3985
G01 X59.3699 Y-10.3890
G01 X59.3643 Y-10.3817
G01 X59.3585 Y-10.3758
G01 X59.3513 Y-10.3701
G01 X59.3443 Y-10.3657
G01 X59.3359 Y-10.3618
G01 X59.3281 Y-10.3591
G01 X59.3191 Y-10.3572
G01 X59.3109 Y-10.3565
G01 X58.3957 Y-10.3564
G01 X56.8796 Y-8.1539
G01 X56.8796 Y-7.0321
G01 X59.8617 Y-7.0321
G01 X59.8618 Y-7.0598
G01 X59.8633 Y-7.0725
G01 X59.8681 Y-7.0874
G01 X59.8759 Y-7.1009
G01 X59.8870 Y-7.1132
G01 X59.9005 Y-7.1227
G01 X59.9158 Y-7.1290
G01 X59.9248 Y-7.1310
G01 X59.9330 Y-7.1319
G01 X62.1367 Y-7.1320
G01 X62.1468 Y-7.1313
G01 X62.1594 Y-7.1285
G01 X62.1712 Y-7.1236
G01 X62.1821 Y-7.1167
G01 X62.1916 Y-7.1080
G01 X62.1996 Y-7.0979
G01 X62.2053 Y-7.0874
G01 X62.2095 Y-7.0752
G01 X62.2115 Y-7.0625
G01 X62.2117 Y-6.3570
G01 X62.2109 Y-6.3460
G01 X62.2087 Y-6.3361
G01 X62.2045 Y-6.3249
G01 X62.1985 Y-6.3146
G01 X62.1916 Y-6.3060
G01 X62.1828 Y-6.2979
G01 X62.1729 Y-6.2913
G01 X62.1620 Y-6.2864
G01 X62.1504 Y-6.2833
G01 X62.1385 Y-6.2820
G01 X59.9358 Y-6.2820
G01 X59.9194 Y-6.2840
G01 X59.9106 Y-6.2867
G01 X59.9030 Y-6.2900
G01 X59.8958 Y-6.2941
G01 X59.8884 Y-6.2996
G01 X59.8824 Y-6.3053
G01 X59.8765 Y-6.3123
G01 X59.8685 Y-6.3258
G01 X59.8633 Y-6.3415
G01 X59.8618 Y-6.3542
G01 X59.8617 Y-6.3819
G01 X56.8796 Y-6.3819
G01 X56.8793 Y-0.6200
G01 X56.8779 Y-0.6013
G01 X56.8734 Y-0.5716
G01 X56.8661 Y-0.5424
G01 X56.8600 Y-0.5237
G01 X56.8484 Y-0.4959
G01 X56.8343 Y-0.4694
G01 X56.8238 Y-0.4529
G01 X56.8058 Y-0.4287
G01 X56.7857 Y-0.4064
G01 X56.7728 Y-0.3941
G01 X56.7496 Y-0.3750
G01 X56.7336 Y-0.3637
G01 X56.7078 Y-0.3483
G01 X56.6806 Y-0.3353
G01 X56.6623 Y-0.3283
G01 X56.6344 Y-0.3198
G01 X56.6004 Y-0.3131
G01 X56.5723 Y-0.3104
G01 X56.5545 Y-0.3099
G01 X29.0908 Y-0.3099
G01 X29.0589 Y-0.3114
G01 X29.0416 Y-0.3136
G01 X29.0236 Y-0.3169
G01 X28.9954 Y-0.3242
G01 X28.9780 Y-0.3301
G01 X28.9610 Y-0.3369
G01 X28.9348 Y-0.3497
G01 X28.9190 Y-0.3590
G01 X28.9044 Y-0.3686
G01 X28.8792 Y-0.3882
G01 X28.5008 Y-0.7125
G01 X27.3278 Y-0.7125
G01 X27.3186 Y-0.7133
G01 X27.3096 Y-0.7152
G01 X27.3009 Y-0.7182
G01 X27.2934 Y-0.7218
G01 X27.2857 Y-0.7267
G01 X27.2792 Y-0.7319
G01 X27.2734 Y-0.7378
G01 X27.2678 Y-0.7451
G01 X27.2622 Y-0.7546
G01 X27.2581 Y-0.7648
G01 X27.2556 Y-0.7756
G01 X27.2546 Y-0.7866
G01 X27.2546 Y-2.3875
G01 X27.2564 Y-2.4039
G01 X27.2596 Y-2.4145
G01 X27.2643 Y-2.4245
G01 X27.2705 Y-2.4336
G01 X27.2786 Y-2.4424
G01 X27.2872 Y-2.4493
G01 X27.2975 Y-2.4553
G01 X27.3078 Y-2.4593
G01 X27.3186 Y-2.4617
G01 X27.3296 Y-2.4625
G01 X27.6544 Y-2.4625
G01 X27.6544 Y-2.6163
G01 X27.6308 Y-2.6255
G01 X27.5890 Y-2.6440
G01 X27.5458 Y-2.6657
G01 X27.5032 Y-2.6898
G01 X27.4615 Y-2.7163
G01 X27.4238 Y-2.7429
G01 X27.3875 Y-2.7712
G01 X27.3505 Y-2.8030
G01 X27.3145 Y-2.8372
G01 X27.2828 Y-2.8706
G01 X27.2713 Y-2.8838
G01 X24.5799 Y-2.8853
G01 X24.5610 Y-2.8363
G01 X24.5424 Y-2.7943
G01 X24.5208 Y-2.7513
G01 X24.4971 Y-2.7095
G01 X24.4726 Y-2.6708
G01 X24.4429 Y-2.6286
G01 X24.4146 Y-2.5924
G01 X24.3833 Y-2.5561
G01 X24.3503 Y-2.5215
G01 X24.3170 Y-2.4897
G01 X24.2794 Y-2.4572
G01 X24.2432 Y-2.4289
G01 X24.2010 Y-2.3992
G01 X24.1620 Y-2.3745
G01 X24.1205 Y-2.3510
G01 X24.0780 Y-2.3296
G01 X24.0357 Y-2.3108
G01 X23.9876 Y-2.2923
G01 X23.9440 Y-2.2779
G01 X23.8978 Y-2.2651
G01 X23.8511 Y-2.2546
G01 X23.8058 Y-2.2467
G01 X23.7546 Y-2.2404
G01 X23.7087 Y-2.2371
G01 X23.6609 Y-2.2359
G01 X23.6131 Y-2.2371
G01 X23.5662 Y-2.2405
G01 X23.5178 Y-2.2465
G01 X23.4707 Y-2.2546
G01 X23.4240 Y-2.2651
G01 X23.3779 Y-2.2779
G01 X23.3322 Y-2.2930
G01 X23.2879 Y-2.3101
G01 X23.2443 Y-2.3294
G01 X23.2013 Y-2.3510
G01 X23.1595 Y-2.3747
G01 X23.1193 Y-2.4002
G01 X23.0801 Y-2.4278
G01 X23.0424 Y-2.4572
G01 X23.0061 Y-2.4885
G01 X22.9715 Y-2.5215
G01 X22.9385 Y-2.5561
G01 X22.9084 Y-2.5910
G01 X22.8778 Y-2.6301
G01 X22.8502 Y-2.6692
G01 X22.8246 Y-2.7096
G01 X22.8010 Y-2.7513
G01 X22.7796 Y-2.7938
G01 X22.7601 Y-2.8378
G01 X22.7430 Y-2.8822
G01 X22.7284 Y-2.9261
G01 X22.7147 Y-2.9758
G01 X22.7046 Y-3.0207
G01 X22.6962 Y-3.0697
G01 X22.6906 Y-3.1153
G01 X22.6871 Y-3.1631
G01 X22.6859 Y-3.2109
G01 X22.6872 Y-3.2606
G00 Z2.0000
G00 X22.6872 Y-5.8006
G01 F70.00
G01 Z-0.0600
G01 F60.00
G01 X22.6906 Y-5.8465
G01 X22.6965 Y-5.8940
G01 X22.7046 Y-5.9411
G01 X22.7147 Y-5.9860
G01 X22.7284 Y-6.0357
G01 X22.7430 Y-6.0796
G01 X22.7601 Y-6.1239
G01 X22.7794 Y-6.1675
G01 X22.8002 Y-6.2089
G01 X22.8256 Y-6.2537
G01 X22.8502 Y-6.2925
G01 X22.8778 Y-6.3317
G01 X22.9072 Y-6.3694
G01 X22.9373 Y-6.4043
G01 X22.9728 Y-6.4416
G01 X23.0061 Y-6.4733
G01 X23.0424 Y-6.5046
G01 X23.0801 Y-6.5340
G01 X23.1177 Y-6.5605
G01 X23.1612 Y-6.5881
G01 X23.2013 Y-6.6108
G01 X23.2438 Y-6.6322
G01 X23.2878 Y-6.6517
G01 X23.3307 Y-6.6683
G01 X23.3796 Y-6.6844
G01 X23.4240 Y-6.6967
G01 X23.4707 Y-6.7072
G01 X23.5178 Y-6.7153
G01 X23.5653 Y-6.7212
G01 X23.6131 Y-6.7247
G01 X23.6591 Y-6.7259
G01 X23.7106 Y-6.7246
G01 X23.7565 Y-6.7212
G01 X23.8058 Y-6.7151
G01 X23.8511 Y-6.7072
G01 X23.8978 Y-6.6967
G01 X23.9439 Y-6.6839
G01 X23.9896 Y-6.6688
G01 X24.0339 Y-6.6517
G01 X24.0775 Y-6.6324
G01 X24.1205 Y-6.6108
G01 X24.1606 Y-6.5881
G01 X24.2025 Y-6.5616
G01 X24.2402 Y-6.5351
G01 X24.2808 Y-6.5034
G01 X24.3157 Y-6.4733
G01 X24.3503 Y-6.4403
G01 X24.3833 Y-6.4057
G01 X24.4146 Y-6.3694
G01 X24.4440 Y-6.3317
G01 X24.4716 Y-6.2926
G01 X24.4973 Y-6.2520
G01 X24.5199 Y-6.2121
G01 X24.5422 Y-6.1680
G01 X24.5610 Y-6.1257
G01 X24.5802 Y-6.0755
G01 X25.0985 Y-6.0752
G01 X25.0985 Y-6.2054
G01 X25.0996 Y-6.2164
G01 X25.1023 Y-6.2271
G01 X25.1065 Y-6.2373
G01 X25.1117 Y-6.2460
G01 X25.1186 Y-6.2546
G01 X25.1266 Y-6.2622
G01 X25.1357 Y-6.2684
G01 X25.1457 Y-6.2732
G01 X25.1553 Y-6.2764
G01 X25.1661 Y-6.2782
G01 X26.5735 Y-6.2786
G01 X26.5845 Y-6.2778
G01 X26.5953 Y-6.2754
G01 X26.6064 Y-6.2710
G01 X26.6159 Y-6.2654
G01 X26.6252 Y-6.2579
G01 X26.6326 Y-6.2497
G01 X26.6388 Y-6.2406
G01 X26.6438 Y-6.2297
G01 X26.6472 Y-6.2173
G01 X26.6485 Y-6.2054
G01 X26.6485 Y-6.0744
G01 X27.0296 Y-6.0742
G01 X27.0297 Y-6.9697
G01 X27.0307 Y-6.9788
G01 X27.0331 Y-6.9887
G01 X27.0368 Y-6.9981
G01 X27.0417 Y-7.0069
G01 X27.0478 Y-7.0150
G01 X27.0549 Y-7.0222
G01 X27.0629 Y-7.0284
G01 X27.0709 Y-7.0330
G01 X27.0793 Y-7.0366
G01 X27.0873 Y-7.0390
G01 X27.0963 Y-7.0405
G01 X27.1046 Y-7.0410
G01 X28.9046 Y-7.0410
G01 X28.9183 Y-7.0397
G01 X28.9316 Y-7.0360
G01 X28.9416 Y-7.0313
G01 X28.9507 Y-7.0251
G01 X28.9589 Y-7.0177
G01 X28.9659 Y-7.0092
G01 X28.9716 Y-6.9997
G01 X28.9758 Y-6.9895
G01 X28.9785 Y-6.9788
G01 X28.9796 Y-6.9678
G01 X28.9796 Y-5.3386
G01 X29.3411 Y-4.9770
G01 X31.1545 Y-4.9770
G01 X31.1802 Y-4.9752
G01 X31.2044 Y-4.9698
G01 X31.2230 Y-4.9631
G01 X31.2439 Y-4.9525
G01 X31.2602 Y-4.9415
G01 X31.2776 Y-4.9264
G01 X31.9530 Y-4.2511
G01 X31.9645 Y-4.2384
G01 X31.9747 Y-4.2246
G01 X31.9874 Y-4.2021
G01 X31.9967 Y-4.1781
G01 X32.0024 Y-4.1530
G01 X32.0042 Y-4.1282
G01 X32.0042 Y-2.3742
G01 X32.2589 Y-2.1195
G01 X43.0677 Y-2.1195
G01 X43.4772 Y-2.5291
G01 X43.4691 Y-2.9071
G01 X43.2686 Y-3.1078
G01 X43.2609 Y-3.1182
G01 X43.2552 Y-3.1297
G01 X43.2514 Y-3.1420
G01 X43.2499 Y-3.1547
G01 X43.2498 Y-4.2576
G01 X43.2505 Y-4.2677
G01 X43.2528 Y-4.2785
G01 X43.2562 Y-4.2880
G01 X43.2610 Y-4.2970
G01 X43.2674 Y-4.3059
G01 X43.3724 Y-4.4112
G01 X43.3824 Y-4.4194
G01 X43.3936 Y-4.4257
G01 X43.4057 Y-4.4300
G01 X43.4184 Y-4.4322
G01 X43.8248 Y-4.4325
G01 X43.8340 Y-4.4319
G01 X43.8430 Y-4.4303
G01 X43.8526 Y-4.4271
G01 X43.8610 Y-4.4232
G01 X43.8695 Y-4.4177
G01 X43.8765 Y-4.4118
G01 X43.9791 Y-4.3092
G01 X43.9866 Y-4.2999
G01 X43.9930 Y-4.2887
G01 X43.9980 Y-4.2739
G01 X43.9998 Y-4.2575
G01 X43.9998 Y-3.1575
G01 X43.9992 Y-3.1483
G01 X43.9971 Y-3.1375
G01 X43.9934 Y-3.1271
G01 X43.9882 Y-3.1174
G01 X43.9810 Y-3.1078
G01 X43.8185 Y-2.9452
G01 X43.8288 Y-2.4531
G01 X43.8263 Y-2.4287
G01 X43.8220 Y-2.4096
G01 X43.8135 Y-2.3866
G01 X43.8041 Y-2.3684
G01 X43.7906 Y-2.3490
G01 X43.7783 Y-2.3351
G01 X43.2584 Y-1.8154
G01 X43.2375 Y-1.7990
G01 X43.2243 Y-1.7910
G01 X43.2134 Y-1.7855
G01 X43.1994 Y-1.7798
G01 X43.1845 Y-1.7752
G01 X43.1735 Y-1.7726
G01 X43.1583 Y-1.7704
G01 X43.1402 Y-1.7695
G01 X32.1864 Y-1.7695
G01 X32.1625 Y-1.7711
G01 X32.1504 Y-1.7732
G01 X32.1356 Y-1.7770
G01 X32.1106 Y-1.7867
G01 X32.0963 Y-1.7944
G01 X32.0836 Y-1.8028
G01 X32.0746 Y-1.8098
G01 X32.0633 Y-1.8201
G01 X31.6995 Y-2.1841
G01 X31.6847 Y-2.2029
G01 X31.6740 Y-2.2208
G01 X31.6644 Y-2.2427
G01 X31.6579 Y-2.2657
G01 X31.6550 Y-2.2845
G01 X31.6542 Y-2.3017
G01 X31.6542 Y-4.0548
G01 X31.0820 Y-4.6270
G01 X29.2686 Y-4.6270
G01 X29.2514 Y-4.6278
G01 X29.2344 Y-4.6303
G01 X29.2114 Y-4.6366
G01 X29.1921 Y-4.6446
G01 X29.1713 Y-4.6565
G01 X29.1510 Y-4.6723
G01 X28.7320 Y-5.0910
G01 X27.1046 Y-5.0910
G01 X27.0918 Y-5.0921
G01 X27.0793 Y-5.0954
G01 X27.0701 Y-5.0994
G01 X27.0614 Y-5.1047
G01 X27.0536 Y-5.1111
G01 X27.0466 Y-5.1184
G01 X27.0407 Y-5.1267
G01 X27.0360 Y-5.1356
G01 X27.0326 Y-5.1451
G01 X27.0304 Y-5.1550
G01 X27.0296 Y-5.1660
G01 X27.0296 Y-5.4239
G01 X26.6485 Y-5.4241
G01 X26.6481 Y-4.8962
G01 X26.6460 Y-4.8845
G01 X26.6421 Y-4.8732
G01 X26.6364 Y-4.8627
G01 X26.6291 Y-4.8532
G01 X26.6204 Y-4.8450
G01 X26.6105 Y-4.8383
G01 X26.5988 Y-4.8330
G01 X26.5872 Y-4.8299
G01 X26.5735 Y-4.8286
G01 X25.1735 Y-4.8286
G01 X25.1634 Y-4.8293
G01 X25.1526 Y-4.8316
G01 X25.1423 Y-4.8354
G01 X25.1326 Y-4.8407
G01 X25.1238 Y-4.8474
G01 X25.1155 Y-4.8560
G01 X25.1092 Y-4.8650
G01 X25.1042 Y-4.8749
G01 X25.1007 Y-4.8854
G01 X25.0988 Y-4.8972
G01 X25.0985 Y-5.4250
G01 X24.5799 Y-5.4253
G01 X24.5610 Y-5.3761
G01 X24.5424 Y-5.3343
G01 X24.5199 Y-5.2897
G01 X24.4971 Y-5.2495
G01 X24.4716 Y-5.2093
G01 X24.4440 Y-5.1701
G01 X24.4146 Y-5.1324
G01 X24.3833 Y-5.0961
G01 X24.3503 Y-5.0615
G01 X24.3157 Y-5.0285
G01 X24.2808 Y-4.9984
G01 X24.2402 Y-4.9667
G01 X24.2026 Y-4.9402
G01 X24.1620 Y-4.9145
G01 X24.1205 Y-4.8910
G01 X24.0780 Y-4.8696
G01 X24.0340 Y-4.8501
G01 X23.9911 Y-4.8335
G01 X23.9422 Y-4.8174
G01 X23.8978 Y-4.8051
G01 X23.8511 Y-4.7946
G01 X23.8040 Y-4.7865
G01 X23.7583 Y-4.7808
G01 X23.7069 Y-4.7770
G01 X23.6609 Y-4.7759
G01 X23.6131 Y-4.7771
G01 X23.5653 Y-4.7806
G01 X23.5187 Y-4.7863
G01 X23.4707 Y-4.7946
G01 X23.4240 Y-4.8051
G01 X23.3779 Y-4.8179
G01 X23.3342 Y-4.8323
G01 X23.2879 Y-4.8501
G01 X23.2457 Y-4.8687
G01 X23.1997 Y-4.8919
G01 X23.1595 Y-4.9147
G01 X23.1193 Y-4.9402
G01 X23.0801 Y-4.9678
G01 X23.0424 Y-4.9972
G01 X23.0061 Y-5.0285
G01 X22.9715 Y-5.0615
G01 X22.9385 Y-5.0961
G01 X22.9072 Y-5.1324
G01 X22.8778 Y-5.1701
G01 X22.8502 Y-5.2092
G01 X22.8245 Y-5.2498
G01 X22.8010 Y-5.2913
G01 X22.7796 Y-5.3338
G01 X22.7601 Y-5.3778
G01 X22.7430 Y-5.4222
G01 X22.7284 Y-5.4661
G01 X22.7147 Y-5.5158
G01 X22.7046 Y-5.5607
G01 X22.6962 Y-5.6097
G01 X22.6906 Y-5.6553
G01 X22.6871 Y-5.7031
G01 X22.6859 Y-5.7509
G01 X22.6872 Y-5.8006
G00 Z2.0000
G00 X24.0359 Y-7.3160
G01 F70.00
G01 Z-0.0600
G01 F60.00
G01 X24.5637 Y-7.3161
G01 X24.5773 Y-7.3178
G01 X24.5896 Y-7.3217
G01 X24.6018 Y-7.3281
G01 X24.6119 Y-7.3361
G01 X24.6217 Y-7.3471
G01 X24.6291 Y-7.3598
G01 X24.6339 Y-7.3737
G01 X24.6358 Y-7.3882
G01 X24.6359 Y-7.9160
G01 X24.6859 Y-7.9160
G01 X24.6859 Y-7.2660
G01 X24.0359 Y-7.2660
G01 X24.0359 Y-7.3160
G00 Z2.0000
G00 X22.6859 Y-7.9160
G01 F70.00
G01 Z-0.0600
G01 F60.00
G01 X22.6860 Y-7.3882
G01 X22.6877 Y-7.3746
G01 X22.6916 Y-7.3623
G01 X22.6975 Y-7.3509
G01 X22.7060 Y-7.3400
G01 X22.7170 Y-7.3302
G01 X22.7297 Y-7.3228
G01 X22.7436 Y-7.3180
G01 X22.7581 Y-7.3161
G01 X23.2859 Y-7.3160
G01 X23.2859 Y-7.2660
G01 X22.6359 Y-7.2660
G01 X22.6359 Y-7.9160
G01 X22.6859 Y-7.9160
G00 Z2.0000
G00 X22.6359 Y-9.3160
G01 F70.00
G01 Z-0.0600
G01 F60.00
G01 X23.2859 Y-9.3160
G01 X23.2859 Y-9.2660
G01 X22.7581 Y-9.2659
G01 X22.7454 Y-9.2644
G01 X22.7322 Y-9.2603
G01 X22.7208 Y-9.2544
G01 X22.7099 Y-9.2459
G01 X22.7001 Y-9.2349
G01 X22.6927 Y-9.2222
G01 X22.6879 Y-9.2083
G01 X22.6860 Y-9.1938
G01 X22.6859 Y-8.6660
G01 X22.6359 Y-8.6660
G01 X22.6359 Y-9.3160
G00 Z2.0000
G00 X24.0359 Y-9.3160
G01 F70.00
G01 Z-0.0600
G01 F60.00
G01 X24.6859 Y-9.3160
G01 X24.6859 Y-8.6660
G01 X24.6359 Y-8.6660
G01 X24.6358 Y-9.1938
G01 X24.6341 Y-9.2074
G01 X24.6298 Y-9.2205
G01 X24.6227 Y-9.2334
G01 X24.6139 Y-9.2440
G01 X24.6026 Y-9.2534
G01 X24.5904 Y-9.2599
G01 X24.5773 Y-9.2642
G01 X24.5637 Y-9.2659
G01 X24.0359 Y-9.2660
G01 X24.0359 Y-9.3160
G00 Z2.0000
G00 X24.7447 Y-11.5698
G01 F70.00
G01 Z-0.0600
G01 F60.00
G01 X26.0447 Y-11.5698
G01 X26.0548 Y-11.5691
G01 X26.0647 Y-11.5671
G01 X26.0751 Y-11.5634
G01 X26.0856 Y-11.5577
G01 X26.0944 Y-11.5510
G01 X26.1021 Y-11.5431
G01 X26.1090 Y-11.5334
G01 X26.1140 Y-11.5235
G01 X26.1175 Y-11.5130
G01 X26.1193 Y-11.5022
G01 X26.1197 Y-11.0201
G01 X26.7751 Y-11.0201
G01 X29.0514 Y-13.2964
G01 X29.0657 Y-13.3094
G01 X29.0766 Y-13.3179
G01 X29.0934 Y-13.3292
G01 X29.1054 Y-13.3359
G01 X29.1236 Y-13.3445
G01 X29.1428 Y-13.3514
G01 X29.1561 Y-13.3551
G01 X29.1751 Y-13.3589
G01 X29.1897 Y-13.3607
G01 X29.2099 Y-13.3617
G01 X35.4142 Y-13.3613
G01 X40.3889 Y-12.7647
G01 X40.4187 Y-12.7590
G01 X40.4408 Y-12.7521
G01 X40.4605 Y-12.7436
G01 X40.4808 Y-12.7324
G01 X40.5040 Y-12.7159
G01 X40.5206 Y-12.7010
G01 X41.9890 Y-11.2326
G01 X42.6266 Y-11.2325
G01 X42.6394 Y-11.2311
G01 X42.6518 Y-11.2275
G01 X42.6641 Y-11.2214
G01 X42.6745 Y-11.2137
G01 X42.7810 Y-11.1072
G01 X42.7866 Y-11.0999
G01 X42.7914 Y-11.0920
G01 X42.7954 Y-11.0828
G01 X42.7980 Y-11.0739
G01 X42.7998 Y-11.0575
G01 X42.7997 Y-10.6538
G01 X42.7978 Y-10.6402
G01 X42.7937 Y-10.6280
G01 X42.7872 Y-10.6158
G01 X42.7785 Y-10.6051
G01 X42.6731 Y-10.5001
G01 X42.6641 Y-10.4936
G01 X42.6543 Y-10.4886
G01 X42.6439 Y-10.4850
G01 X42.6340 Y-10.4831
G01 X42.6248 Y-10.4825
G01 X41.5239 Y-10.4825
G01 X41.5129 Y-10.4835
G01 X41.5030 Y-10.4857
G01 X41.4935 Y-10.4893
G01 X41.4839 Y-10.4946
G01 X41.4717 Y-10.5045
G01 X41.2693 Y-10.7073
G01 X41.2620 Y-10.7167
G01 X41.2563 Y-10.7272
G01 X41.2521 Y-10.7394
G01 X41.2502 Y-10.7512
G01 X41.2499 Y-10.9593
G01 X41.2515 Y-10.9730
G01 X41.2556 Y-10.9862
G01 X41.2620 Y-10.9984
G01 X41.2706 Y-11.0092
G01 X41.4231 Y-11.1619
G01 X40.2580 Y-12.3270
G01 X35.3877 Y-12.9115
G01 X29.3031 Y-12.9115
G01 X27.0275 Y-10.6358
G01 X27.0181 Y-10.6270
G01 X27.0024 Y-10.6142
G01 X26.9918 Y-10.6069
G01 X26.9744 Y-10.5965
G01 X26.9561 Y-10.5878
G01 X26.9441 Y-10.5831
G01 X26.9319 Y-10.5791
G01 X26.9123 Y-10.5743
G01 X26.8995 Y-10.5721
G01 X26.8793 Y-10.5702
G01 X26.1197 Y-10.5699
G01 X26.1197 Y-10.0948
G01 X26.1191 Y-10.0856
G01 X26.1165 Y-10.0730
G01 X26.1121 Y-10.0619
G01 X26.1060 Y-10.0516
G01 X26.0977 Y-10.0418
G01 X26.0886 Y-10.0340
G01 X26.0776 Y-10.0274
G01 X26.0665 Y-10.0230
G01 X26.0539 Y-10.0204
G01 X26.0447 Y-10.0198
G01 X24.7429 Y-10.0198
G01 X24.7274 Y-10.0218
G01 X24.7126 Y-10.0270
G01 X24.6986 Y-10.0357
G01 X24.6873 Y-10.0465
G01 X24.6799 Y-10.0570
G01 X24.6744 Y-10.0687
G01 X24.6710 Y-10.0811
G01 X24.6697 Y-10.0939
G01 X24.6698 Y-11.4976
G01 X24.6715 Y-11.5112
G01 X24.6761 Y-11.5252
G01 X24.6829 Y-11.5372
G01 X24.6923 Y-11.5485
G01 X24.7030 Y-11.5572
G01 X24.7160 Y-11.5641
G01 X24.7301 Y-11.5684
G01 X24.7447 Y-11.5698
G00 Z2.0000
G00 X24.5883 Y-13.0161
G01 F70.00
G01 Z-0.0600
G01 F60.00
G01 X24.5893 Y-13.0042
G01 X24.5918 Y-12.9935
G01 X24.5964 Y-12.9824
G01 X24.6026 Y-12.9722
G01 X24.6103 Y-12.9631
G01 X24.6194 Y-12.9554
G01 X24.6296 Y-12.9492
G01 X24.6407 Y-12.9446
G01 X24.6514 Y-12.9421
G01 X24.6624 Y-12.9411
G01 X24.8703 Y-12.9411
G01 X24.8755 Y-12.9393
G01 X24.8795 Y-12.9356
G01 X24.8815 Y-12.9304
G01 X24.8811 Y-12.9250
G01 X24.8792 Y-12.9211
G01 X24.8761 Y-12.9182
G01 X24.8721 Y-12.9165
G01 X24.8682 Y-12.9161
G01 X24.2834 Y-12.9161
G01 X24.2795 Y-12.9165
G01 X24.2755 Y-12.9182
G01 X24.2724 Y-12.9211
G01 X24.2705 Y-12.9250
G01 X24.2701 Y-12.9304
G01 X24.2721 Y-12.9356
G01 X24.2761 Y-12.9393
G01 X24.2813 Y-12.9411
G01 X24.4892 Y-12.9411
G01 X24.5056 Y-12.9432
G01 X24.5144 Y-12.9458
G01 X24.5236 Y-12.9500
G01 X24.5314 Y-12.9548
G01 X24.5393 Y-12.9612
G01 X24.5462 Y-12.9686
G01 X24.5521 Y-12.9768
G01 X24.5564 Y-12.9849
G01 X24.5600 Y-12.9944
G01 X24.5624 Y-13.0051
G01 X24.5633 Y-13.0161
G01 X24.5633 Y-13.9055
G01 X24.5640 Y-13.9106
G01 X24.5665 Y-13.9148
G01 X24.5710 Y-13.9180
G01 X24.5758 Y-13.9189
G01 X24.5806 Y-13.9180
G01 X24.5851 Y-13.9148
G01 X24.5876 Y-13.9106
G01 X24.5883 Y-13.9055
G01 X24.5883 Y-13.0161
G00 Z2.0000
G00 X23.6594 Y-13.7222
G01 F70.00
G01 Z-0.0600
G01 F60.00
G01 X23.6594 Y-13.5661
G01 X23.6600 Y-13.5570
G01 X23.6629 Y-13.5435
G01 X23.6683 Y-13.5308
G01 X23.6759 Y-13.5193
G01 X23.6862 Y-13.5088
G01 X23.6951 Y-13.5023
G01 X23.7049 Y-13.4972
G01 X23.7153 Y-13.4936
G01 X23.7262 Y-13.4916
G01 X23.9408 Y-13.4911
G01 X23.9456 Y-13.4899
G01 X23.9495 Y-13.4870
G01 X23.9520 Y-13.4828
G01 X23.9527 Y-13.4780
G01 X23.9515 Y-13.4732
G01 X23.9491 Y-13.4697
G01 X23.9450 Y-13.4670
G01 X23.9408 Y-13.4661
G01 X23.7262 Y-13.4656
G01 X23.7153 Y-13.4636
G01 X23.7049 Y-13.4600
G01 X23.6951 Y-13.4549
G01 X23.6862 Y-13.4484
G01 X23.6765 Y-13.4386
G01 X23.6692 Y-13.4280
G01 X23.6638 Y-13.4163
G01 X23.6605 Y-13.4039
G01 X23.6594 Y-13.3920
G01 X23.6594 Y-13.2330
G01 X23.6579 Y-13.2283
G01 X23.6548 Y-13.2245
G01 X23.6511 Y-13.2224
G01 X23.6463 Y-13.2217
G01 X23.6415 Y-13.2229
G01 X23.6380 Y-13.2253
G01 X23.6356 Y-13.2288
G01 X23.6344 Y-13.2336
G01 X23.6344 Y-13.3920
G01 X23.6333 Y-13.4039
G01 X23.6300 Y-13.4163
G01 X23.6242 Y-13.4288
G01 X23.6167 Y-13.4393
G01 X23.6076 Y-13.4484
G01 X23.5987 Y-13.4549
G01 X23.5889 Y-13.4600
G01 X23.5785 Y-13.4636
G01 X23.5676 Y-13.4656
G01 X23.3530 Y-13.4661
G01 X23.3482 Y-13.4673
G01 X23.3443 Y-13.4702
G01 X23.3418 Y-13.4744
G01 X23.3411 Y-13.4792
G01 X23.3423 Y-13.4840
G01 X23.3447 Y-13.4875
G01 X23.3488 Y-13.4902
G01 X23.3530 Y-13.4911
G01 X23.5667 Y-13.4915
G01 X23.5776 Y-13.4934
G01 X23.5872 Y-13.4965
G01 X23.5963 Y-13.5009
G01 X23.6048 Y-13.5065
G01 X23.6155 Y-13.5165
G01 X23.6242 Y-13.5284
G01 X23.6303 Y-13.5417
G01 X23.6337 Y-13.5561
G01 X23.6344 Y-13.5652
G01 X23.6348 Y-13.7261
G01 X23.6365 Y-13.7301
G01 X23.6399 Y-13.7335
G01 X23.6439 Y-13.7352
G01 X23.6487 Y-13.7355
G01 X23.6528 Y-13.7341
G01 X23.6566 Y-13.7310
G01 X23.6589 Y-13.7267
G01 X23.6594 Y-13.7222
G00 Z2.0000
G00 X25.9357 Y-13.9151
G01 F70.00
G01 Z-0.0600
G01 F60.00
G01 X25.9433 Y-13.9249
G01 X25.9495 Y-13.9363
G01 X25.9536 Y-13.9485
G01 X25.9555 Y-13.9613
G01 X25.9554 Y-13.9715
G01 X25.9497 Y-14.0410
G01 X25.9483 Y-14.0962
G01 X25.9497 Y-14.1514
G01 X25.9537 Y-14.2065
G01 X25.9605 Y-14.2614
G01 X25.9699 Y-14.3158
G01 X25.9821 Y-14.3697
G01 X25.9968 Y-14.4229
G01 X26.0141 Y-14.4754
G01 X26.0340 Y-14.5269
G01 X26.0564 Y-14.5774
G01 X26.0812 Y-14.6268
G01 X26.1085 Y-14.6749
G01 X26.1380 Y-14.7215
G01 X26.1698 Y-14.7667
G01 X26.2038 Y-14.8103
G01 X26.2399 Y-14.8521
G01 X26.2786 Y-14.8928
G01 X27.6915 Y-16.3057
G01 X27.7322 Y-16.3444
G01 X27.7740 Y-16.3805
G01 X27.8176 Y-16.4145
G01 X27.8628 Y-16.4463
G01 X27.9094 Y-16.4758
G01 X27.9575 Y-16.5031
G01 X28.0069 Y-16.5279
G01 X28.0574 Y-16.5503
G01 X28.1089 Y-16.5702
G01 X28.1614 Y-16.5875
G01 X28.2146 Y-16.6022
G01 X28.2685 Y-16.6144
G01 X28.3229 Y-16.6238
G01 X28.3778 Y-16.6306
G01 X28.4329 Y-16.6346
G01 X28.4881 Y-16.6360
G01 X28.5433 Y-16.6346
G01 X28.5984 Y-16.6306
G01 X28.6533 Y-16.6238
G01 X28.7077 Y-16.6144
G01 X28.7616 Y-16.6022
G01 X28.8148 Y-16.5875
G01 X28.8673 Y-16.5702
G01 X28.9188 Y-16.5503
G01 X28.9693 Y-16.5279
G01 X29.0187 Y-16.5031
G01 X29.0668 Y-16.4758
G01 X29.1134 Y-16.4463
G01 X29.1586 Y-16.4145
G01 X29.2022 Y-16.3805
G01 X29.2440 Y-16.3444
G01 X29.2840 Y-16.3063
G01 X29.3221 Y-16.2663
G01 X29.3582 Y-16.2245
G01 X29.3922 Y-16.1809
G01 X29.4240 Y-16.1357
G01 X29.4535 Y-16.0891
G01 X29.4808 Y-16.0410
G01 X29.5056 Y-15.9916
G01 X29.5280 Y-15.9411
G01 X29.5479 Y-15.8896
G01 X29.5652 Y-15.8371
G01 X29.5799 Y-15.7839
G01 X29.5921 Y-15.7300
G01 X29.6015 Y-15.6756
G01 X29.6083 Y-15.6207
G01 X29.6100 Y-15.5997
G01 X29.6119 Y-15.5907
G01 X29.6146 Y-15.5829
G01 X29.6189 Y-15.5738
G01 X29.6240 Y-15.5660
G01 X29.6299 Y-15.5590
G01 X29.6366 Y-15.5527
G01 X29.6441 Y-15.5474
G01 X29.6530 Y-15.5425
G01 X29.6615 Y-15.5392
G01 X29.6714 Y-15.5368
G01 X29.6842 Y-15.5357
G01 X30.3351 Y-15.5357
G01 X30.3443 Y-15.5364
G01 X30.3533 Y-15.5382
G01 X30.3620 Y-15.5411
G01 X30.3696 Y-15.5446
G01 X30.3774 Y-15.5494
G01 X30.3846 Y-15.5552
G01 X30.3910 Y-15.5617
G01 X30.3966 Y-15.5691
G01 X30.4012 Y-15.5770
G01 X30.4048 Y-15.5855
G01 X30.4074 Y-15.5943
G01 X30.4088 Y-15.6034
G01 X30.4092 Y-15.9355
G01 X32.0592 Y-15.9355
G01 X32.0592 Y-14.3855
G01 X30.4092 Y-14.3855
G01 X30.4092 Y-14.7103
G01 X30.4086 Y-14.7195
G01 X30.4067 Y-14.7294
G01 X30.4035 Y-14.7390
G01 X30.3990 Y-14.7480
G01 X30.3933 Y-14.7564
G01 X30.3866 Y-14.7640
G01 X30.3789 Y-14.7705
G01 X30.3704 Y-14.7760
G01 X30.3612 Y-14.7802
G01 X30.3479 Y-14.7840
G01 X30.3342 Y-14.7853
G01 X29.3830 Y-14.7853
G01 X29.3675 Y-14.7836
G01 X29.3577 Y-14.7809
G01 X29.3476 Y-14.7764
G01 X29.3383 Y-14.7705
G01 X29.3300 Y-14.7633
G01 X29.2834 Y-14.7138
G01 X27.8705 Y-13.3009
G01 X27.8298 Y-13.2622
G01 X27.7880 Y-13.2261
G01 X27.7444 Y-13.1921
G01 X27.6992 Y-13.1603
G01 X27.6526 Y-13.1308
G01 X27.6045 Y-13.1035
G01 X27.5551 Y-13.0787
G01 X27.5046 Y-13.0563
G01 X27.4531 Y-13.0364
G01 X27.4006 Y-13.0191
G01 X27.3474 Y-13.0044
G01 X27.2935 Y-12.9922
G01 X27.2391 Y-12.9828
G01 X27.1842 Y-12.9760
G01 X27.1291 Y-12.9720
G01 X27.0739 Y-12.9706
G01 X27.0187 Y-12.9720
G01 X26.9636 Y-12.9760
G01 X26.9087 Y-12.9828
G01 X26.8543 Y-12.9922
G01 X26.8004 Y-13.0044
G01 X26.7472 Y-13.0191
G01 X26.6947 Y-13.0364
G01 X26.6432 Y-13.0563
G01 X26.5927 Y-13.0787
G01 X26.5433 Y-13.1035
G01 X26.4952 Y-13.1308
G01 X26.4486 Y-13.1603
G01 X26.4034 Y-13.1921
G01 X26.3598 Y-13.2261
G01 X26.3180 Y-13.2622
G01 X26.2780 Y-13.3003
G01 X26.2399 Y-13.3403
G01 X26.2038 Y-13.3821
G01 X26.1698 Y-13.4257
G01 X26.1380 Y-13.4709
G01 X26.1085 Y-13.5175
G01 X26.0812 Y-13.5656
G01 X26.0564 Y-13.6150
G01 X26.0340 Y-13.6655
G01 X26.0141 Y-13.7170
G01 X25.9981 Y-13.7653
G01 X25.9905 Y-13.7800
G01 X25.9849 Y-13.7873
G01 X25.9778 Y-13.7945
G01 X25.9699 Y-13.8006
G01 X25.9611 Y-13.8057
G01 X25.9518 Y-13.8095
G01 X25.9420 Y-13.8120
G01 X25.9320 Y-13.8132
G01 X25.9228 Y-13.8131
G01 X25.9075 Y-13.8104
G01 X25.8930 Y-13.8046
G01 X25.8801 Y-13.7960
G01 X25.8692 Y-13.7848
G01 X25.6259 Y-13.4603
G01 X25.6199 Y-13.4499
G01 X25.6156 Y-13.4388
G01 X25.6131 Y-13.4271
G01 X25.6125 Y-13.4152
G01 X25.6135 Y-13.4051
G01 X25.6161 Y-13.3944
G01 X25.6203 Y-13.3842
G01 X25.6259 Y-13.3747
G01 X25.9542 Y-12.9369
G01 X25.9565 Y-12.9329
G01 X25.9572 Y-12.9287
G01 X25.9565 Y-12.9244
G01 X25.9544 Y-12.9207
G01 X25.9501 Y-12.9173
G01 X25.9448 Y-12.9161
G01 X25.9394 Y-12.9173
G01 X25.9351 Y-12.9206
G01 X25.6340 Y-13.3216
G01 X25.6224 Y-13.3321
G01 X25.6080 Y-13.3403
G01 X25.5931 Y-13.3451
G01 X25.5776 Y-13.3466
G01 X25.5621 Y-13.3449
G01 X25.5472 Y-13.3400
G01 X25.5330 Y-13.3315
G01 X25.5215 Y-13.3209
G01 X25.2210 Y-12.9206
G01 X25.2178 Y-12.9178
G01 X25.2132 Y-12.9162
G01 X25.2083 Y-12.9165
G01 X25.2039 Y-12.9186
G01 X25.2006 Y-12.9222
G01 X25.1989 Y-12.9274
G01 X25.1994 Y-12.9323
G01 X25.2019 Y-12.9369
G01 X25.5308 Y-13.3755
G01 X25.5362 Y-13.3851
G01 X25.5403 Y-13.3953
G01 X25.5429 Y-13.4070
G01 X25.5436 Y-13.4180
G01 X25.5427 Y-13.4289
G01 X25.5403 Y-13.4397
G01 X25.5362 Y-13.4499
G01 X25.5302 Y-13.4603
G01 X25.2019 Y-13.8981
G01 X25.1999 Y-13.9015
G01 X25.1989 Y-13.9057
G01 X25.1994 Y-13.9100
G01 X25.2013 Y-13.9138
G01 X25.2054 Y-13.9174
G01 X25.2107 Y-13.9189
G01 X25.2161 Y-13.9180
G01 X25.2210 Y-13.9144
G01 X25.5221 Y-13.5134
G01 X25.5337 Y-13.5029
G01 X25.5481 Y-13.4947
G01 X25.5630 Y-13.4899
G01 X25.5785 Y-13.4884
G01 X25.5949 Y-13.4903
G01 X25.6097 Y-13.4954
G01 X25.6239 Y-13.5040
G01 X25.6358 Y-13.5155
G01 X25.9357 Y-13.9151
G00 Z2.0000
G00 X26.0034 Y-14.1998
G01 F70.00
G01 Z-0.0600
G01 F60.00
G01 X26.0103 Y-14.2558
G01 X26.0191 Y-14.3060
G01 X26.0306 Y-14.3575
G01 X26.0447 Y-14.4084
G01 X26.0607 Y-14.4568
G01 X26.0810 Y-14.5095
G01 X26.1017 Y-14.5560
G01 X26.1254 Y-14.6032
G01 X26.1515 Y-14.6492
G01 X26.1787 Y-14.6922
G01 X26.2101 Y-14.7369
G01 X26.2414 Y-14.7771
G01 X26.2783 Y-14.8198
G01 X26.3134 Y-14.8567
G01 X27.7276 Y-16.2709
G01 X27.7666 Y-16.3080
G01 X27.8072 Y-16.3429
G01 X27.8474 Y-16.3742
G01 X27.8891 Y-16.4036
G01 X27.9351 Y-16.4328
G01 X27.9811 Y-16.4589
G01 X28.0283 Y-16.4826
G01 X28.0782 Y-16.5047
G01 X28.1275 Y-16.5236
G01 X28.1759 Y-16.5396
G01 X28.2250 Y-16.5532
G01 X28.2783 Y-16.5652
G01 X28.3303 Y-16.5743
G01 X28.3827 Y-16.5807
G01 X28.4372 Y-16.5847
G01 X28.4881 Y-16.5859
G01 X28.5390 Y-16.5847
G01 X28.5917 Y-16.5809
G01 X28.6460 Y-16.5742
G01 X28.6997 Y-16.5649
G01 X28.7512 Y-16.5532
G01 X28.8003 Y-16.5396
G01 X28.8487 Y-16.5236
G01 X28.8996 Y-16.5041
G01 X28.9479 Y-16.4826
G01 X28.9951 Y-16.4589
G01 X29.0426 Y-16.4319
G01 X29.0857 Y-16.4046
G01 X29.1273 Y-16.3753
G01 X29.1697 Y-16.3424
G01 X29.2104 Y-16.3073
G01 X29.2486 Y-16.2709
G01 X29.2851 Y-16.2326
G01 X29.3206 Y-16.1913
G01 X29.3530 Y-16.1496
G01 X29.3823 Y-16.1079
G01 X29.4096 Y-16.0649
G01 X29.4366 Y-16.0174
G01 X29.4607 Y-15.9694
G01 X29.4817 Y-15.9221
G01 X29.5013 Y-15.8710
G01 X29.5173 Y-15.8226
G01 X29.5309 Y-15.7735
G01 X29.5427 Y-15.7211
G01 X29.5520 Y-15.6682
G01 X29.5585 Y-15.6149
G01 X29.5623 Y-15.5623
G01 X29.5636 Y-15.5113
G01 X29.5630 Y-15.4856
G01 X30.4592 Y-15.4856
G01 X30.4592 Y-15.8105
G01 X30.4602 Y-15.8224
G01 X30.4630 Y-15.8340
G01 X30.4676 Y-15.8450
G01 X30.4740 Y-15.8552
G01 X30.4818 Y-15.8642
G01 X30.4910 Y-15.8718
G01 X30.5013 Y-15.8779
G01 X30.5124 Y-15.8823
G01 X30.5241 Y-15.8848
G01 X30.5342 Y-15.8855
G01 X31.9370 Y-15.8854
G01 X31.9479 Y-15.8842
G01 X31.9595 Y-15.8811
G01 X31.9704 Y-15.8762
G01 X31.9803 Y-15.8696
G01 X31.9891 Y-15.8615
G01 X31.9966 Y-15.8522
G01 X32.0024 Y-15.8417
G01 X32.0065 Y-15.8305
G01 X32.0085 Y-15.8206
G01 X32.0092 Y-15.8105
G01 X32.0092 Y-14.5087
G01 X32.0082 Y-14.4986
G01 X32.0062 Y-14.4896
G01 X32.0031 Y-14.4810
G01 X31.9990 Y-14.4727
G01 X31.9939 Y-14.4651
G01 X31.9872 Y-14.4575
G01 X31.9803 Y-14.4514
G01 X31.9728 Y-14.4462
G01 X31.9637 Y-14.4416
G01 X31.9542 Y-14.4382
G01 X31.9452 Y-14.4363
G01 X31.9351 Y-14.4355
G01 X30.5342 Y-14.4355
G01 X30.5232 Y-14.4363
G01 X30.5115 Y-14.4390
G01 X30.5013 Y-14.4431
G01 X30.4910 Y-14.4492
G01 X30.4818 Y-14.4568
G01 X30.4740 Y-14.4658
G01 X30.4676 Y-14.4760
G01 X30.4630 Y-14.4870
G01 X30.4602 Y-14.4986
G01 X30.4592 Y-14.5105
G01 X30.4592 Y-14.8354
G01 X29.3252 Y-14.8354
G01 X29.2850 Y-14.7881
G01 X29.2486 Y-14.7499
G01 X27.8344 Y-13.3357
G01 X27.7961 Y-13.2992
G01 X27.7548 Y-13.2637
G01 X27.7146 Y-13.2324
G01 X27.6729 Y-13.2030
G01 X27.6269 Y-13.1738
G01 X27.5809 Y-13.1477
G01 X27.5337 Y-13.1240
G01 X27.4838 Y-13.1019
G01 X27.4345 Y-13.0830
G01 X27.3861 Y-13.0670
G01 X27.3370 Y-13.0534
G01 X27.2837 Y-13.0414
G01 X27.2317 Y-13.0323
G01 X27.1793 Y-13.0259
G01 X27.1248 Y-13.0219
G01 X27.0739 Y-13.0207
G01 X27.0230 Y-13.0219
G01 X26.9703 Y-13.0257
G01 X26.9160 Y-13.0324
G01 X26.8623 Y-13.0417
G01 X26.8108 Y-13.0534
G01 X26.7617 Y-13.0670
G01 X26.7133 Y-13.0830
G01 X26.6624 Y-13.1025
G01 X26.6141 Y-13.1240
G01 X26.5653 Y-13.1486
G01 X26.5209 Y-13.1738
G01 X26.4779 Y-13.2010
G01 X26.4332 Y-13.2324
G01 X26.3902 Y-13.2660
G01 X26.3516 Y-13.2993
G01 X26.3147 Y-13.3344
G01 X26.2783 Y-13.3726
G01 X26.2425 Y-13.4139
G01 X26.2101 Y-13.4555
G01 X26.1797 Y-13.4987
G01 X26.1505 Y-13.5449
G01 X26.1254 Y-13.5892
G01 X26.1025 Y-13.6347
G01 X26.0803 Y-13.6845
G01 X26.0613 Y-13.7339
G01 X26.0442 Y-13.7858
G01 X26.0306 Y-13.8349
G01 X26.0194 Y-13.8846
G01 X26.0100 Y-13.9384
G01 X26.0036 Y-13.9908
G01 X25.9996 Y-14.0453
G01 X25.9984 Y-14.0962
G01 X25.9996 Y-14.1471
G01 X26.0034 Y-14.1998
G00 Z2.0000
G00 X29.6705 Y-11.9022
G01 F70.00
G01 Z-0.0600
G01 F60.00
G01 X31.0705 Y-11.9022
G01 X31.0824 Y-11.9012
G01 X31.0932 Y-11.8987
G01 X31.1034 Y-11.8946
G01 X31.1122 Y-11.8896
G01 X31.1209 Y-11.8828
G01 X31.1285 Y-11.8748
G01 X31.1348 Y-11.8658
G01 X31.1398 Y-11.8559
G01 X31.1430 Y-11.8463
G01 X31.1450 Y-11.8355
G01 X31.1455 Y-11.4376
G01 X31.8972 Y-11.4376
G01 X31.8972 Y-11.8323
G01 X31.8982 Y-11.8442
G01 X31.9016 Y-11.8576
G01 X31.9069 Y-11.8693
G01 X31.9142 Y-11.8799
G01 X31.9232 Y-11.8891
G01 X31.9336 Y-11.8966
G01 X31.9452 Y-11.9023
G01 X31.9585 Y-11.9060
G01 X31.9713 Y-11.9073
G01 X33.3722 Y-11.9073
G01 X33.3832 Y-11.9065
G01 X33.3949 Y-11.9038
G01 X33.4051 Y-11.8997
G01 X33.4146 Y-11.8941
G01 X33.4226 Y-11.8879
G01 X33.4302 Y-11.8799
G01 X33.4365 Y-11.8709
G01 X33.4411 Y-11.8618
G01 X33.4447 Y-11.8514
G01 X33.4467 Y-11.8406
G01 X33.4472 Y-11.4376
G01 X34.2181 Y-11.4376
G01 X34.2181 Y-11.8322
G01 X34.2191 Y-11.8441
G01 X34.2222 Y-11.8566
G01 X34.2274 Y-11.8684
G01 X34.2345 Y-11.8791
G01 X34.2441 Y-11.8890
G01 X34.2545 Y-11.8965
G01 X34.2661 Y-11.9022
G01 X34.2785 Y-11.9058
G01 X34.2922 Y-11.9072
G01 X35.8931 Y-11.9072
G01 X35.9014 Y-11.9067
G01 X35.9104 Y-11.9052
G01 X35.9209 Y-11.9018
G01 X35.9309 Y-11.8970
G01 X35.9400 Y-11.8908
G01 X35.9480 Y-11.8832
G01 X35.9549 Y-11.8746
G01 X35.9605 Y-11.8651
G01 X35.9646 Y-11.8549
G01 X35.9673 Y-11.8432
G01 X35.9681 Y-11.8322
G01 X35.9681 Y-11.5073
G01 X37.1578 Y-11.5073
G01 X37.1869 Y-11.5059
G01 X37.2055 Y-11.5037
G01 X37.2350 Y-11.4978
G01 X37.2599 Y-11.4905
G01 X38.2736 Y-11.4905
G01 X38.2900 Y-11.4887
G01 X38.3023 Y-11.4848
G01 X38.3129 Y-11.4794
G01 X38.3226 Y-11.4723
G01 X38.3316 Y-11.4631
G01 X38.3384 Y-11.4533
G01 X38.3439 Y-11.4416
G01 X38.3472 Y-11.4301
G01 X38.3485 Y-11.4183
G01 X38.3486 Y-10.0155
G01 X38.3468 Y-9.9991
G01 X38.3429 Y-9.9868
G01 X38.3375 Y-9.9762
G01 X38.3304 Y-9.9665
G01 X38.3212 Y-9.9575
G01 X38.3114 Y-9.9507
G01 X38.3006 Y-9.9455
G01 X38.2891 Y-9.9421
G01 X38.2764 Y-9.9406
G01 X36.9727 Y-9.9405
G01 X36.9626 Y-9.9413
G01 X36.9527 Y-9.9435
G01 X36.9432 Y-9.9469
G01 X36.9350 Y-9.9512
G01 X36.9275 Y-9.9564
G01 X36.9206 Y-9.9625
G01 X36.9139 Y-9.9701
G01 X36.9088 Y-9.9777
G01 X36.9047 Y-9.9860
G01 X36.9016 Y-9.9946
G01 X36.8996 Y-10.0036
G01 X36.8987 Y-10.0127
G01 X36.8986 Y-10.8571
G01 X35.9681 Y-10.8571
G01 X35.9681 Y-10.5322
G01 X35.9670 Y-10.5194
G01 X35.9637 Y-10.5069
G01 X35.9588 Y-10.4960
G01 X35.9522 Y-10.4861
G01 X35.9435 Y-10.4766
G01 X35.9332 Y-10.4688
G01 X35.9226 Y-10.4633
G01 X35.9104 Y-10.4592
G01 X35.8977 Y-10.4573
G01 X34.2931 Y-10.4572
G01 X34.2785 Y-10.4586
G01 X34.2678 Y-10.4616
G01 X34.2577 Y-10.4661
G01 X34.2484 Y-10.4720
G01 X34.2401 Y-10.4792
G01 X34.2329 Y-10.4875
G01 X34.2265 Y-10.4977
G01 X34.2222 Y-10.5078
G01 X34.2194 Y-10.5185
G01 X34.2181 Y-10.5322
G01 X34.2181 Y-10.7874
G01 X33.4472 Y-10.7874
G01 X33.4472 Y-10.5323
G01 X33.4458 Y-10.5177
G01 X33.4428 Y-10.5070
G01 X33.4379 Y-10.4961
G01 X33.4319 Y-10.4869
G01 X33.4239 Y-10.4780
G01 X33.4154 Y-10.4710
G01 X33.4051 Y-10.4649
G01 X33.3940 Y-10.4605
G01 X33.3832 Y-10.4581
G01 X33.3722 Y-10.4573
G01 X31.9667 Y-10.4575
G01 X31.9549 Y-10.4593
G01 X31.9435 Y-10.4630
G01 X31.9329 Y-10.4684
G01 X31.9225 Y-10.4761
G01 X31.9142 Y-10.4847
G01 X31.9074 Y-10.4945
G01 X31.9022 Y-10.5053
G01 X31.8988 Y-10.5168
G01 X31.8972 Y-10.5323
G01 X31.8972 Y-10.7874
G01 X31.1455 Y-10.7874
G01 X31.1455 Y-10.5272
G01 X31.1444 Y-10.5144
G01 X31.1417 Y-10.5037
G01 X31.1375 Y-10.4935
G01 X31.1318 Y-10.4840
G01 X31.1248 Y-10.4755
G01 X31.1166 Y-10.4681
G01 X31.1075 Y-10.4619
G01 X31.0975 Y-10.4572
G01 X31.0869 Y-10.4540
G01 X31.0705 Y-10.4522
G01 X29.6705 Y-10.4522
G01 X29.6541 Y-10.4540
G01 X29.6427 Y-10.4576
G01 X29.6319 Y-10.4629
G01 X29.6222 Y-10.4698
G01 X29.6131 Y-10.4789
G01 X29.6062 Y-10.4886
G01 X29.6005 Y-10.5002
G01 X29.5969 Y-10.5126
G01 X29.5956 Y-10.5244
G01 X29.5955 Y-11.8281
G01 X29.5971 Y-11.8427
G01 X29.6016 Y-11.8567
G01 X29.6087 Y-11.8696
G01 X29.6181 Y-11.8809
G01 X29.6288 Y-11.8896
G01 X29.6418 Y-11.8965
G01 X29.6559 Y-11.9008
G01 X29.6705 Y-11.9022
G00 Z2.0000
G00 X31.1955 Y-11.5627
G01 F70.00
G01 Z-0.0600
G01 F60.00
G01 X31.1968 Y-11.5490
G01 X31.2005 Y-11.5357
G01 X31.2066 Y-11.5234
G01 X31.2149 Y-11.5124
G01 X31.2251 Y-11.5030
G01 X31.2368 Y-11.4957
G01 X31.2496 Y-11.4907
G01 X31.2631 Y-11.4881
G01 X31.7740 Y-11.4877
G01 X31.7832 Y-11.4885
G01 X31.7931 Y-11.4907
G01 X31.8017 Y-11.4938
G01 X31.8108 Y-11.4984
G01 X31.8183 Y-11.5036
G01 X31.8246 Y-11.5090
G01 X31.8308 Y-11.5159
G01 X31.8361 Y-11.5234
G01 X31.8404 Y-11.5315
G01 X31.8437 Y-11.5401
G01 X31.8458 Y-11.5481
G01 X31.8470 Y-11.5572
G01 X31.8472 Y-11.9573
G01 X33.4972 Y-11.9573
G01 X33.4972 Y-11.5627
G01 X33.4982 Y-11.5508
G01 X33.5013 Y-11.5383
G01 X33.5069 Y-11.5258
G01 X33.5148 Y-11.5144
G01 X33.5239 Y-11.5053
G01 X33.5344 Y-11.4979
G01 X33.5461 Y-11.4924
G01 X33.5585 Y-11.4890
G01 X33.5722 Y-11.4877
G01 X34.0949 Y-11.4877
G01 X34.1068 Y-11.4890
G01 X34.1184 Y-11.4921
G01 X34.1293 Y-11.4970
G01 X34.1392 Y-11.5036
G01 X34.1505 Y-11.5144
G01 X34.1592 Y-11.5274
G01 X34.1651 Y-11.5418
G01 X34.1680 Y-11.5581
G01 X34.1681 Y-11.9572
G01 X36.0181 Y-11.9572
G01 X36.0181 Y-11.6324
G01 X36.0191 Y-11.6205
G01 X36.0219 Y-11.6089
G01 X36.0261 Y-11.5987
G01 X36.0323 Y-11.5885
G01 X36.0394 Y-11.5800
G01 X36.0484 Y-11.5722
G01 X36.0577 Y-11.5663
G01 X36.0687 Y-11.5615
G01 X36.0803 Y-11.5585
G01 X36.0931 Y-11.5574
G01 X37.1560 Y-11.5574
G01 X37.1753 Y-11.5570
G01 X37.2120 Y-11.5533
G01 X37.2301 Y-11.5502
G01 X37.2641 Y-11.5419
G01 X37.2778 Y-11.5405
G01 X38.3986 Y-11.5405
G01 X38.3986 Y-9.8905
G01 X36.8486 Y-9.8905
G01 X36.8484 Y-10.7375
G01 X36.8461 Y-10.7511
G01 X36.8418 Y-10.7632
G01 X36.8354 Y-10.7744
G01 X36.8266 Y-10.7850
G01 X36.8160 Y-10.7938
G01 X36.8040 Y-10.8005
G01 X36.7918 Y-10.8047
G01 X36.7782 Y-10.8068
G01 X36.0922 Y-10.8070
G01 X36.0830 Y-10.8063
G01 X36.0749 Y-10.8047
G01 X36.0661 Y-10.8019
G01 X36.0586 Y-10.7985
G01 X36.0499 Y-10.7933
G01 X36.0427 Y-10.7875
G01 X36.0363 Y-10.7810
G01 X36.0307 Y-10.7736
G01 X36.0261 Y-10.7657
G01 X36.0225 Y-10.7572
G01 X36.0199 Y-10.7484
G01 X36.0185 Y-10.7393
G01 X36.0181 Y-10.4072
G01 X34.1681 Y-10.4072
G01 X34.1681 Y-10.6632
G01 X34.1663 Y-10.6787
G01 X34.1624 Y-10.6910
G01 X34.1570 Y-10.7016
G01 X34.1493 Y-10.7120
G01 X34.1400 Y-10.7208
G01 X34.1293 Y-10.7280
G01 X34.1184 Y-10.7329
G01 X34.1059 Y-10.7362
G01 X34.0931 Y-10.7373
G01 X33.5713 Y-10.7373
G01 X33.5621 Y-10.7366
G01 X33.5531 Y-10.7348
G01 X33.5444 Y-10.7319
G01 X33.5360 Y-10.7280
G01 X33.5290 Y-10.7236
G01 X33.5218 Y-10.7178
G01 X33.5154 Y-10.7113
G01 X33.5098 Y-10.7039
G01 X33.5052 Y-10.6960
G01 X33.5019 Y-10.6884
G01 X33.4994 Y-10.6805
G01 X33.4978 Y-10.6715
G01 X33.4972 Y-10.6623
G01 X33.4972 Y-10.4073
G01 X31.8472 Y-10.4073
G01 X31.8472 Y-10.6623
G01 X31.8466 Y-10.6715
G01 X31.8450 Y-10.6805
G01 X31.8425 Y-10.6884
G01 X31.8392 Y-10.6960
G01 X31.8346 Y-10.7039
G01 X31.8296 Y-10.7106
G01 X31.8232 Y-10.7172
G01 X31.8169 Y-10.7225
G01 X31.8092 Y-10.7275
G01 X31.8009 Y-10.7316
G01 X31.7922 Y-10.7346
G01 X31.7832 Y-10.7365
G01 X31.7731 Y-10.7373
G01 X31.2705 Y-10.7373
G01 X31.2577 Y-10.7362
G01 X31.2452 Y-10.7329
G01 X31.2335 Y-10.7275
G01 X31.2236 Y-10.7208
G01 X31.2149 Y-10.7126
G01 X31.2071 Y-10.7024
G01 X31.2012 Y-10.6910
G01 X31.1973 Y-10.6787
G01 X31.1955 Y-10.6632
G01 X31.1955 Y-10.4022
G01 X29.5455 Y-10.4022
G01 X29.5455 Y-11.9522
G01 X31.1955 Y-11.9522
G01 X31.1955 Y-11.5627
G00 Z2.0000
G00 X31.8972 Y-9.5740
G01 F70.00
G01 Z-0.0600
G01 F60.00
G01 X31.8472 Y-9.5740
G01 X31.8472 Y-10.0574
G01 X33.4972 Y-10.0574
G01 X33.4972 Y-9.5740
G01 X33.4472 Y-9.5740
G01 X33.4472 Y-9.9324
G01 X33.4466 Y-9.9416
G01 X33.4445 Y-9.9524
G01 X33.4408 Y-9.9628
G01 X33.4356 Y-9.9725
G01 X33.4290 Y-9.9814
G01 X33.4212 Y-9.9892
G01 X33.4123 Y-9.9958
G01 X33.4026 Y-10.0010
G01 X33.3931 Y-10.0044
G01 X33.3823 Y-10.0067
G01 X33.3722 Y-10.0074
G01 X31.9722 Y-10.0074
G01 X31.9594 Y-10.0063
G01 X31.9469 Y-10.0030
G01 X31.9352 Y-9.9977
G01 X31.9239 Y-9.9898
G01 X31.9148 Y-9.9807
G01 X31.9069 Y-9.9694
G01 X31.9016 Y-9.9577
G01 X31.8983 Y-9.9452
G01 X31.8972 Y-9.9324
G01 X31.8972 Y-9.5740
G00 Z2.0000
G00 X31.8972 Y-8.9907
G01 F70.00
G01 Z-0.0600
G01 F60.00
G01 X31.8973 Y-8.6287
G01 X31.8992 Y-8.6151
G01 X31.9036 Y-8.6020
G01 X31.9104 Y-8.5900
G01 X31.9192 Y-8.5794
G01 X31.9298 Y-8.5706
G01 X31.9418 Y-8.5638
G01 X31.9549 Y-8.5594
G01 X31.9685 Y-8.5575
G01 X32.3805 Y-8.5574
G01 X32.3805 Y-8.5074
G01 X31.8472 Y-8.5074
G01 X31.8472 Y-8.9907
G01 X31.8972 Y-8.9907
G00 Z2.0000
G00 X32.9638 Y-8.5574
G01 F70.00
G01 Z-0.0600
G01 F60.00
G01 X33.3750 Y-8.5575
G01 X33.3868 Y-8.5588
G01 X33.3992 Y-8.5624
G01 X33.4100 Y-8.5676
G01 X33.4198 Y-8.5744
G01 X33.4308 Y-8.5855
G01 X33.4388 Y-8.5979
G01 X33.4445 Y-8.6124
G01 X33.4471 Y-8.6278
G01 X33.4472 Y-8.9907
G01 X33.4972 Y-8.9907
G01 X33.4972 Y-8.5074
G01 X32.9638 Y-8.5074
G01 X32.9638 Y-8.5574
G00 Z2.0000
G00 X34.2181 Y-8.9906
G01 F70.00
G01 Z-0.0600
G01 F60.00
G01 X34.2182 Y-8.6276
G01 X34.2208 Y-8.6122
G01 X34.2265 Y-8.5977
G01 X34.2351 Y-8.5846
G01 X34.2455 Y-8.5742
G01 X34.2553 Y-8.5674
G01 X34.2670 Y-8.5619
G01 X34.2794 Y-8.5585
G01 X34.2913 Y-8.5572
G01 X34.8014 Y-8.5572
G01 X34.8014 Y-8.5072
G01 X34.1681 Y-8.5072
G01 X34.1681 Y-8.9906
G01 X34.2181 Y-8.9906
G00 Z2.0000
G00 X34.2931 Y-10.0072
G01 F70.00
G01 Z-0.0600
G01 F60.00
G01 X34.2812 Y-10.0062
G01 X34.2696 Y-10.0034
G01 X34.2586 Y-9.9988
G01 X34.2484 Y-9.9924
G01 X34.2394 Y-9.9846
G01 X34.2313 Y-9.9746
G01 X34.2253 Y-9.9643
G01 X34.2211 Y-9.9531
G01 X34.2189 Y-9.9432
G01 X34.2181 Y-9.9331
G01 X34.2181 Y-9.5739
G01 X34.1681 Y-9.5739
G01 X34.1681 Y-10.0572
G01 X36.0181 Y-10.0572
G01 X36.0181 Y-9.5739
G01 X35.9681 Y-9.5739
G01 X35.9681 Y-9.9322
G01 X35.9674 Y-9.9423
G01 X35.9651 Y-9.9531
G01 X35.9613 Y-9.9634
G01 X35.9555 Y-9.9739
G01 X35.9487 Y-9.9826
G01 X35.9407 Y-9.9902
G01 X35.9317 Y-9.9965
G01 X35.9218 Y-10.0015
G01 X35.9113 Y-10.0050
G01 X35.9023 Y-10.0066
G01 X35.8931 Y-10.0072
G01 X34.2931 Y-10.0072
G00 Z2.0000
G00 X35.3847 Y-8.5572
G01 F70.00
G01 Z-0.0600
G01 F60.00
G01 X35.8949 Y-8.5572
G01 X35.9059 Y-8.5583
G01 X35.9158 Y-8.5607
G01 X35.9260 Y-8.5648
G01 X35.9355 Y-8.5704
G01 X35.9480 Y-8.5812
G01 X35.9579 Y-8.5944
G01 X35.9617 Y-8.6018
G01 X35.9649 Y-8.6104
G01 X35.9679 Y-8.6267
G01 X35.9681 Y-8.9906
G01 X36.0181 Y-8.9906
G01 X36.0181 Y-8.5072
G01 X35.3847 Y-8.5072
G01 X35.3847 Y-8.5572
G00 Z2.0000
G00 X33.8833 Y-6.7472
G01 F70.00
G01 Z-0.0600
G01 F60.00
G01 X34.4682 Y-6.8715
G01 X34.4870 Y-6.8768
G01 X34.4870 Y-6.8753
G01 X33.8833 Y-6.7472
G00 Z2.0000
