(G-CODE GENERATED BY FLATCAM v8.993 - www.flatcam.org - Version Date: 2020/06/05)

(Name: Syntez2_Ф1_верх.gbr_iso_combined111_cnc)
(Type: G-code from Geometry)
(Units: MM)

(Created on Friday, 02 October 2020 at 07:25)

(This preprocessor is the default preprocessor used by FlatCAM.)
(It is made to work with MACH3 compatible motion controllers.)

(TOOL DIAMETER: 0.14 mm)
(Feedrate_XY: 60.0 mm/min)
(Feedrate_Z: 70.0 mm/min)
(Feedrate rapids 1500.0 mm/min)

(Z_Cut: -0.06 mm)
(Z_Move: 2.0 mm)
(Z Start: None mm)
(Z End: 25.0 mm)
(Steps per circle: 128)
(Preprocessor Geometry: default)

(X range:    0.2711 ...   98.1098  mm)
(Y range:  -32.6651 ...   -0.1547  mm)

(Spindle Speed: None RPM)
G21
G90
G94



G01 F60.00
G00 Z2.0000

M03
G00 X1.0402 Y-0.8114
G01 F70.00
G01 Z-0.0600
G01 F60.00
G01 X1.0453 Y-0.8083
G01 X1.0512 Y-0.8087
G01 X1.0558 Y-0.8126
G01 X1.0571 Y-0.8184
G01 X1.0571 Y-1.7055
G01 X1.0566 Y-1.7096
G01 X1.0547 Y-1.7128
G01 X1.0512 Y-1.7152
G01 X1.0476 Y-1.7159
G01 X1.0440 Y-1.7152
G01 X1.0409 Y-1.7131
G01 X1.0388 Y-1.7100
G01 X1.0381 Y-1.7069
G01 X1.0381 Y-1.0086
G01 X1.0373 Y-0.9992
G01 X1.0353 Y-0.9900
G01 X1.0324 Y-0.9819
G01 X1.0281 Y-0.9735
G01 X1.0199 Y-0.9625
G01 X1.0098 Y-0.9533
G01 X0.9980 Y-0.9462
G01 X0.9859 Y-0.9418
G01 X0.9724 Y-0.9396
G01 X0.9595 Y-0.9400
G01 X0.9461 Y-0.9430
G01 X0.9343 Y-0.9482
G01 X0.9264 Y-0.9533
G01 X0.9192 Y-0.9594
G01 X0.7206 Y-1.1579
G01 X0.7156 Y-1.1602
G01 X0.7101 Y-1.1594
G01 X0.7060 Y-1.1557
G01 X0.7047 Y-1.1508
G01 X0.7056 Y-1.1467
G01 X0.7081 Y-1.1434
G01 X1.0402 Y-0.8114
G00 Z2.0000
G00 X1.4167 Y-0.8689
G01 F70.00
G01 Z-0.0600
G01 F60.00
G01 X1.4189 Y-0.8661
G01 X1.4224 Y-0.8640
G01 X1.5567 Y-0.8082
G01 X1.6943 Y-0.8083
G01 X1.8313 Y-0.8657
G01 X1.8339 Y-0.8689
G01 X1.9004 Y-0.9797
G01 X1.9015 Y-0.9851
G01 X1.9011 Y-1.0981
G01 X1.8339 Y-1.2106
G01 X1.8260 Y-1.2203
G01 X1.8209 Y-1.2282
G01 X1.8172 Y-1.2360
G01 X1.8143 Y-1.2450
G01 X1.8127 Y-1.2534
G01 X1.8122 Y-1.2620
G01 X1.8127 Y-1.2705
G01 X1.8143 Y-1.2790
G01 X1.8172 Y-1.2879
G01 X1.8209 Y-1.2957
G01 X1.8260 Y-1.3036
G01 X1.8339 Y-1.3133
G01 X1.9011 Y-1.4258
G01 X1.9015 Y-1.5406
G01 X1.8997 Y-1.5453
G01 X1.8339 Y-1.6550
G01 X1.8298 Y-1.6592
G01 X1.6939 Y-1.7157
G01 X1.5563 Y-1.7156
G01 X1.4193 Y-1.6582
G01 X1.4167 Y-1.6550
G01 X1.3502 Y-1.5442
G01 X1.3492 Y-1.5411
G01 X1.3493 Y-1.5378
G01 X1.3507 Y-1.5344
G01 X1.3529 Y-1.5321
G01 X1.3563 Y-1.5305
G01 X1.3595 Y-1.5302
G01 X1.3631 Y-1.5313
G01 X1.3656 Y-1.5333
G01 X1.4233 Y-1.6285
G01 X1.4287 Y-1.6351
G01 X1.4356 Y-1.6415
G01 X1.4425 Y-1.6465
G01 X1.4507 Y-1.6510
G01 X1.5484 Y-1.6918
G01 X1.5608 Y-1.6955
G01 X1.5737 Y-1.6969
G01 X1.6787 Y-1.6968
G01 X1.6907 Y-1.6953
G01 X1.7022 Y-1.6918
G01 X1.7991 Y-1.6514
G01 X1.8081 Y-1.6465
G01 X1.8157 Y-1.6410
G01 X1.8230 Y-1.6338
G01 X1.8292 Y-1.6257
G01 X1.8733 Y-1.5522
G01 X1.8792 Y-1.5388
G01 X1.8821 Y-1.5245
G01 X1.8824 Y-1.4489
G01 X1.8816 Y-1.4395
G01 X1.8794 Y-1.4303
G01 X1.8729 Y-1.4154
G01 X1.8263 Y-1.3385
G01 X1.8157 Y-1.3273
G01 X1.8029 Y-1.3188
G01 X1.6879 Y-1.2706
G01 X1.6843 Y-1.2677
G01 X1.6825 Y-1.2629
G01 X1.6838 Y-1.2571
G01 X1.6879 Y-1.2534
G01 X1.7991 Y-1.2070
G01 X1.8081 Y-1.2021
G01 X1.8157 Y-1.1966
G01 X1.8230 Y-1.1894
G01 X1.8297 Y-1.1805
G01 X1.8729 Y-1.1085
G01 X1.8774 Y-1.0993
G01 X1.8809 Y-1.0878
G01 X1.8824 Y-1.0750
G01 X1.8824 Y-1.0045
G01 X1.8804 Y-0.9892
G01 X1.8774 Y-0.9802
G01 X1.8733 Y-0.9717
G01 X1.8278 Y-0.8961
G01 X1.8219 Y-0.8888
G01 X1.8157 Y-0.8829
G01 X1.8088 Y-0.8778
G01 X1.8014 Y-0.8736
G01 X1.7030 Y-0.8324
G01 X1.6932 Y-0.8292
G01 X1.6847 Y-0.8276
G01 X1.6761 Y-0.8270
G01 X1.5737 Y-0.8270
G01 X1.5608 Y-0.8284
G01 X1.5484 Y-0.8321
G01 X1.4523 Y-0.8722
G01 X1.4440 Y-0.8765
G01 X1.4362 Y-0.8818
G01 X1.4282 Y-0.8895
G01 X1.4214 Y-0.8982
G01 X1.3662 Y-0.9899
G01 X1.3639 Y-0.9921
G01 X1.3609 Y-0.9934
G01 X1.3577 Y-0.9937
G01 X1.3545 Y-0.9928
G01 X1.3515 Y-0.9906
G01 X1.3496 Y-0.9874
G01 X1.3491 Y-0.9837
G01 X1.3500 Y-0.9801
G01 X1.4167 Y-0.8689
G00 Z2.0000
G00 X2.7169 Y-0.9702
G01 F70.00
G01 Z-0.0600
G01 F60.00
G01 X2.6731 Y-0.8975
G01 X2.6657 Y-0.8882
G01 X2.6574 Y-0.8808
G01 X2.6496 Y-0.8756
G01 X2.6419 Y-0.8718
G01 X2.5466 Y-0.8321
G01 X2.5317 Y-0.8279
G01 X2.5213 Y-0.8270
G01 X2.4181 Y-0.8270
G01 X2.4094 Y-0.8277
G01 X2.4010 Y-0.8294
G01 X2.3920 Y-0.8324
G01 X2.2928 Y-0.8740
G01 X2.2848 Y-0.8788
G01 X2.2774 Y-0.8846
G01 X2.2709 Y-0.8914
G01 X2.2653 Y-0.8990
G01 X2.2204 Y-0.9740
G01 X2.2153 Y-0.9867
G01 X2.2128 Y-1.0002
G01 X2.2126 Y-1.5194
G01 X2.2133 Y-1.5279
G01 X2.2151 Y-1.5364
G01 X2.2182 Y-1.5453
G01 X2.2221 Y-1.5529
G01 X2.2667 Y-1.6271
G01 X2.2761 Y-1.6381
G01 X2.2869 Y-1.6465
G01 X2.2967 Y-1.6517
G01 X2.3920 Y-1.6915
G01 X2.4043 Y-1.6953
G01 X2.4181 Y-1.6969
G01 X2.5248 Y-1.6967
G01 X2.5359 Y-1.6951
G01 X2.5458 Y-1.6921
G01 X2.6450 Y-1.6507
G01 X2.6539 Y-1.6456
G01 X2.6614 Y-1.6399
G01 X2.6680 Y-1.6332
G01 X2.6741 Y-1.6249
G01 X2.7194 Y-1.5492
G01 X2.7243 Y-1.5364
G01 X2.7267 Y-1.5220
G01 X2.7269 Y-1.0054
G01 X2.7261 Y-0.9960
G01 X2.7243 Y-0.9875
G01 X2.7212 Y-0.9786
G01 X2.7169 Y-0.9702
G00 Z2.0000
G00 X2.7442 Y-0.9786
G01 F70.00
G01 Z-0.0600
G01 F60.00
G01 X2.7456 Y-0.9819
G01 X2.7459 Y-0.9850
G01 X2.7459 Y-1.5406
G01 X2.7441 Y-1.5453
G01 X2.6773 Y-1.6565
G01 X2.6726 Y-1.6599
G01 X2.5409 Y-1.7149
G01 X2.5355 Y-1.7159
G01 X2.4011 Y-1.7157
G01 X2.2644 Y-1.6587
G01 X2.2611 Y-1.6550
G01 X2.1953 Y-1.5453
G01 X2.1938 Y-1.5420
G01 X2.1935 Y-1.5388
G01 X2.1935 Y-0.9833
G01 X2.1953 Y-0.9786
G01 X2.2621 Y-0.8674
G01 X2.2668 Y-0.8640
G01 X2.4011 Y-0.8082
G01 X2.5387 Y-0.8083
G01 X2.6757 Y-0.8657
G01 X2.6783 Y-0.8689
G01 X2.7442 Y-0.9786
G00 Z2.0000
G00 X3.4569 Y-1.7055
G01 F70.00
G01 Z-0.0600
G01 F60.00
G01 X3.4562 Y-1.7100
G01 X3.4538 Y-1.7135
G01 X3.4502 Y-1.7155
G01 X3.4455 Y-1.7157
G01 X3.4417 Y-1.7140
G01 X3.4290 Y-1.7039
G01 X3.4174 Y-1.6980
G01 X3.4033 Y-1.6940
G01 X3.3878 Y-1.6931
G01 X3.2472 Y-1.7159
G01 X3.1134 Y-1.6937
G01 X3.1095 Y-1.6926
G01 X3.1068 Y-1.6903
G01 X3.0403 Y-1.6017
G01 X3.0380 Y-1.5967
G01 X3.0379 Y-1.2073
G01 X3.0386 Y-1.2028
G01 X3.0414 Y-1.1990
G01 X3.0460 Y-1.1970
G01 X3.0515 Y-1.1978
G01 X3.0553 Y-1.2011
G01 X3.0569 Y-1.2059
G01 X3.0569 Y-1.5696
G01 X3.0585 Y-1.5834
G01 X3.0624 Y-1.5958
G01 X3.0699 Y-1.6094
G01 X3.1042 Y-1.6550
G01 X3.1138 Y-1.6648
G01 X3.1252 Y-1.6725
G01 X3.1354 Y-1.6770
G01 X3.1454 Y-1.6797
G01 X3.2367 Y-1.6949
G01 X3.2470 Y-1.6958
G01 X3.2581 Y-1.6950
G01 X3.3495 Y-1.6797
G01 X3.3602 Y-1.6767
G01 X3.3697 Y-1.6725
G01 X3.3810 Y-1.6648
G01 X3.3907 Y-1.6550
G01 X3.4249 Y-1.6094
G01 X3.4325 Y-1.5958
G01 X3.4365 Y-1.5826
G01 X3.4379 Y-1.5697
G01 X3.4379 Y-1.2059
G01 X3.4398 Y-1.2007
G01 X3.4446 Y-1.1973
G01 X3.4502 Y-1.1973
G01 X3.4548 Y-1.2004
G01 X3.4565 Y-1.2036
G01 X3.4569 Y-1.2073
G01 X3.4569 Y-1.7055
G00 Z2.0000
G00 X4.2724 Y-0.9702
G01 F70.00
G01 Z-0.0600
G01 F60.00
G01 X4.2286 Y-0.8975
G01 X4.2218 Y-0.8888
G01 X4.2129 Y-0.8808
G01 X4.2058 Y-0.8760
G01 X4.1974 Y-0.8718
G01 X4.1021 Y-0.8321
G01 X4.0872 Y-0.8279
G01 X4.0768 Y-0.8270
G01 X3.9736 Y-0.8270
G01 X3.9649 Y-0.8277
G01 X3.9565 Y-0.8294
G01 X3.9475 Y-0.8324
G01 X3.8483 Y-0.8740
G01 X3.8403 Y-0.8788
G01 X3.8329 Y-0.8846
G01 X3.8264 Y-0.8914
G01 X3.8208 Y-0.8990
G01 X3.7759 Y-0.9740
G01 X3.7708 Y-0.9867
G01 X3.7683 Y-1.0002
G01 X3.7681 Y-1.5194
G01 X3.7688 Y-1.5279
G01 X3.7706 Y-1.5364
G01 X3.7734 Y-1.5445
G01 X3.7776 Y-1.5529
G01 X3.8222 Y-1.6271
G01 X3.8310 Y-1.6375
G01 X3.8424 Y-1.6465
G01 X3.8522 Y-1.6517
G01 X3.9475 Y-1.6915
G01 X3.9598 Y-1.6953
G01 X3.9736 Y-1.6969
G01 X4.0803 Y-1.6967
G01 X4.0906 Y-1.6953
G01 X4.1013 Y-1.6921
G01 X4.2005 Y-1.6507
G01 X4.2087 Y-1.6461
G01 X4.2169 Y-1.6399
G01 X4.2235 Y-1.6332
G01 X4.2296 Y-1.6249
G01 X4.2749 Y-1.5492
G01 X4.2798 Y-1.5364
G01 X4.2822 Y-1.5220
G01 X4.2824 Y-1.0054
G01 X4.2816 Y-0.9960
G01 X4.2798 Y-0.9875
G01 X4.2767 Y-0.9786
G01 X4.2724 Y-0.9702
G00 Z2.0000
G00 X4.2997 Y-0.9786
G01 F70.00
G01 Z-0.0600
G01 F60.00
G01 X4.3011 Y-0.9819
G01 X4.3014 Y-0.9850
G01 X4.3014 Y-1.5406
G01 X4.2996 Y-1.5453
G01 X4.2328 Y-1.6565
G01 X4.2281 Y-1.6599
G01 X4.0964 Y-1.7149
G01 X4.0910 Y-1.7159
G01 X3.9566 Y-1.7157
G01 X3.8199 Y-1.6587
G01 X3.8166 Y-1.6550
G01 X3.7508 Y-1.5453
G01 X3.7493 Y-1.5420
G01 X3.7490 Y-1.5388
G01 X3.7490 Y-0.9833
G01 X3.7508 Y-0.9786
G01 X3.8176 Y-0.8674
G01 X3.8223 Y-0.8640
G01 X3.9566 Y-0.8082
G01 X4.0942 Y-0.8083
G01 X4.2312 Y-0.8657
G01 X4.2338 Y-0.8689
G01 X4.2997 Y-0.9786
G00 Z2.0000
G00 X4.6038 Y-1.7159
G01 F70.00
G01 Z-0.0600
G01 F60.00
G01 X4.6001 Y-1.7155
G01 X4.5969 Y-1.7138
G01 X4.5945 Y-1.7109
G01 X4.5935 Y-1.7078
G01 X4.5938 Y-1.6480
G01 X4.6625 Y-1.5333
G01 X5.0531 Y-1.2077
G01 X5.0645 Y-1.1957
G01 X5.1172 Y-1.1085
G01 X5.1232 Y-1.0952
G01 X5.1256 Y-1.0861
G01 X5.1267 Y-1.0758
G01 X5.1268 Y-1.0054
G01 X5.1247 Y-0.9892
G01 X5.1221 Y-0.9810
G01 X5.1185 Y-0.9732
G01 X5.0740 Y-0.8990
G01 X5.0679 Y-0.8907
G01 X5.0613 Y-0.8840
G01 X5.0531 Y-0.8778
G01 X5.0434 Y-0.8725
G01 X4.9473 Y-0.8324
G01 X4.9358 Y-0.8288
G01 X4.9238 Y-0.8271
G01 X4.8180 Y-0.8270
G01 X4.8051 Y-0.8284
G01 X4.7927 Y-0.8321
G01 X4.6950 Y-0.8729
G01 X4.6868 Y-0.8774
G01 X4.6799 Y-0.8824
G01 X4.6736 Y-0.8882
G01 X4.6676 Y-0.8954
G01 X4.6099 Y-0.9906
G01 X4.6074 Y-0.9926
G01 X4.6038 Y-0.9937
G01 X4.6006 Y-0.9934
G01 X4.5972 Y-0.9918
G01 X4.5950 Y-0.9895
G01 X4.5936 Y-0.9861
G01 X4.5935 Y-0.9828
G01 X4.5945 Y-0.9797
G01 X4.6610 Y-0.8689
G01 X4.6636 Y-0.8657
G01 X4.8006 Y-0.8083
G01 X4.9382 Y-0.8082
G01 X5.0741 Y-0.8647
G01 X5.0782 Y-0.8689
G01 X5.1454 Y-0.9814
G01 X5.1458 Y-1.0944
G01 X5.1447 Y-1.0998
G01 X5.0760 Y-1.2134
G01 X4.6861 Y-1.5384
G01 X4.6797 Y-1.5444
G01 X4.6713 Y-1.5554
G01 X4.6461 Y-1.5984
G01 X4.6431 Y-1.6065
G01 X4.6411 Y-1.6149
G01 X4.6401 Y-1.6234
G01 X4.6403 Y-1.6328
G01 X4.6423 Y-1.6447
G01 X4.6460 Y-1.6552
G01 X4.6514 Y-1.6650
G01 X4.6587 Y-1.6745
G01 X4.6676 Y-1.6826
G01 X4.6770 Y-1.6886
G01 X4.6881 Y-1.6933
G01 X4.6989 Y-1.6960
G01 X4.7100 Y-1.6969
G01 X5.1368 Y-1.6969
G01 X5.1416 Y-1.6985
G01 X5.1447 Y-1.7019
G01 X5.1458 Y-1.7064
G01 X5.1447 Y-1.7109
G01 X5.1408 Y-1.7148
G01 X5.1354 Y-1.7159
G01 X4.6038 Y-1.7159
G00 Z2.0000
G00 X7.7996 Y-0.7970
G01 F70.00
G01 Z-0.0600
G01 F60.00
G01 X7.7517 Y-0.7174
G01 X7.7449 Y-0.7087
G01 X7.7360 Y-0.7007
G01 X7.7281 Y-0.6955
G01 X7.7205 Y-0.6917
G01 X7.6157 Y-0.6481
G01 X7.6008 Y-0.6439
G01 X7.5905 Y-0.6430
G01 X7.4770 Y-0.6430
G01 X7.4684 Y-0.6437
G01 X7.4600 Y-0.6454
G01 X7.4510 Y-0.6484
G01 X7.3424 Y-0.6939
G01 X7.3344 Y-0.6987
G01 X7.3270 Y-0.7045
G01 X7.3205 Y-0.7113
G01 X7.3149 Y-0.7188
G01 X7.2658 Y-0.8008
G01 X7.2607 Y-0.8135
G01 X7.2582 Y-0.8271
G01 X7.2580 Y-1.3974
G01 X7.2587 Y-1.4060
G01 X7.2605 Y-1.4144
G01 X7.2633 Y-1.4226
G01 X7.2675 Y-1.4310
G01 X7.3163 Y-1.5121
G01 X7.3257 Y-1.5231
G01 X7.3365 Y-1.5316
G01 X7.3463 Y-1.5367
G01 X7.4510 Y-1.5804
G01 X7.4633 Y-1.5842
G01 X7.4770 Y-1.5858
G01 X7.5930 Y-1.5857
G01 X7.6042 Y-1.5842
G01 X7.6149 Y-1.5810
G01 X7.7236 Y-1.5357
G01 X7.7318 Y-1.5311
G01 X7.7400 Y-1.5249
G01 X7.7466 Y-1.5182
G01 X7.7527 Y-1.5099
G01 X7.8017 Y-1.4280
G01 X7.8070 Y-1.4144
G01 X7.8094 Y-1.4001
G01 X7.8096 Y-0.8322
G01 X7.8089 Y-0.8236
G01 X7.8070 Y-0.8144
G01 X7.8039 Y-0.8054
G01 X7.7996 Y-0.7970
G00 Z2.0000
G00 X7.8417 Y-0.7991
G01 F70.00
G01 Z-0.0600
G01 F60.00
G01 X7.8441 Y-0.8045
G01 X7.8446 Y-0.8096
G01 X7.8445 Y-1.4217
G01 X7.8436 Y-1.4259
G01 X7.8417 Y-1.4298
G01 X7.7679 Y-1.5526
G01 X7.7643 Y-1.5563
G01 X7.7598 Y-1.5587
G01 X7.6146 Y-1.6192
G01 X7.6062 Y-1.6208
G01 X7.4570 Y-1.6205
G01 X7.3078 Y-1.5587
G01 X7.3033 Y-1.5563
G01 X7.2983 Y-1.5505
G01 X7.2258 Y-1.4298
G01 X7.2236 Y-1.4251
G01 X7.2229 Y-1.4191
G01 X7.2230 Y-0.8071
G01 X7.2239 Y-0.8029
G01 X7.2258 Y-0.7990
G01 X7.2997 Y-0.6762
G01 X7.3033 Y-0.6725
G01 X7.3078 Y-0.6701
G01 X7.4570 Y-0.6083
G01 X7.6062 Y-0.6080
G01 X7.6114 Y-0.6085
G01 X7.7598 Y-0.6701
G01 X7.7649 Y-0.6731
G01 X7.7693 Y-0.6783
G01 X7.8417 Y-0.7991
G00 Z2.0000
G00 X8.6268 Y-1.6024
G01 F70.00
G01 Z-0.0600
G01 F60.00
G01 X8.6258 Y-1.6092
G01 X8.6223 Y-1.6151
G01 X8.6176 Y-1.6188
G01 X8.6110 Y-1.6207
G01 X8.6059 Y-1.6205
G01 X8.6010 Y-1.6188
G01 X8.5866 Y-1.6073
G01 X8.5736 Y-1.6005
G01 X8.5604 Y-1.5967
G01 X8.5475 Y-1.5956
G01 X8.5371 Y-1.5964
G01 X8.3889 Y-1.6208
G01 X8.2390 Y-1.5959
G01 X8.2336 Y-1.5938
G01 X8.2292 Y-1.5900
G01 X8.1558 Y-1.4923
G01 X8.1531 Y-1.4879
G01 X8.1520 Y-1.4837
G01 X8.1518 Y-1.0542
G01 X8.1521 Y-1.0499
G01 X8.1535 Y-1.0458
G01 X8.1582 Y-1.0398
G01 X8.1618 Y-1.0375
G01 X8.1667 Y-1.0360
G01 X8.1719 Y-1.0360
G01 X8.1760 Y-1.0371
G01 X8.1804 Y-1.0398
G01 X8.1834 Y-1.0429
G01 X8.1855 Y-1.0466
G01 X8.1867 Y-1.0516
G01 X8.1868 Y-1.4527
G01 X8.1883 Y-1.4662
G01 X8.1924 Y-1.4792
G01 X8.1999 Y-1.4926
G01 X8.2373 Y-1.5423
G01 X8.2469 Y-1.5521
G01 X8.2583 Y-1.5598
G01 X8.2677 Y-1.5640
G01 X8.2784 Y-1.5670
G01 X8.3786 Y-1.5837
G01 X8.3889 Y-1.5845
G01 X8.4000 Y-1.5837
G01 X8.5002 Y-1.5670
G01 X8.5102 Y-1.5643
G01 X8.5196 Y-1.5602
G01 X8.5311 Y-1.5526
G01 X8.5409 Y-1.5429
G01 X8.5788 Y-1.4925
G01 X8.5860 Y-1.4797
G01 X8.5902 Y-1.4665
G01 X8.5918 Y-1.4528
G01 X8.5919 Y-1.0516
G01 X8.5931 Y-1.0466
G01 X8.5958 Y-1.0422
G01 X8.5996 Y-1.0387
G01 X8.6042 Y-1.0365
G01 X8.6093 Y-1.0358
G01 X8.6144 Y-1.0365
G01 X8.6190 Y-1.0387
G01 X8.6228 Y-1.0422
G01 X8.6258 Y-1.0474
G01 X8.6268 Y-1.0542
G01 X8.6268 Y-1.6024
G00 Z2.0000
G00 X9.1409 Y-1.5550
G01 F70.00
G01 Z-0.0600
G01 F60.00
G01 X9.1514 Y-1.5632
G01 X9.1620 Y-1.5689
G01 X9.1742 Y-1.5730
G01 X9.1860 Y-1.5747
G01 X9.1955 Y-1.5746
G01 X9.2040 Y-1.5734
G01 X9.2402 Y-1.5619
G01 X9.2444 Y-1.5613
G01 X9.2487 Y-1.5617
G01 X9.2549 Y-1.5644
G01 X9.2597 Y-1.5694
G01 X9.2622 Y-1.5758
G01 X9.2620 Y-1.5826
G01 X9.2606 Y-1.5866
G01 X9.2582 Y-1.5902
G01 X9.2550 Y-1.5931
G01 X9.2513 Y-1.5951
G01 X9.1779 Y-1.6197
G01 X9.1729 Y-1.6208
G01 X9.1687 Y-1.6206
G01 X9.1638 Y-1.6191
G01 X9.1596 Y-1.6162
G01 X9.0876 Y-1.5562
G01 X9.0831 Y-1.5511
G01 X9.0812 Y-1.5464
G01 X9.0807 Y-1.5413
G01 X9.0807 Y-1.1400
G01 X9.0798 Y-1.1297
G01 X9.0776 Y-1.1205
G01 X9.0720 Y-1.1071
G01 X9.0637 Y-1.0951
G01 X9.0524 Y-1.0846
G01 X9.0398 Y-1.0772
G01 X9.0277 Y-1.0729
G01 X9.0158 Y-1.0710
G01 X8.9481 Y-1.0705
G01 X8.9425 Y-1.0683
G01 X8.9380 Y-1.0644
G01 X8.9350 Y-1.0592
G01 X8.9340 Y-1.0542
G01 X8.9347 Y-1.0482
G01 X8.9374 Y-1.0429
G01 X8.9418 Y-1.0387
G01 X8.9472 Y-1.0363
G01 X9.0158 Y-1.0356
G01 X9.0277 Y-1.0337
G01 X9.0390 Y-1.0298
G01 X9.0510 Y-1.0230
G01 X9.0619 Y-1.0134
G01 X9.0703 Y-1.0025
G01 X9.0763 Y-0.9901
G01 X9.0795 Y-0.9786
G01 X9.0807 Y-0.9666
G01 X9.0807 Y-0.6246
G01 X9.0824 Y-0.6180
G01 X9.0858 Y-0.6131
G01 X9.0915 Y-0.6093
G01 X9.0973 Y-0.6080
G01 X9.1041 Y-0.6090
G01 X9.1100 Y-0.6125
G01 X9.1140 Y-0.6180
G01 X9.1157 Y-0.6246
G01 X9.1157 Y-0.9666
G01 X9.1169 Y-0.9786
G01 X9.1201 Y-0.9901
G01 X9.1261 Y-1.0025
G01 X9.1350 Y-1.0140
G01 X9.1454 Y-1.0230
G01 X9.1574 Y-1.0298
G01 X9.1687 Y-1.0337
G01 X9.1806 Y-1.0356
G01 X9.2483 Y-1.0361
G01 X9.2539 Y-1.0383
G01 X9.2579 Y-1.0415
G01 X9.2611 Y-1.0466
G01 X9.2624 Y-1.0524
G01 X9.2617 Y-1.0584
G01 X9.2590 Y-1.0637
G01 X9.2546 Y-1.0679
G01 X9.2492 Y-1.0703
G01 X9.1797 Y-1.0711
G01 X9.1671 Y-1.0734
G01 X9.1543 Y-1.0783
G01 X9.1420 Y-1.0862
G01 X9.1311 Y-1.0971
G01 X9.1228 Y-1.1101
G01 X9.1176 Y-1.1247
G01 X9.1157 Y-1.1408
G01 X9.1158 Y-1.5047
G01 X9.1179 Y-1.5183
G01 X9.1229 Y-1.5321
G01 X9.1307 Y-1.5445
G01 X9.1409 Y-1.5550
G00 Z2.0000
G00 X9.9264 Y-1.6024
G01 F70.00
G01 Z-0.0600
G01 F60.00
G01 X9.9264 Y-0.6264
G01 X9.9269 Y-0.6212
G01 X9.9289 Y-0.6165
G01 X9.9321 Y-0.6125
G01 X9.9356 Y-0.6100
G01 X9.9396 Y-0.6085
G01 X9.9448 Y-0.6080
G01 X10.3123 Y-0.6081
G01 X10.3181 Y-0.6096
G01 X10.4663 Y-0.6716
G01 X10.4697 Y-0.6742
G01 X10.4728 Y-0.6783
G01 X10.5452 Y-0.7990
G01 X10.5474 Y-0.8037
G01 X10.5481 Y-0.8097
G01 X10.5481 Y-0.9302
G01 X10.5476 Y-0.9354
G01 X10.5452 Y-0.9409
G01 X10.4728 Y-1.0616
G01 X10.4684 Y-1.0668
G01 X10.4633 Y-1.0698
G01 X10.3165 Y-1.1309
G01 X10.3097 Y-1.1319
G01 X10.0263 Y-1.1321
G01 X10.0128 Y-1.1345
G01 X10.0007 Y-1.1390
G01 X9.9897 Y-1.1457
G01 X9.9802 Y-1.1543
G01 X9.9728 Y-1.1638
G01 X9.9668 Y-1.1752
G01 X9.9631 Y-1.1866
G01 X9.9615 Y-1.1994
G01 X9.9613 Y-1.6050
G01 X9.9594 Y-1.6116
G01 X9.9550 Y-1.6168
G01 X9.9490 Y-1.6201
G01 X9.9430 Y-1.6208
G01 X9.9364 Y-1.6191
G01 X9.9309 Y-1.6151
G01 X9.9274 Y-1.6092
G01 X9.9264 Y-1.6024
G00 Z2.0000
G00 X10.0314 Y-1.0969
G01 F70.00
G01 Z-0.0600
G01 F60.00
G01 X10.2931 Y-1.0969
G01 X10.3034 Y-1.0961
G01 X10.3192 Y-1.0918
G01 X10.4247 Y-1.0478
G01 X10.4353 Y-1.0422
G01 X10.4447 Y-1.0348
G01 X10.4512 Y-1.0280
G01 X10.4562 Y-1.0210
G01 X10.5048 Y-0.9399
G01 X10.5084 Y-0.9321
G01 X10.5110 Y-0.9239
G01 X10.5131 Y-0.9077
G01 X10.5130 Y-0.8305
G01 X10.5120 Y-0.8211
G01 X10.5095 Y-0.8111
G01 X10.5031 Y-0.7970
G01 X10.4566 Y-0.7196
G01 X10.4484 Y-0.7087
G01 X10.4381 Y-0.6997
G01 X10.4255 Y-0.6924
G01 X10.3184 Y-0.6478
G01 X10.3094 Y-0.6450
G01 X10.3000 Y-0.6434
G01 X10.0272 Y-0.6432
G01 X10.0153 Y-0.6449
G01 X10.0039 Y-0.6487
G01 X9.9933 Y-0.6544
G01 X9.9838 Y-0.6618
G01 X9.9752 Y-0.6713
G01 X9.9682 Y-0.6831
G01 X9.9638 Y-0.6952
G01 X9.9616 Y-0.7088
G01 X9.9619 Y-1.0346
G01 X9.9645 Y-1.0472
G01 X9.9693 Y-1.0591
G01 X9.9763 Y-1.0699
G01 X9.9851 Y-1.0793
G01 X9.9955 Y-1.0869
G01 X10.0071 Y-1.0925
G01 X10.0195 Y-1.0958
G01 X10.0314 Y-1.0969
G00 Z2.0000
G00 X11.2953 Y-1.4324
G01 F70.00
G01 Z-0.0600
G01 F60.00
G01 X11.2953 Y-1.2356
G01 X11.2939 Y-1.2228
G01 X11.2909 Y-1.2120
G01 X11.2857 Y-1.2012
G01 X11.2422 Y-1.1287
G01 X11.2366 Y-1.1210
G01 X11.2301 Y-1.1142
G01 X11.2168 Y-1.1048
G01 X11.2026 Y-1.0989
G01 X11.1081 Y-1.0752
G01 X11.0919 Y-1.0735
G01 X11.0766 Y-1.0754
G01 X10.9815 Y-1.0994
G01 X10.9727 Y-1.1028
G01 X10.9652 Y-1.1070
G01 X10.9576 Y-1.1125
G01 X10.9508 Y-1.1191
G01 X10.9430 Y-1.1294
G01 X10.8995 Y-1.2019
G01 X10.8947 Y-1.2120
G01 X10.8915 Y-1.2236
G01 X10.8903 Y-1.2365
G01 X10.8903 Y-1.4332
G01 X10.8924 Y-1.4494
G01 X10.8951 Y-1.4576
G01 X10.8986 Y-1.4654
G01 X10.9414 Y-1.5366
G01 X10.9470 Y-1.5443
G01 X10.9536 Y-1.5511
G01 X10.9603 Y-1.5565
G01 X10.9677 Y-1.5610
G01 X10.9756 Y-1.5645
G01 X10.9838 Y-1.5671
G01 X11.0889 Y-1.5844
G01 X11.1043 Y-1.5836
G01 X11.1976 Y-1.5680
G01 X11.2085 Y-1.5651
G01 X11.2187 Y-1.5606
G01 X11.2288 Y-1.5539
G01 X11.2370 Y-1.5462
G01 X11.2439 Y-1.5373
G01 X11.2882 Y-1.4631
G01 X11.2934 Y-1.4485
G01 X11.2953 Y-1.4324
G00 Z2.0000
G00 X11.3274 Y-1.4663
G01 F70.00
G01 Z-0.0600
G01 F60.00
G01 X11.2541 Y-1.5885
G01 X11.2500 Y-1.5928
G01 X11.2448 Y-1.5955
G01 X11.0924 Y-1.6208
G01 X10.9441 Y-1.5962
G01 X10.9385 Y-1.5946
G01 X10.9338 Y-1.5911
G01 X10.9307 Y-1.5871
G01 X10.8582 Y-1.4664
G01 X10.8556 Y-1.4600
G01 X10.8553 Y-1.2131
G01 X10.8558 Y-1.2079
G01 X10.8582 Y-1.2024
G01 X10.9307 Y-1.0817
G01 X10.9338 Y-1.0776
G01 X10.9379 Y-1.0745
G01 X10.9428 Y-1.0728
G01 X11.0877 Y-1.0365
G01 X11.0928 Y-1.0358
G01 X11.0979 Y-1.0365
G01 X11.2429 Y-1.0728
G01 X11.2478 Y-1.0745
G01 X11.2519 Y-1.0776
G01 X11.2550 Y-1.0817
G01 X11.3274 Y-1.2024
G01 X11.3300 Y-1.2088
G01 X11.3303 Y-1.4558
G01 X11.3296 Y-1.4617
G01 X11.3274 Y-1.4663
G00 Z2.0000
G00 X11.9400 Y-1.3936
G01 F70.00
G01 Z-0.0600
G01 F60.00
G01 X12.0784 Y-1.0476
G01 X12.0814 Y-1.0423
G01 X12.0852 Y-1.0388
G01 X12.0924 Y-1.0360
G01 X12.1001 Y-1.0365
G01 X12.1069 Y-1.0404
G01 X12.1109 Y-1.0460
G01 X12.2334 Y-1.3520
G01 X12.2383 Y-1.3620
G01 X12.2432 Y-1.3690
G01 X12.2488 Y-1.3755
G01 X12.2559 Y-1.3817
G01 X12.2631 Y-1.3864
G01 X12.2707 Y-1.3903
G01 X12.2796 Y-1.3934
G01 X12.2880 Y-1.3952
G01 X12.2974 Y-1.3960
G01 X12.3068 Y-1.3955
G01 X12.3161 Y-1.3937
G01 X12.3250 Y-1.3907
G01 X12.3342 Y-1.3861
G01 X12.3427 Y-1.3802
G01 X12.3495 Y-1.3737
G01 X12.3560 Y-1.3657
G01 X12.3608 Y-1.3576
G01 X12.3660 Y-1.3440
G01 X12.4453 Y-1.0471
G01 X12.4478 Y-1.0426
G01 X12.4515 Y-1.0391
G01 X12.4552 Y-1.0370
G01 X12.4602 Y-1.0358
G01 X12.4645 Y-1.0360
G01 X12.4694 Y-1.0376
G01 X12.4730 Y-1.0399
G01 X12.4764 Y-1.0438
G01 X12.4791 Y-1.0510
G01 X12.4784 Y-1.0587
G01 X12.3322 Y-1.6070
G01 X12.3303 Y-1.6118
G01 X12.3272 Y-1.6159
G01 X12.3238 Y-1.6185
G01 X12.3199 Y-1.6201
G01 X12.3156 Y-1.6208
G01 X12.3114 Y-1.6204
G01 X12.3073 Y-1.6190
G01 X12.3037 Y-1.6167
G01 X12.2991 Y-1.6106
G01 X12.1600 Y-1.2630
G01 X12.1555 Y-1.2538
G01 X12.1502 Y-1.2459
G01 X12.1445 Y-1.2395
G01 X12.1374 Y-1.2333
G01 X12.1295 Y-1.2281
G01 X12.1210 Y-1.2240
G01 X12.1128 Y-1.2213
G01 X12.1036 Y-1.2195
G01 X12.0941 Y-1.2190
G01 X12.0847 Y-1.2198
G01 X12.0755 Y-1.2218
G01 X12.0674 Y-1.2247
G01 X12.0590 Y-1.2290
G01 X12.0513 Y-1.2344
G01 X12.0443 Y-1.2407
G01 X12.0383 Y-1.2480
G01 X12.0337 Y-1.2553
G01 X12.0300 Y-1.2630
G01 X11.8909 Y-1.6106
G01 X11.8881 Y-1.6150
G01 X11.8841 Y-1.6183
G01 X11.8801 Y-1.6201
G01 X11.8750 Y-1.6208
G01 X11.8699 Y-1.6201
G01 X11.8652 Y-1.6178
G01 X11.8614 Y-1.6143
G01 X11.8584 Y-1.6090
G01 X11.6390 Y-1.0606
G01 X11.6375 Y-1.0548
G01 X11.6381 Y-1.0488
G01 X11.6401 Y-1.0441
G01 X11.6440 Y-1.0396
G01 X11.6509 Y-1.0363
G01 X11.6552 Y-1.0358
G01 X11.6595 Y-1.0364
G01 X11.6663 Y-1.0399
G01 X11.6709 Y-1.0460
G01 X11.8103 Y-1.3944
G01 X11.8150 Y-1.4036
G01 X11.8214 Y-1.4127
G01 X11.8280 Y-1.4194
G01 X11.8347 Y-1.4248
G01 X11.8428 Y-1.4297
G01 X11.8506 Y-1.4332
G01 X11.8588 Y-1.4357
G01 X11.8681 Y-1.4372
G01 X11.8776 Y-1.4375
G01 X11.8861 Y-1.4367
G01 X11.8945 Y-1.4348
G01 X11.9034 Y-1.4316
G01 X11.9117 Y-1.4272
G01 X11.9187 Y-1.4222
G01 X11.9257 Y-1.4159
G01 X11.9312 Y-1.4093
G01 X11.9359 Y-1.4021
G01 X11.9400 Y-1.3936
G00 Z2.0000
G00 X12.7864 Y-1.4192
G01 F70.00
G01 Z-0.0600
G01 F60.00
G01 X12.7864 Y-1.2131
G01 X12.7869 Y-1.2079
G01 X12.7893 Y-1.2024
G01 X12.8618 Y-1.0817
G01 X12.8649 Y-1.0776
G01 X12.8690 Y-1.0745
G01 X12.8739 Y-1.0728
G01 X13.0188 Y-1.0365
G01 X13.0239 Y-1.0358
G01 X13.0290 Y-1.0365
G01 X13.1741 Y-1.0728
G01 X13.1795 Y-1.0749
G01 X13.1845 Y-1.0792
G01 X13.2592 Y-1.1670
G01 X13.2609 Y-1.1711
G01 X13.2614 Y-1.1764
G01 X13.2614 Y-1.2986
G01 X13.2607 Y-1.3028
G01 X13.2585 Y-1.3074
G01 X13.2550 Y-1.3112
G01 X13.2514 Y-1.3135
G01 X13.2473 Y-1.3149
G01 X13.2430 Y-1.3152
G01 X12.8914 Y-1.3152
G01 X12.8803 Y-1.3161
G01 X12.8687 Y-1.3191
G01 X12.8569 Y-1.3243
G01 X12.8470 Y-1.3311
G01 X12.8384 Y-1.3395
G01 X12.8314 Y-1.3493
G01 X12.8261 Y-1.3601
G01 X12.8228 Y-1.3716
G01 X12.8215 Y-1.3835
G01 X12.8215 Y-1.4122
G01 X12.8232 Y-1.4251
G01 X12.8411 Y-1.4990
G01 X12.8459 Y-1.5108
G01 X12.8523 Y-1.5209
G01 X12.8629 Y-1.5320
G01 X12.8764 Y-1.5410
G01 X12.9713 Y-1.5807
G01 X12.9828 Y-1.5842
G01 X12.9957 Y-1.5857
G01 X13.1060 Y-1.5858
G01 X13.1197 Y-1.5842
G01 X13.1280 Y-1.5819
G01 X13.1360 Y-1.5786
G01 X13.2350 Y-1.5270
G01 X13.2424 Y-1.5247
G01 X13.2483 Y-1.5252
G01 X13.2538 Y-1.5277
G01 X13.2581 Y-1.5319
G01 X13.2607 Y-1.5373
G01 X13.2614 Y-1.5432
G01 X13.2600 Y-1.5491
G01 X13.2568 Y-1.5541
G01 X13.2512 Y-1.5582
G01 X13.1355 Y-1.6185
G01 X13.1308 Y-1.6203
G01 X13.1258 Y-1.6208
G01 X12.9808 Y-1.6208
G01 X12.9748 Y-1.6201
G01 X12.8273 Y-1.5587
G01 X12.8235 Y-1.5567
G01 X12.8203 Y-1.5539
G01 X12.8178 Y-1.5503
G01 X12.8160 Y-1.5455
G01 X12.7870 Y-1.4249
G01 X12.7864 Y-1.4192
G00 Z2.0000
G00 X12.9072 Y-1.2802
G01 F70.00
G01 Z-0.0600
G01 F60.00
G01 X13.1572 Y-1.2802
G01 X13.1666 Y-1.2794
G01 X13.1759 Y-1.2774
G01 X13.1886 Y-1.2723
G01 X13.2001 Y-1.2648
G01 X13.2105 Y-1.2546
G01 X13.2181 Y-1.2432
G01 X13.2233 Y-1.2305
G01 X13.2260 Y-1.2170
G01 X13.2261 Y-1.2019
G01 X13.2236 Y-1.1885
G01 X13.2193 Y-1.1773
G01 X13.2127 Y-1.1663
G01 X13.1737 Y-1.1207
G01 X13.1668 Y-1.1141
G01 X13.1591 Y-1.1086
G01 X13.1507 Y-1.1042
G01 X13.1418 Y-1.1009
G01 X13.0401 Y-1.0754
G01 X13.0248 Y-1.0735
G01 X13.0086 Y-1.0752
G01 X12.9142 Y-1.0989
G01 X12.9030 Y-1.1032
G01 X12.8934 Y-1.1089
G01 X12.8842 Y-1.1166
G01 X12.8765 Y-1.1258
G01 X12.8440 Y-1.1802
G01 X12.8392 Y-1.1939
G01 X12.8373 Y-1.2075
G01 X12.8383 Y-1.2221
G01 X12.8419 Y-1.2353
G01 X12.8481 Y-1.2476
G01 X12.8571 Y-1.2590
G01 X12.8676 Y-1.2679
G01 X12.8805 Y-1.2748
G01 X12.8936 Y-1.2788
G01 X12.9072 Y-1.2802
G00 Z2.0000
G00 X13.5686 Y-1.0542
G01 F70.00
G01 Z-0.0600
G01 F60.00
G01 X13.5689 Y-1.0499
G01 X13.5703 Y-1.0458
G01 X13.5750 Y-1.0398
G01 X13.5818 Y-1.0363
G01 X13.5895 Y-1.0361
G01 X13.5936 Y-1.0375
G01 X13.5972 Y-1.0398
G01 X13.6102 Y-1.0541
G01 X13.6169 Y-1.0595
G01 X13.6241 Y-1.0640
G01 X13.6319 Y-1.0676
G01 X13.6401 Y-1.0702
G01 X13.6485 Y-1.0718
G01 X13.6579 Y-1.0723
G01 X13.6732 Y-1.0705
G01 X13.6884 Y-1.0650
G01 X13.6993 Y-1.0582
G01 X13.7230 Y-1.0388
G01 X13.7268 Y-1.0368
G01 X13.7311 Y-1.0359
G01 X13.8812 Y-1.0359
G01 X13.8878 Y-1.0378
G01 X13.8925 Y-1.0415
G01 X13.8957 Y-1.0466
G01 X13.8970 Y-1.0524
G01 X13.8963 Y-1.0584
G01 X13.8930 Y-1.0644
G01 X13.8885 Y-1.0683
G01 X13.8821 Y-1.0706
G01 X13.7611 Y-1.0709
G01 X13.7476 Y-1.0729
G01 X13.7355 Y-1.0771
G01 X13.7280 Y-1.0811
G01 X13.7203 Y-1.0865
G01 X13.6282 Y-1.1633
G01 X13.6192 Y-1.1726
G01 X13.6120 Y-1.1833
G01 X13.6060 Y-1.1986
G01 X13.6037 Y-1.2148
G01 X13.6036 Y-1.6042
G01 X13.6019 Y-1.6108
G01 X13.5985 Y-1.6157
G01 X13.5928 Y-1.6195
G01 X13.5870 Y-1.6208
G01 X13.5802 Y-1.6198
G01 X13.5743 Y-1.6163
G01 X13.5703 Y-1.6108
G01 X13.5686 Y-1.6042
G01 X13.5686 Y-1.0542
G00 Z2.0000
G00 X14.8424 Y-1.2191
G01 F70.00
G01 Z-0.0600
G01 F60.00
G01 X15.0480 Y-1.2191
G01 X15.0609 Y-1.2179
G01 X15.0700 Y-1.2155
G01 X15.0788 Y-1.2119
G01 X15.0870 Y-1.2072
G01 X15.0945 Y-1.2014
G01 X15.1011 Y-1.1947
G01 X15.1068 Y-1.1871
G01 X15.1114 Y-1.1789
G01 X15.1151 Y-1.1692
G01 X15.1174 Y-1.1583
G01 X15.1180 Y-1.1480
G01 X15.1171 Y-1.1378
G01 X15.1145 Y-1.1269
G01 X15.0098 Y-0.8478
G01 X15.0023 Y-0.8344
G01 X14.9921 Y-0.8229
G01 X14.9796 Y-0.8139
G01 X14.9655 Y-0.8078
G01 X14.9537 Y-0.8053
G01 X14.9426 Y-0.8049
G01 X14.9307 Y-0.8063
G01 X14.9201 Y-0.8095
G01 X14.9093 Y-0.8147
G01 X14.8996 Y-0.8217
G01 X14.8917 Y-0.8296
G01 X14.8848 Y-0.8394
G01 X14.8797 Y-0.8502
G01 X14.7752 Y-1.1294
G01 X14.7724 Y-1.1455
G01 X14.7735 Y-1.1617
G01 X14.7783 Y-1.1773
G01 X14.7866 Y-1.1914
G01 X14.7979 Y-1.2031
G01 X14.8116 Y-1.2119
G01 X14.8262 Y-1.2172
G01 X14.8424 Y-1.2191
G00 Z2.0000
G00 X15.1137 Y-1.2541
G01 F70.00
G01 Z-0.0600
G01 F60.00
G01 X14.7750 Y-1.2542
G01 X14.7656 Y-1.2550
G01 X14.7564 Y-1.2571
G01 X14.7476 Y-1.2605
G01 X14.7386 Y-1.2654
G01 X14.7304 Y-1.2716
G01 X14.7232 Y-1.2790
G01 X14.7167 Y-1.2880
G01 X14.7121 Y-1.2972
G01 X14.5942 Y-1.6110
G01 X14.5919 Y-1.6146
G01 X14.5887 Y-1.6175
G01 X14.5850 Y-1.6196
G01 X14.5800 Y-1.6208
G01 X14.5757 Y-1.6206
G01 X14.5708 Y-1.6190
G01 X14.5672 Y-1.6167
G01 X14.5638 Y-1.6128
G01 X14.5619 Y-1.6090
G01 X14.5610 Y-1.6048
G01 X14.5612 Y-1.6005
G01 X14.5624 Y-1.5963
G01 X14.9285 Y-0.6202
G01 X14.9303 Y-0.6162
G01 X14.9330 Y-0.6129
G01 X14.9365 Y-0.6103
G01 X14.9405 Y-0.6086
G01 X14.9474 Y-0.6081
G01 X14.9531 Y-0.6099
G01 X14.9585 Y-0.6141
G01 X14.9619 Y-0.6202
G01 X15.3280 Y-1.5963
G01 X15.3294 Y-1.6030
G01 X15.3285 Y-1.6090
G01 X15.3251 Y-1.6149
G01 X15.3204 Y-1.6186
G01 X15.3139 Y-1.6207
G01 X15.3062 Y-1.6199
G01 X15.2997 Y-1.6159
G01 X15.2958 Y-1.6103
G01 X15.1793 Y-1.2996
G01 X15.1745 Y-1.2895
G01 X15.1693 Y-1.2816
G01 X15.1631 Y-1.2746
G01 X15.1560 Y-1.2684
G01 X15.1489 Y-1.2636
G01 X15.1404 Y-1.2594
G01 X15.1315 Y-1.2564
G01 X15.1231 Y-1.2548
G01 X15.1137 Y-1.2541
G00 Z2.0000
G00 X15.7396 Y-1.8022
G01 F70.00
G01 Z-0.0600
G01 F60.00
G01 X15.7739 Y-1.7556
G01 X15.7798 Y-1.7421
G01 X15.7829 Y-1.7269
G01 X15.7832 Y-1.0524
G01 X15.7849 Y-1.0458
G01 X15.7896 Y-1.0398
G01 X15.7956 Y-1.0365
G01 X15.8024 Y-1.0359
G01 X15.8090 Y-1.0378
G01 X15.8137 Y-1.0415
G01 X15.8172 Y-1.0474
G01 X15.8182 Y-1.0542
G01 X15.8179 Y-1.7534
G01 X15.8165 Y-1.7576
G01 X15.8142 Y-1.7612
G01 X15.7419 Y-1.8575
G01 X15.7364 Y-1.8628
G01 X15.7325 Y-1.8645
G01 X15.7283 Y-1.8652
G01 X15.6531 Y-1.8652
G01 X15.6481 Y-1.8642
G01 X15.6443 Y-1.8623
G01 X15.6410 Y-1.8595
G01 X15.6385 Y-1.8560
G01 X15.6366 Y-1.8494
G01 X15.6372 Y-1.8426
G01 X15.6405 Y-1.8366
G01 X15.6457 Y-1.8322
G01 X15.6531 Y-1.8302
G01 X15.6896 Y-1.8299
G01 X15.7047 Y-1.8269
G01 X15.7149 Y-1.8228
G01 X15.7237 Y-1.8175
G01 X15.7323 Y-1.8105
G01 X15.7396 Y-1.8022
G00 Z2.0000
G00 X22.6922 Y-3.2602
G01 F70.00
G01 Z-0.0600
G01 F60.00
G01 X22.6956 Y-3.3060
G01 X22.7014 Y-3.3532
G01 X22.7095 Y-3.4001
G01 X22.7196 Y-3.4449
G01 X22.7332 Y-3.4941
G01 X22.7477 Y-3.5379
G01 X22.7647 Y-3.5820
G01 X22.7839 Y-3.6254
G01 X22.8046 Y-3.6666
G01 X22.8298 Y-3.7110
G01 X22.8543 Y-3.7497
G01 X22.8818 Y-3.7887
G01 X22.9111 Y-3.8263
G01 X22.9410 Y-3.8610
G01 X22.9762 Y-3.8980
G01 X23.0095 Y-3.9296
G01 X23.0455 Y-3.9607
G01 X23.0831 Y-3.9900
G01 X23.1206 Y-4.0165
G01 X23.1637 Y-4.0438
G01 X23.2036 Y-4.0664
G01 X23.2459 Y-4.0877
G01 X23.2897 Y-4.1071
G01 X23.3325 Y-4.1236
G01 X23.3809 Y-4.1396
G01 X23.4252 Y-4.1518
G01 X23.4708 Y-4.1621
G01 X23.5186 Y-4.1704
G01 X23.5658 Y-4.1762
G01 X23.6133 Y-4.1797
G01 X23.6592 Y-4.1809
G01 X23.7102 Y-4.1796
G01 X23.7560 Y-4.1762
G01 X23.8049 Y-4.1701
G01 X23.8501 Y-4.1623
G01 X23.8966 Y-4.1518
G01 X23.9425 Y-4.1391
G01 X23.9879 Y-4.1241
G01 X24.0320 Y-4.1071
G01 X24.0754 Y-4.0879
G01 X24.1182 Y-4.0664
G01 X24.1581 Y-4.0438
G01 X24.1997 Y-4.0175
G01 X24.2373 Y-3.9910
G01 X24.2776 Y-3.9596
G01 X24.3123 Y-3.9296
G01 X24.3468 Y-3.8968
G01 X24.3796 Y-3.8623
G01 X24.4107 Y-3.8263
G01 X24.4400 Y-3.7887
G01 X24.4674 Y-3.7498
G01 X24.4930 Y-3.7094
G01 X24.5155 Y-3.6697
G01 X24.5378 Y-3.6256
G01 X24.5564 Y-3.5837
G01 X24.5766 Y-3.5305
G01 X25.1035 Y-3.5302
G01 X25.1035 Y-4.3062
G01 X25.1045 Y-4.3156
G01 X25.1065 Y-4.3239
G01 X25.1095 Y-4.3320
G01 X25.1139 Y-4.3403
G01 X25.1188 Y-4.3473
G01 X25.1246 Y-4.3537
G01 X25.1318 Y-4.3598
G01 X25.1390 Y-4.3645
G01 X25.1475 Y-4.3686
G01 X25.1557 Y-4.3713
G01 X25.1649 Y-4.3731
G01 X25.1735 Y-4.3736
G01 X26.5735 Y-4.3736
G01 X26.5855 Y-4.3726
G01 X26.5963 Y-4.3698
G01 X26.6073 Y-4.3649
G01 X26.6166 Y-4.3588
G01 X26.6254 Y-4.3506
G01 X26.6322 Y-4.3418
G01 X26.6378 Y-4.3312
G01 X26.6416 Y-4.3198
G01 X26.6433 Y-4.3087
G01 X26.6435 Y-3.5294
G01 X27.0347 Y-3.5292
G01 X27.0358 Y-3.5736
G01 X27.0391 Y-3.6194
G01 X27.0449 Y-3.6666
G01 X27.0532 Y-3.7152
G01 X27.0637 Y-3.7617
G01 X27.0769 Y-3.8092
G01 X27.0914 Y-3.8530
G01 X27.1078 Y-3.8956
G01 X27.1276 Y-3.9405
G01 X27.1491 Y-3.9833
G01 X27.1735 Y-4.0261
G01 X27.1980 Y-4.0648
G01 X27.2245 Y-4.1024
G01 X27.2548 Y-4.1414
G01 X27.2859 Y-4.1774
G01 X27.3187 Y-4.2119
G01 X27.3545 Y-4.2459
G01 X27.3892 Y-4.2758
G01 X27.4254 Y-4.3041
G01 X27.4643 Y-4.3316
G01 X27.5061 Y-4.3581
G01 X27.5473 Y-4.3815
G01 X27.5896 Y-4.4028
G01 X27.6350 Y-4.4228
G01 X27.6776 Y-4.4392
G01 X27.7214 Y-4.4537
G01 X27.7672 Y-4.4665
G01 X27.8154 Y-4.4774
G01 X27.8640 Y-4.4857
G01 X27.9095 Y-4.4913
G01 X27.9553 Y-4.4947
G01 X28.0029 Y-4.4960
G01 X28.0522 Y-4.4948
G01 X28.0997 Y-4.4913
G01 X28.1486 Y-4.4852
G01 X28.1938 Y-4.4774
G01 X28.2386 Y-4.4673
G01 X28.2862 Y-4.4542
G01 X28.3316 Y-4.4392
G01 X28.3757 Y-4.4222
G01 X28.4178 Y-4.4036
G01 X28.4619 Y-4.3815
G01 X28.5034 Y-4.3579
G01 X28.5421 Y-4.3335
G01 X28.5838 Y-4.3041
G01 X28.6200 Y-4.2758
G01 X28.6560 Y-4.2447
G01 X28.6905 Y-4.2119
G01 X28.7222 Y-4.1787
G01 X28.7555 Y-4.1400
G01 X28.7837 Y-4.1038
G01 X28.8102 Y-4.0663
G01 X28.8375 Y-4.0232
G01 X28.8601 Y-3.9833
G01 X28.8814 Y-3.9410
G01 X28.9014 Y-3.8956
G01 X28.9178 Y-3.8530
G01 X28.9328 Y-3.8076
G01 X28.9459 Y-3.7600
G01 X28.9560 Y-3.7152
G01 X28.9641 Y-3.6683
G01 X28.9699 Y-3.6211
G01 X28.9733 Y-3.5753
G01 X28.9746 Y-3.5251
G01 X28.9734 Y-3.4784
G01 X28.9701 Y-3.4326
G01 X28.9641 Y-3.3837
G01 X28.9556 Y-3.3351
G01 X28.9455 Y-3.2903
G01 X28.9333 Y-3.2461
G01 X28.9173 Y-3.1976
G01 X28.9008 Y-3.1549
G01 X28.8822 Y-3.1128
G01 X28.8601 Y-3.0687
G01 X28.8357 Y-3.0259
G01 X28.8112 Y-2.9872
G01 X28.7837 Y-2.9482
G01 X28.7544 Y-2.9106
G01 X28.7245 Y-2.8759
G01 X28.6893 Y-2.8389
G01 X28.6560 Y-2.8073
G01 X28.6193 Y-2.7756
G01 X28.5824 Y-2.7469
G01 X28.5435 Y-2.7195
G01 X28.5031 Y-2.6939
G01 X28.4626 Y-2.6709
G01 X28.4196 Y-2.6492
G01 X28.3766 Y-2.6302
G01 X28.3316 Y-2.6128
G01 X28.2997 Y-2.6022
G01 X28.2997 Y-2.4575
G01 X28.6356 Y-2.4572
G01 X28.6516 Y-2.4540
G01 X28.6663 Y-2.4471
G01 X28.6791 Y-2.4370
G01 X28.6848 Y-2.4306
G01 X28.6896 Y-2.4235
G01 X28.6936 Y-2.4159
G01 X28.6968 Y-2.4070
G01 X28.6988 Y-2.3978
G01 X28.6996 Y-2.3884
G01 X28.6996 Y-1.3920
G01 X29.2092 Y-0.9551
G01 X51.1544 Y-0.9551
G01 X51.1544 Y-2.8826
G01 X48.9162 Y-5.0979
G01 X46.2754 Y-5.0979
G01 X46.2538 Y-5.0990
G01 X46.2325 Y-5.1022
G01 X46.2203 Y-5.1050
G01 X46.2029 Y-5.1102
G01 X46.1798 Y-5.1198
G01 X46.1637 Y-5.1284
G01 X46.1532 Y-5.1350
G01 X46.1429 Y-5.1423
G01 X46.1289 Y-5.1538
G01 X45.9794 Y-5.3031
G01 X45.9641 Y-5.3218
G01 X45.9540 Y-5.3369
G01 X45.9478 Y-5.3478
G01 X45.9386 Y-5.3672
G01 X45.9313 Y-5.3876
G01 X45.9261 Y-5.4085
G01 X45.9227 Y-5.4316
G01 X45.9218 Y-5.4515
G01 X45.9218 Y-5.6876
G01 X42.6479 Y-5.6914
G01 X42.6368 Y-5.6885
G01 X42.6248 Y-5.6875
G01 X41.5248 Y-5.6875
G01 X41.5111 Y-5.6888
G01 X41.4981 Y-5.6928
G01 X38.8871 Y-5.6959
G01 X38.8508 Y-5.6977
G01 X38.8165 Y-5.7027
G01 X38.7971 Y-5.7070
G01 X38.7640 Y-5.7171
G01 X38.7439 Y-5.7249
G01 X38.7126 Y-5.7398
G01 X38.6829 Y-5.7575
G01 X38.6653 Y-5.7700
G01 X38.6398 Y-5.7910
G01 X38.5657 Y-5.7910
G01 X38.5521 Y-5.7927
G01 X38.5398 Y-5.7967
G01 X38.5292 Y-5.8023
G01 X38.5191 Y-5.8103
G01 X38.5107 Y-5.8200
G01 X38.5053 Y-5.8288
G01 X38.5012 Y-5.8382
G01 X38.4986 Y-5.8482
G01 X38.4974 Y-5.8584
G01 X38.4974 Y-6.1900
G01 X37.9070 Y-6.1893
G01 X37.9070 Y-5.8087
G01 X37.9065 Y-5.8001
G01 X37.9045 Y-5.7900
G01 X37.9006 Y-5.7796
G01 X37.8957 Y-5.7705
G01 X37.8889 Y-5.7617
G01 X37.8807 Y-5.7540
G01 X37.8722 Y-5.7482
G01 X37.8630 Y-5.7437
G01 X37.8523 Y-5.7404
G01 X37.8370 Y-5.7387
G01 X36.5370 Y-5.7387
G01 X36.5250 Y-5.7397
G01 X36.5134 Y-5.7428
G01 X36.5025 Y-5.7478
G01 X36.4926 Y-5.7546
G01 X36.4840 Y-5.7630
G01 X36.4770 Y-5.7727
G01 X36.4720 Y-5.7827
G01 X36.4685 Y-5.7942
G01 X36.4670 Y-5.8061
G01 X36.4674 Y-7.2164
G01 X36.4700 Y-7.2290
G01 X36.4745 Y-7.2402
G01 X36.4808 Y-7.2504
G01 X36.4894 Y-7.2600
G01 X36.4988 Y-7.2674
G01 X36.5102 Y-7.2734
G01 X36.5217 Y-7.2770
G01 X36.5336 Y-7.2786
G01 X37.8370 Y-7.2787
G01 X37.8498 Y-7.2775
G01 X37.8606 Y-7.2746
G01 X37.8708 Y-7.2700
G01 X37.8801 Y-7.2639
G01 X37.8883 Y-7.2563
G01 X37.8952 Y-7.2476
G01 X37.9006 Y-7.2378
G01 X37.9045 Y-7.2274
G01 X37.9065 Y-7.2173
G01 X37.9070 Y-7.2087
G01 X37.9070 Y-6.8296
G01 X38.4974 Y-6.8302
G01 X38.4974 Y-7.1610
G01 X38.4980 Y-7.1704
G01 X38.5002 Y-7.1805
G01 X38.5038 Y-7.1901
G01 X38.5087 Y-7.1992
G01 X38.5155 Y-7.2080
G01 X38.5237 Y-7.2157
G01 X38.5322 Y-7.2215
G01 X38.5414 Y-7.2260
G01 X38.5512 Y-7.2291
G01 X38.5674 Y-7.2310
G01 X40.1674 Y-7.2310
G01 X40.1819 Y-7.2295
G01 X40.1926 Y-7.2263
G01 X40.2026 Y-7.2215
G01 X40.2118 Y-7.2151
G01 X40.2198 Y-7.2074
G01 X40.2265 Y-7.1984
G01 X40.2317 Y-7.1886
G01 X40.2355 Y-7.1772
G01 X40.2372 Y-7.1661
G01 X40.2374 Y-6.4346
G01 X45.9491 Y-6.4278
G01 X46.6625 Y-7.1406
G01 X46.6886 Y-7.1621
G01 X46.7049 Y-7.1736
G01 X46.7217 Y-7.1842
G01 X46.7520 Y-7.2003
G01 X46.7704 Y-7.2084
G01 X46.8030 Y-7.2200
G01 X46.8222 Y-7.2253
G01 X46.8562 Y-7.2319
G01 X46.8906 Y-7.2354
G01 X46.9105 Y-7.2359
G01 X50.6434 Y-7.2359
G01 X50.6797 Y-7.2342
G01 X50.6977 Y-7.2319
G01 X50.7187 Y-7.2282
G01 X51.6203 Y-7.2336
G01 X51.6203 Y-8.0843
G01 X50.6255 Y-8.0876
G01 X50.2248 Y-8.0876
G01 X50.2128 Y-8.0886
G01 X50.2004 Y-8.0920
G01 X50.1881 Y-8.0980
G01 X50.1772 Y-8.1063
G01 X50.0747 Y-8.2086
G01 X50.0686 Y-8.2158
G01 X50.0635 Y-8.2237
G01 X50.0598 Y-8.2315
G01 X50.0569 Y-8.2405
G01 X50.0553 Y-8.2489
G01 X50.0548 Y-8.2575
G01 X50.0548 Y-8.6575
G01 X50.0553 Y-8.6661
G01 X50.0569 Y-8.6745
G01 X50.0595 Y-8.6827
G01 X50.0631 Y-8.6905
G01 X50.0676 Y-8.6978
G01 X50.0729 Y-8.7045
G01 X50.1771 Y-8.8089
G01 X50.1866 Y-8.8163
G01 X50.1972 Y-8.8219
G01 X50.2086 Y-8.8257
G01 X50.2196 Y-8.8274
G01 X51.3248 Y-8.8276
G01 X51.3334 Y-8.8271
G01 X51.3420 Y-8.8255
G01 X52.0106 Y-8.8229
G01 X52.0458 Y-8.8193
G01 X52.0797 Y-8.8125
G01 X52.1144 Y-8.8021
G01 X52.1345 Y-8.7943
G01 X52.1656 Y-8.7794
G01 X52.1968 Y-8.7606
G01 X52.2258 Y-8.7390
G01 X52.2514 Y-8.7158
G01 X52.2759 Y-8.6890
G01 X52.2891 Y-8.6720
G01 X52.3082 Y-8.6433
G01 X52.3251 Y-8.6115
G01 X52.3385 Y-8.5794
G01 X52.3453 Y-8.5589
G01 X52.3536 Y-8.5252
G01 X52.3589 Y-8.4895
G01 X52.3606 Y-8.4533
G01 X52.3601 Y-6.8467
G01 X52.3566 Y-6.8116
G01 X52.3495 Y-6.7761
G01 X52.3390 Y-6.7412
G01 X52.3254 Y-6.7082
G01 X52.3083 Y-6.6761
G01 X52.2882 Y-6.6459
G01 X52.2654 Y-6.6179
G01 X52.2405 Y-6.5928
G01 X52.2133 Y-6.5702
G01 X52.1958 Y-6.5578
G01 X52.1663 Y-6.5400
G01 X52.1335 Y-6.5243
G01 X52.1012 Y-6.5125
G01 X52.0805 Y-6.5067
G01 X52.0467 Y-6.4999
G01 X52.0116 Y-6.4962
G01 X51.3486 Y-6.4917
G01 X51.3376 Y-6.4887
G01 X51.3257 Y-6.4875
G01 X50.6374 Y-6.4874
G01 X50.2232 Y-6.4875
G01 X50.2071 Y-6.4898
G01 X50.1921 Y-6.4957
G01 X49.5106 Y-6.4956
G01 X49.4324 Y-6.4174
G01 X49.4324 Y-5.4879
G01 X51.7003 Y-3.2431
G01 X51.7210 Y-3.2204
G01 X51.7400 Y-3.1951
G01 X51.7563 Y-3.1680
G01 X51.7696 Y-3.1403
G01 X51.7806 Y-3.1098
G01 X51.7884 Y-3.0791
G01 X51.7931 Y-3.0478
G01 X51.7946 Y-3.0171
G01 X51.7946 Y-0.9551
G01 X56.2344 Y-0.9551
G01 X56.2344 Y-8.2550
G01 X56.2360 Y-8.2871
G01 X56.2408 Y-8.3189
G01 X56.2488 Y-8.3500
G01 X56.2599 Y-8.3803
G01 X56.2739 Y-8.4091
G01 X56.2903 Y-8.4358
G01 X57.9381 Y-10.8296
G01 X57.9381 Y-12.0323
G01 X57.9389 Y-12.0417
G01 X57.9411 Y-12.0517
G01 X57.9448 Y-12.0613
G01 X57.9494 Y-12.0696
G01 X57.9545 Y-12.0765
G01 X57.9605 Y-12.0827
G01 X57.9736 Y-12.0923
G01 X57.9886 Y-12.0986
G01 X58.0047 Y-12.1013
G01 X58.6727 Y-12.1014
G01 X59.0753 Y-13.0360
G01 X59.0646 Y-13.0467
G01 X59.0564 Y-13.0597
G01 X59.0512 Y-13.0742
G01 X59.0493 Y-13.0895
G01 X59.0493 Y-14.6921
G01 X59.0510 Y-14.7057
G01 X59.0553 Y-14.7188
G01 X59.0621 Y-14.7307
G01 X59.0710 Y-14.7411
G01 X59.0819 Y-14.7495
G01 X59.0941 Y-14.7557
G01 X59.1073 Y-14.7594
G01 X59.1216 Y-14.7604
G01 X58.3221 Y-16.7057
G01 X58.3122 Y-16.7335
G01 X58.3075 Y-16.7502
G01 X58.3013 Y-16.7825
G01 X58.2986 Y-16.8101
G01 X58.2981 Y-16.8266
G01 X58.2981 Y-17.2820
G01 X58.2665 Y-17.2820
G01 X58.2571 Y-17.2829
G01 X58.2430 Y-17.2867
G01 X58.2300 Y-17.2933
G01 X58.2175 Y-17.3037
G01 X58.2077 Y-17.3168
G01 X58.2012 Y-17.3317
G01 X58.1983 Y-17.3477
G01 X58.1982 Y-18.4196
G01 X56.8343 Y-19.7862
G01 X56.8218 Y-19.8007
G01 X56.8052 Y-19.8232
G01 X56.7873 Y-19.8531
G01 X56.7754 Y-19.8783
G01 X56.7691 Y-19.8946
G01 X56.7604 Y-19.9229
G01 X56.7564 Y-19.9408
G01 X56.7519 Y-19.9710
G01 X56.7504 Y-20.0023
G01 X56.7504 Y-27.3419
G01 X52.9962 Y-27.3419
G01 X51.9288 Y-26.2744
G01 X51.9068 Y-26.2544
G01 X51.8924 Y-26.2432
G01 X51.8788 Y-26.2337
G01 X51.8548 Y-26.2193
G01 X51.8248 Y-26.2050
G01 X51.8086 Y-26.1988
G01 X51.7818 Y-26.1907
G01 X51.7477 Y-26.1839
G01 X51.7198 Y-26.1812
G01 X51.7033 Y-26.1807
G01 X51.3896 Y-26.1807
G01 X51.3893 Y-25.8575
G01 X51.3863 Y-25.8424
G01 X51.3801 Y-25.8283
G01 X51.3709 Y-25.8159
G01 X51.3592 Y-25.8058
G01 X51.3503 Y-25.8006
G01 X51.3407 Y-25.7968
G01 X51.3307 Y-25.7944
G01 X51.3205 Y-25.7935
G01 X50.5124 Y-25.7935
G01 X49.9799 Y-25.2609
G01 X50.3670 Y-24.8735
G01 X50.3813 Y-24.8562
G01 X50.3933 Y-24.8382
G01 X50.4034 Y-24.8192
G01 X50.4114 Y-24.8000
G01 X50.4180 Y-24.7786
G01 X50.4222 Y-24.7574
G01 X50.4243 Y-24.7359
G01 X50.4242 Y-24.7126
G01 X50.4207 Y-24.6839
G01 X50.4156 Y-24.6629
G01 X50.4079 Y-24.6410
G01 X50.3989 Y-24.6220
G01 X50.3875 Y-24.6029
G01 X50.3746 Y-24.5854
G01 X50.3601 Y-24.5695
G01 X50.3428 Y-24.5539
G01 X50.3253 Y-24.5412
G01 X50.3001 Y-24.5269
G01 X50.2786 Y-24.5179
G01 X50.2588 Y-24.5118
G01 X50.2351 Y-24.5072
G01 X50.2062 Y-24.5050
G01 X50.1829 Y-24.5061
G01 X50.1599 Y-24.5096
G01 X50.1320 Y-24.5173
G01 X50.1104 Y-24.5262
G01 X50.0899 Y-24.5372
G01 X50.0662 Y-24.5539
G01 X50.0489 Y-24.5695
G01 X49.5576 Y-25.0607
G01 X48.5800 Y-25.0607
G01 X48.5705 Y-25.0553
G01 X48.5609 Y-25.0516
G01 X48.5509 Y-25.0494
G01 X48.5406 Y-25.0486
G01 X47.9397 Y-25.0486
G01 X47.9269 Y-25.0499
G01 X47.9138 Y-25.0539
G01 X47.9054 Y-25.0581
G01 X47.8969 Y-25.0639
G01 X47.8893 Y-25.0710
G01 X47.8829 Y-25.0790
G01 X47.8777 Y-25.0879
G01 X47.8739 Y-25.0975
G01 X47.8715 Y-25.1075
G01 X47.8706 Y-25.1169
G01 X47.8705 Y-26.7318
G01 X47.8641 Y-26.7609
G01 X47.8626 Y-26.7733
G01 X47.8617 Y-26.7923
G01 X47.8617 Y-27.7859
G01 X46.4444 Y-28.7186
G01 X46.4282 Y-28.7316
G01 X46.4178 Y-28.7414
G01 X46.4043 Y-28.7562
G01 X46.3912 Y-28.7737
G01 X46.3800 Y-28.7923
G01 X46.3713 Y-28.8103
G01 X46.3661 Y-28.8237
G01 X46.3599 Y-28.8446
G01 X46.3549 Y-28.8733
G01 X46.3536 Y-28.8959
G01 X46.3537 Y-29.5714
G01 X46.3541 Y-29.5839
G01 X46.3560 Y-29.6029
G01 X46.3618 Y-29.6303
G01 X46.3618 Y-31.5256
G01 X46.3633 Y-31.5384
G01 X46.3671 Y-31.5507
G01 X46.3731 Y-31.5621
G01 X46.3817 Y-31.5728
G01 X46.3915 Y-31.5811
G01 X46.4027 Y-31.5875
G01 X46.4148 Y-31.5918
G01 X46.4284 Y-31.5938
G01 X46.7318 Y-31.5939
G01 X46.7429 Y-31.5930
G01 X46.7538 Y-31.5904
G01 X46.7640 Y-31.5860
G01 X46.7735 Y-31.5801
G01 X46.7819 Y-31.5728
G01 X46.7890 Y-31.5642
G01 X46.7947 Y-31.5546
G01 X46.7988 Y-31.5442
G01 X46.8012 Y-31.5333
G01 X46.8018 Y-31.5239
G01 X46.8018 Y-29.5239
G01 X46.8013 Y-29.5153
G01 X46.7997 Y-29.5069
G01 X46.7939 Y-29.4915
G01 X46.7938 Y-29.0153
G01 X48.2028 Y-28.0884
G01 X48.2131 Y-28.0811
G01 X48.2285 Y-28.0686
G01 X48.2377 Y-28.0598
G01 X48.2512 Y-28.0450
G01 X48.2590 Y-28.0350
G01 X48.2701 Y-28.0184
G01 X48.2797 Y-28.0008
G01 X48.2855 Y-27.9877
G01 X48.2922 Y-27.9689
G01 X48.2972 Y-27.9494
G01 X48.2996 Y-27.9362
G01 X48.3016 Y-27.9162
G01 X48.3019 Y-27.1886
G01 X48.5415 Y-27.1886
G01 X48.5571 Y-27.1866
G01 X49.6535 Y-27.1866
G01 X49.6579 Y-27.1965
G01 X49.6634 Y-27.2052
G01 X49.6701 Y-27.2130
G01 X49.6786 Y-27.2202
G01 X49.6874 Y-27.2256
G01 X49.6976 Y-27.2300
G01 X49.7076 Y-27.2325
G01 X49.7187 Y-27.2335
G01 X51.3273 Y-27.2331
G01 X51.3383 Y-27.2310
G01 X51.3495 Y-27.2268
G01 X51.3599 Y-27.2207
G01 X51.3685 Y-27.2136
G01 X51.3758 Y-27.2052
G01 X51.3817 Y-27.1957
G01 X51.3863 Y-27.1846
G01 X51.3888 Y-27.1738
G01 X51.3896 Y-27.1635
G01 X51.3896 Y-26.8209
G01 X51.5698 Y-26.8209
G01 X52.6480 Y-27.8986
G01 X52.6619 Y-27.9105
G01 X52.6857 Y-27.9282
G01 X52.7005 Y-27.9374
G01 X52.7252 Y-27.9506
G01 X52.7574 Y-27.9640
G01 X52.7842 Y-27.9721
G01 X52.8020 Y-27.9761
G01 X52.8322 Y-27.9806
G01 X52.8636 Y-27.9821
G01 X57.0845 Y-27.9818
G01 X57.1175 Y-27.9787
G01 X57.1483 Y-27.9725
G01 X57.1783 Y-27.9634
G01 X57.2089 Y-27.9506
G01 X57.2336 Y-27.9374
G01 X57.2469 Y-27.9291
G01 X57.2722 Y-27.9105
G01 X57.2969 Y-27.8884
G01 X57.3185 Y-27.8644
G01 X57.3367 Y-27.8399
G01 X57.3520 Y-27.8144
G01 X57.3606 Y-27.7973
G01 X57.3719 Y-27.7698
G01 X57.3806 Y-27.7414
G01 X57.3848 Y-27.7228
G01 X57.3891 Y-27.6934
G01 X57.3906 Y-27.6629
G01 X57.3906 Y-20.1347
G01 X58.1983 Y-19.3258
G01 X58.1983 Y-19.5520
G01 X58.1993 Y-19.5640
G01 X58.2016 Y-19.5731
G01 X58.2054 Y-19.5827
G01 X58.2101 Y-19.5909
G01 X58.2159 Y-19.5984
G01 X58.2226 Y-19.6050
G01 X58.2301 Y-19.6107
G01 X58.2384 Y-19.6153
G01 X58.2480 Y-19.6190
G01 X58.2580 Y-19.6212
G01 X58.2683 Y-19.6220
G01 X58.9717 Y-19.6219
G01 X58.9811 Y-19.6208
G01 X58.9903 Y-19.6185
G01 X58.9998 Y-19.6145
G01 X59.0079 Y-19.6097
G01 X59.0153 Y-19.6039
G01 X59.0219 Y-19.5971
G01 X59.0274 Y-19.5894
G01 X59.0319 Y-19.5811
G01 X59.0368 Y-19.5665
G01 X59.0383 Y-19.5520
G01 X59.0382 Y-17.3494
G01 X59.0357 Y-17.3333
G01 X59.0295 Y-17.3182
G01 X59.0201 Y-17.3050
G01 X59.0139 Y-17.2990
G01 X59.0071 Y-17.2938
G01 X58.9942 Y-17.2870
G01 X58.9802 Y-17.2830
G01 X58.9699 Y-17.2820
G01 X58.9384 Y-17.2820
G01 X58.9383 Y-16.8906
G01 X59.8139 Y-14.7604
G01 X60.4202 Y-14.7604
G01 X60.4304 Y-14.7595
G01 X60.4404 Y-14.7571
G01 X60.4492 Y-14.7537
G01 X60.4582 Y-14.7486
G01 X60.4706 Y-14.7380
G01 X60.4798 Y-14.7256
G01 X60.4863 Y-14.7107
G01 X60.4891 Y-14.6955
G01 X60.4893 Y-14.3107
G01 X64.9683 Y-14.3107
G01 X64.9906 Y-14.3101
G01 X65.0281 Y-14.3064
G01 X65.0501 Y-14.3026
G01 X65.0710 Y-14.2979
G01 X65.1096 Y-14.2862
G01 X65.1287 Y-14.2788
G01 X65.1476 Y-14.2705
G01 X71.6585 Y-11.1978
G01 X71.6794 Y-11.2176
G01 X71.7178 Y-11.2508
G01 X71.7606 Y-11.2841
G01 X71.8028 Y-11.3139
G01 X71.8457 Y-11.3411
G01 X71.8937 Y-11.3683
G01 X71.9396 Y-11.3914
G01 X71.9862 Y-11.4121
G01 X72.0368 Y-11.4317
G01 X72.0883 Y-11.4486
G01 X72.1373 Y-11.4621
G01 X72.1877 Y-11.4735
G01 X72.2420 Y-11.4828
G01 X72.2924 Y-11.4890
G01 X72.3448 Y-11.4929
G01 X72.3990 Y-11.4942
G01 X72.4498 Y-11.4929
G01 X72.5005 Y-11.4892
G01 X72.5543 Y-11.4826
G01 X72.6077 Y-11.4733
G01 X72.6573 Y-11.4621
G01 X72.7063 Y-11.4486
G01 X72.7586 Y-11.4314
G01 X72.8068 Y-11.4128
G01 X72.8532 Y-11.3922
G01 X72.9020 Y-11.3677
G01 X72.9475 Y-11.3419
G01 X72.9903 Y-11.3148
G01 X73.0347 Y-11.2836
G01 X73.0774 Y-11.2502
G01 X73.1159 Y-11.2170
G01 X73.1539 Y-11.1808
G01 X73.1901 Y-11.1428
G01 X73.2233 Y-11.1043
G01 X73.2572 Y-11.0609
G01 X73.2870 Y-11.0187
G01 X73.3159 Y-10.9728
G01 X73.3410 Y-10.9286
G01 X73.3638 Y-10.8832
G01 X73.3852 Y-10.8353
G01 X73.4048 Y-10.7847
G01 X73.4212 Y-10.7348
G01 X73.4352 Y-10.6842
G01 X73.4467 Y-10.6329
G01 X73.4557 Y-10.5812
G01 X73.4621 Y-10.5291
G01 X73.4660 Y-10.4767
G01 X73.4673 Y-10.4225
G01 X73.4660 Y-10.3717
G01 X73.4620 Y-10.3176
G01 X73.4554 Y-10.2655
G01 X73.4467 Y-10.2155
G01 X73.4381 Y-10.1767
G01 X74.3089 Y-9.2877
G01 X74.7758 Y-9.1771
G01 X74.8066 Y-9.2064
G01 X74.8464 Y-9.2407
G01 X74.8878 Y-9.2730
G01 X74.9307 Y-9.3033
G01 X74.9750 Y-9.3313
G01 X75.0208 Y-9.3573
G01 X75.0675 Y-9.3808
G01 X75.1157 Y-9.4022
G01 X75.1647 Y-9.4211
G01 X75.2146 Y-9.4375
G01 X75.2652 Y-9.4515
G01 X75.3165 Y-9.4630
G01 X75.3682 Y-9.4720
G01 X75.4203 Y-9.4784
G01 X75.4727 Y-9.4823
G01 X75.5252 Y-9.4836
G01 X75.5777 Y-9.4823
G01 X75.6284 Y-9.4786
G01 X75.6822 Y-9.4720
G01 X75.7356 Y-9.4627
G01 X75.7852 Y-9.4515
G01 X75.8342 Y-9.4380
G01 X75.8873 Y-9.4205
G01 X75.9347 Y-9.4022
G01 X75.9811 Y-9.3816
G01 X76.0299 Y-9.3571
G01 X76.0814 Y-9.3275
G01 X78.3042 Y-9.3275
G01 X78.3209 Y-9.3262
G01 X78.3365 Y-9.3228
G01 X78.3500 Y-9.3181
G01 X78.3643 Y-9.3109
G01 X78.3762 Y-9.3029
G01 X78.3882 Y-9.2924
G01 X79.7376 Y-7.9430
G01 X79.7486 Y-7.9303
G01 X79.7577 Y-7.9162
G01 X79.7638 Y-7.9034
G01 X79.7691 Y-7.8873
G01 X79.7717 Y-7.8740
G01 X79.7727 Y-7.8581
G01 X79.7727 Y-3.6613
G01 X81.3296 Y-2.1044
G01 X84.5243 Y-2.1044
G01 X85.8033 Y-3.3835
G01 X85.8033 Y-7.3034
G01 X85.8046 Y-7.3201
G01 X85.8082 Y-7.3365
G01 X85.8141 Y-7.3523
G01 X85.8213 Y-7.3657
G01 X85.8306 Y-7.3788
G01 X85.8427 Y-7.3914
G01 X85.8559 Y-7.4018
G01 X85.8704 Y-7.4102
G01 X85.8827 Y-7.4154
G01 X85.8950 Y-7.4191
G01 X85.9098 Y-7.4218
G01 X85.9233 Y-7.4225
G01 X91.9946 Y-7.4225
G01 X91.9946 Y-12.0659
G01 X91.9961 Y-12.0843
G01 X92.0010 Y-12.1038
G01 X92.0084 Y-12.1210
G01 X92.0182 Y-12.1365
G01 X92.0303 Y-12.1505
G01 X92.0445 Y-12.1624
G01 X92.0617 Y-12.1727
G01 X92.0789 Y-12.1796
G01 X92.0970 Y-12.1837
G01 X92.1146 Y-12.1850
G01 X94.0246 Y-12.1849
G01 X94.0422 Y-12.1829
G01 X94.0584 Y-12.1786
G01 X94.0725 Y-12.1727
G01 X94.0870 Y-12.1643
G01 X94.1002 Y-12.1539
G01 X94.1124 Y-12.1411
G01 X94.1225 Y-12.1268
G01 X94.1301 Y-12.1118
G01 X94.1344 Y-12.0999
G01 X94.1373 Y-12.0884
G01 X94.1390 Y-12.0768
G01 X94.1396 Y-12.0650
G01 X94.1396 Y-7.4225
G01 X97.8338 Y-7.4224
G01 X97.8547 Y-7.4199
G01 X97.8653 Y-7.4171
G01 X97.8763 Y-7.4131
G01 X97.8864 Y-7.4082
G01 X97.8963 Y-7.4023
G01 X97.9059 Y-7.3952
G01 X97.9139 Y-7.3880
G01 X97.9218 Y-7.3793
G01 X97.9284 Y-7.3706
G01 X97.9388 Y-7.3523
G01 X97.9429 Y-7.3422
G01 X97.9462 Y-7.3308
G01 X97.9483 Y-7.3201
G01 X97.9495 Y-7.3084
G01 X97.9496 Y-0.4753
G01 X97.9482 Y-0.4577
G01 X97.9439 Y-0.4397
G01 X97.9362 Y-0.4211
G01 X97.9265 Y-0.4054
G01 X97.9145 Y-0.3913
G01 X97.9011 Y-0.3798
G01 X97.8854 Y-0.3699
G01 X97.8684 Y-0.3626
G01 X97.8481 Y-0.3576
G01 X97.8296 Y-0.3562
G01 X77.3508 Y-0.3562
G01 X77.3324 Y-0.3576
G01 X77.3218 Y-0.3597
G01 X77.3106 Y-0.3631
G01 X77.2998 Y-0.3676
G01 X77.2893 Y-0.3731
G01 X77.2795 Y-0.3796
G01 X77.2706 Y-0.3869
G01 X77.2623 Y-0.3952
G01 X77.2553 Y-0.4035
G01 X76.7776 Y-1.0406
G01 X76.7690 Y-1.0542
G01 X76.7621 Y-1.0694
G01 X76.7578 Y-1.0835
G01 X76.7552 Y-1.0993
G01 X76.7546 Y-1.1112
G01 X76.7546 Y-6.4591
G01 X75.8265 Y-7.3871
G01 X75.7852 Y-7.3757
G01 X75.7339 Y-7.3642
G01 X75.6822 Y-7.3552
G01 X75.6301 Y-7.3488
G01 X75.5777 Y-7.3449
G01 X75.5252 Y-7.3436
G01 X75.4727 Y-7.3449
G01 X75.4203 Y-7.3488
G01 X75.3682 Y-7.3552
G01 X75.3165 Y-7.3642
G01 X75.2652 Y-7.3757
G01 X75.2146 Y-7.3897
G01 X75.1647 Y-7.4061
G01 X75.1157 Y-7.4250
G01 X75.0680 Y-7.4462
G01 X75.0205 Y-7.4701
G01 X74.9750 Y-7.4959
G01 X74.9306 Y-7.5240
G01 X74.8878 Y-7.5542
G01 X74.8463 Y-7.5866
G01 X74.8066 Y-7.6208
G01 X74.7686 Y-7.6570
G01 X74.7324 Y-7.6950
G01 X74.6986 Y-7.7341
G01 X74.6658 Y-7.7762
G01 X74.6355 Y-7.8191
G01 X74.6075 Y-7.8634
G01 X74.5820 Y-7.9085
G01 X74.5580 Y-7.9559
G01 X74.5370 Y-8.0033
G01 X74.5180 Y-8.0523
G01 X74.5130 Y-8.0673
G01 X73.8856 Y-8.2159
G01 X73.8565 Y-8.2236
G01 X73.8296 Y-8.2322
G01 X73.8023 Y-8.2425
G01 X73.7752 Y-8.2543
G01 X73.7491 Y-8.2674
G01 X73.7240 Y-8.2816
G01 X73.6993 Y-8.2972
G01 X73.6755 Y-8.3141
G01 X73.6540 Y-8.3311
G01 X73.6306 Y-8.3514
G01 X73.6096 Y-8.3717
G01 X72.6233 Y-9.3786
G01 X72.6052 Y-9.3746
G01 X72.5552 Y-9.3659
G01 X72.5030 Y-9.3594
G01 X72.4498 Y-9.3555
G01 X72.3982 Y-9.3542
G01 X72.3448 Y-9.3555
G01 X72.2924 Y-9.3594
G01 X72.2403 Y-9.3658
G01 X72.1894 Y-9.3746
G01 X72.1373 Y-9.3863
G01 X72.0867 Y-9.4003
G01 X72.0368 Y-9.4167
G01 X71.9878 Y-9.4356
G01 X71.9401 Y-9.4568
G01 X71.8926 Y-9.4807
G01 X71.8471 Y-9.5065
G01 X71.8027 Y-9.5346
G01 X71.7585 Y-9.5658
G01 X71.7184 Y-9.5972
G01 X71.6800 Y-9.6302
G01 X71.6407 Y-9.6676
G01 X71.6045 Y-9.7056
G01 X71.5702 Y-9.7454
G01 X71.5369 Y-9.7882
G01 X71.5076 Y-9.8297
G01 X71.4804 Y-9.8726
G01 X71.4536 Y-9.9198
G01 X71.4293 Y-9.9683
G01 X71.4087 Y-10.0147
G01 X71.3904 Y-10.0621
G01 X71.3734 Y-10.1136
G01 X71.3594 Y-10.1642
G01 X71.3475 Y-10.2171
G01 X71.3389 Y-10.2672
G01 X71.3326 Y-10.3176
G01 X71.3286 Y-10.3717
G01 X71.3273 Y-10.4249
G01 X64.8741 Y-13.4703
G01 X60.4893 Y-13.4703
G01 X60.4891 Y-13.0853
G01 X60.4880 Y-13.0767
G01 X60.4858 Y-13.0684
G01 X60.4789 Y-13.0537
G01 X60.4688 Y-13.0409
G01 X60.4560 Y-13.0308
G01 X60.4477 Y-13.0264
G01 X60.4388 Y-13.0232
G01 X60.4296 Y-13.0212
G01 X60.4202 Y-13.0204
G01 X59.7657 Y-13.0204
G01 X59.3599 Y-12.0784
G01 X59.3677 Y-12.0681
G01 X59.3734 Y-12.0566
G01 X59.3769 Y-12.0442
G01 X59.3781 Y-12.0314
G01 X59.3781 Y-10.4305
G01 X59.3772 Y-10.4203
G01 X59.3748 Y-10.4103
G01 X59.3710 Y-10.4007
G01 X59.3658 Y-10.3918
G01 X59.3551 Y-10.3795
G01 X59.3419 Y-10.3701
G01 X59.3268 Y-10.3639
G01 X59.3107 Y-10.3614
G01 X58.3931 Y-10.3614
G01 X56.8746 Y-8.1555
G01 X56.8746 Y-7.0271
G01 X59.8667 Y-7.0271
G01 X59.8667 Y-7.0587
G01 X59.8677 Y-7.0690
G01 X59.8717 Y-7.0830
G01 X59.8785 Y-7.0959
G01 X59.8891 Y-7.1083
G01 X59.9022 Y-7.1179
G01 X59.9172 Y-7.1242
G01 X59.9333 Y-7.1269
G01 X62.1367 Y-7.1270
G01 X62.1453 Y-7.1265
G01 X62.1570 Y-7.1240
G01 X62.1682 Y-7.1195
G01 X62.1784 Y-7.1132
G01 X62.1874 Y-7.1053
G01 X62.1949 Y-7.0959
G01 X62.2007 Y-7.0854
G01 X62.2046 Y-7.0740
G01 X62.2065 Y-7.0621
G01 X62.2067 Y-6.3570
G01 X62.2059 Y-6.3467
G01 X62.2039 Y-6.3375
G01 X62.2000 Y-6.3271
G01 X62.1944 Y-6.3174
G01 X62.1874 Y-6.3087
G01 X62.1791 Y-6.3013
G01 X62.1697 Y-6.2953
G01 X62.1603 Y-6.2911
G01 X62.1495 Y-6.2882
G01 X62.1384 Y-6.2870
G01 X59.9358 Y-6.2870
G01 X59.9197 Y-6.2891
G01 X59.9115 Y-6.2917
G01 X59.9037 Y-6.2953
G01 X59.8964 Y-6.2998
G01 X59.8897 Y-6.3051
G01 X59.8790 Y-6.3174
G01 X59.8717 Y-6.3310
G01 X59.8677 Y-6.3450
G01 X59.8667 Y-6.3553
G01 X59.8667 Y-6.3869
G01 X56.8746 Y-6.3869
G01 X56.8743 Y-0.6202
G01 X56.8729 Y-0.6019
G01 X56.8685 Y-0.5725
G01 X56.8613 Y-0.5437
G01 X56.8553 Y-0.5255
G01 X56.8439 Y-0.4981
G01 X56.8299 Y-0.4719
G01 X56.8197 Y-0.4557
G01 X56.8020 Y-0.4319
G01 X56.7821 Y-0.4099
G01 X56.7695 Y-0.3978
G01 X56.7466 Y-0.3789
G01 X56.7309 Y-0.3679
G01 X56.7054 Y-0.3527
G01 X56.6786 Y-0.3399
G01 X56.6607 Y-0.3330
G01 X56.6331 Y-0.3247
G01 X56.5998 Y-0.3181
G01 X56.5719 Y-0.3154
G01 X56.5545 Y-0.3149
G01 X29.0908 Y-0.3149
G01 X29.0593 Y-0.3164
G01 X29.0247 Y-0.3218
G01 X28.9968 Y-0.3290
G01 X28.9797 Y-0.3348
G01 X28.9631 Y-0.3415
G01 X28.9372 Y-0.3542
G01 X28.9073 Y-0.3727
G01 X28.8825 Y-0.3919
G01 X28.5027 Y-0.7175
G01 X27.3279 Y-0.7175
G01 X27.3118 Y-0.7198
G01 X27.3036 Y-0.7225
G01 X27.2958 Y-0.7262
G01 X27.2826 Y-0.7356
G01 X27.2719 Y-0.7479
G01 X27.2667 Y-0.7568
G01 X27.2629 Y-0.7664
G01 X27.2605 Y-0.7764
G01 X27.2596 Y-0.7866
G01 X27.2596 Y-2.3875
G01 X27.2613 Y-2.4028
G01 X27.2646 Y-2.4135
G01 X27.2691 Y-2.4227
G01 X27.2749 Y-2.4312
G01 X27.2826 Y-2.4394
G01 X27.2907 Y-2.4457
G01 X27.2997 Y-2.4508
G01 X27.3093 Y-2.4545
G01 X27.3202 Y-2.4569
G01 X27.3296 Y-2.4575
G01 X27.6594 Y-2.4575
G01 X27.6594 Y-2.6198
G01 X27.6327 Y-2.6301
G01 X27.5910 Y-2.6486
G01 X27.5481 Y-2.6701
G01 X27.5058 Y-2.6941
G01 X27.4644 Y-2.7204
G01 X27.4268 Y-2.7469
G01 X27.3906 Y-2.7751
G01 X27.3538 Y-2.8067
G01 X27.3181 Y-2.8407
G01 X27.2865 Y-2.8740
G01 X27.2736 Y-2.8888
G01 X24.5763 Y-2.8903
G01 X24.5565 Y-2.8383
G01 X24.5379 Y-2.7964
G01 X24.5164 Y-2.7536
G01 X24.4928 Y-2.7121
G01 X24.4684 Y-2.6734
G01 X24.4390 Y-2.6317
G01 X24.4107 Y-2.5955
G01 X24.3796 Y-2.5595
G01 X24.3468 Y-2.5250
G01 X24.3136 Y-2.4933
G01 X24.2763 Y-2.4611
G01 X24.2401 Y-2.4328
G01 X24.1984 Y-2.4034
G01 X24.1594 Y-2.3788
G01 X24.1182 Y-2.3554
G01 X24.0759 Y-2.3341
G01 X24.0337 Y-2.3154
G01 X23.9861 Y-2.2970
G01 X23.9425 Y-2.2827
G01 X23.8966 Y-2.2700
G01 X23.8501 Y-2.2595
G01 X23.8049 Y-2.2517
G01 X23.7543 Y-2.2454
G01 X23.7085 Y-2.2421
G01 X23.6609 Y-2.2409
G01 X23.6133 Y-2.2421
G01 X23.5667 Y-2.2455
G01 X23.5186 Y-2.2514
G01 X23.4717 Y-2.2595
G01 X23.4252 Y-2.2700
G01 X23.3793 Y-2.2827
G01 X23.3339 Y-2.2977
G01 X23.2898 Y-2.3147
G01 X23.2464 Y-2.3339
G01 X23.2036 Y-2.3554
G01 X23.1621 Y-2.3790
G01 X23.1221 Y-2.4043
G01 X23.0831 Y-2.4318
G01 X23.0455 Y-2.4611
G01 X23.0095 Y-2.4922
G01 X22.9750 Y-2.5250
G01 X22.9422 Y-2.5595
G01 X22.9122 Y-2.5942
G01 X22.8818 Y-2.6331
G01 X22.8544 Y-2.6720
G01 X22.8289 Y-2.7122
G01 X22.8054 Y-2.7536
G01 X22.7841 Y-2.7959
G01 X22.7647 Y-2.8397
G01 X22.7477 Y-2.8839
G01 X22.7332 Y-2.9277
G01 X22.7196 Y-2.9769
G01 X22.7095 Y-3.0217
G01 X22.7012 Y-3.0703
G01 X22.6956 Y-3.1158
G01 X22.6921 Y-3.1633
G01 X22.6909 Y-3.2109
G01 X22.6922 Y-3.2602
G00 Z2.0000
G00 X22.6922 Y-5.8002
G01 F70.00
G01 Z-0.0600
G01 F60.00
G01 X22.6956 Y-5.8460
G01 X22.7014 Y-5.8932
G01 X22.7095 Y-5.9401
G01 X22.7196 Y-5.9849
G01 X22.7332 Y-6.0341
G01 X22.7477 Y-6.0779
G01 X22.7647 Y-6.1220
G01 X22.7839 Y-6.1654
G01 X22.8046 Y-6.2066
G01 X22.8298 Y-6.2510
G01 X22.8543 Y-6.2897
G01 X22.8818 Y-6.3287
G01 X22.9111 Y-6.3663
G01 X22.9410 Y-6.4010
G01 X22.9762 Y-6.4380
G01 X23.0095 Y-6.4696
G01 X23.0455 Y-6.5007
G01 X23.0831 Y-6.5300
G01 X23.1206 Y-6.5565
G01 X23.1637 Y-6.5838
G01 X23.2036 Y-6.6064
G01 X23.2459 Y-6.6277
G01 X23.2897 Y-6.6471
G01 X23.3325 Y-6.6636
G01 X23.3809 Y-6.6796
G01 X23.4252 Y-6.6918
G01 X23.4717 Y-6.7023
G01 X23.5186 Y-6.7104
G01 X23.5658 Y-6.7162
G01 X23.6133 Y-6.7197
G01 X23.6592 Y-6.7209
G01 X23.7102 Y-6.7196
G01 X23.7560 Y-6.7162
G01 X23.8049 Y-6.7101
G01 X23.8501 Y-6.7023
G01 X23.8966 Y-6.6918
G01 X23.9425 Y-6.6791
G01 X23.9879 Y-6.6641
G01 X24.0320 Y-6.6471
G01 X24.0754 Y-6.6279
G01 X24.1182 Y-6.6064
G01 X24.1581 Y-6.5838
G01 X24.1997 Y-6.5575
G01 X24.2373 Y-6.5310
G01 X24.2776 Y-6.4996
G01 X24.3123 Y-6.4696
G01 X24.3468 Y-6.4368
G01 X24.3796 Y-6.4023
G01 X24.4107 Y-6.3663
G01 X24.4400 Y-6.3287
G01 X24.4674 Y-6.2898
G01 X24.4930 Y-6.2494
G01 X24.5155 Y-6.2097
G01 X24.5377 Y-6.1659
G01 X24.5564 Y-6.1237
G01 X24.5766 Y-6.0705
G01 X25.1035 Y-6.0702
G01 X25.1035 Y-6.2053
G01 X25.1045 Y-6.2156
G01 X25.1068 Y-6.2247
G01 X25.1106 Y-6.2343
G01 X25.1158 Y-6.2432
G01 X25.1216 Y-6.2506
G01 X25.1291 Y-6.2577
G01 X25.1375 Y-6.2636
G01 X25.1467 Y-6.2683
G01 X25.1565 Y-6.2715
G01 X25.1666 Y-6.2733
G01 X26.5735 Y-6.2736
G01 X26.5846 Y-6.2727
G01 X26.5955 Y-6.2701
G01 X26.6050 Y-6.2661
G01 X26.6145 Y-6.2603
G01 X26.6224 Y-6.2537
G01 X26.6297 Y-6.2453
G01 X26.6356 Y-6.2358
G01 X26.6397 Y-6.2264
G01 X26.6423 Y-6.2164
G01 X26.6435 Y-6.2053
G01 X26.6435 Y-6.0694
G01 X27.0346 Y-6.0692
G01 X27.0346 Y-6.9686
G01 X27.0356 Y-6.9780
G01 X27.0379 Y-6.9871
G01 X27.0413 Y-6.9959
G01 X27.0459 Y-7.0042
G01 X27.0510 Y-7.0111
G01 X27.0576 Y-7.0179
G01 X27.0650 Y-7.0237
G01 X27.0731 Y-7.0285
G01 X27.0884 Y-7.0341
G01 X27.1046 Y-7.0360
G01 X28.9046 Y-7.0360
G01 X28.9174 Y-7.0348
G01 X28.9298 Y-7.0313
G01 X28.9391 Y-7.0269
G01 X28.9477 Y-7.0212
G01 X28.9553 Y-7.0143
G01 X28.9618 Y-7.0063
G01 X28.9671 Y-6.9975
G01 X28.9711 Y-6.9880
G01 X28.9736 Y-6.9780
G01 X28.9746 Y-6.9677
G01 X28.9746 Y-5.4072
G01 X29.3598 Y-5.0221
G01 X31.1545 Y-5.0221
G01 X31.1670 Y-5.0217
G01 X31.1868 Y-5.0197
G01 X31.1991 Y-5.0175
G01 X31.2176 Y-5.0128
G01 X31.2403 Y-5.0046
G01 X31.2567 Y-4.9969
G01 X31.2676 Y-4.9908
G01 X31.2870 Y-4.9777
G01 X31.3089 Y-4.9588
G01 X31.9848 Y-4.2829
G01 X31.9993 Y-4.2669
G01 X32.0117 Y-4.2503
G01 X32.0188 Y-4.2390
G01 X32.0281 Y-4.2214
G01 X32.0332 Y-4.2099
G01 X32.0398 Y-4.1912
G01 X32.0431 Y-4.1791
G01 X32.0469 Y-4.1596
G01 X32.0484 Y-4.1472
G01 X32.0493 Y-4.1290
G01 X32.0493 Y-2.3929
G01 X32.2776 Y-2.1646
G01 X43.0490 Y-2.1646
G01 X43.4318 Y-2.5474
G01 X43.4229 Y-2.9604
G01 X43.2718 Y-3.1118
G01 X43.2648 Y-3.1215
G01 X43.2595 Y-3.1323
G01 X43.2561 Y-3.1438
G01 X43.2548 Y-3.1566
G01 X43.2548 Y-4.2576
G01 X43.2553 Y-4.2662
G01 X43.2571 Y-4.2755
G01 X43.2605 Y-4.2852
G01 X43.2652 Y-4.2943
G01 X43.2713 Y-4.3027
G01 X43.3759 Y-4.4076
G01 X43.3852 Y-4.4152
G01 X43.3957 Y-4.4211
G01 X43.4070 Y-4.4252
G01 X43.4188 Y-4.4272
G01 X43.8248 Y-4.4275
G01 X43.8334 Y-4.4270
G01 X43.8418 Y-4.4254
G01 X43.8508 Y-4.4225
G01 X43.8586 Y-4.4188
G01 X43.8665 Y-4.4137
G01 X43.8731 Y-4.4082
G01 X43.9755 Y-4.3058
G01 X43.9830 Y-4.2964
G01 X43.9888 Y-4.2859
G01 X43.9933 Y-4.2720
G01 X43.9948 Y-4.2575
G01 X43.9948 Y-3.1575
G01 X43.9943 Y-3.1489
G01 X43.9923 Y-3.1388
G01 X43.9888 Y-3.1291
G01 X43.9839 Y-3.1200
G01 X43.9778 Y-3.1118
G01 X43.8624 Y-2.9962
G01 X43.8738 Y-2.4518
G01 X43.8730 Y-2.4390
G01 X43.8706 Y-2.4205
G01 X43.8652 Y-2.3971
G01 X43.8573 Y-2.3745
G01 X43.8495 Y-2.3576
G01 X43.8433 Y-2.3463
G01 X43.8300 Y-2.3264
G01 X43.8182 Y-2.3120
G01 X43.8101 Y-2.3032
G01 X43.2880 Y-1.7814
G01 X43.2727 Y-1.7688
G01 X43.2625 Y-1.7615
G01 X43.2455 Y-1.7512
G01 X43.2327 Y-1.7448
G01 X43.2143 Y-1.7373
G01 X43.1953 Y-1.7315
G01 X43.1823 Y-1.7285
G01 X43.1635 Y-1.7257
G01 X43.1402 Y-1.7244
G01 X32.1864 Y-1.7244
G01 X32.1739 Y-1.7248
G01 X32.1558 Y-1.7266
G01 X32.1418 Y-1.7290
G01 X32.1225 Y-1.7339
G01 X32.1038 Y-1.7405
G01 X32.0923 Y-1.7456
G01 X32.0812 Y-1.7512
G01 X32.0642 Y-1.7615
G01 X32.0481 Y-1.7733
G01 X32.0380 Y-1.7820
G01 X31.6667 Y-2.1533
G01 X31.6524 Y-2.1706
G01 X31.6404 Y-2.1886
G01 X31.6303 Y-2.2076
G01 X31.6226 Y-2.2259
G01 X31.6162 Y-2.2466
G01 X31.6130 Y-2.2605
G01 X31.6102 Y-2.2801
G01 X31.6091 Y-2.3008
G01 X31.6091 Y-4.0361
G01 X31.0633 Y-4.5819
G01 X29.2686 Y-4.5819
G01 X29.2470 Y-4.5830
G01 X29.2248 Y-4.5863
G01 X29.2064 Y-4.5909
G01 X29.1945 Y-4.5948
G01 X29.1828 Y-4.5994
G01 X29.1664 Y-4.6071
G01 X29.1450 Y-4.6199
G01 X29.1303 Y-4.6308
G01 X29.1208 Y-4.6389
G01 X28.6634 Y-5.0960
G01 X27.1046 Y-5.0960
G01 X27.0918 Y-5.0972
G01 X27.0794 Y-5.1007
G01 X27.0708 Y-5.1047
G01 X27.0629 Y-5.1098
G01 X27.0557 Y-5.1159
G01 X27.0494 Y-5.1229
G01 X27.0446 Y-5.1300
G01 X27.0403 Y-5.1384
G01 X27.0371 Y-5.1473
G01 X27.0352 Y-5.1566
G01 X27.0346 Y-5.1660
G01 X27.0346 Y-5.4289
G01 X26.6435 Y-5.4291
G01 X26.6432 Y-4.8967
G01 X26.6412 Y-4.8858
G01 X26.6375 Y-4.8752
G01 X26.6322 Y-4.8654
G01 X26.6254 Y-4.8566
G01 X26.6172 Y-4.8489
G01 X26.6073 Y-4.8423
G01 X26.5971 Y-4.8377
G01 X26.5863 Y-4.8348
G01 X26.5735 Y-4.8336
G01 X25.1735 Y-4.8336
G01 X25.1641 Y-4.8342
G01 X25.1540 Y-4.8364
G01 X25.1444 Y-4.8400
G01 X25.1353 Y-4.8449
G01 X25.1271 Y-4.8512
G01 X25.1194 Y-4.8592
G01 X25.1130 Y-4.8684
G01 X25.1085 Y-4.8776
G01 X25.1054 Y-4.8874
G01 X25.1038 Y-4.8976
G01 X25.1035 Y-5.4300
G01 X24.5763 Y-5.4303
G01 X24.5565 Y-5.3783
G01 X24.5379 Y-5.3364
G01 X24.5155 Y-5.2921
G01 X24.4928 Y-5.2521
G01 X24.4675 Y-5.2121
G01 X24.4400 Y-5.1731
G01 X24.4107 Y-5.1355
G01 X24.3796 Y-5.0995
G01 X24.3468 Y-5.0650
G01 X24.3123 Y-5.0322
G01 X24.2776 Y-5.0022
G01 X24.2373 Y-4.9708
G01 X24.1998 Y-4.9444
G01 X24.1594 Y-4.9188
G01 X24.1182 Y-4.8954
G01 X24.0759 Y-4.8741
G01 X24.0321 Y-4.8547
G01 X23.9893 Y-4.8382
G01 X23.9409 Y-4.8222
G01 X23.8966 Y-4.8100
G01 X23.8501 Y-4.7995
G01 X23.8032 Y-4.7914
G01 X23.7577 Y-4.7858
G01 X23.7068 Y-4.7820
G01 X23.6609 Y-4.7809
G01 X23.6133 Y-4.7821
G01 X23.5658 Y-4.7856
G01 X23.5186 Y-4.7914
G01 X23.4717 Y-4.7995
G01 X23.4252 Y-4.8100
G01 X23.3793 Y-4.8227
G01 X23.3339 Y-4.8377
G01 X23.2898 Y-4.8547
G01 X23.2464 Y-4.8739
G01 X23.2036 Y-4.8954
G01 X23.1637 Y-4.9180
G01 X23.1221 Y-4.9443
G01 X23.0845 Y-4.9708
G01 X23.0442 Y-5.0022
G01 X23.0095 Y-5.0322
G01 X22.9750 Y-5.0650
G01 X22.9422 Y-5.0995
G01 X22.9111 Y-5.1355
G01 X22.8818 Y-5.1731
G01 X22.8544 Y-5.2120
G01 X22.8288 Y-5.2524
G01 X22.8054 Y-5.2936
G01 X22.7841 Y-5.3359
G01 X22.7647 Y-5.3797
G01 X22.7477 Y-5.4239
G01 X22.7332 Y-5.4677
G01 X22.7196 Y-5.5169
G01 X22.7095 Y-5.5617
G01 X22.7012 Y-5.6103
G01 X22.6956 Y-5.6558
G01 X22.6921 Y-5.7033
G01 X22.6909 Y-5.7509
G01 X22.6922 Y-5.8002
G00 Z2.0000
G00 X24.0309 Y-7.3210
G01 F70.00
G01 Z-0.0600
G01 F60.00
G01 X24.0309 Y-7.2610
G01 X24.6909 Y-7.2610
G01 X24.6909 Y-7.9210
G01 X24.6309 Y-7.9210
G01 X24.6309 Y-7.3884
G01 X24.6290 Y-7.3748
G01 X24.6245 Y-7.3619
G01 X24.6176 Y-7.3500
G01 X24.6079 Y-7.3391
G01 X24.5976 Y-7.3314
G01 X24.5869 Y-7.3260
G01 X24.5754 Y-7.3225
G01 X24.5635 Y-7.3210
G01 X24.0309 Y-7.3210
G00 Z2.0000
G00 X22.6909 Y-7.9210
G01 F70.00
G01 Z-0.0600
G01 F60.00
G01 X22.6309 Y-7.9210
G01 X22.6309 Y-7.2610
G01 X23.2909 Y-7.2610
G01 X23.2909 Y-7.3210
G01 X22.7583 Y-7.3210
G01 X22.7447 Y-7.3229
G01 X22.7310 Y-7.3277
G01 X22.7192 Y-7.3348
G01 X22.7090 Y-7.3440
G01 X22.7018 Y-7.3536
G01 X22.6962 Y-7.3642
G01 X22.6924 Y-7.3765
G01 X22.6909 Y-7.3884
G01 X22.6909 Y-7.9210
G00 Z2.0000
G00 X22.6309 Y-9.3210
G01 F70.00
G01 Z-0.0600
G01 F60.00
G01 X22.6309 Y-8.6610
G01 X22.6909 Y-8.6610
G01 X22.6909 Y-9.1936
G01 X22.6928 Y-9.2072
G01 X22.6973 Y-9.2201
G01 X22.7042 Y-9.2320
G01 X22.7139 Y-9.2429
G01 X22.7235 Y-9.2501
G01 X22.7349 Y-9.2560
G01 X22.7464 Y-9.2595
G01 X22.7583 Y-9.2610
G01 X23.2909 Y-9.2610
G01 X23.2909 Y-9.3210
G01 X22.6309 Y-9.3210
G00 Z2.0000
G00 X24.0309 Y-9.3210
G01 F70.00
G01 Z-0.0600
G01 F60.00
G01 X24.0309 Y-9.2610
G01 X24.5635 Y-9.2610
G01 X24.5771 Y-9.2591
G01 X24.5893 Y-9.2550
G01 X24.6005 Y-9.2487
G01 X24.6104 Y-9.2405
G01 X24.6186 Y-9.2306
G01 X24.6249 Y-9.2194
G01 X24.6290 Y-9.2072
G01 X24.6309 Y-9.1936
G01 X24.6309 Y-8.6610
G01 X24.6909 Y-8.6610
G01 X24.6909 Y-9.3210
G01 X24.0309 Y-9.3210
G00 Z2.0000
G00 X24.7447 Y-11.5648
G01 F70.00
G01 Z-0.0600
G01 F60.00
G01 X26.0447 Y-11.5648
G01 X26.0541 Y-11.5642
G01 X26.0634 Y-11.5623
G01 X26.0738 Y-11.5584
G01 X26.0829 Y-11.5535
G01 X26.0911 Y-11.5472
G01 X26.0983 Y-11.5399
G01 X26.1043 Y-11.5315
G01 X26.1094 Y-11.5216
G01 X26.1126 Y-11.5118
G01 X26.1144 Y-11.5017
G01 X26.1147 Y-11.0151
G01 X26.7771 Y-11.0151
G01 X29.0549 Y-13.2928
G01 X29.0690 Y-13.3056
G01 X29.0788 Y-13.3134
G01 X29.0953 Y-13.3245
G01 X29.1077 Y-13.3315
G01 X29.1256 Y-13.3399
G01 X29.1444 Y-13.3467
G01 X29.1573 Y-13.3503
G01 X29.1759 Y-13.3540
G01 X29.1900 Y-13.3558
G01 X29.2099 Y-13.3567
G01 X35.4139 Y-13.3563
G01 X40.3883 Y-12.7597
G01 X40.4106 Y-12.7559
G01 X40.4383 Y-12.7477
G01 X40.4583 Y-12.7391
G01 X40.4781 Y-12.7282
G01 X40.5009 Y-12.7119
G01 X40.5171 Y-12.6974
G01 X41.9870 Y-11.2276
G01 X42.6265 Y-11.2275
G01 X42.6393 Y-11.2260
G01 X42.6508 Y-11.2225
G01 X42.6615 Y-11.2171
G01 X42.6712 Y-11.2099
G01 X42.7772 Y-11.1039
G01 X42.7830 Y-11.0964
G01 X42.7873 Y-11.0890
G01 X42.7907 Y-11.0811
G01 X42.7931 Y-11.0728
G01 X42.7948 Y-11.0575
G01 X42.7947 Y-10.6541
G01 X42.7929 Y-10.6413
G01 X42.7888 Y-10.6291
G01 X42.7830 Y-10.6186
G01 X42.7749 Y-10.6086
G01 X42.6705 Y-10.5045
G01 X42.6622 Y-10.4984
G01 X42.6532 Y-10.4935
G01 X42.6435 Y-10.4900
G01 X42.6334 Y-10.4880
G01 X42.6248 Y-10.4875
G01 X41.5239 Y-10.4875
G01 X41.5137 Y-10.4884
G01 X41.5045 Y-10.4905
G01 X41.4949 Y-10.4942
G01 X41.4859 Y-10.4993
G01 X41.4753 Y-10.5080
G01 X41.2730 Y-10.7106
G01 X41.2657 Y-10.7202
G01 X41.2606 Y-10.7300
G01 X41.2570 Y-10.7406
G01 X41.2552 Y-10.7516
G01 X41.2549 Y-10.9592
G01 X41.2566 Y-10.9728
G01 X41.2606 Y-10.9851
G01 X41.2667 Y-10.9964
G01 X41.2742 Y-11.0057
G01 X41.4302 Y-11.1619
G01 X40.2603 Y-12.3318
G01 X35.3880 Y-12.9165
G01 X29.3011 Y-12.9165
G01 X27.0239 Y-10.6394
G01 X27.0148 Y-10.6308
G01 X26.9994 Y-10.6182
G01 X26.9891 Y-10.6111
G01 X26.9720 Y-10.6009
G01 X26.9541 Y-10.5924
G01 X26.9424 Y-10.5878
G01 X26.9305 Y-10.5839
G01 X26.9113 Y-10.5792
G01 X26.8989 Y-10.5771
G01 X26.8791 Y-10.5752
G01 X26.1147 Y-10.5749
G01 X26.1143 Y-10.0871
G01 X26.1119 Y-10.0753
G01 X26.1080 Y-10.0649
G01 X26.1019 Y-10.0545
G01 X26.0942 Y-10.0453
G01 X26.0857 Y-10.0381
G01 X26.0754 Y-10.0319
G01 X26.0642 Y-10.0276
G01 X26.0533 Y-10.0253
G01 X26.0447 Y-10.0248
G01 X24.7438 Y-10.0248
G01 X24.7285 Y-10.0267
G01 X24.7148 Y-10.0315
G01 X24.7016 Y-10.0396
G01 X24.6911 Y-10.0497
G01 X24.6842 Y-10.0596
G01 X24.6791 Y-10.0704
G01 X24.6759 Y-10.0820
G01 X24.6747 Y-10.0939
G01 X24.6747 Y-11.4974
G01 X24.6766 Y-11.5110
G01 X24.6807 Y-11.5232
G01 X24.6870 Y-11.5344
G01 X24.6958 Y-11.5449
G01 X24.7065 Y-11.5535
G01 X24.7187 Y-11.5598
G01 X24.7319 Y-11.5636
G01 X24.7447 Y-11.5648
G00 Z2.0000
G00 X24.5933 Y-13.0161
G01 F70.00
G01 Z-0.0600
G01 F60.00
G01 X24.5933 Y-13.9055
G01 X24.5920 Y-13.9131
G01 X24.5882 Y-13.9188
G01 X24.5825 Y-13.9226
G01 X24.5758 Y-13.9239
G01 X24.5691 Y-13.9226
G01 X24.5634 Y-13.9188
G01 X24.5596 Y-13.9131
G01 X24.5583 Y-13.9055
G01 X24.5583 Y-13.0161
G01 X24.5575 Y-13.0059
G01 X24.5552 Y-12.9958
G01 X24.5523 Y-12.9878
G01 X24.5479 Y-12.9794
G01 X24.5424 Y-12.9717
G01 X24.5365 Y-12.9654
G01 X24.5300 Y-12.9599
G01 X24.5220 Y-12.9548
G01 X24.5142 Y-12.9511
G01 X24.5053 Y-12.9482
G01 X24.4891 Y-12.9461
G01 X24.2808 Y-12.9460
G01 X24.2735 Y-12.9436
G01 X24.2679 Y-12.9383
G01 X24.2652 Y-12.9312
G01 X24.2657 Y-12.9235
G01 X24.2684 Y-12.9182
G01 X24.2721 Y-12.9145
G01 X24.2774 Y-12.9118
G01 X24.2834 Y-12.9111
G01 X24.8682 Y-12.9111
G01 X24.8742 Y-12.9118
G01 X24.8795 Y-12.9145
G01 X24.8832 Y-12.9182
G01 X24.8859 Y-12.9235
G01 X24.8864 Y-12.9312
G01 X24.8837 Y-12.9383
G01 X24.8781 Y-12.9436
G01 X24.8708 Y-12.9460
G01 X24.6625 Y-12.9461
G01 X24.6522 Y-12.9470
G01 X24.6422 Y-12.9494
G01 X24.6319 Y-12.9536
G01 X24.6230 Y-12.9589
G01 X24.6145 Y-12.9660
G01 X24.6071 Y-12.9744
G01 X24.6012 Y-12.9839
G01 X24.5969 Y-12.9942
G01 X24.5942 Y-13.0050
G01 X24.5933 Y-13.0161
G00 Z2.0000
G00 X23.6644 Y-13.7222
G01 F70.00
G01 Z-0.0600
G01 F60.00
G01 X23.6634 Y-13.7290
G01 X23.6604 Y-13.7342
G01 X23.6552 Y-13.7386
G01 X23.6495 Y-13.7404
G01 X23.6426 Y-13.7401
G01 X23.6372 Y-13.7377
G01 X23.6328 Y-13.7335
G01 X23.6301 Y-13.7282
G01 X23.6294 Y-13.7222
G01 X23.6294 Y-13.5661
G01 X23.6287 Y-13.5567
G01 X23.6255 Y-13.5434
G01 X23.6198 Y-13.5309
G01 X23.6112 Y-13.5191
G01 X23.6011 Y-13.5099
G01 X23.5931 Y-13.5048
G01 X23.5837 Y-13.5005
G01 X23.5739 Y-13.4977
G01 X23.5636 Y-13.4963
G01 X23.3519 Y-13.4960
G01 X23.3461 Y-13.4944
G01 X23.3412 Y-13.4910
G01 X23.3378 Y-13.4861
G01 X23.3361 Y-13.4795
G01 X23.3368 Y-13.4735
G01 X23.3401 Y-13.4675
G01 X23.3453 Y-13.4631
G01 X23.3510 Y-13.4613
G01 X23.5636 Y-13.4609
G01 X23.5747 Y-13.4594
G01 X23.5853 Y-13.4561
G01 X23.5953 Y-13.4511
G01 X23.6044 Y-13.4446
G01 X23.6129 Y-13.4361
G01 X23.6198 Y-13.4263
G01 X23.6250 Y-13.4154
G01 X23.6282 Y-13.4039
G01 X23.6294 Y-13.3919
G01 X23.6295 Y-13.2325
G01 X23.6314 Y-13.2259
G01 X23.6351 Y-13.2212
G01 X23.6402 Y-13.2180
G01 X23.6460 Y-13.2167
G01 X23.6520 Y-13.2174
G01 X23.6580 Y-13.2207
G01 X23.6624 Y-13.2259
G01 X23.6643 Y-13.2325
G01 X23.6644 Y-13.3919
G01 X23.6656 Y-13.4039
G01 X23.6688 Y-13.4154
G01 X23.6740 Y-13.4263
G01 X23.6809 Y-13.4361
G01 X23.6894 Y-13.4446
G01 X23.6985 Y-13.4511
G01 X23.7085 Y-13.4561
G01 X23.7191 Y-13.4594
G01 X23.7302 Y-13.4609
G01 X23.9428 Y-13.4613
G01 X23.9485 Y-13.4631
G01 X23.9532 Y-13.4668
G01 X23.9564 Y-13.4719
G01 X23.9577 Y-13.4777
G01 X23.9567 Y-13.4845
G01 X23.9537 Y-13.4897
G01 X23.9485 Y-13.4941
G01 X23.9428 Y-13.4959
G01 X23.7302 Y-13.4963
G01 X23.7191 Y-13.4978
G01 X23.7085 Y-13.5011
G01 X23.6985 Y-13.5061
G01 X23.6894 Y-13.5126
G01 X23.6803 Y-13.5217
G01 X23.6731 Y-13.5324
G01 X23.6680 Y-13.5442
G01 X23.6650 Y-13.5576
G01 X23.6644 Y-13.7222
G00 Z2.0000
G00 X25.9320 Y-13.9184
G01 F70.00
G01 Z-0.0600
G01 F60.00
G01 X25.6319 Y-13.5187
G01 X25.6208 Y-13.5080
G01 X25.6076 Y-13.5000
G01 X25.5938 Y-13.4952
G01 X25.5785 Y-13.4934
G01 X25.5640 Y-13.4948
G01 X25.5501 Y-13.4993
G01 X25.5374 Y-13.5065
G01 X25.5259 Y-13.5168
G01 X25.2249 Y-13.9176
G01 X25.2218 Y-13.9205
G01 X25.2180 Y-13.9226
G01 X25.2104 Y-13.9239
G01 X25.2031 Y-13.9218
G01 X25.1973 Y-13.9168
G01 X25.1949 Y-13.9122
G01 X25.1939 Y-13.9063
G01 X25.1949 Y-13.9004
G01 X25.1979 Y-13.8952
G01 X25.5266 Y-13.4567
G01 X25.5317 Y-13.4478
G01 X25.5355 Y-13.4382
G01 X25.5378 Y-13.4282
G01 X25.5386 Y-13.4179
G01 X25.5378 Y-13.4068
G01 X25.5352 Y-13.3960
G01 X25.5310 Y-13.3857
G01 X25.5256 Y-13.3769
G01 X25.1969 Y-12.9384
G01 X25.1942 Y-12.9321
G01 X25.1942 Y-12.9253
G01 X25.1968 Y-12.9189
G01 X25.2009 Y-12.9146
G01 X25.2071 Y-12.9116
G01 X25.2139 Y-12.9113
G01 X25.2203 Y-12.9135
G01 X25.2249 Y-12.9174
G01 X25.5253 Y-13.3176
G01 X25.5360 Y-13.3275
G01 X25.5493 Y-13.3354
G01 X25.5631 Y-13.3400
G01 X25.5776 Y-13.3416
G01 X25.5921 Y-13.3402
G01 X25.6060 Y-13.3357
G01 X25.6187 Y-13.3285
G01 X25.6302 Y-13.3182
G01 X25.9312 Y-12.9174
G01 X25.9373 Y-12.9127
G01 X25.9448 Y-12.9111
G01 X25.9523 Y-12.9128
G01 X25.9583 Y-12.9176
G01 X25.9609 Y-12.9220
G01 X25.9622 Y-12.9278
G01 X25.9614 Y-12.9338
G01 X25.9592 Y-12.9384
G01 X25.6305 Y-13.3769
G01 X25.6255 Y-13.3849
G01 X25.6214 Y-13.3944
G01 X25.6187 Y-13.4043
G01 X25.6175 Y-13.4145
G01 X25.6180 Y-13.4256
G01 X25.6201 Y-13.4366
G01 X25.6244 Y-13.4478
G01 X25.6300 Y-13.4574
G01 X25.8726 Y-13.7810
G01 X25.8833 Y-13.7921
G01 X25.8954 Y-13.8002
G01 X25.9088 Y-13.8056
G01 X25.9232 Y-13.8082
G01 X25.9326 Y-13.8082
G01 X25.9419 Y-13.8070
G01 X25.9510 Y-13.8045
G01 X25.9589 Y-13.8012
G01 X25.9664 Y-13.7969
G01 X25.9739 Y-13.7913
G01 X25.9806 Y-13.7847
G01 X25.9863 Y-13.7772
G01 X25.9934 Y-13.7635
G01 X26.0094 Y-13.7153
G01 X26.0294 Y-13.6635
G01 X26.0519 Y-13.6128
G01 X26.0768 Y-13.5632
G01 X26.1042 Y-13.5150
G01 X26.1339 Y-13.4681
G01 X26.1658 Y-13.4227
G01 X26.2000 Y-13.3790
G01 X26.2362 Y-13.3369
G01 X26.2745 Y-13.2968
G01 X26.3146 Y-13.2585
G01 X26.3567 Y-13.2223
G01 X26.4004 Y-13.1881
G01 X26.4458 Y-13.1562
G01 X26.4927 Y-13.1265
G01 X26.5409 Y-13.0991
G01 X26.5905 Y-13.0742
G01 X26.6412 Y-13.0517
G01 X26.6930 Y-13.0317
G01 X26.7457 Y-13.0143
G01 X26.7992 Y-12.9995
G01 X26.8533 Y-12.9873
G01 X26.9080 Y-12.9779
G01 X26.9631 Y-12.9711
G01 X27.0184 Y-12.9670
G01 X27.0739 Y-12.9656
G01 X27.1294 Y-12.9670
G01 X27.1847 Y-12.9711
G01 X27.2398 Y-12.9779
G01 X27.2945 Y-12.9873
G01 X27.3486 Y-12.9995
G01 X27.4021 Y-13.0143
G01 X27.4548 Y-13.0317
G01 X27.5066 Y-13.0517
G01 X27.5573 Y-13.0742
G01 X27.6069 Y-13.0991
G01 X27.6551 Y-13.1265
G01 X27.7020 Y-13.1562
G01 X27.7474 Y-13.1881
G01 X27.7911 Y-13.2223
G01 X27.8332 Y-13.2585
G01 X27.8740 Y-13.2974
G01 X29.2869 Y-14.7103
G01 X29.3335 Y-14.7598
G01 X29.3406 Y-14.7660
G01 X29.3492 Y-14.7716
G01 X29.3586 Y-14.7759
G01 X29.3685 Y-14.7788
G01 X29.3830 Y-14.7803
G01 X30.3342 Y-14.7803
G01 X30.3470 Y-14.7791
G01 X30.3594 Y-14.7756
G01 X30.3680 Y-14.7716
G01 X30.3759 Y-14.7665
G01 X30.3831 Y-14.7604
G01 X30.3894 Y-14.7533
G01 X30.3951 Y-14.7448
G01 X30.3992 Y-14.7363
G01 X30.4021 Y-14.7273
G01 X30.4038 Y-14.7180
G01 X30.4042 Y-14.3805
G01 X32.0642 Y-14.3805
G01 X32.0642 Y-15.9405
G01 X30.4042 Y-15.9405
G01 X30.4039 Y-15.6039
G01 X30.4025 Y-15.5954
G01 X30.4001 Y-15.5871
G01 X30.3929 Y-15.5726
G01 X30.3878 Y-15.5657
G01 X30.3818 Y-15.5594
G01 X30.3752 Y-15.5540
G01 X30.3680 Y-15.5494
G01 X30.3602 Y-15.5457
G01 X30.3520 Y-15.5430
G01 X30.3436 Y-15.5414
G01 X30.3351 Y-15.5407
G01 X29.6842 Y-15.5407
G01 X29.6731 Y-15.5416
G01 X29.6647 Y-15.5435
G01 X29.6558 Y-15.5467
G01 X29.6475 Y-15.5511
G01 X29.6398 Y-15.5566
G01 X29.6329 Y-15.5631
G01 X29.6275 Y-15.5697
G01 X29.6225 Y-15.5777
G01 X29.6189 Y-15.5855
G01 X29.6150 Y-15.6005
G01 X29.6132 Y-15.6212
G01 X29.6064 Y-15.6763
G01 X29.5970 Y-15.7310
G01 X29.5848 Y-15.7851
G01 X29.5700 Y-15.8386
G01 X29.5526 Y-15.8913
G01 X29.5326 Y-15.9431
G01 X29.5101 Y-15.9938
G01 X29.4852 Y-16.0434
G01 X29.4578 Y-16.0916
G01 X29.4281 Y-16.1385
G01 X29.3962 Y-16.1839
G01 X29.3620 Y-16.2276
G01 X29.3258 Y-16.2697
G01 X29.2875 Y-16.3098
G01 X29.2474 Y-16.3481
G01 X29.2053 Y-16.3843
G01 X29.1616 Y-16.4185
G01 X29.1162 Y-16.4504
G01 X29.0693 Y-16.4801
G01 X29.0211 Y-16.5075
G01 X28.9715 Y-16.5324
G01 X28.9208 Y-16.5549
G01 X28.8690 Y-16.5749
G01 X28.8163 Y-16.5923
G01 X28.7628 Y-16.6071
G01 X28.7087 Y-16.6193
G01 X28.6540 Y-16.6287
G01 X28.5989 Y-16.6355
G01 X28.5436 Y-16.6396
G01 X28.4881 Y-16.6410
G01 X28.4326 Y-16.6396
G01 X28.3773 Y-16.6355
G01 X28.3222 Y-16.6287
G01 X28.2675 Y-16.6193
G01 X28.2134 Y-16.6071
G01 X28.1599 Y-16.5923
G01 X28.1072 Y-16.5749
G01 X28.0554 Y-16.5549
G01 X28.0047 Y-16.5324
G01 X27.9551 Y-16.5075
G01 X27.9069 Y-16.4801
G01 X27.8600 Y-16.4504
G01 X27.8146 Y-16.4185
G01 X27.7709 Y-16.3843
G01 X27.7288 Y-16.3481
G01 X27.6880 Y-16.3092
G01 X26.2751 Y-14.8963
G01 X26.2362 Y-14.8555
G01 X26.2000 Y-14.8134
G01 X26.1658 Y-14.7697
G01 X26.1339 Y-14.7243
G01 X26.1042 Y-14.6774
G01 X26.0768 Y-14.6292
G01 X26.0519 Y-14.5796
G01 X26.0294 Y-14.5289
G01 X26.0094 Y-14.4771
G01 X25.9920 Y-14.4244
G01 X25.9772 Y-14.3709
G01 X25.9650 Y-14.3168
G01 X25.9556 Y-14.2621
G01 X25.9488 Y-14.2070
G01 X25.9447 Y-14.1517
G01 X25.9433 Y-14.0962
G01 X25.9447 Y-14.0407
G01 X25.9504 Y-13.9712
G01 X25.9505 Y-13.9617
G01 X25.9487 Y-13.9497
G01 X25.9449 Y-13.9382
G01 X25.9391 Y-13.9276
G01 X25.9320 Y-13.9184
G00 Z2.0000
G00 X26.0084 Y-14.1994
G01 F70.00
G01 Z-0.0600
G01 F60.00
G01 X26.0153 Y-14.2550
G01 X26.0240 Y-14.3050
G01 X26.0355 Y-14.3563
G01 X26.0495 Y-14.4069
G01 X26.0654 Y-14.4552
G01 X26.0856 Y-14.5074
G01 X26.1062 Y-14.5539
G01 X26.1298 Y-14.6008
G01 X26.1558 Y-14.6466
G01 X26.1829 Y-14.6895
G01 X26.2141 Y-14.7339
G01 X26.2453 Y-14.7740
G01 X26.2819 Y-14.8164
G01 X26.3169 Y-14.8532
G01 X27.7311 Y-16.2674
G01 X27.7699 Y-16.3042
G01 X27.8103 Y-16.3390
G01 X27.8504 Y-16.3702
G01 X27.8919 Y-16.3995
G01 X27.9377 Y-16.4285
G01 X27.9835 Y-16.4545
G01 X28.0304 Y-16.4781
G01 X28.0800 Y-16.5001
G01 X28.1291 Y-16.5189
G01 X28.1774 Y-16.5348
G01 X28.2263 Y-16.5484
G01 X28.2793 Y-16.5603
G01 X28.3310 Y-16.5693
G01 X28.3832 Y-16.5757
G01 X28.4373 Y-16.5797
G01 X28.4881 Y-16.5809
G01 X28.5389 Y-16.5797
G01 X28.5913 Y-16.5759
G01 X28.6453 Y-16.5693
G01 X28.6986 Y-16.5600
G01 X28.7499 Y-16.5484
G01 X28.7988 Y-16.5348
G01 X28.8471 Y-16.5189
G01 X28.8977 Y-16.4994
G01 X28.9458 Y-16.4781
G01 X28.9927 Y-16.4545
G01 X29.0399 Y-16.4277
G01 X29.0829 Y-16.4004
G01 X29.1244 Y-16.3712
G01 X29.1666 Y-16.3384
G01 X29.2070 Y-16.3036
G01 X29.2451 Y-16.2674
G01 X29.2814 Y-16.2292
G01 X29.3167 Y-16.1882
G01 X29.3489 Y-16.1467
G01 X29.3782 Y-16.1051
G01 X29.4054 Y-16.0622
G01 X29.4322 Y-16.0150
G01 X29.4562 Y-15.9673
G01 X29.4771 Y-15.9202
G01 X29.4966 Y-15.8694
G01 X29.5125 Y-15.8211
G01 X29.5261 Y-15.7722
G01 X29.5379 Y-15.7201
G01 X29.5470 Y-15.6675
G01 X29.5535 Y-15.6145
G01 X29.5573 Y-15.5621
G01 X29.5586 Y-15.5113
G01 X29.5579 Y-15.4806
G01 X30.4642 Y-15.4806
G01 X30.4642 Y-15.8105
G01 X30.4650 Y-15.8208
G01 X30.4675 Y-15.8316
G01 X30.4717 Y-15.8420
G01 X30.4775 Y-15.8515
G01 X30.4847 Y-15.8600
G01 X30.4932 Y-15.8672
G01 X30.5027 Y-15.8730
G01 X30.5131 Y-15.8772
G01 X30.5239 Y-15.8797
G01 X30.5342 Y-15.8805
G01 X31.9368 Y-15.8805
G01 X31.9479 Y-15.8792
G01 X31.9586 Y-15.8761
G01 X31.9687 Y-15.8714
G01 X31.9779 Y-15.8652
G01 X31.9861 Y-15.8575
G01 X31.9924 Y-15.8494
G01 X31.9978 Y-15.8396
G01 X32.0017 Y-15.8292
G01 X32.0036 Y-15.8199
G01 X32.0042 Y-15.8105
G01 X32.0042 Y-14.5088
G01 X32.0034 Y-14.5002
G01 X32.0017 Y-14.4918
G01 X31.9985 Y-14.4829
G01 X31.9947 Y-14.4753
G01 X31.9894 Y-14.4674
G01 X31.9837 Y-14.4610
G01 X31.9773 Y-14.4553
G01 X31.9702 Y-14.4505
G01 X31.9626 Y-14.4465
G01 X31.9537 Y-14.4433
G01 X31.9445 Y-14.4413
G01 X31.9351 Y-14.4405
G01 X30.5342 Y-14.4405
G01 X30.5239 Y-14.4413
G01 X30.5131 Y-14.4438
G01 X30.5027 Y-14.4480
G01 X30.4932 Y-14.4538
G01 X30.4847 Y-14.4610
G01 X30.4775 Y-14.4695
G01 X30.4717 Y-14.4790
G01 X30.4675 Y-14.4894
G01 X30.4650 Y-14.5002
G01 X30.4642 Y-14.5105
G01 X30.4642 Y-14.8404
G01 X29.3227 Y-14.8404
G01 X29.2819 Y-14.7921
G01 X29.2451 Y-14.7534
G01 X27.8309 Y-13.3392
G01 X27.7927 Y-13.3029
G01 X27.7517 Y-13.2676
G01 X27.7116 Y-13.2364
G01 X27.6701 Y-13.2071
G01 X27.6243 Y-13.1781
G01 X27.5785 Y-13.1521
G01 X27.5316 Y-13.1285
G01 X27.4820 Y-13.1065
G01 X27.4329 Y-13.0877
G01 X27.3846 Y-13.0718
G01 X27.3357 Y-13.0582
G01 X27.2827 Y-13.0463
G01 X27.2310 Y-13.0373
G01 X27.1788 Y-13.0309
G01 X27.1247 Y-13.0269
G01 X27.0739 Y-13.0257
G01 X27.0231 Y-13.0269
G01 X26.9707 Y-13.0307
G01 X26.9167 Y-13.0373
G01 X26.8634 Y-13.0466
G01 X26.8121 Y-13.0582
G01 X26.7632 Y-13.0718
G01 X26.7149 Y-13.0877
G01 X26.6643 Y-13.1072
G01 X26.6162 Y-13.1285
G01 X26.5678 Y-13.1529
G01 X26.5235 Y-13.1781
G01 X26.4806 Y-13.2052
G01 X26.4362 Y-13.2364
G01 X26.3935 Y-13.2698
G01 X26.3550 Y-13.3030
G01 X26.3182 Y-13.3380
G01 X26.2819 Y-13.3760
G01 X26.2464 Y-13.4171
G01 X26.2141 Y-13.4585
G01 X26.1838 Y-13.5015
G01 X26.1548 Y-13.5473
G01 X26.1298 Y-13.5916
G01 X26.1069 Y-13.6370
G01 X26.0849 Y-13.6864
G01 X26.0660 Y-13.7356
G01 X26.0490 Y-13.7871
G01 X26.0355 Y-13.8361
G01 X26.0243 Y-13.8857
G01 X26.0150 Y-13.9391
G01 X26.0086 Y-13.9913
G01 X26.0046 Y-14.0454
G01 X26.0034 Y-14.0962
G01 X26.0046 Y-14.1470
G01 X26.0084 Y-14.1994
G00 Z2.0000
G00 X29.6705 Y-11.8972
G01 F70.00
G01 Z-0.0600
G01 F60.00
G01 X31.0705 Y-11.8972
G01 X31.0808 Y-11.8964
G01 X31.0916 Y-11.8939
G01 X31.1012 Y-11.8901
G01 X31.1094 Y-11.8854
G01 X31.1175 Y-11.8791
G01 X31.1246 Y-11.8716
G01 X31.1305 Y-11.8632
G01 X31.1348 Y-11.8548
G01 X31.1382 Y-11.8450
G01 X31.1401 Y-11.8349
G01 X31.1405 Y-11.4326
G01 X31.9022 Y-11.4326
G01 X31.9022 Y-11.8323
G01 X31.9030 Y-11.8426
G01 X31.9060 Y-11.8551
G01 X31.9109 Y-11.8661
G01 X31.9181 Y-11.8767
G01 X31.9265 Y-11.8853
G01 X31.9362 Y-11.8923
G01 X31.9470 Y-11.8976
G01 X31.9594 Y-11.9011
G01 X31.9713 Y-11.9023
G01 X33.3722 Y-11.9023
G01 X33.3833 Y-11.9014
G01 X33.3933 Y-11.8990
G01 X33.4029 Y-11.8952
G01 X33.4118 Y-11.8900
G01 X33.4192 Y-11.8842
G01 X33.4263 Y-11.8767
G01 X33.4318 Y-11.8690
G01 X33.4365 Y-11.8599
G01 X33.4399 Y-11.8501
G01 X33.4418 Y-11.8400
G01 X33.4422 Y-11.4326
G01 X34.2231 Y-11.4326
G01 X34.2231 Y-11.8322
G01 X34.2239 Y-11.8425
G01 X34.2266 Y-11.8542
G01 X34.2318 Y-11.8660
G01 X34.2390 Y-11.8766
G01 X34.2474 Y-11.8852
G01 X34.2571 Y-11.8922
G01 X34.2679 Y-11.8975
G01 X34.2794 Y-11.9009
G01 X34.2922 Y-11.9022
G01 X35.8931 Y-11.9022
G01 X35.9093 Y-11.9003
G01 X35.9191 Y-11.8972
G01 X35.9283 Y-11.8927
G01 X35.9375 Y-11.8863
G01 X35.9450 Y-11.8792
G01 X35.9513 Y-11.8711
G01 X35.9564 Y-11.8621
G01 X35.9601 Y-11.8525
G01 X35.9625 Y-11.8416
G01 X35.9631 Y-11.8322
G01 X35.9631 Y-11.5023
G01 X37.1578 Y-11.5023
G01 X37.1866 Y-11.5009
G01 X37.2047 Y-11.4987
G01 X37.2338 Y-11.4929
G01 X37.2591 Y-11.4855
G01 X38.2736 Y-11.4855
G01 X38.2889 Y-11.4838
G01 X38.2996 Y-11.4805
G01 X38.3103 Y-11.4751
G01 X38.3193 Y-11.4685
G01 X38.3277 Y-11.4599
G01 X38.3341 Y-11.4507
G01 X38.3389 Y-11.4407
G01 X38.3421 Y-11.4300
G01 X38.3436 Y-11.4181
G01 X38.3436 Y-10.0155
G01 X38.3419 Y-10.0002
G01 X38.3386 Y-9.9895
G01 X38.3336 Y-9.9795
G01 X38.3266 Y-9.9698
G01 X38.3187 Y-9.9619
G01 X38.3088 Y-9.9550
G01 X38.2988 Y-9.9502
G01 X38.2873 Y-9.9468
G01 X38.2762 Y-9.9455
G01 X36.9727 Y-9.9455
G01 X36.9633 Y-9.9463
G01 X36.9549 Y-9.9480
G01 X36.9460 Y-9.9512
G01 X36.9376 Y-9.9555
G01 X36.9305 Y-9.9603
G01 X36.9241 Y-9.9660
G01 X36.9184 Y-9.9724
G01 X36.9136 Y-9.9795
G01 X36.9096 Y-9.9871
G01 X36.9064 Y-9.9960
G01 X36.9045 Y-10.0044
G01 X36.9036 Y-10.0129
G01 X36.9036 Y-10.8621
G01 X35.9631 Y-10.8621
G01 X35.9631 Y-10.5322
G01 X35.9622 Y-10.5211
G01 X35.9593 Y-10.5094
G01 X35.9544 Y-10.4984
G01 X35.9483 Y-10.4891
G01 X35.9401 Y-10.4803
G01 X35.9305 Y-10.4731
G01 X35.9207 Y-10.4679
G01 X35.9093 Y-10.4641
G01 X35.8974 Y-10.4623
G01 X34.2931 Y-10.4622
G01 X34.2794 Y-10.4635
G01 X34.2695 Y-10.4663
G01 X34.2593 Y-10.4709
G01 X34.2507 Y-10.4765
G01 X34.2430 Y-10.4833
G01 X34.2364 Y-10.4912
G01 X34.2306 Y-10.5007
G01 X34.2266 Y-10.5102
G01 X34.2241 Y-10.5202
G01 X34.2231 Y-10.5322
G01 X34.2231 Y-10.7924
G01 X33.4422 Y-10.7924
G01 X33.4422 Y-10.5323
G01 X33.4410 Y-10.5195
G01 X33.4381 Y-10.5087
G01 X33.4335 Y-10.4985
G01 X33.4274 Y-10.4892
G01 X33.4205 Y-10.4816
G01 X33.4125 Y-10.4751
G01 X33.4029 Y-10.4694
G01 X33.3933 Y-10.4656
G01 X33.3825 Y-10.4631
G01 X33.3722 Y-10.4623
G01 X31.9671 Y-10.4625
G01 X31.9560 Y-10.4642
G01 X31.9446 Y-10.4680
G01 X31.9348 Y-10.4732
G01 X31.9258 Y-10.4799
G01 X31.9181 Y-10.4879
G01 X31.9117 Y-10.4971
G01 X31.9069 Y-10.5071
G01 X31.9035 Y-10.5186
G01 X31.9022 Y-10.5323
G01 X31.9022 Y-10.7924
G01 X31.1405 Y-10.7924
G01 X31.1405 Y-10.5272
G01 X31.1396 Y-10.5161
G01 X31.1370 Y-10.5052
G01 X31.1330 Y-10.4957
G01 X31.1277 Y-10.4869
G01 X31.1212 Y-10.4789
G01 X31.1136 Y-10.4720
G01 X31.1050 Y-10.4663
G01 X31.0957 Y-10.4619
G01 X31.0858 Y-10.4589
G01 X31.0705 Y-10.4572
G01 X29.6705 Y-10.4572
G01 X29.6552 Y-10.4589
G01 X29.6437 Y-10.4625
G01 X29.6338 Y-10.4676
G01 X29.6248 Y-10.4742
G01 X29.6169 Y-10.4821
G01 X29.6100 Y-10.4920
G01 X29.6052 Y-10.5020
G01 X29.6018 Y-10.5135
G01 X29.6005 Y-10.5246
G01 X29.6005 Y-11.8281
G01 X29.6020 Y-11.8417
G01 X29.6062 Y-11.8548
G01 X29.6128 Y-11.8668
G01 X29.6216 Y-11.8773
G01 X29.6323 Y-11.8859
G01 X29.6445 Y-11.8922
G01 X29.6577 Y-11.8960
G01 X29.6705 Y-11.8972
G00 Z2.0000
G00 X31.2005 Y-11.5627
G01 F70.00
G01 Z-0.0600
G01 F60.00
G01 X31.2005 Y-11.9572
G01 X29.5405 Y-11.9572
G01 X29.5405 Y-10.3972
G01 X31.2005 Y-10.3972
G01 X31.2005 Y-10.6623
G01 X31.2020 Y-10.6768
G01 X31.2055 Y-10.6883
G01 X31.2109 Y-10.6990
G01 X31.2181 Y-10.7086
G01 X31.2261 Y-10.7164
G01 X31.2360 Y-10.7232
G01 X31.2469 Y-10.7282
G01 X31.2585 Y-10.7312
G01 X31.2705 Y-10.7323
G01 X31.7731 Y-10.7323
G01 X31.7825 Y-10.7315
G01 X31.7909 Y-10.7297
G01 X31.7990 Y-10.7269
G01 X31.8074 Y-10.7228
G01 X31.8205 Y-10.7130
G01 X31.8309 Y-10.7004
G01 X31.8381 Y-10.6859
G01 X31.8418 Y-10.6700
G01 X31.8422 Y-10.4023
G01 X33.5022 Y-10.4023
G01 X33.5026 Y-10.6700
G01 X33.5063 Y-10.6859
G01 X33.5097 Y-10.6937
G01 X33.5140 Y-10.7012
G01 X33.5246 Y-10.7136
G01 X33.5377 Y-10.7232
G01 X33.5454 Y-10.7269
G01 X33.5544 Y-10.7300
G01 X33.5628 Y-10.7316
G01 X33.5713 Y-10.7323
G01 X34.0931 Y-10.7323
G01 X34.1051 Y-10.7312
G01 X34.1167 Y-10.7282
G01 X34.1276 Y-10.7232
G01 X34.1375 Y-10.7164
G01 X34.1461 Y-10.7080
G01 X34.1531 Y-10.6983
G01 X34.1584 Y-10.6875
G01 X34.1616 Y-10.6768
G01 X34.1631 Y-10.6623
G01 X34.1631 Y-10.4022
G01 X36.0231 Y-10.4022
G01 X36.0234 Y-10.7388
G01 X36.0248 Y-10.7473
G01 X36.0272 Y-10.7556
G01 X36.0306 Y-10.7634
G01 X36.0349 Y-10.7709
G01 X36.0401 Y-10.7777
G01 X36.0461 Y-10.7838
G01 X36.0528 Y-10.7892
G01 X36.0601 Y-10.7937
G01 X36.0753 Y-10.7997
G01 X36.0837 Y-10.8013
G01 X36.0922 Y-10.8020
G01 X36.7779 Y-10.8018
G01 X36.7906 Y-10.7999
G01 X36.8020 Y-10.7960
G01 X36.8132 Y-10.7897
G01 X36.8231 Y-10.7815
G01 X36.8313 Y-10.7716
G01 X36.8372 Y-10.7611
G01 X36.8413 Y-10.7498
G01 X36.8434 Y-10.7371
G01 X36.8436 Y-9.8855
G01 X38.4036 Y-9.8855
G01 X38.4036 Y-11.5455
G01 X37.2778 Y-11.5455
G01 X37.2650 Y-11.5468
G01 X37.2311 Y-11.5551
G01 X37.2127 Y-11.5583
G01 X37.1756 Y-11.5619
G01 X37.1560 Y-11.5624
G01 X36.0931 Y-11.5624
G01 X36.0811 Y-11.5635
G01 X36.0703 Y-11.5662
G01 X36.0601 Y-11.5707
G01 X36.0507 Y-11.5767
G01 X36.0430 Y-11.5835
G01 X36.0359 Y-11.5921
G01 X36.0302 Y-11.6017
G01 X36.0264 Y-11.6113
G01 X36.0239 Y-11.6222
G01 X36.0231 Y-11.6324
G01 X36.0231 Y-11.9622
G01 X34.1631 Y-11.9622
G01 X34.1630 Y-11.5584
G01 X34.1606 Y-11.5441
G01 X34.1552 Y-11.5305
G01 X34.1472 Y-11.5183
G01 X34.1368 Y-11.5081
G01 X34.1276 Y-11.5018
G01 X34.1167 Y-11.4968
G01 X34.1059 Y-11.4939
G01 X34.0948 Y-11.4927
G01 X33.5722 Y-11.4927
G01 X33.5602 Y-11.4938
G01 X33.5478 Y-11.4971
G01 X33.5362 Y-11.5027
G01 X33.5265 Y-11.5097
G01 X33.5175 Y-11.5190
G01 X33.5109 Y-11.5290
G01 X33.5057 Y-11.5408
G01 X33.5030 Y-11.5525
G01 X33.5022 Y-11.5627
G01 X33.5022 Y-11.9623
G01 X31.8422 Y-11.9623
G01 X31.8420 Y-11.5576
G01 X31.8409 Y-11.5491
G01 X31.8387 Y-11.5408
G01 X31.8318 Y-11.5260
G01 X31.8217 Y-11.5132
G01 X31.8089 Y-11.5031
G01 X31.8006 Y-11.4987
G01 X31.7917 Y-11.4955
G01 X31.7833 Y-11.4936
G01 X31.7739 Y-11.4927
G01 X31.2636 Y-11.4931
G01 X31.2510 Y-11.4955
G01 X31.2390 Y-11.5002
G01 X31.2281 Y-11.5070
G01 X31.2186 Y-11.5157
G01 X31.2109 Y-11.5260
G01 X31.2052 Y-11.5375
G01 X31.2017 Y-11.5499
G01 X31.2005 Y-11.5627
G00 Z2.0000
G00 X31.9022 Y-9.5690
G01 F70.00
G01 Z-0.0600
G01 F60.00
G01 X31.9022 Y-9.9324
G01 X31.9031 Y-9.9435
G01 X31.9063 Y-9.9560
G01 X31.9113 Y-9.9669
G01 X31.9186 Y-9.9775
G01 X31.9271 Y-9.9860
G01 X31.9370 Y-9.9929
G01 X31.9478 Y-9.9980
G01 X31.9594 Y-10.0012
G01 X31.9722 Y-10.0024
G01 X33.3722 Y-10.0024
G01 X33.3816 Y-10.0018
G01 X33.3909 Y-9.9999
G01 X33.4006 Y-9.9964
G01 X33.4096 Y-9.9915
G01 X33.4179 Y-9.9854
G01 X33.4252 Y-9.9781
G01 X33.4313 Y-9.9698
G01 X33.4362 Y-9.9608
G01 X33.4397 Y-9.9511
G01 X33.4417 Y-9.9410
G01 X33.4422 Y-9.9324
G01 X33.4422 Y-9.5690
G01 X33.5022 Y-9.5690
G01 X33.5022 Y-10.0624
G01 X31.8422 Y-10.0624
G01 X31.8422 Y-9.5690
G01 X31.9022 Y-9.5690
G00 Z2.0000
G00 X31.9022 Y-8.9957
G01 F70.00
G01 Z-0.0600
G01 F60.00
G01 X31.8422 Y-8.9957
G01 X31.8422 Y-8.5024
G01 X32.3855 Y-8.5024
G01 X32.3855 Y-8.5624
G01 X31.9688 Y-8.5625
G01 X31.9552 Y-8.5645
G01 X31.9431 Y-8.5688
G01 X31.9319 Y-8.5752
G01 X31.9221 Y-8.5835
G01 X31.9140 Y-8.5935
G01 X31.9082 Y-8.6040
G01 X31.9041 Y-8.6162
G01 X31.9023 Y-8.6290
G01 X31.9022 Y-8.9957
G00 Z2.0000
G00 X32.9588 Y-8.5624
G01 F70.00
G01 Z-0.0600
G01 F60.00
G01 X32.9588 Y-8.5024
G01 X33.5022 Y-8.5024
G01 X33.5022 Y-8.9957
G01 X33.4422 Y-8.9957
G01 X33.4421 Y-8.6281
G01 X33.4397 Y-8.6137
G01 X33.4343 Y-8.6002
G01 X33.4263 Y-8.5880
G01 X33.4159 Y-8.5777
G01 X33.4067 Y-8.5715
G01 X33.3966 Y-8.5668
G01 X33.3859 Y-8.5637
G01 X33.3748 Y-8.5624
G01 X32.9588 Y-8.5624
G00 Z2.0000
G00 X34.2231 Y-8.9956
G01 F70.00
G01 Z-0.0600
G01 F60.00
G01 X34.1631 Y-8.9956
G01 X34.1631 Y-8.5022
G01 X34.8064 Y-8.5022
G01 X34.8064 Y-8.5622
G01 X34.2914 Y-8.5622
G01 X34.2794 Y-8.5635
G01 X34.2687 Y-8.5666
G01 X34.2579 Y-8.5717
G01 X34.2480 Y-8.5786
G01 X34.2379 Y-8.5891
G01 X34.2306 Y-8.6007
G01 X34.2254 Y-8.6144
G01 X34.2232 Y-8.6279
G01 X34.2231 Y-8.9956
G00 Z2.0000
G00 X34.2931 Y-10.0022
G01 F70.00
G01 Z-0.0600
G01 F60.00
G01 X35.8931 Y-10.0022
G01 X35.9017 Y-10.0017
G01 X35.9101 Y-10.0001
G01 X35.9199 Y-9.9969
G01 X35.9298 Y-9.9918
G01 X35.9382 Y-9.9858
G01 X35.9455 Y-9.9786
G01 X35.9518 Y-9.9704
G01 X35.9571 Y-9.9606
G01 X35.9606 Y-9.9509
G01 X35.9626 Y-9.9408
G01 X35.9631 Y-9.9322
G01 X35.9631 Y-9.5689
G01 X36.0231 Y-9.5689
G01 X36.0231 Y-10.0622
G01 X34.1631 Y-10.0622
G01 X34.1631 Y-9.5689
G01 X34.2231 Y-9.5689
G01 X34.2231 Y-9.9322
G01 X34.2240 Y-9.9433
G01 X34.2272 Y-9.9558
G01 X34.2322 Y-9.9667
G01 X34.2390 Y-9.9766
G01 X34.2480 Y-9.9858
G01 X34.2579 Y-9.9927
G01 X34.2695 Y-9.9981
G01 X34.2811 Y-10.0012
G01 X34.2931 Y-10.0022
G00 Z2.0000
G00 X35.3797 Y-8.5622
G01 F70.00
G01 Z-0.0600
G01 F60.00
G01 X35.3797 Y-8.5022
G01 X36.0231 Y-8.5022
G01 X36.0231 Y-8.9956
G01 X35.9631 Y-8.9956
G01 X35.9629 Y-8.6271
G01 X35.9598 Y-8.6111
G01 X35.9536 Y-8.5970
G01 X35.9438 Y-8.5839
G01 X35.9320 Y-8.5740
G01 X35.9238 Y-8.5693
G01 X35.9142 Y-8.5655
G01 X35.9042 Y-8.5631
G01 X35.8948 Y-8.5622
G01 X35.3797 Y-8.5622
G00 Z2.0000
G00 X33.8647 Y-6.7535
G01 F70.00
G01 Z-0.0600
G01 F60.00
G01 X33.8797 Y-6.7361
G01 X34.4970 Y-6.8672
G01 X34.4970 Y-6.8917
G01 X34.4826 Y-6.8859
G01 X34.4661 Y-6.8813
G01 X33.8647 Y-6.7535
G00 Z2.0000
G00 X34.4970 Y-5.8150
G01 F70.00
G01 Z-0.0600
G01 F60.00
G01 X34.4970 Y-5.8650
G01 X34.0835 Y-5.7771
G01 X34.0769 Y-5.7551
G01 X34.4181 Y-5.8272
G01 X34.4386 Y-5.8285
G01 X34.4592 Y-5.8268
G01 X34.4792 Y-5.8220
G01 X34.4970 Y-5.8150
G00 Z2.0000
G00 X33.5574 Y-5.1400
G01 F70.00
G01 Z-0.0600
G01 F60.00
G01 X33.5279 Y-5.1252
G01 X33.4857 Y-5.1065
G01 X33.4488 Y-5.0921
G01 X33.5704 Y-5.0921
G01 X33.5656 Y-5.1034
G01 X33.5619 Y-5.1148
G01 X33.5592 Y-5.1265
G01 X33.5574 Y-5.1400
G00 Z2.0000
G00 X33.4149 Y-4.5119
G01 F70.00
G01 Z-0.0600
G01 F60.00
G01 X33.4369 Y-4.5045
G01 X33.4825 Y-4.4869
G01 X33.5385 Y-4.4616
G01 X33.5399 Y-4.4741
G01 X33.5428 Y-4.4875
G01 X33.5469 Y-4.5006
G01 X33.5517 Y-4.5119
G01 X33.4149 Y-4.5119
G00 Z2.0000
G00 X32.6177 Y-4.5119
G01 F70.00
G01 Z-0.0600
G01 F60.00
G01 X32.6225 Y-4.5006
G01 X32.6266 Y-4.4875
G01 X32.6295 Y-4.4741
G01 X32.6309 Y-4.4616
G01 X32.6867 Y-4.4868
G01 X32.7327 Y-4.5046
G01 X32.7545 Y-4.5119
G01 X32.6177 Y-4.5119
G00 Z2.0000
G00 X32.5988 Y-5.0921
G01 F70.00
G01 Z-0.0600
G01 F60.00
G01 X32.7204 Y-5.0921
G01 X32.6838 Y-5.1064
G01 X32.6405 Y-5.1256
G01 X32.6118 Y-5.1400
G01 X32.6100 Y-5.1265
G01 X32.6073 Y-5.1148
G01 X32.6036 Y-5.1034
G01 X32.5988 Y-5.0921
G00 Z2.0000
G00 X32.0068 Y-4.5286
G01 F70.00
G01 Z-0.0600
G01 F60.00
G01 X32.0263 Y-4.5249
G01 X32.0399 Y-4.5232
G01 X32.0683 Y-4.5218
G01 X32.4913 Y-4.5218
G01 X32.5024 Y-4.5209
G01 X32.5157 Y-4.5174
G01 X32.5280 Y-4.5114
G01 X32.5389 Y-4.5031
G01 X32.5480 Y-4.4928
G01 X32.5549 Y-4.4810
G01 X32.5594 Y-4.4680
G01 X32.5612 Y-4.4544
G01 X32.5604 Y-4.4407
G01 X32.5575 Y-4.4291
G01 X32.5526 Y-4.4181
G01 X32.5459 Y-4.4081
G01 X32.5383 Y-4.4000
G01 X32.5316 Y-4.3946
G01 X32.5125 Y-4.3824
G01 X32.4711 Y-4.3533
G01 X32.4313 Y-4.3222
G01 X32.3930 Y-4.2892
G01 X32.3564 Y-4.2543
G01 X32.3215 Y-4.2177
G01 X32.2885 Y-4.1794
G01 X32.2574 Y-4.1396
G01 X32.2343 Y-4.1068
G01 X32.2262 Y-4.0979
G01 X32.2139 Y-4.0887
G01 X32.1989 Y-4.0822
G01 X32.1829 Y-4.0794
G01 X32.1675 Y-4.0801
G01 X32.1518 Y-4.0846
G01 X32.1376 Y-4.0925
G01 X32.1256 Y-4.1035
G01 X32.1165 Y-4.1170
G01 X32.1127 Y-4.1256
G01 X32.1101 Y-4.1347
G01 X32.1063 Y-4.1684
G01 X32.1040 Y-4.1820
G01 X32.0973 Y-4.2086
G01 X32.0930 Y-4.2217
G01 X32.0825 Y-4.2471
G01 X32.0763 Y-4.2594
G01 X32.0621 Y-4.2829
G01 X32.0458 Y-4.3050
G01 X32.0368 Y-4.3154
G01 X31.9390 Y-4.4139
G01 X31.9314 Y-4.4243
G01 X31.9255 Y-4.4367
G01 X31.9232 Y-4.4449
G01 X31.9217 Y-4.4543
G01 X31.9215 Y-4.4637
G01 X31.9226 Y-4.4731
G01 X31.9250 Y-4.4822
G01 X31.9285 Y-4.4910
G01 X31.9333 Y-4.4992
G01 X31.9390 Y-4.5066
G01 X31.9457 Y-4.5133
G01 X31.9533 Y-4.5189
G01 X31.9615 Y-4.5235
G01 X31.9703 Y-4.5270
G01 X31.9795 Y-4.5292
G01 X31.9880 Y-4.5302
G01 X31.9975 Y-4.5300
G01 X32.0068 Y-4.5286
G00 Z2.0000
G00 X32.1193 Y-3.9122
G01 F70.00
G01 Z-0.0600
G01 F60.00
G01 X32.1443 Y-3.9701
G01 X32.1643 Y-4.0100
G01 X32.1413 Y-4.0143
G01 X32.1193 Y-4.0224
G01 X32.1193 Y-3.9122
G00 Z2.0000
G00 X32.1160 Y-3.5753
G01 F70.00
G01 Z-0.0600
G01 F60.00
G01 X32.1194 Y-3.6211
G01 X32.1252 Y-3.6683
G01 X32.1333 Y-3.7152
G01 X32.1438 Y-3.7617
G01 X32.1565 Y-3.8076
G01 X32.1715 Y-3.8530
G01 X32.1885 Y-3.8971
G01 X32.2071 Y-3.9392
G01 X32.2301 Y-3.9848
G01 X32.2528 Y-4.0248
G01 X32.2791 Y-4.0662
G01 X32.3056 Y-4.1038
G01 X32.3349 Y-4.1414
G01 X32.3660 Y-4.1774
G01 X32.3976 Y-4.2107
G01 X32.4333 Y-4.2447
G01 X32.4680 Y-4.2747
G01 X32.5083 Y-4.3061
G01 X32.5458 Y-4.3325
G01 X32.5862 Y-4.3581
G01 X32.6274 Y-4.3815
G01 X32.6697 Y-4.4028
G01 X32.7135 Y-4.4222
G01 X32.7563 Y-4.4387
G01 X32.8048 Y-4.4547
G01 X32.8490 Y-4.4669
G01 X32.8955 Y-4.4774
G01 X32.9424 Y-4.4855
G01 X32.9896 Y-4.4913
G01 X33.0388 Y-4.4949
G01 X33.0847 Y-4.4960
G01 X33.1323 Y-4.4948
G01 X33.1798 Y-4.4913
G01 X33.2253 Y-4.4857
G01 X33.2739 Y-4.4774
G01 X33.3204 Y-4.4669
G01 X33.3646 Y-4.4547
G01 X33.4117 Y-4.4392
G01 X33.4558 Y-4.4222
G01 X33.4979 Y-4.4036
G01 X33.5435 Y-4.3806
G01 X33.5835 Y-4.3579
G01 X33.6235 Y-4.3326
G01 X33.6625 Y-4.3051
G01 X33.6987 Y-4.2769
G01 X33.7374 Y-4.2436
G01 X33.7706 Y-4.2119
G01 X33.8034 Y-4.1774
G01 X33.8345 Y-4.1414
G01 X33.8638 Y-4.1038
G01 X33.8912 Y-4.0649
G01 X33.9158 Y-4.0261
G01 X33.9410 Y-3.9817
G01 X33.9615 Y-3.9410
G01 X33.9813 Y-3.8960
G01 X34.0456 Y-3.8960
G01 X34.0363 Y-3.9202
G01 X34.0158 Y-3.9664
G01 X33.9931 Y-4.0115
G01 X33.9681 Y-4.0555
G01 X33.9411 Y-4.0982
G01 X33.9120 Y-4.1396
G01 X33.8809 Y-4.1794
G01 X33.8479 Y-4.2177
G01 X33.8130 Y-4.2543
G01 X33.7764 Y-4.2892
G01 X33.7381 Y-4.3222
G01 X33.6983 Y-4.3533
G01 X33.6569 Y-4.3824
G01 X33.6344 Y-4.3972
G01 X33.6268 Y-4.4042
G01 X33.6199 Y-4.4129
G01 X33.6135 Y-4.4250
G01 X33.6095 Y-4.4382
G01 X33.6081 Y-4.4518
G01 X33.6095 Y-4.4655
G01 X33.6135 Y-4.4786
G01 X33.6199 Y-4.4907
G01 X33.6286 Y-4.5013
G01 X33.6392 Y-4.5100
G01 X33.6482 Y-4.5151
G01 X33.6578 Y-4.5188
G01 X33.6679 Y-4.5211
G01 X33.6781 Y-4.5218
G01 X41.7581 Y-4.5218
G01 X41.7865 Y-4.5232
G01 X41.8137 Y-4.5272
G01 X41.8403 Y-4.5339
G01 X41.8662 Y-4.5432
G01 X41.8788 Y-4.5488
G01 X41.9030 Y-4.5617
G01 X41.9147 Y-4.5691
G01 X41.9368 Y-4.5855
G01 X41.9577 Y-4.6045
G01 X42.1607 Y-4.8076
G01 X42.1700 Y-4.8152
G01 X42.1813 Y-4.8215
G01 X42.1943 Y-4.8258
G01 X42.2079 Y-4.8274
G01 X42.6240 Y-4.8275
G01 X42.6376 Y-4.8281
G01 X42.6564 Y-4.8314
G01 X42.6746 Y-4.8374
G01 X42.6861 Y-4.8429
G01 X42.6971 Y-4.8494
G01 X42.7073 Y-4.8570
G01 X42.7174 Y-4.8662
G01 X42.8162 Y-4.9650
G01 X42.8254 Y-4.9751
G01 X42.8330 Y-4.9853
G01 X42.8395 Y-4.9963
G01 X42.8450 Y-5.0078
G01 X42.8493 Y-5.0198
G01 X42.8524 Y-5.0322
G01 X42.8543 Y-5.0449
G01 X42.8549 Y-5.0585
G01 X42.8547 Y-5.4639
G01 X42.8524 Y-5.4829
G01 X42.8473 Y-5.5013
G01 X42.8424 Y-5.5131
G01 X42.8324 Y-5.5319
G01 X42.8283 Y-5.5432
G01 X42.8262 Y-5.5559
G01 X42.8264 Y-5.5688
G01 X42.8288 Y-5.5806
G01 X42.8331 Y-5.5918
G01 X42.8393 Y-5.6021
G01 X42.8478 Y-5.6118
G01 X42.8572 Y-5.6193
G01 X42.8677 Y-5.6250
G01 X42.8791 Y-5.6289
G01 X42.8918 Y-5.6309
G01 X45.7918 Y-5.6276
G01 X45.8029 Y-5.6267
G01 X45.8121 Y-5.6246
G01 X45.8209 Y-5.6212
G01 X45.8292 Y-5.6167
G01 X45.8375 Y-5.6106
G01 X45.8442 Y-5.6040
G01 X45.8499 Y-5.5965
G01 X45.8550 Y-5.5875
G01 X45.8585 Y-5.5787
G01 X45.8607 Y-5.5696
G01 X45.8617 Y-5.5593
G01 X45.8621 Y-5.4378
G01 X45.8648 Y-5.4104
G01 X45.8671 Y-5.3968
G01 X45.8738 Y-5.3702
G01 X45.8831 Y-5.3443
G01 X45.8948 Y-5.3194
G01 X45.9090 Y-5.2959
G01 X45.9253 Y-5.2738
G01 X45.9444 Y-5.2528
G01 X46.0873 Y-5.1104
G01 X46.1085 Y-5.0930
G01 X46.1198 Y-5.0851
G01 X46.1433 Y-5.0709
G01 X46.1682 Y-5.0592
G01 X46.1941 Y-5.0499
G01 X46.2207 Y-5.0432
G01 X46.2343 Y-5.0409
G01 X46.2617 Y-5.0382
G01 X46.2763 Y-5.0378
G01 X48.8627 Y-5.0378
G01 X48.8738 Y-5.0369
G01 X48.8837 Y-5.0346
G01 X48.8933 Y-5.0308
G01 X48.9028 Y-5.0252
G01 X48.9108 Y-5.0188
G01 X49.3270 Y-4.6067
G01 X49.3352 Y-4.5968
G01 X49.3414 Y-4.5855
G01 X49.3452 Y-4.5740
G01 X49.3471 Y-4.5613
G01 X49.3469 Y-4.5510
G01 X49.3449 Y-4.5400
G01 X49.3413 Y-4.5294
G01 X49.3360 Y-4.5196
G01 X49.3291 Y-4.5107
G01 X49.3210 Y-4.5030
G01 X49.3118 Y-4.4967
G01 X49.3016 Y-4.4920
G01 X49.2909 Y-4.4890
G01 X49.2789 Y-4.4876
G01 X49.0257 Y-4.4876
G01 X49.0121 Y-4.4870
G01 X48.9932 Y-4.4837
G01 X48.9810 Y-4.4800
G01 X48.9692 Y-4.4751
G01 X48.9579 Y-4.4691
G01 X48.9423 Y-4.4581
G01 X48.9322 Y-4.4489
G01 X48.8737 Y-4.3904
G01 X48.8637 Y-4.3823
G01 X48.8548 Y-4.3772
G01 X48.8451 Y-4.3735
G01 X48.8351 Y-4.3713
G01 X48.8257 Y-4.3705
G01 X48.8137 Y-4.3714
G01 X48.8028 Y-4.3741
G01 X48.7926 Y-4.3784
G01 X48.7831 Y-4.3843
G01 X48.7759 Y-4.3905
G01 X48.7123 Y-4.4539
G01 X48.7025 Y-4.4620
G01 X48.6918 Y-4.4691
G01 X48.6747 Y-4.4778
G01 X48.6565 Y-4.4838
G01 X48.6376 Y-4.4871
G01 X48.6240 Y-4.4877
G01 X48.2256 Y-4.4876
G01 X48.2120 Y-4.4869
G01 X48.1994 Y-4.4851
G01 X48.1810 Y-4.4800
G01 X48.1692 Y-4.4751
G01 X48.1579 Y-4.4691
G01 X48.1473 Y-4.4620
G01 X48.1322 Y-4.4489
G01 X48.0731 Y-4.3898
G01 X48.0630 Y-4.3818
G01 X48.0540 Y-4.3768
G01 X48.0443 Y-4.3733
G01 X48.0351 Y-4.3712
G01 X48.0248 Y-4.3705
G01 X48.0137 Y-4.3714
G01 X48.0028 Y-4.3740
G01 X47.9926 Y-4.3783
G01 X47.9831 Y-4.3843
G01 X47.9759 Y-4.3904
G01 X47.9122 Y-4.4539
G01 X47.9023 Y-4.4620
G01 X47.8917 Y-4.4691
G01 X47.8746 Y-4.4777
G01 X47.8564 Y-4.4837
G01 X47.8375 Y-4.4870
G01 X47.8239 Y-4.4876
G01 X47.4258 Y-4.4876
G01 X47.4122 Y-4.4870
G01 X47.3995 Y-4.4851
G01 X47.3811 Y-4.4800
G01 X47.3693 Y-4.4751
G01 X47.3581 Y-4.4691
G01 X47.3475 Y-4.4620
G01 X47.3323 Y-4.4489
G01 X47.2731 Y-4.3898
G01 X47.2630 Y-4.3818
G01 X47.2540 Y-4.3769
G01 X47.2443 Y-4.3733
G01 X47.2343 Y-4.3711
G01 X47.2249 Y-4.3705
G01 X47.2137 Y-4.3714
G01 X47.2029 Y-4.3740
G01 X47.1926 Y-4.3784
G01 X47.1832 Y-4.3843
G01 X47.1760 Y-4.3904
G01 X47.1123 Y-4.4539
G01 X47.1024 Y-4.4620
G01 X47.0918 Y-4.4691
G01 X47.0805 Y-4.4751
G01 X47.0627 Y-4.4820
G01 X47.0440 Y-4.4862
G01 X47.0313 Y-4.4874
G01 X46.6257 Y-4.4877
G01 X46.6121 Y-4.4871
G01 X46.5994 Y-4.4852
G01 X46.5870 Y-4.4821
G01 X46.5750 Y-4.4778
G01 X46.5579 Y-4.4692
G01 X46.5473 Y-4.4621
G01 X46.5322 Y-4.4489
G01 X46.4731 Y-4.3899
G01 X46.4630 Y-4.3819
G01 X46.4548 Y-4.3773
G01 X46.4452 Y-4.3736
G01 X46.4352 Y-4.3713
G01 X46.4249 Y-4.3706
G01 X46.4138 Y-4.3714
G01 X46.4029 Y-4.3741
G01 X46.3927 Y-4.3784
G01 X46.3832 Y-4.3843
G01 X46.3760 Y-4.3904
G01 X46.3121 Y-4.4540
G01 X46.3022 Y-4.4620
G01 X46.2916 Y-4.4691
G01 X46.2803 Y-4.4751
G01 X46.2625 Y-4.4820
G01 X46.2439 Y-4.4862
G01 X46.2312 Y-4.4874
G01 X45.8257 Y-4.4876
G01 X45.8121 Y-4.4870
G01 X45.7994 Y-4.4851
G01 X45.7810 Y-4.4800
G01 X45.7692 Y-4.4751
G01 X45.7580 Y-4.4691
G01 X45.7474 Y-4.4620
G01 X45.7322 Y-4.4489
G01 X45.6730 Y-4.3898
G01 X45.6629 Y-4.3818
G01 X45.6539 Y-4.3769
G01 X45.6451 Y-4.3735
G01 X45.6350 Y-4.3713
G01 X45.6248 Y-4.3705
G01 X45.6136 Y-4.3714
G01 X45.6028 Y-4.3740
G01 X45.5925 Y-4.3784
G01 X45.5831 Y-4.3843
G01 X45.5759 Y-4.3904
G01 X45.5122 Y-4.4539
G01 X45.5023 Y-4.4620
G01 X45.4917 Y-4.4691
G01 X45.4746 Y-4.4777
G01 X45.4626 Y-4.4820
G01 X45.4439 Y-4.4862
G01 X45.4312 Y-4.4874
G01 X45.0258 Y-4.4876
G01 X45.0122 Y-4.4870
G01 X44.9996 Y-4.4851
G01 X44.9872 Y-4.4820
G01 X44.9694 Y-4.4751
G01 X44.9581 Y-4.4691
G01 X44.9475 Y-4.4620
G01 X44.9324 Y-4.4490
G01 X44.8730 Y-4.3898
G01 X44.8629 Y-4.3818
G01 X44.8539 Y-4.3768
G01 X44.8443 Y-4.3733
G01 X44.8350 Y-4.3713
G01 X44.8248 Y-4.3705
G01 X44.8136 Y-4.3714
G01 X44.8028 Y-4.3741
G01 X44.7925 Y-4.3784
G01 X44.7831 Y-4.3843
G01 X44.7759 Y-4.3904
G01 X44.7123 Y-4.4538
G01 X44.7024 Y-4.4619
G01 X44.6918 Y-4.4690
G01 X44.6747 Y-4.4777
G01 X44.6627 Y-4.4820
G01 X44.6503 Y-4.4851
G01 X44.6377 Y-4.4870
G01 X44.6240 Y-4.4876
G01 X44.2257 Y-4.4876
G01 X44.2121 Y-4.4870
G01 X44.1994 Y-4.4851
G01 X44.1810 Y-4.4800
G01 X44.1692 Y-4.4751
G01 X44.1579 Y-4.4691
G01 X44.1473 Y-4.4620
G01 X44.1322 Y-4.4489
G01 X44.0731 Y-4.3898
G01 X44.0630 Y-4.3818
G01 X44.0540 Y-4.3768
G01 X44.0443 Y-4.3733
G01 X44.0351 Y-4.3712
G01 X44.0248 Y-4.3705
G01 X44.0137 Y-4.3714
G01 X44.0028 Y-4.3740
G01 X43.9926 Y-4.3783
G01 X43.9831 Y-4.3843
G01 X43.9759 Y-4.3904
G01 X43.9122 Y-4.4539
G01 X43.8971 Y-4.4657
G01 X43.8861 Y-4.4722
G01 X43.8746 Y-4.4777
G01 X43.8626 Y-4.4820
G01 X43.8439 Y-4.4862
G01 X43.8239 Y-4.4876
G01 X43.4257 Y-4.4876
G01 X43.4057 Y-4.4862
G01 X43.3932 Y-4.4837
G01 X43.3810 Y-4.4800
G01 X43.3692 Y-4.4751
G01 X43.3580 Y-4.4691
G01 X43.3474 Y-4.4620
G01 X43.3375 Y-4.4539
G01 X43.2335 Y-4.3502
G01 X43.2243 Y-4.3402
G01 X43.2133 Y-4.3245
G01 X43.2072 Y-4.3132
G01 X43.2023 Y-4.3014
G01 X43.1986 Y-4.2892
G01 X43.1961 Y-4.2767
G01 X43.1947 Y-4.2567
G01 X43.1947 Y-3.1584
G01 X43.1953 Y-3.1448
G01 X43.1986 Y-3.1259
G01 X43.2046 Y-3.1077
G01 X43.2101 Y-3.0962
G01 X43.2203 Y-3.0800
G01 X43.2334 Y-3.0649
G01 X43.3458 Y-2.9523
G01 X43.3549 Y-2.9398
G01 X43.3607 Y-2.9264
G01 X43.3631 Y-2.9163
G01 X43.3640 Y-2.9068
G01 X43.3705 Y-2.6016
G01 X43.3696 Y-2.5888
G01 X43.3672 Y-2.5788
G01 X43.3630 Y-2.5686
G01 X43.3577 Y-2.5598
G01 X43.3512 Y-2.5518
G01 X43.0440 Y-2.2446
G01 X43.0340 Y-2.2365
G01 X43.0235 Y-2.2307
G01 X43.0121 Y-2.2268
G01 X42.9994 Y-2.2248
G01 X32.3314 Y-2.2247
G01 X32.3229 Y-2.2252
G01 X32.3120 Y-2.2274
G01 X32.3015 Y-2.2314
G01 X32.2911 Y-2.2374
G01 X32.2826 Y-2.2446
G01 X32.1281 Y-2.3991
G01 X32.1226 Y-2.4057
G01 X32.1181 Y-2.4130
G01 X32.1144 Y-2.4208
G01 X32.1117 Y-2.4289
G01 X32.1100 Y-2.4373
G01 X32.1094 Y-2.4467
G01 X32.1094 Y-2.9043
G01 X32.1111 Y-2.9170
G01 X32.1150 Y-2.9293
G01 X32.1212 Y-2.9406
G01 X32.1293 Y-2.9506
G01 X32.1384 Y-2.9584
G01 X32.1494 Y-2.9650
G01 X32.1607 Y-2.9691
G01 X32.1725 Y-2.9713
G01 X32.1845 Y-2.9715
G01 X32.1972 Y-2.9694
