(G-CODE GENERATED BY FLATCAM v8.95 - www.flatcam.org - Version Date: 2019/08/17)

(Name: Syntez2.drl_cnc)
(Type: G-code from Excellon)
(Units: MM)

(Created on Monday, 14 September 2020 at 21:46)

(Feedrate: 79.9998 mm/min)
(Feedrate rapids 800.0009 mm/min)

(Z_Cut: -1.5011 mm)
(Z_Move: 3.0 mm)
(Z Toolchange: 25.0 mm)
(X,Y Toolchange: 0.0000, 0.0000 mm)
(Z Start: None mm)
(Z End: 12.7 mm)
(Steps per circle: 128)
(Postprocessor Excellon: default)

(X range:    2.9100 ...   98.8300  mm)
(Y range:  -31.6800 ...   -1.2200  mm)

(Spindle Speed: None RPM)

G21
G90
G94

G01 F80.00

M5
G00 Z25.0000
G00 X0.0000 Y0.0000                
T1
M6
(MSG, Change to Tool Dia = 0.50 ||| Total drills for tool T1 = 15)
M0

M03
G00 X30.8000 Y-30.7200
G01 Z-1.5011
G01 Z0
G00 Z3.0000
G00 X27.9800 Y-8.7700
G01 Z-1.5011
G01 Z0
G00 Z3.0000
G00 X41.5500 Y-2.7000
G01 Z-1.5011
G01 Z0
G00 Z3.0000
G00 X58.0600 Y-1.5800
G01 Z-1.5011
G01 Z0
G00 Z3.0000
G00 X58.0600 Y-4.1200
G01 Z-1.5011
G01 Z0
G00 Z3.0000
G00 X63.5800 Y-9.2100
G01 Z-1.5011
G01 Z0
G00 Z3.0000
G00 X98.5800 Y-8.5300
G01 Z-1.5011
G01 Z0
G00 Z3.0000
G00 X63.4800 Y-15.4500
G01 Z-1.5011
G01 Z0
G00 Z3.0000
G00 X60.9400 Y-15.4500
G01 Z-1.5011
G01 Z0
G00 Z3.0000
G00 X56.7100 Y-16.5500
G01 Z-1.5011
G01 Z0
G00 Z3.0000
G00 X47.7000 Y-14.2500
G01 Z-1.5011
G01 Z0
G00 Z3.0000
G00 X45.4800 Y-14.2500
G01 Z-1.5011
G01 Z0
G00 Z3.0000
G00 X54.9300 Y-31.4300
G01 Z-1.5011
G01 Z0
G00 Z3.0000
G00 X43.7400 Y-27.9000
G01 Z-1.5011
G01 Z0
G00 Z3.0000
G00 X43.7400 Y-25.3600
G01 Z-1.5011
G01 Z0
G00 Z3.0000

M5
G00 Z25.0000
G00 X0.0000 Y0.0000                
T2
M6
(MSG, Change to Tool Dia = 0.80 ||| Total drills for tool T2 = 25)
M0

M03
G00 X13.5700 Y-10.9900
G01 Z-1.5011
G01 Z0
G00 Z3.0000
G00 X16.1100 Y-10.9900
G01 Z-1.5011
G01 Z0
G00 Z3.0000
G00 X18.6500 Y-10.9900
G01 Z-1.5011
G01 Z0
G00 Z3.0000
G00 X23.9400 Y-6.7000
G01 Z-1.5011
G01 Z0
G00 Z3.0000
G00 X27.8100 Y-5.5900
G01 Z-1.5011
G01 Z0
G00 Z3.0000
G00 X30.3500 Y-5.5900
G01 Z-1.5011
G01 Z0
G00 Z3.0000
G00 X32.8900 Y-5.5900
G01 Z-1.5011
G01 Z0
G00 Z3.0000
G00 X37.9800 Y-19.5700
G01 Z-1.5011
G01 Z0
G00 Z3.0000
G00 X37.9800 Y-22.1100
G01 Z-1.5011
G01 Z0
G00 Z3.0000
G00 X37.9800 Y-24.6500
G01 Z-1.5011
G01 Z0
G00 Z3.0000
G00 X53.2200 Y-24.6500
G01 Z-1.5011
G01 Z0
G00 Z3.0000
G00 X53.2200 Y-19.5700
G01 Z-1.5011
G01 Z0
G00 Z3.0000
G00 X63.5900 Y-11.0600
G01 Z-1.5011
G01 Z0
G00 Z3.0000
G00 X66.1300 Y-11.0600
G01 Z-1.5011
G01 Z0
G00 Z3.0000
G00 X72.2000 Y-9.9500
G01 Z-1.5011
G01 Z0
G00 Z3.0000
G00 X75.3300 Y-10.4800
G01 Z-1.5011
G01 Z0
G00 Z3.0000
G00 X75.3300 Y-7.9400
G01 Z-1.5011
G01 Z0
G00 Z3.0000
G00 X75.3300 Y-5.4000
G01 Z-1.5011
G01 Z0
G00 Z3.0000
G00 X75.3300 Y-2.8600
G01 Z-1.5011
G01 Z0
G00 Z3.0000
G00 X72.2000 Y-2.3300
G01 Z-1.5011
G01 Z0
G00 Z3.0000
G00 X32.8900 Y-3.0500
G01 Z-1.5011
G01 Z0
G00 Z3.0000
G00 X30.3500 Y-3.0500
G01 Z-1.5011
G01 Z0
G00 Z3.0000
G00 X27.8100 Y-3.0500
G01 Z-1.5011
G01 Z0
G00 Z3.0000
G00 X23.9400 Y-1.6200
G01 Z-1.5011
G01 Z0
G00 Z3.0000
G00 X23.9400 Y-4.1600
G01 Z-1.5011
G01 Z0
G00 Z3.0000
M05
G00 Z12.70
G00 X0.0 Y0.0

M02