(G-CODE GENERATED BY FLATCAM v8.993 - www.flatcam.org - Version Date: 2020/06/05)

(Name: Syntez2111.drl_cnc)
(Type: G-code from Excellon)
(Units: MM)

(Created on Friday, 09 October 2020 at 03:51)

(This preprocessor is the default preprocessor used by FlatCAM.)
(It is made to work with MACH3 compatible motion controllers.)


(TOOLS DIAMETER: )
(Tool: 1 -> Dia: 0.5)
(Tool: 2 -> Dia: 0.8)
(Tool: 3 -> Dia: 3.0)

(FEEDRATE Z: )
(Tool: 1 -> Feedrate: 70.0)
(Tool: 2 -> Feedrate: 70.0)
(Tool: 3 -> Feedrate: 70.0)

(FEEDRATE RAPIDS: )
(Tool: 1 -> Feedrate Rapids: 1500)
(Tool: 2 -> Feedrate Rapids: 1500)
(Tool: 3 -> Feedrate Rapids: 1500)

(Z_CUT: )
(Tool: 1 -> Z_Cut: -1.8)
(Tool: 2 -> Z_Cut: -1.8)
(Tool: 3 -> Z_Cut: -1.8)

(Tools Offset: )
(Tool: 1 -> Offset Z: -0.0)
(Tool: 2 -> Offset Z: -0.0)
(Tool: 3 -> Offset Z: -0.0)

(Z_MOVE: )
(Tool: 1 -> Z_Move: 2)
(Tool: 2 -> Z_Move: 2)
(Tool: 3 -> Z_Move: 2)

(Z Start: None mm)
(Z End: 2.0 mm)
(Steps per circle: 128)
(Preprocessor Excellon: default)

(X range:  -96.6500 ...   -3.1000  mm)
(Y range:  -32.4000 ...   -2.2800  mm)

(Spindle Speed: None RPM)
G21
G90
G94



G00 Z2.0000

G01 F70.00
M03
G00 X-30.3200 Y-32.0300
G01 Z-1.8000
G01 Z0
G00 Z2.0000
G00 X-43.5400 Y-28.4200
G01 Z-1.8000
G01 Z0
G00 Z2.0000
G00 X-43.5400 Y-25.8800
G01 Z-1.8000
G01 Z0
G00 Z2.0000
G00 X-45.7200 Y-15.0000
G01 Z-1.8000
G01 Z0
G00 Z2.0000
G00 X-47.8600 Y-15.0000
G01 Z-1.8000
G01 Z0
G00 Z2.0000
G00 X-53.8200 Y-20.0400
G01 Z-1.8000
G01 Z0
G00 Z2.0000
G00 X-53.8200 Y-25.1200
G01 Z-1.8000
G01 Z0
G00 Z2.0000
G00 X-63.1800 Y-32.1500
G01 Z-1.8000
G01 Z0
G00 Z2.0000
G00 X-96.4000 Y-9.0500
G01 Z-1.8000
G01 Z0
G00 Z2.0000
G00 X-63.3200 Y-17.4800
G01 Z-1.8000
G01 Z0
G00 Z2.0000
G00 X-60.7800 Y-17.4800
G01 Z-1.8000
G01 Z0
G00 Z2.0000
G00 X-57.0700 Y-14.8000
G01 Z-1.8000
G01 Z0
G00 Z2.0000
G00 X-63.9000 Y-8.3300
G01 Z-1.8000
G01 Z0
G00 Z2.0000
G00 X-58.2600 Y-5.0700
G01 Z-1.8000
G01 Z0
G00 Z2.0000
G00 X-58.2600 Y-2.5300
G01 Z-1.8000
G01 Z0
G00 Z2.0000
G00 X-47.4700 Y-10.1200
G01 Z-1.8000
G01 Z0
G00 Z2.0000
G00 X-41.2700 Y-3.4500
G01 Z-1.8000
G01 Z0
G00 Z2.0000
G00 X-28.4200 Y-8.8100
G01 Z-1.8000
G01 Z0
G00 Z2.0000
G00 X-38.5800 Y-20.0400
G01 Z-1.8000
G01 Z0
G00 Z2.0000
G00 X-38.5800 Y-22.5800
G01 Z-1.8000
G01 Z0
G00 Z2.0000
G00 X-38.5800 Y-25.1200
G01 Z-1.8000
G01 Z0
G00 Z2.0000
G01 F70.00
M03
G00 X-13.7700 Y-11.4700
G01 Z-1.8000
G01 Z0
G00 Z2.0000
G00 X-16.3100 Y-11.4700
G01 Z-1.8000
G01 Z0
G00 Z2.0000
G00 X-18.8500 Y-11.4700
G01 Z-1.8000
G01 Z0
G00 Z2.0000
G00 X-23.6600 Y-8.2900
G01 Z-1.8000
G01 Z0
G00 Z2.0000
G00 X-28.0000 Y-6.0700
G01 Z-1.8000
G01 Z0
G00 Z2.0000
G00 X-30.5400 Y-6.0700
G01 Z-1.8000
G01 Z0
G00 Z2.0000
G00 X-33.0800 Y-6.0700
G01 Z-1.8000
G01 Z0
G00 Z2.0000
G00 X-72.4000 Y-2.8000
G01 Z-1.8000
G01 Z0
G00 Z2.0000
G00 X-75.5300 Y-3.3300
G01 Z-1.8000
G01 Z0
G00 Z2.0000
G00 X-75.5300 Y-5.8700
G01 Z-1.8000
G01 Z0
G00 Z2.0000
G00 X-75.5300 Y-8.4100
G01 Z-1.8000
G01 Z0
G00 Z2.0000
G00 X-75.5300 Y-10.9500
G01 Z-1.8000
G01 Z0
G00 Z2.0000
G00 X-72.4000 Y-10.4200
G01 Z-1.8000
G01 Z0
G00 Z2.0000
G00 X-65.4900 Y-11.6500
G01 Z-1.8000
G01 Z0
G00 Z2.0000
G00 X-62.9500 Y-11.6500
G01 Z-1.8000
G01 Z0
G00 Z2.0000
G00 X-33.0800 Y-3.5300
G01 Z-1.8000
G01 Z0
G00 Z2.0000
G00 X-30.5400 Y-3.5300
G01 Z-1.8000
G01 Z0
G00 Z2.0000
G00 X-28.0000 Y-3.5300
G01 Z-1.8000
G01 Z0
G00 Z2.0000
G00 X-23.6600 Y-3.2100
G01 Z-1.8000
G01 Z0
G00 Z2.0000
G00 X-23.6600 Y-5.7500
G01 Z-1.8000
G01 Z0
G00 Z2.0000
G01 F70.00
M03
G00 X-4.6000 Y-4.9600
G01 Z-1.8000
G01 Z0
G00 Z2.0000
G00 X-82.7100 Y-4.9600
G01 Z-1.8000
G01 Z0
G00 Z2.0000
M05
G00 Z2.00

