(G-CODE GENERATED BY FLATCAM v8.95 - www.flatcam.org - Version Date: 2019/08/17)

(Name: Syntez2.drl_edit_cnc)
(Type: G-code from Excellon)
(Units: MM)

(Created on Monday, 14 September 2020 at 21:47)

(Feedrate: 79.9998 mm/min)
(Feedrate rapids 800.0009 mm/min)

(Z_Cut: -1.5011 mm)
(Z_Move: 1.999 mm)
(Z Toolchange: 12.7 mm)
(X,Y Toolchange: 0.0000, 0.0000 mm)
(Z Start: None mm)
(Z End: 12.7 mm)
(Steps per circle: 128)
(Postprocessor Excellon: default)

(X range:    2.9100 ...   84.0100  mm)
(Y range:   -5.9800 ...   -2.9800  mm)

(Spindle Speed: None RPM)

G21
G90
G94

G01 F80.00
G00 Z1.9990

M03
G00 X4.4100 Y-4.4800
G01 Z-1.5011
G01 Z0
G00 Z1.9990
G00 X82.5100 Y-4.4800
G01 Z-1.5011
G01 Z0
G00 Z1.9990
M05
G00 Z12.70
G00 X0.0 Y0.0

M02