(G-CODE GENERATED BY FLATCAM v8.95 - www.flatcam.org - Version Date: 2019/08/17)

(Name: Syntez2_Ф1_верх.gbr_iso_cnc)
(Type: G-code from Geometry)
(Units: MM)

(Created on Saturday, 12 September 2020 at 10:59)

(TOOL DIAMETER: 0.14 mm)
(Feedrate: 50.0 mm/min)
(Feedrate_Z: 79.9998 mm/min)
(Feedrate rapids 79.9998 mm/min)

(Z_Cut: -0.0746 mm)
(Z_Move: 3.0 mm)
(Z Toolchange: 12.7 mm)
(X,Y Toolchange: 0.0000, 0.0000 mm)
(Z Start: None mm)
(Z End: 12.7 mm)
(Steps per circle: 128)
(Postprocessor Geometry: default)

(X range:    1.2337 ...  101.4380  mm)
(Y range:  -34.3661 ...   -1.2679  mm)

(Spindle Speed: None RPM)

G21
G90
G94

G01 F50.00
G00 Z3.0000

M03
G00 X2.4155 Y-1.9084
G01 F80.00
G01 Z-0.0746
G01 F50.00
G01 X2.0830 Y-2.2409
G01 X2.0790 Y-2.2458
G01 X2.0762 Y-2.2509
G01 X2.0745 Y-2.2564
G01 X2.0740 Y-2.2622
G01 X2.0749 Y-2.2694
G01 X2.0782 Y-2.2774
G01 X2.0837 Y-2.2841
G01 X2.0896 Y-2.2882
G01 X2.0977 Y-2.2912
G01 X2.1064 Y-2.2916
G01 X2.1134 Y-2.2900
G01 X2.1211 Y-2.2859
G01 X2.3219 Y-2.0856
G01 X2.3275 Y-2.0808
G01 X2.3337 Y-2.0768
G01 X2.3404 Y-2.0738
G01 X2.3499 Y-2.0715
G01 X2.3597 Y-2.0710
G01 X2.3694 Y-2.0724
G01 X2.3786 Y-2.0757
G01 X2.3870 Y-2.0808
G01 X2.3943 Y-2.0873
G01 X2.4001 Y-2.0952
G01 X2.4035 Y-2.1018
G01 X2.4058 Y-2.1088
G01 X2.4073 Y-2.1209
G01 X2.4073 Y-2.8192
G01 X2.4082 Y-2.8250
G01 X2.4101 Y-2.8304
G01 X2.4131 Y-2.8354
G01 X2.4170 Y-2.8397
G01 X2.4216 Y-2.8431
G01 X2.4269 Y-2.8456
G01 X2.4368 Y-2.8473
G01 X2.4467 Y-2.8456
G01 X2.4520 Y-2.8431
G01 X2.4566 Y-2.8397
G01 X2.4605 Y-2.8354
G01 X2.4635 Y-2.8304
G01 X2.4654 Y-2.8250
G01 X2.4663 Y-2.8192
G01 X2.4663 Y-1.9295
G01 X2.4651 Y-1.9203
G01 X2.4613 Y-1.9125
G01 X2.4555 Y-1.9061
G01 X2.4481 Y-1.9016
G01 X2.4397 Y-1.8995
G01 X2.4310 Y-1.8999
G01 X2.4229 Y-1.9029
G01 X2.4155 Y-1.9084
G00 Z3.0000
G00 X2.7890 Y-1.9697
G01 F80.00
G01 Z-0.0746
G01 F50.00
G01 X2.7229 Y-2.0799
G01 X2.7196 Y-2.0870
G01 X2.7185 Y-2.0927
G01 X2.7185 Y-2.0985
G01 X2.7196 Y-2.1042
G01 X2.7219 Y-2.1095
G01 X2.7251 Y-2.1143
G01 X2.7292 Y-2.1184
G01 X2.7340 Y-2.1216
G01 X2.7393 Y-2.1239
G01 X2.7479 Y-2.1251
G01 X2.7565 Y-2.1239
G01 X2.7643 Y-2.1202
G01 X2.7707 Y-2.1143
G01 X2.8278 Y-2.0200
G01 X2.8323 Y-2.0142
G01 X2.8395 Y-2.0076
G01 X2.8501 Y-2.0016
G01 X2.9446 Y-1.9623
G01 X2.9540 Y-1.9594
G01 X2.9638 Y-1.9584
G01 X3.0653 Y-1.9584
G01 X3.0775 Y-1.9600
G01 X3.0845 Y-1.9623
G01 X3.1813 Y-2.0026
G01 X3.1916 Y-2.0091
G01 X3.1969 Y-2.0142
G01 X3.2014 Y-2.0200
G01 X3.2446 Y-2.0919
G01 X3.2479 Y-2.0985
G01 X3.2502 Y-2.1055
G01 X3.2517 Y-2.1176
G01 X3.2517 Y-2.1847
G01 X3.2507 Y-2.1944
G01 X3.2479 Y-2.2038
G01 X3.2027 Y-2.2801
G01 X3.1985 Y-2.2861
G01 X3.1935 Y-2.2915
G01 X3.1856 Y-2.2973
G01 X3.1791 Y-2.3006
G01 X3.0660 Y-2.3480
G01 X3.0603 Y-2.3524
G01 X3.0552 Y-2.3594
G01 X3.0522 Y-2.3675
G01 X3.0518 Y-2.3762
G01 X3.0529 Y-2.3818
G01 X3.0559 Y-2.3884
G01 X3.0603 Y-2.3941
G01 X3.0660 Y-2.3986
G01 X3.1813 Y-2.4471
G01 X3.1916 Y-2.4536
G01 X3.2000 Y-2.4625
G01 X3.2445 Y-2.5363
G01 X3.2495 Y-2.5475
G01 X3.2511 Y-2.5547
G01 X3.2517 Y-2.5620
G01 X3.2514 Y-2.6340
G01 X3.2487 Y-2.6459
G01 X3.2445 Y-2.6548
G01 X3.2014 Y-2.7266
G01 X3.1969 Y-2.7324
G01 X3.1916 Y-2.7375
G01 X3.1856 Y-2.7417
G01 X3.1791 Y-2.7450
G01 X3.0845 Y-2.7844
G01 X3.0751 Y-2.7873
G01 X3.0678 Y-2.7882
G01 X2.9638 Y-2.7883
G01 X2.9540 Y-2.7873
G01 X2.9446 Y-2.7844
G01 X2.8457 Y-2.7429
G01 X2.8357 Y-2.7359
G01 X2.8278 Y-2.7266
G01 X2.7716 Y-2.6335
G01 X2.7655 Y-2.6274
G01 X2.7578 Y-2.6233
G01 X2.7493 Y-2.6216
G01 X2.7407 Y-2.6225
G01 X2.7327 Y-2.6258
G01 X2.7260 Y-2.6313
G01 X2.7206 Y-2.6398
G01 X2.7185 Y-2.6482
G01 X2.7189 Y-2.6569
G01 X2.7219 Y-2.6650
G01 X2.7890 Y-2.7769
G01 X2.7958 Y-2.7850
G01 X2.8038 Y-2.7897
G01 X2.9407 Y-2.8464
G01 X2.9485 Y-2.8473
G01 X3.0806 Y-2.8473
G01 X3.0870 Y-2.8468
G01 X3.0931 Y-2.8448
G01 X3.2286 Y-2.7882
G01 X3.2355 Y-2.7831
G01 X3.2403 Y-2.7769
G01 X3.3062 Y-2.6668
G01 X3.3090 Y-2.6610
G01 X3.3106 Y-2.6540
G01 X3.3107 Y-2.5406
G01 X3.3095 Y-2.5314
G01 X3.3062 Y-2.5243
G01 X3.2403 Y-2.4142
G01 X3.2280 Y-2.3980
G01 X3.2233 Y-2.3867
G01 X3.2215 Y-2.3746
G01 X3.2219 Y-2.3672
G01 X3.2233 Y-2.3600
G01 X3.2280 Y-2.3487
G01 X3.2403 Y-2.3325
G01 X3.3062 Y-2.2224
G01 X3.3095 Y-2.2153
G01 X3.3107 Y-2.2061
G01 X3.3107 Y-2.0962
G01 X3.3098 Y-2.0884
G01 X3.3072 Y-2.0817
G01 X3.2403 Y-1.9697
G01 X3.2334 Y-1.9616
G01 X3.2254 Y-1.9569
G01 X3.0931 Y-1.9019
G01 X3.0870 Y-1.8999
G01 X3.0806 Y-1.8994
G01 X2.9485 Y-1.8994
G01 X2.9407 Y-1.9003
G01 X2.8019 Y-1.9577
G01 X2.7948 Y-1.9625
G01 X2.7890 Y-1.9697
G00 Z3.0000
G00 X4.0890 Y-2.0919
G01 F80.00
G01 Z-0.0746
G01 F50.00
G01 X4.0458 Y-2.0200
G01 X4.0396 Y-2.0124
G01 X4.0341 Y-2.0076
G01 X4.0234 Y-2.0016
G01 X3.9289 Y-1.9623
G01 X3.9171 Y-1.9590
G01 X3.9097 Y-1.9584
G01 X3.8082 Y-1.9584
G01 X3.7960 Y-1.9600
G01 X3.7890 Y-1.9623
G01 X3.6923 Y-2.0026
G01 X3.6859 Y-2.0062
G01 X3.6801 Y-2.0107
G01 X3.6751 Y-2.0161
G01 X3.6709 Y-2.0220
G01 X3.6278 Y-2.0940
G01 X3.6240 Y-2.1031
G01 X3.6221 Y-2.1127
G01 X3.6218 Y-2.6291
G01 X3.6233 Y-2.6412
G01 X3.6257 Y-2.6482
G01 X3.6290 Y-2.6548
G01 X3.6722 Y-2.7266
G01 X3.6801 Y-2.7359
G01 X3.6880 Y-2.7417
G01 X3.6945 Y-2.7450
G01 X3.7890 Y-2.7844
G01 X3.7984 Y-2.7873
G01 X3.8082 Y-2.7883
G01 X3.9122 Y-2.7882
G01 X3.9195 Y-2.7873
G01 X3.9289 Y-2.7844
G01 X4.0257 Y-2.7440
G01 X4.0321 Y-2.7404
G01 X4.0379 Y-2.7359
G01 X4.0429 Y-2.7306
G01 X4.0471 Y-2.7246
G01 X4.0902 Y-2.6527
G01 X4.0939 Y-2.6436
G01 X4.0960 Y-2.6315
G01 X4.0961 Y-2.1176
G01 X4.0946 Y-2.1055
G01 X4.0923 Y-2.0985
G01 X4.0890 Y-2.0919
G00 Z3.0000
G00 X4.1516 Y-2.0817
G01 F80.00
G01 Z-0.0746
G01 F50.00
G01 X4.0847 Y-1.9697
G01 X4.0778 Y-1.9616
G01 X4.0698 Y-1.9569
G01 X3.9375 Y-1.9019
G01 X3.9314 Y-1.8999
G01 X3.9250 Y-1.8994
G01 X3.7929 Y-1.8994
G01 X3.7851 Y-1.9003
G01 X3.6482 Y-1.9569
G01 X3.6414 Y-1.9607
G01 X3.6353 Y-1.9668
G01 X3.5673 Y-2.0799
G01 X3.5645 Y-2.0856
G01 X3.5629 Y-2.0927
G01 X3.5628 Y-2.6505
G01 X3.5641 Y-2.6597
G01 X3.5673 Y-2.6668
G01 X3.6334 Y-2.7769
G01 X3.6371 Y-2.7820
G01 X3.6414 Y-2.7859
G01 X3.6482 Y-2.7897
G01 X3.7804 Y-2.8448
G01 X3.7865 Y-2.8468
G01 X3.7929 Y-2.8473
G01 X3.9250 Y-2.8473
G01 X3.9314 Y-2.8468
G01 X3.9375 Y-2.8448
G01 X4.0698 Y-2.7897
G01 X4.0766 Y-2.7859
G01 X4.0827 Y-2.7798
G01 X4.1506 Y-2.6668
G01 X4.1534 Y-2.6610
G01 X4.1550 Y-2.6540
G01 X4.1551 Y-2.0962
G01 X4.1542 Y-2.0884
G01 X4.1516 Y-2.0817
G00 Z3.0000
G00 X4.8662 Y-2.8172
G01 F80.00
G01 Z-0.0746
G01 F50.00
G01 X4.8662 Y-2.3184
G01 X4.8645 Y-2.3079
G01 X4.8595 Y-2.2991
G01 X4.8531 Y-2.2933
G01 X4.8453 Y-2.2895
G01 X4.8367 Y-2.2883
G01 X4.8281 Y-2.2895
G01 X4.8203 Y-2.2933
G01 X4.8139 Y-2.2991
G01 X4.8100 Y-2.3052
G01 X4.8075 Y-2.3135
G01 X4.8072 Y-2.6802
G01 X4.8062 Y-2.6900
G01 X4.8023 Y-2.7017
G01 X4.7972 Y-2.7102
G01 X4.7640 Y-2.7543
G01 X4.7554 Y-2.7624
G01 X4.7473 Y-2.7674
G01 X4.7407 Y-2.7700
G01 X4.7337 Y-2.7717
G01 X4.6449 Y-2.7865
G01 X4.6355 Y-2.7872
G01 X4.5397 Y-2.7717
G01 X4.5327 Y-2.7700
G01 X4.5240 Y-2.7663
G01 X4.5161 Y-2.7610
G01 X4.5094 Y-2.7543
G01 X4.4762 Y-2.7102
G01 X4.4701 Y-2.6995
G01 X4.4672 Y-2.6900
G01 X4.4662 Y-2.6802
G01 X4.4659 Y-2.3135
G01 X4.4640 Y-2.3065
G01 X4.4604 Y-2.3002
G01 X4.4543 Y-2.2941
G01 X4.4480 Y-2.2905
G01 X4.4410 Y-2.2886
G01 X4.4324 Y-2.2886
G01 X4.4241 Y-2.2911
G01 X4.4180 Y-2.2950
G01 X4.4139 Y-2.2991
G01 X4.4100 Y-2.3052
G01 X4.4081 Y-2.3106
G01 X4.4072 Y-2.3164
G01 X4.4073 Y-2.7096
G01 X4.4089 Y-2.7167
G01 X4.4122 Y-2.7232
G01 X4.4807 Y-2.8144
G01 X4.4881 Y-2.8208
G01 X4.4972 Y-2.8245
G01 X4.6360 Y-2.8473
G01 X4.7799 Y-2.8244
G01 X4.7920 Y-2.8257
G01 X4.8012 Y-2.8288
G01 X4.8097 Y-2.8336
G01 X4.8203 Y-2.8423
G01 X4.8268 Y-2.8456
G01 X4.8338 Y-2.8472
G01 X4.8410 Y-2.8470
G01 X4.8466 Y-2.8456
G01 X4.8519 Y-2.8431
G01 X4.8595 Y-2.8365
G01 X4.8645 Y-2.8277
G01 X4.8662 Y-2.8172
G00 Z3.0000
G00 X5.6445 Y-2.0919
G01 F80.00
G01 Z-0.0746
G01 F50.00
G01 X5.6013 Y-2.0200
G01 X5.5968 Y-2.0142
G01 X5.5896 Y-2.0076
G01 X5.5790 Y-2.0016
G01 X5.4845 Y-1.9623
G01 X5.4727 Y-1.9590
G01 X5.4653 Y-1.9584
G01 X5.3637 Y-1.9584
G01 X5.3515 Y-1.9600
G01 X5.3445 Y-1.9623
G01 X5.2478 Y-2.0026
G01 X5.2414 Y-2.0062
G01 X5.2356 Y-2.0107
G01 X5.2306 Y-2.0161
G01 X5.2264 Y-2.0220
G01 X5.1833 Y-2.0940
G01 X5.1795 Y-2.1031
G01 X5.1776 Y-2.1127
G01 X5.1773 Y-2.6291
G01 X5.1779 Y-2.6364
G01 X5.1795 Y-2.6436
G01 X5.1845 Y-2.6548
G01 X5.2277 Y-2.7266
G01 X5.2339 Y-2.7342
G01 X5.2435 Y-2.7417
G01 X5.2500 Y-2.7450
G01 X5.3445 Y-2.7844
G01 X5.3539 Y-2.7873
G01 X5.3637 Y-2.7883
G01 X5.4677 Y-2.7882
G01 X5.4751 Y-2.7873
G01 X5.4845 Y-2.7844
G01 X5.5812 Y-2.7440
G01 X5.5876 Y-2.7404
G01 X5.5934 Y-2.7359
G01 X5.5984 Y-2.7306
G01 X5.6026 Y-2.7246
G01 X5.6457 Y-2.6527
G01 X5.6502 Y-2.6412
G01 X5.6516 Y-2.6315
G01 X5.6517 Y-2.1176
G01 X5.6511 Y-2.1103
G01 X5.6495 Y-2.1031
G01 X5.6445 Y-2.0919
G00 Z3.0000
G00 X5.7062 Y-2.0799
G01 F80.00
G01 Z-0.0746
G01 F50.00
G01 X5.6401 Y-1.9697
G01 X5.6332 Y-1.9616
G01 X5.6253 Y-1.9569
G01 X5.4931 Y-1.9019
G01 X5.4870 Y-1.8999
G01 X5.4806 Y-1.8994
G01 X5.3484 Y-1.8994
G01 X5.3406 Y-1.9003
G01 X5.2037 Y-1.9569
G01 X5.1969 Y-1.9607
G01 X5.1908 Y-1.9668
G01 X5.1228 Y-2.0799
G01 X5.1200 Y-2.0856
G01 X5.1184 Y-2.0927
G01 X5.1183 Y-2.6505
G01 X5.1196 Y-2.6597
G01 X5.1228 Y-2.6668
G01 X5.1889 Y-2.7769
G01 X5.1926 Y-2.7820
G01 X5.1969 Y-2.7859
G01 X5.2037 Y-2.7897
G01 X5.3359 Y-2.8448
G01 X5.3420 Y-2.8468
G01 X5.3484 Y-2.8473
G01 X5.4806 Y-2.8473
G01 X5.4870 Y-2.8468
G01 X5.4931 Y-2.8448
G01 X5.6253 Y-2.7897
G01 X5.6321 Y-2.7859
G01 X5.6382 Y-2.7798
G01 X5.7062 Y-2.6668
G01 X5.7090 Y-2.6611
G01 X5.7106 Y-2.6540
G01 X5.7107 Y-2.0962
G01 X5.7098 Y-2.0884
G01 X5.7062 Y-2.0799
G00 Z3.0000
G00 X5.9928 Y-2.8473
G01 F80.00
G01 Z-0.0746
G01 F50.00
G01 X6.5270 Y-2.8473
G01 X6.5355 Y-2.8456
G01 X6.5420 Y-2.8423
G01 X6.5475 Y-2.8376
G01 X6.5516 Y-2.8317
G01 X6.5542 Y-2.8250
G01 X6.5551 Y-2.8192
G01 X6.5546 Y-2.8120
G01 X6.5523 Y-2.8052
G01 X6.5493 Y-2.8002
G01 X6.5443 Y-2.7950
G01 X6.5382 Y-2.7911
G01 X6.5314 Y-2.7888
G01 X6.5250 Y-2.7883
G01 X6.0944 Y-2.7880
G01 X6.0848 Y-2.7861
G01 X6.0780 Y-2.7835
G01 X6.0716 Y-2.7798
G01 X6.0640 Y-2.7736
G01 X6.0578 Y-2.7660
G01 X6.0541 Y-2.7596
G01 X6.0515 Y-2.7528
G01 X6.0496 Y-2.7431
G01 X6.0494 Y-2.7358
G01 X6.0503 Y-2.7285
G01 X6.0542 Y-2.7169
G01 X6.0786 Y-2.6758
G01 X6.0864 Y-2.6668
G01 X6.4799 Y-2.3386
G01 X6.4845 Y-2.3325
G01 X6.5516 Y-2.2206
G01 X6.5542 Y-2.2139
G01 X6.5551 Y-2.2061
G01 X6.5551 Y-2.0962
G01 X6.5539 Y-2.0870
G01 X6.5506 Y-2.0799
G01 X6.4845 Y-1.9697
G01 X6.4798 Y-1.9635
G01 X6.4729 Y-1.9584
G01 X6.3375 Y-1.9019
G01 X6.3314 Y-1.8999
G01 X6.3250 Y-1.8994
G01 X6.1928 Y-1.8994
G01 X6.1850 Y-1.9003
G01 X6.0481 Y-1.9569
G01 X6.0402 Y-1.9616
G01 X6.0333 Y-1.9697
G01 X5.9662 Y-2.0817
G01 X5.9630 Y-2.0913
G01 X5.9630 Y-2.0999
G01 X5.9655 Y-2.1082
G01 X5.9703 Y-2.1154
G01 X5.9770 Y-2.1209
G01 X5.9850 Y-2.1242
G01 X5.9936 Y-2.1251
G01 X6.0021 Y-2.1234
G01 X6.0098 Y-2.1193
G01 X6.0159 Y-2.1132
G01 X6.0721 Y-2.0200
G01 X6.0800 Y-2.0107
G01 X6.0900 Y-2.0037
G01 X6.1889 Y-1.9623
G01 X6.1983 Y-1.9594
G01 X6.2081 Y-1.9584
G01 X6.3122 Y-1.9585
G01 X6.3219 Y-1.9600
G01 X6.3289 Y-1.9623
G01 X6.4234 Y-2.0016
G01 X6.4299 Y-2.0049
G01 X6.4359 Y-2.0091
G01 X6.4412 Y-2.0142
G01 X6.4457 Y-2.0200
G01 X6.4901 Y-2.0940
G01 X6.4939 Y-2.1031
G01 X6.4960 Y-2.1152
G01 X6.4960 Y-2.1871
G01 X6.4951 Y-2.1944
G01 X6.4931 Y-2.2015
G01 X6.4889 Y-2.2104
G01 X6.4405 Y-2.2910
G01 X6.4348 Y-2.2987
G01 X6.4296 Y-2.3037
G01 X6.0405 Y-2.6280
G01 X6.0343 Y-2.6347
G01 X5.9672 Y-2.7465
G01 X5.9632 Y-2.7564
G01 X5.9627 Y-2.7628
G01 X5.9627 Y-2.8172
G01 X5.9639 Y-2.8264
G01 X5.9677 Y-2.8342
G01 X5.9746 Y-2.8415
G01 X5.9836 Y-2.8461
G01 X5.9928 Y-2.8473
G00 Z3.0000
G00 X7.1540 Y-3.8790
G01 F80.00
G01 Z-0.0746
G01 F50.00
G01 X7.2477 Y-3.9152
G01 X7.3621 Y-3.9660
G01 X7.4738 Y-4.0223
G01 X7.5827 Y-4.0840
G01 X7.6884 Y-4.1510
G01 X7.7907 Y-4.2232
G01 X7.8893 Y-4.3002
G01 X7.9841 Y-4.3820
G01 X8.0747 Y-4.4684
G01 X8.1609 Y-4.5590
G01 X8.2426 Y-4.6539
G01 X8.3181 Y-4.7506
G01 X8.3903 Y-4.8529
G01 X8.4585 Y-4.9607
G01 X8.5202 Y-5.0696
G01 X8.5764 Y-5.1815
G01 X8.6261 Y-5.2937
G01 X8.6623 Y-5.3873
G01 X8.7689 Y-5.3873
G01 X8.7190 Y-5.2565
G01 X8.6663 Y-5.1376
G01 X8.6078 Y-5.0214
G01 X8.5437 Y-4.9082
G01 X8.4741 Y-4.7983
G01 X8.3992 Y-4.6920
G01 X8.3192 Y-4.5895
G01 X8.2342 Y-4.4910
G01 X8.1445 Y-4.3968
G01 X8.0503 Y-4.3071
G01 X7.9518 Y-4.2221
G01 X7.8493 Y-4.1421
G01 X7.7430 Y-4.0672
G01 X7.6331 Y-3.9976
G01 X7.5199 Y-3.9335
G01 X7.4037 Y-3.8750
G01 X7.2848 Y-3.8223
G01 X7.1540 Y-3.7724
G01 X7.1540 Y-3.8790
G00 Z3.0000
G00 X10.0051 Y-1.9187
G01 F80.00
G01 Z-0.0746
G01 F50.00
G01 X9.9578 Y-1.8400
G01 X9.9516 Y-1.8324
G01 X9.9461 Y-1.8276
G01 X9.9355 Y-1.8216
G01 X9.8315 Y-1.7783
G01 X9.8197 Y-1.7750
G01 X9.8123 Y-1.7744
G01 X9.7007 Y-1.7744
G01 X9.6885 Y-1.7760
G01 X9.6815 Y-1.7783
G01 X9.5753 Y-1.8226
G01 X9.5689 Y-1.8262
G01 X9.5631 Y-1.8307
G01 X9.5581 Y-1.8360
G01 X9.5539 Y-1.8420
G01 X9.5067 Y-1.9209
G01 X9.5029 Y-1.9299
G01 X9.5010 Y-1.9395
G01 X9.5007 Y-2.5071
G01 X9.5013 Y-2.5144
G01 X9.5029 Y-2.5216
G01 X9.5079 Y-2.5328
G01 X9.5552 Y-2.6116
G01 X9.5614 Y-2.6192
G01 X9.5710 Y-2.6267
G01 X9.5775 Y-2.6300
G01 X9.6815 Y-2.6733
G01 X9.6909 Y-2.6762
G01 X9.7007 Y-2.6772
G01 X9.8148 Y-2.6771
G01 X9.8245 Y-2.6756
G01 X9.8315 Y-2.6733
G01 X9.9377 Y-2.6290
G01 X9.9441 Y-2.6254
G01 X9.9498 Y-2.6209
G01 X9.9549 Y-2.6156
G01 X9.9591 Y-2.6096
G01 X10.0064 Y-2.5306
G01 X10.0101 Y-2.5216
G01 X10.0122 Y-2.5095
G01 X10.0123 Y-1.9444
G01 X10.0108 Y-1.9323
G01 X10.0084 Y-1.9253
G01 X10.0051 Y-1.9187
G00 Z3.0000
G00 X10.0817 Y-1.9004
G01 F80.00
G01 Z-0.0746
G01 F50.00
G01 X10.0090 Y-1.7792
G01 X10.0055 Y-1.7742
G01 X10.0003 Y-1.7690
G01 X9.9904 Y-1.7631
G01 X9.8448 Y-1.7025
G01 X9.8372 Y-1.7001
G01 X9.8292 Y-1.6994
G01 X9.6838 Y-1.6994
G01 X9.6740 Y-1.7005
G01 X9.5204 Y-1.7641
G01 X9.5127 Y-1.7690
G01 X9.5064 Y-1.7756
G01 X9.4313 Y-1.9004
G01 X9.4279 Y-1.9075
G01 X9.4259 Y-1.9165
G01 X9.4257 Y-2.5307
G01 X9.4273 Y-2.5422
G01 X9.4313 Y-2.5511
G01 X9.5040 Y-2.6724
G01 X9.5087 Y-2.6788
G01 X9.5141 Y-2.6837
G01 X9.5226 Y-2.6885
G01 X9.6682 Y-2.7491
G01 X9.6758 Y-2.7515
G01 X9.6838 Y-2.7522
G01 X9.8292 Y-2.7522
G01 X9.8372 Y-2.7515
G01 X9.8448 Y-2.7491
G01 X9.9904 Y-2.6885
G01 X9.9989 Y-2.6837
G01 X10.0067 Y-2.6759
G01 X10.0817 Y-2.5511
G01 X10.0851 Y-2.5439
G01 X10.0871 Y-2.5350
G01 X10.0873 Y-1.9208
G01 X10.0857 Y-1.9093
G01 X10.0817 Y-1.9004
G00 Z3.0000
G00 X10.8696 Y-2.7141
G01 F80.00
G01 Z-0.0746
G01 F50.00
G01 X10.8696 Y-2.1653
G01 X10.8692 Y-2.1592
G01 X10.8674 Y-2.1521
G01 X10.8643 Y-2.1454
G01 X10.8599 Y-2.1395
G01 X10.8529 Y-2.1335
G01 X10.8430 Y-2.1288
G01 X10.8321 Y-2.1272
G01 X10.8212 Y-2.1288
G01 X10.8113 Y-2.1335
G01 X10.8031 Y-2.1409
G01 X10.7974 Y-2.1503
G01 X10.7950 Y-2.1592
G01 X10.7946 Y-2.5632
G01 X10.7930 Y-2.5755
G01 X10.7897 Y-2.5848
G01 X10.7845 Y-2.5932
G01 X10.7482 Y-2.6415
G01 X10.7415 Y-2.6482
G01 X10.7315 Y-2.6546
G01 X10.7249 Y-2.6573
G01 X10.7180 Y-2.6589
G01 X10.6203 Y-2.6753
G01 X10.6109 Y-2.6759
G01 X10.5062 Y-2.6589
G01 X10.4992 Y-2.6573
G01 X10.4905 Y-2.6535
G01 X10.4826 Y-2.6482
G01 X10.4759 Y-2.6415
G01 X10.4396 Y-2.5932
G01 X10.4345 Y-2.5848
G01 X10.4312 Y-2.5755
G01 X10.4296 Y-2.5632
G01 X10.4292 Y-2.1592
G01 X10.4268 Y-2.1503
G01 X10.4211 Y-2.1409
G01 X10.4129 Y-2.1335
G01 X10.4047 Y-2.1294
G01 X10.3939 Y-2.1272
G01 X10.3848 Y-2.1279
G01 X10.3744 Y-2.1316
G01 X10.3669 Y-2.1369
G01 X10.3620 Y-2.1423
G01 X10.3582 Y-2.1487
G01 X10.3557 Y-2.1556
G01 X10.3546 Y-2.1629
G01 X10.3548 Y-2.5961
G01 X10.3568 Y-2.6051
G01 X10.3610 Y-2.6134
G01 X10.4376 Y-2.7155
G01 X10.4459 Y-2.7223
G01 X10.4507 Y-2.7247
G01 X10.4575 Y-2.7269
G01 X10.6094 Y-2.7521
G01 X10.6189 Y-2.7516
G01 X10.7623 Y-2.7277
G01 X10.7696 Y-2.7270
G01 X10.7793 Y-2.7277
G01 X10.7887 Y-2.7304
G01 X10.7994 Y-2.7361
G01 X10.8097 Y-2.7448
G01 X10.8144 Y-2.7478
G01 X10.8230 Y-2.7511
G01 X10.8321 Y-2.7522
G01 X10.8394 Y-2.7515
G01 X10.8465 Y-2.7494
G01 X10.8529 Y-2.7459
G01 X10.8586 Y-2.7412
G01 X10.8633 Y-2.7355
G01 X10.8668 Y-2.7291
G01 X10.8689 Y-2.7220
G01 X10.8696 Y-2.7141
G00 Z3.0000
G00 X11.3765 Y-2.6510
G01 F80.00
G01 Z-0.0746
G01 F50.00
G01 X11.3696 Y-2.6441
G01 X11.3643 Y-2.6360
G01 X11.3599 Y-2.6246
G01 X11.3585 Y-2.6150
G01 X11.3584 Y-2.2522
G01 X11.3599 Y-2.2401
G01 X11.3643 Y-2.2287
G01 X11.3714 Y-2.2187
G01 X11.3807 Y-2.2107
G01 X11.3916 Y-2.2052
G01 X11.3987 Y-2.2032
G01 X11.4060 Y-2.2023
G01 X11.4713 Y-2.2020
G01 X11.4785 Y-2.2006
G01 X11.4853 Y-2.1978
G01 X11.4941 Y-2.1912
G01 X11.4998 Y-2.1840
G01 X11.5040 Y-2.1738
G01 X11.5051 Y-2.1629
G01 X11.5035 Y-2.1538
G01 X11.4988 Y-2.1439
G01 X11.4914 Y-2.1357
G01 X11.4836 Y-2.1308
G01 X11.4767 Y-2.1283
G01 X11.4694 Y-2.1272
G01 X11.4060 Y-2.1271
G01 X11.3939 Y-2.1250
G01 X11.3849 Y-2.1213
G01 X11.3749 Y-2.1142
G01 X11.3669 Y-2.1049
G01 X11.3622 Y-2.0963
G01 X11.3594 Y-2.0869
G01 X11.3584 Y-2.0772
G01 X11.3582 Y-1.7332
G01 X11.3568 Y-1.7260
G01 X11.3540 Y-1.7192
G01 X11.3499 Y-1.7131
G01 X11.3447 Y-1.7079
G01 X11.3402 Y-1.7047
G01 X11.3335 Y-1.7016
G01 X11.3264 Y-1.6998
G01 X11.3191 Y-1.6994
G01 X11.3136 Y-1.7001
G01 X11.3065 Y-1.7022
G01 X11.3001 Y-1.7057
G01 X11.2944 Y-1.7104
G01 X11.2897 Y-1.7161
G01 X11.2870 Y-1.7209
G01 X11.2845 Y-1.7278
G01 X11.2836 Y-1.7332
G01 X11.2834 Y-2.0772
G01 X11.2824 Y-2.0869
G01 X11.2796 Y-2.0963
G01 X11.2749 Y-2.1049
G01 X11.2669 Y-2.1142
G01 X11.2569 Y-2.1213
G01 X11.2479 Y-2.1250
G01 X11.2358 Y-2.1271
G01 X11.1725 Y-2.1272
G01 X11.1652 Y-2.1283
G01 X11.1583 Y-2.1308
G01 X11.1491 Y-2.1369
G01 X11.1421 Y-2.1454
G01 X11.1379 Y-2.1556
G01 X11.1368 Y-2.1665
G01 X11.1384 Y-2.1756
G01 X11.1431 Y-2.1855
G01 X11.1505 Y-2.1937
G01 X11.1583 Y-2.1986
G01 X11.1652 Y-2.2011
G01 X11.1725 Y-2.2022
G01 X11.2358 Y-2.2023
G01 X11.2479 Y-2.2044
G01 X11.2591 Y-2.2094
G01 X11.2687 Y-2.2169
G01 X11.2762 Y-2.2265
G01 X11.2812 Y-2.2377
G01 X11.2828 Y-2.2449
G01 X11.2834 Y-2.2522
G01 X11.2834 Y-2.6530
G01 X11.2850 Y-2.6644
G01 X11.2896 Y-2.6743
G01 X11.2973 Y-2.6828
G01 X11.3717 Y-2.7447
G01 X11.3796 Y-2.7492
G01 X11.3883 Y-2.7517
G01 X11.3955 Y-2.7522
G01 X11.4045 Y-2.7508
G01 X11.4812 Y-2.7252
G01 X11.4878 Y-2.7218
G01 X11.4936 Y-2.7173
G01 X11.4984 Y-2.7117
G01 X11.5020 Y-2.7053
G01 X11.5042 Y-2.6983
G01 X11.5051 Y-2.6910
G01 X11.5046 Y-2.6837
G01 X11.5026 Y-2.6766
G01 X11.4992 Y-2.6700
G01 X11.4947 Y-2.6642
G01 X11.4891 Y-2.6594
G01 X11.4827 Y-2.6558
G01 X11.4721 Y-2.6529
G01 X11.4629 Y-2.6530
G01 X11.4551 Y-2.6548
G01 X11.4240 Y-2.6649
G01 X11.4168 Y-2.6660
G01 X11.4096 Y-2.6661
G01 X11.4024 Y-2.6651
G01 X11.3932 Y-2.6622
G01 X11.3847 Y-2.6575
G01 X11.3765 Y-2.6510
G00 Z3.0000
G00 X12.1292 Y-2.7141
G01 F80.00
G01 Z-0.0746
G01 F50.00
G01 X12.1296 Y-2.7202
G01 X12.1314 Y-2.7273
G01 X12.1345 Y-2.7340
G01 X12.1389 Y-2.7399
G01 X12.1429 Y-2.7437
G01 X12.1490 Y-2.7478
G01 X12.1558 Y-2.7506
G01 X12.1630 Y-2.7520
G01 X12.1704 Y-2.7520
G01 X12.1776 Y-2.7506
G01 X12.1844 Y-2.7478
G01 X12.1891 Y-2.7448
G01 X12.1945 Y-2.7399
G01 X12.1979 Y-2.7355
G01 X12.2014 Y-2.7291
G01 X12.2035 Y-2.7220
G01 X12.2042 Y-2.7141
G01 X12.2043 Y-2.3109
G01 X12.2057 Y-2.3012
G01 X12.2090 Y-2.2920
G01 X12.2141 Y-2.2836
G01 X12.2207 Y-2.2763
G01 X12.2265 Y-2.2718
G01 X12.2351 Y-2.2671
G01 X12.2421 Y-2.2648
G01 X12.2518 Y-2.2634
G01 X12.5327 Y-2.2633
G01 X12.5407 Y-2.2626
G01 X12.5483 Y-2.2602
G01 X12.6961 Y-2.1986
G01 X12.7052 Y-2.1925
G01 X12.7125 Y-2.1835
G01 X12.7852 Y-2.0622
G01 X12.7892 Y-2.0533
G01 X12.7908 Y-2.0418
G01 X12.7908 Y-1.9184
G01 X12.7892 Y-1.9093
G01 X12.7852 Y-1.9004
G01 X12.7112 Y-1.7771
G01 X12.7052 Y-1.7702
G01 X12.6993 Y-1.7658
G01 X12.5483 Y-1.7025
G01 X12.5370 Y-1.6996
G01 X12.1649 Y-1.6994
G01 X12.1558 Y-1.7010
G01 X12.1474 Y-1.7047
G01 X12.1402 Y-1.7104
G01 X12.1345 Y-1.7176
G01 X12.1303 Y-1.7278
G01 X12.1292 Y-1.7375
G01 X12.1292 Y-2.7141
G00 Z3.0000
G00 X12.2542 Y-2.1883
G01 F80.00
G01 Z-0.0746
G01 F50.00
G01 X12.5158 Y-2.1883
G01 X12.5232 Y-2.1877
G01 X12.5350 Y-2.1844
G01 X12.6390 Y-2.1411
G01 X12.6476 Y-2.1365
G01 X12.6533 Y-2.1320
G01 X12.6584 Y-2.1267
G01 X12.6626 Y-2.1207
G01 X12.7099 Y-2.0417
G01 X12.7143 Y-2.0303
G01 X12.7158 Y-2.0182
G01 X12.7158 Y-1.9444
G01 X12.7152 Y-1.9371
G01 X12.7136 Y-1.9299
G01 X12.7086 Y-1.9187
G01 X12.6626 Y-1.8420
G01 X12.6568 Y-1.8342
G01 X12.6476 Y-1.8262
G01 X12.6390 Y-1.8216
G01 X12.5350 Y-1.7783
G01 X12.5280 Y-1.7760
G01 X12.5207 Y-1.7747
G01 X12.2518 Y-1.7745
G01 X12.2421 Y-1.7759
G01 X12.2351 Y-1.7782
G01 X12.2265 Y-1.7829
G01 X12.2207 Y-1.7874
G01 X12.2141 Y-1.7947
G01 X12.2090 Y-1.8031
G01 X12.2057 Y-1.8123
G01 X12.2043 Y-1.8220
G01 X12.2045 Y-2.1432
G01 X12.2064 Y-2.1528
G01 X12.2101 Y-2.1618
G01 X12.2141 Y-2.1680
G01 X12.2207 Y-2.1753
G01 X12.2285 Y-2.1811
G01 X12.2374 Y-2.1853
G01 X12.2469 Y-2.1877
G01 X12.2542 Y-2.1883
G00 Z3.0000
G00 X13.4981 Y-2.5437
G01 F80.00
G01 Z-0.0746
G01 F50.00
G01 X13.4981 Y-2.3479
G01 X13.4971 Y-2.3381
G01 X13.4942 Y-2.3287
G01 X13.4909 Y-2.3221
G01 X13.4487 Y-2.2517
G01 X13.4411 Y-2.2421
G01 X13.4315 Y-2.2345
G01 X13.4203 Y-2.2296
G01 X13.3277 Y-2.2064
G01 X13.3156 Y-2.2049
G01 X13.3035 Y-2.2064
G01 X13.2109 Y-2.2296
G01 X13.1996 Y-2.2345
G01 X13.1900 Y-2.2421
G01 X13.1824 Y-2.2517
G01 X13.1390 Y-2.3243
G01 X13.1346 Y-2.3357
G01 X13.1331 Y-2.3478
G01 X13.1331 Y-2.5438
G01 X13.1341 Y-2.5535
G01 X13.1370 Y-2.5629
G01 X13.1403 Y-2.5695
G01 X13.1803 Y-2.6362
G01 X13.1877 Y-2.6457
G01 X13.1931 Y-2.6504
G01 X13.1991 Y-2.6543
G01 X13.2103 Y-2.6588
G01 X13.3121 Y-2.6758
G01 X13.3238 Y-2.6753
G01 X13.4232 Y-2.6581
G01 X13.4299 Y-2.6555
G01 X13.4380 Y-2.6504
G01 X13.4451 Y-2.6440
G01 X13.4495 Y-2.6383
G01 X13.4921 Y-2.5673
G01 X13.4966 Y-2.5559
G01 X13.4981 Y-2.5437
G00 Z3.0000
G00 X13.5675 Y-2.5878
G01 F80.00
G01 Z-0.0746
G01 F50.00
G01 X13.5720 Y-2.5772
G01 X13.5731 Y-2.5675
G01 X13.5731 Y-2.3242
G01 X13.5724 Y-2.3163
G01 X13.5703 Y-2.3092
G01 X13.5675 Y-2.3038
G01 X13.4947 Y-2.1825
G01 X13.4887 Y-2.1747
G01 X13.4799 Y-2.1682
G01 X13.4707 Y-2.1647
G01 X13.3253 Y-2.1284
G01 X13.3156 Y-2.1272
G01 X13.3059 Y-2.1284
G01 X13.1604 Y-2.1647
G01 X13.1512 Y-2.1682
G01 X13.1424 Y-2.1748
G01 X13.1364 Y-2.1825
G01 X13.0625 Y-2.3059
G01 X13.0592 Y-2.3145
G01 X13.0581 Y-2.3242
G01 X13.0581 Y-2.5674
G01 X13.0588 Y-2.5753
G01 X13.0609 Y-2.5824
G01 X13.0637 Y-2.5878
G01 X13.1364 Y-2.7090
G01 X13.1422 Y-2.7166
G01 X13.1508 Y-2.7231
G01 X13.1609 Y-2.7269
G01 X13.3147 Y-2.7522
G01 X13.3224 Y-2.7516
G01 X13.4736 Y-2.7259
G01 X13.4786 Y-2.7239
G01 X13.4848 Y-2.7202
G01 X13.4889 Y-2.7166
G01 X13.4934 Y-2.7110
G01 X13.5675 Y-2.5878
G00 Z3.0000
G00 X14.1442 Y-2.4976
G01 F80.00
G01 Z-0.0746
G01 F50.00
G01 X14.1410 Y-2.5042
G01 X14.1367 Y-2.5103
G01 X14.1278 Y-2.5189
G01 X14.1171 Y-2.5251
G01 X14.1052 Y-2.5284
G01 X14.0928 Y-2.5287
G01 X14.0808 Y-2.5260
G01 X14.0698 Y-2.5204
G01 X14.0639 Y-2.5158
G01 X14.0589 Y-2.5103
G01 X14.0546 Y-2.5042
G01 X14.0514 Y-2.4976
G01 X13.9111 Y-2.1474
G01 X13.9071 Y-2.1412
G01 X13.9005 Y-2.1348
G01 X13.8926 Y-2.1302
G01 X13.8856 Y-2.1280
G01 X13.8764 Y-2.1272
G01 X13.8691 Y-2.1282
G01 X13.8605 Y-2.1314
G01 X13.8543 Y-2.1354
G01 X13.8469 Y-2.1435
G01 X13.8441 Y-2.1482
G01 X13.8415 Y-2.1551
G01 X13.8405 Y-2.1606
G01 X13.8404 Y-2.1679
G01 X13.8432 Y-2.1792
G01 X14.0637 Y-2.7303
G01 X14.0698 Y-2.7397
G01 X14.0783 Y-2.7468
G01 X14.0868 Y-2.7506
G01 X14.0978 Y-2.7522
G01 X14.1088 Y-2.7506
G01 X14.1188 Y-2.7458
G01 X14.1258 Y-2.7397
G01 X14.1319 Y-2.7303
G01 X14.2734 Y-2.3773
G01 X14.2805 Y-2.3672
G01 X14.2858 Y-2.3620
G01 X14.2919 Y-2.3577
G01 X14.2985 Y-2.3543
G01 X14.3055 Y-2.3519
G01 X14.3178 Y-2.3504
G01 X14.3301 Y-2.3519
G01 X14.3371 Y-2.3543
G01 X14.3437 Y-2.3577
G01 X14.3498 Y-2.3620
G01 X14.3551 Y-2.3672
G01 X14.3622 Y-2.3773
G01 X14.5027 Y-2.7281
G01 X14.5063 Y-2.7352
G01 X14.5109 Y-2.7409
G01 X14.5181 Y-2.7466
G01 X14.5264 Y-2.7505
G01 X14.5336 Y-2.7520
G01 X14.5428 Y-2.7519
G01 X14.5499 Y-2.7502
G01 X14.5566 Y-2.7472
G01 X14.5640 Y-2.7416
G01 X14.5706 Y-2.7329
G01 X14.5742 Y-2.7238
G01 X14.7205 Y-2.1750
G01 X14.7219 Y-2.1671
G01 X14.7216 Y-2.1598
G01 X14.7199 Y-2.1526
G01 X14.7159 Y-2.1443
G01 X14.7100 Y-2.1373
G01 X14.7010 Y-2.1310
G01 X14.6923 Y-2.1280
G01 X14.6831 Y-2.1272
G01 X14.6740 Y-2.1286
G01 X14.6656 Y-2.1322
G01 X14.6583 Y-2.1378
G01 X14.6516 Y-2.1465
G01 X14.6480 Y-2.1556
G01 X14.5680 Y-2.4549
G01 X14.5649 Y-2.4615
G01 X14.5609 Y-2.4677
G01 X14.5542 Y-2.4748
G01 X14.5483 Y-2.4793
G01 X14.5419 Y-2.4828
G01 X14.5350 Y-2.4854
G01 X14.5278 Y-2.4869
G01 X14.5205 Y-2.4873
G01 X14.5083 Y-2.4857
G01 X14.5014 Y-2.4833
G01 X14.4949 Y-2.4799
G01 X14.4853 Y-2.4722
G01 X14.4806 Y-2.4666
G01 X14.4768 Y-2.4603
G01 X14.3529 Y-2.1513
G01 X14.3492 Y-2.1442
G01 X14.3446 Y-2.1384
G01 X14.3388 Y-2.1336
G01 X14.3340 Y-2.1308
G01 X14.3270 Y-2.1283
G01 X14.3197 Y-2.1272
G01 X14.3122 Y-2.1276
G01 X14.3050 Y-2.1294
G01 X14.2983 Y-2.1326
G01 X14.2924 Y-2.1371
G01 X14.2886 Y-2.1412
G01 X14.2827 Y-2.1513
G01 X14.1442 Y-2.4976
G00 Z3.0000
G00 X14.9892 Y-2.5307
G01 F80.00
G01 Z-0.0746
G01 F50.00
G01 X14.9903 Y-2.5406
G01 X15.0200 Y-2.6641
G01 X15.0219 Y-2.6694
G01 X15.0257 Y-2.6758
G01 X15.0307 Y-2.6813
G01 X15.0366 Y-2.6857
G01 X15.1877 Y-2.7491
G01 X15.1953 Y-2.7515
G01 X15.2033 Y-2.7522
G01 X15.3487 Y-2.7522
G01 X15.3582 Y-2.7512
G01 X15.3672 Y-2.7477
G01 X15.4835 Y-2.6872
G01 X15.4929 Y-2.6804
G01 X15.4977 Y-2.6748
G01 X15.5012 Y-2.6683
G01 X15.5034 Y-2.6613
G01 X15.5042 Y-2.6540
G01 X15.5036 Y-2.6467
G01 X15.5015 Y-2.6396
G01 X15.4981 Y-2.6331
G01 X15.4935 Y-2.6274
G01 X15.4848 Y-2.6207
G01 X15.4762 Y-2.6173
G01 X15.4653 Y-2.6161
G01 X15.4562 Y-2.6176
G01 X15.4488 Y-2.6206
G01 X15.3488 Y-2.6726
G01 X15.3421 Y-2.6751
G01 X15.3351 Y-2.6766
G01 X15.2202 Y-2.6772
G01 X15.2128 Y-2.6766
G01 X15.2033 Y-2.6742
G01 X15.1093 Y-2.6351
G01 X15.0989 Y-2.6284
G01 X15.0904 Y-2.6194
G01 X15.0865 Y-2.6131
G01 X15.0828 Y-2.6039
G01 X15.0651 Y-2.5303
G01 X15.0642 Y-2.5210
G01 X15.0643 Y-2.4942
G01 X15.0664 Y-2.4821
G01 X15.0690 Y-2.4753
G01 X15.0727 Y-2.4689
G01 X15.0772 Y-2.4631
G01 X15.0825 Y-2.4580
G01 X15.0885 Y-2.4538
G01 X15.0951 Y-2.4504
G01 X15.1021 Y-2.4481
G01 X15.1093 Y-2.4469
G01 X15.4661 Y-2.4466
G01 X15.4740 Y-2.4459
G01 X15.4827 Y-2.4430
G01 X15.4905 Y-2.4381
G01 X15.4968 Y-2.4315
G01 X15.5020 Y-2.4217
G01 X15.5040 Y-2.4128
G01 X15.5042 Y-2.2850
G01 X15.5030 Y-2.2775
G01 X15.5004 Y-2.2704
G01 X15.4948 Y-2.2620
G01 X15.4222 Y-2.1773
G01 X15.4180 Y-2.1731
G01 X15.4123 Y-2.1689
G01 X15.4018 Y-2.1647
G01 X15.2564 Y-2.1284
G01 X15.2467 Y-2.1272
G01 X15.2370 Y-2.1284
G01 X15.0915 Y-2.1647
G01 X15.0823 Y-2.1682
G01 X15.0735 Y-2.1748
G01 X15.0675 Y-2.1825
G01 X14.9948 Y-2.3038
G01 X14.9903 Y-2.3145
G01 X14.9892 Y-2.3242
G01 X14.9892 Y-2.5307
G00 Z3.0000
G00 X15.1300 Y-2.3716
G01 F80.00
G01 Z-0.0746
G01 F50.00
G01 X15.3792 Y-2.3716
G01 X15.3889 Y-2.3706
G01 X15.3983 Y-2.3678
G01 X15.4069 Y-2.3631
G01 X15.4145 Y-2.3569
G01 X15.4207 Y-2.3493
G01 X15.4254 Y-2.3407
G01 X15.4282 Y-2.3313
G01 X15.4292 Y-2.3193
G01 X15.4281 Y-2.3092
G01 X15.4251 Y-2.2996
G01 X15.4187 Y-2.2887
G01 X15.3814 Y-2.2452
G01 X15.3742 Y-2.2389
G01 X15.3682 Y-2.2352
G01 X15.3571 Y-2.2310
G01 X15.2564 Y-2.2059
G01 X15.2467 Y-2.2049
G01 X15.2370 Y-2.2059
G01 X15.1396 Y-2.2304
G01 X15.1307 Y-2.2345
G01 X15.1247 Y-2.2388
G01 X15.1194 Y-2.2439
G01 X15.1149 Y-2.2497
G01 X15.0838 Y-2.3024
G01 X15.0815 Y-2.3094
G01 X15.0802 Y-2.3167
G01 X15.0805 Y-2.3289
G01 X15.0829 Y-2.3384
G01 X15.0871 Y-2.3473
G01 X15.0929 Y-2.3551
G01 X15.0983 Y-2.3602
G01 X15.1064 Y-2.3657
G01 X15.1131 Y-2.3686
G01 X15.1202 Y-2.3706
G01 X15.1300 Y-2.3716
G00 Z3.0000
G00 X15.7714 Y-2.1653
G01 F80.00
G01 Z-0.0746
G01 F50.00
G01 X15.7714 Y-2.7165
G01 X15.7725 Y-2.7238
G01 X15.7750 Y-2.7307
G01 X15.7788 Y-2.7371
G01 X15.7837 Y-2.7425
G01 X15.7896 Y-2.7469
G01 X15.7963 Y-2.7500
G01 X15.8034 Y-2.7518
G01 X15.8107 Y-2.7522
G01 X15.8180 Y-2.7511
G01 X15.8249 Y-2.7486
G01 X15.8297 Y-2.7459
G01 X15.8354 Y-2.7412
G01 X15.8390 Y-2.7371
G01 X15.8428 Y-2.7307
G01 X15.8448 Y-2.7256
G01 X15.8462 Y-2.7184
G01 X15.8464 Y-2.3279
G01 X15.8479 Y-2.3159
G01 X15.8522 Y-2.3045
G01 X15.8576 Y-2.2964
G01 X15.8644 Y-2.2895
G01 X15.9552 Y-2.2138
G01 X15.9656 Y-2.2071
G01 X15.9749 Y-2.2038
G01 X15.9847 Y-2.2023
G01 X16.1016 Y-2.2022
G01 X16.1113 Y-2.2011
G01 X16.1166 Y-2.1994
G01 X16.1230 Y-2.1959
G01 X16.1274 Y-2.1925
G01 X16.1323 Y-2.1871
G01 X16.1361 Y-2.1807
G01 X16.1381 Y-2.1756
G01 X16.1395 Y-2.1684
G01 X16.1397 Y-2.1629
G01 X16.1386 Y-2.1556
G01 X16.1369 Y-2.1503
G01 X16.1334 Y-2.1439
G01 X16.1300 Y-2.1395
G01 X16.1260 Y-2.1357
G01 X16.1199 Y-2.1316
G01 X16.1131 Y-2.1288
G01 X16.1059 Y-2.1274
G01 X15.9499 Y-2.1276
G01 X15.9410 Y-2.1301
G01 X15.9344 Y-2.1336
G01 X15.9101 Y-2.1536
G01 X15.9040 Y-2.1575
G01 X15.8927 Y-2.1620
G01 X15.8807 Y-2.1637
G01 X15.8687 Y-2.1624
G01 X15.8573 Y-2.1582
G01 X15.8472 Y-2.1514
G01 X15.8354 Y-2.1382
G01 X15.8297 Y-2.1335
G01 X15.8198 Y-2.1288
G01 X15.8089 Y-2.1272
G01 X15.8016 Y-2.1279
G01 X15.7945 Y-2.1300
G01 X15.7881 Y-2.1335
G01 X15.7824 Y-2.1382
G01 X15.7777 Y-2.1439
G01 X15.7742 Y-2.1503
G01 X15.7721 Y-2.1574
G01 X15.7714 Y-2.1653
G00 Z3.0000
G00 X17.0651 Y-2.3105
G01 F80.00
G01 Z-0.0746
G01 F50.00
G01 X17.2707 Y-2.3105
G01 X17.2781 Y-2.3099
G01 X17.2854 Y-2.3083
G01 X17.2923 Y-2.3056
G01 X17.2987 Y-2.3019
G01 X17.3045 Y-2.2973
G01 X17.3125 Y-2.2879
G01 X17.3161 Y-2.2814
G01 X17.3187 Y-2.2745
G01 X17.3203 Y-2.2672
G01 X17.3207 Y-2.2598
G01 X17.3201 Y-2.2524
G01 X17.3184 Y-2.2452
G01 X17.2147 Y-1.9687
G01 X17.2090 Y-1.9578
G01 X17.2026 Y-1.9502
G01 X17.1927 Y-1.9428
G01 X17.1837 Y-1.9388
G01 X17.1765 Y-1.9370
G01 X17.1667 Y-1.9363
G01 X17.1593 Y-1.9370
G01 X17.1498 Y-1.9396
G01 X17.1431 Y-1.9428
G01 X17.1350 Y-1.9486
G01 X17.1283 Y-1.9558
G01 X17.1242 Y-1.9620
G01 X17.1211 Y-1.9687
G01 X17.0175 Y-2.2452
G01 X17.0152 Y-2.2574
G01 X17.0156 Y-2.2672
G01 X17.0187 Y-2.2792
G01 X17.0247 Y-2.2899
G01 X17.0332 Y-2.2989
G01 X17.0436 Y-2.3056
G01 X17.0529 Y-2.3089
G01 X17.0651 Y-2.3105
G00 Z3.0000
G00 X17.3364 Y-2.3855
G01 F80.00
G01 Z-0.0746
G01 F50.00
G01 X17.3437 Y-2.3861
G01 X17.3508 Y-2.3876
G01 X17.3618 Y-2.3925
G01 X17.3678 Y-2.3966
G01 X17.3731 Y-2.4016
G01 X17.3776 Y-2.4073
G01 X17.3813 Y-2.4135
G01 X17.4992 Y-2.7273
G01 X17.5027 Y-2.7345
G01 X17.5072 Y-2.7403
G01 X17.5127 Y-2.7452
G01 X17.5191 Y-2.7489
G01 X17.5260 Y-2.7512
G01 X17.5333 Y-2.7522
G01 X17.5407 Y-2.7517
G01 X17.5478 Y-2.7498
G01 X17.5544 Y-2.7466
G01 X17.5588 Y-2.7433
G01 X17.5640 Y-2.7381
G01 X17.5695 Y-2.7285
G01 X17.5711 Y-2.7233
G01 X17.5721 Y-2.7160
G01 X17.5716 Y-2.7086
G01 X17.5703 Y-2.7033
G01 X17.2033 Y-1.7243
G01 X17.2007 Y-1.7187
G01 X17.1965 Y-1.7126
G01 X17.1911 Y-1.7074
G01 X17.1849 Y-1.7034
G01 X17.1780 Y-1.7008
G01 X17.1725 Y-1.6997
G01 X17.1651 Y-1.6995
G01 X17.1578 Y-1.7008
G01 X17.1493 Y-1.7043
G01 X17.1419 Y-1.7099
G01 X17.1360 Y-1.7171
G01 X17.1325 Y-1.7243
G01 X16.7664 Y-2.7009
G01 X16.7643 Y-2.7086
G01 X16.7639 Y-2.7178
G01 X16.7658 Y-2.7268
G01 X16.7698 Y-2.7351
G01 X16.7757 Y-2.7421
G01 X16.7831 Y-2.7475
G01 X16.7916 Y-2.7510
G01 X16.8007 Y-2.7522
G01 X16.8099 Y-2.7512
G01 X16.8185 Y-2.7481
G01 X16.8261 Y-2.7429
G01 X16.8332 Y-2.7345
G01 X16.8367 Y-2.7273
G01 X16.9535 Y-2.4157
G01 X16.9569 Y-2.4093
G01 X16.9628 Y-2.4016
G01 X16.9681 Y-2.3966
G01 X16.9740 Y-2.3925
G01 X16.9805 Y-2.3893
G01 X16.9875 Y-2.3870
G01 X16.9995 Y-2.3855
G01 X17.3364 Y-2.3855
G00 Z3.0000
G00 X17.9463 Y-2.9015
G01 F80.00
G01 Z-0.0746
G01 F50.00
G01 X17.9415 Y-2.9071
G01 X17.9360 Y-2.9118
G01 X17.9276 Y-2.9168
G01 X17.9207 Y-2.9194
G01 X17.9088 Y-2.9215
G01 X17.8713 Y-2.9220
G01 X17.8608 Y-2.9252
G01 X17.8530 Y-2.9301
G01 X17.8478 Y-2.9353
G01 X17.8437 Y-2.9414
G01 X17.8409 Y-2.9482
G01 X17.8395 Y-2.9554
G01 X17.8395 Y-2.9628
G01 X17.8409 Y-2.9700
G01 X17.8437 Y-2.9768
G01 X17.8478 Y-2.9829
G01 X17.8530 Y-2.9881
G01 X17.8591 Y-2.9922
G01 X17.8659 Y-2.9950
G01 X17.8731 Y-2.9964
G01 X17.9519 Y-2.9966
G01 X17.9609 Y-2.9950
G01 X17.9677 Y-2.9922
G01 X17.9738 Y-2.9882
G01 X17.9790 Y-2.9830
G01 X18.0531 Y-2.8843
G01 X18.0573 Y-2.8775
G01 X18.0602 Y-2.8687
G01 X18.0609 Y-2.8607
G01 X18.0609 Y-2.1629
G01 X18.0598 Y-2.1556
G01 X18.0581 Y-2.1503
G01 X18.0546 Y-2.1439
G01 X18.0512 Y-2.1395
G01 X18.0472 Y-2.1357
G01 X18.0411 Y-2.1316
G01 X18.0343 Y-2.1288
G01 X18.0271 Y-2.1274
G01 X18.0197 Y-2.1274
G01 X18.0125 Y-2.1288
G01 X18.0057 Y-2.1316
G01 X17.9996 Y-2.1357
G01 X17.9944 Y-2.1409
G01 X17.9903 Y-2.1470
G01 X17.9875 Y-2.1538
G01 X17.9861 Y-2.1610
G01 X17.9858 Y-2.8346
G01 X17.9837 Y-2.8468
G01 X17.9786 Y-2.8580
G01 X17.9463 Y-2.9015
G00 Z3.0000
G00 X25.0128 Y-3.2933
G01 F80.00
G01 Z-0.0746
G01 F50.00
G01 X25.0080 Y-3.3323
G01 X25.0052 Y-3.3715
G01 X25.0043 Y-3.4107
G01 X25.0053 Y-3.4500
G01 X25.0083 Y-3.4891
G01 X25.0132 Y-3.5281
G01 X25.0199 Y-3.5668
G01 X25.0286 Y-3.6051
G01 X25.0391 Y-3.6429
G01 X25.0515 Y-3.6802
G01 X25.0657 Y-3.7168
G01 X25.0816 Y-3.7526
G01 X25.0994 Y-3.7877
G01 X25.1188 Y-3.8218
G01 X25.1397 Y-3.8548
G01 X25.1625 Y-3.8870
G01 X25.1867 Y-3.9180
G01 X25.2124 Y-3.9476
G01 X25.2378 Y-3.9743
G01 X25.2662 Y-4.0014
G01 X25.2958 Y-4.0271
G01 X25.3268 Y-4.0513
G01 X25.3588 Y-4.0740
G01 X25.3920 Y-4.0950
G01 X25.4261 Y-4.1144
G01 X25.4612 Y-4.1322
G01 X25.4970 Y-4.1481
G01 X25.5336 Y-4.1623
G01 X25.5709 Y-4.1747
G01 X25.6087 Y-4.1852
G01 X25.6470 Y-4.1939
G01 X25.6878 Y-4.2010
G01 X25.7247 Y-4.2055
G01 X25.7638 Y-4.2085
G01 X25.8031 Y-4.2095
G01 X25.8448 Y-4.2085
G01 X25.8839 Y-4.2055
G01 X25.9205 Y-4.2010
G01 X25.9592 Y-4.1944
G01 X25.9975 Y-4.1858
G01 X26.0353 Y-4.1754
G01 X26.0727 Y-4.1631
G01 X26.1116 Y-4.1481
G01 X26.1474 Y-4.1322
G01 X26.1825 Y-4.1144
G01 X26.2166 Y-4.0950
G01 X26.2496 Y-4.0741
G01 X26.2816 Y-4.0515
G01 X26.3109 Y-4.0287
G01 X26.3406 Y-4.0031
G01 X26.3691 Y-3.9760
G01 X26.3962 Y-3.9476
G01 X26.4219 Y-3.9180
G01 X26.4476 Y-3.8851
G01 X26.4688 Y-3.8550
G01 X26.4898 Y-3.8218
G01 X26.5092 Y-3.7877
G01 X26.5270 Y-3.7526
G01 X26.5429 Y-3.7168
G01 X26.5571 Y-3.6802
G01 X26.5695 Y-3.6429
G01 X26.5788 Y-3.6096
G01 X28.1625 Y-3.6096
G01 X28.8737 Y-4.3208
G01 X28.8562 Y-4.3485
G01 X28.8333 Y-4.3891
G01 X28.8124 Y-4.4307
G01 X28.7945 Y-4.4711
G01 X28.7768 Y-4.5169
G01 X28.7623 Y-4.5612
G01 X28.7505 Y-4.6038
G01 X28.7397 Y-4.6517
G01 X28.7319 Y-4.6973
G01 X28.7262 Y-4.7435
G01 X28.7228 Y-4.7904
G01 X28.7217 Y-4.8370
G01 X28.7228 Y-4.8812
G01 X28.7264 Y-4.9301
G01 X28.7318 Y-4.9740
G01 X28.7397 Y-5.0199
G01 X28.7505 Y-5.0678
G01 X28.7623 Y-5.1104
G01 X28.7768 Y-5.1547
G01 X28.7945 Y-5.2004
G01 X28.8124 Y-5.2409
G01 X28.8333 Y-5.2825
G01 X28.8575 Y-5.3252
G01 X28.8811 Y-5.3626
G01 X28.9079 Y-5.4007
G01 X28.9381 Y-5.4394
G01 X28.9686 Y-5.4747
G01 X29.0008 Y-5.5084
G01 X29.0328 Y-5.5389
G01 X29.0681 Y-5.5694
G01 X29.1048 Y-5.5981
G01 X29.1449 Y-5.6264
G01 X29.1844 Y-5.6513
G01 X29.2228 Y-5.6730
G01 X29.2644 Y-5.6941
G01 X29.3070 Y-5.7130
G01 X29.3528 Y-5.7307
G01 X29.3948 Y-5.7445
G01 X29.4397 Y-5.7570
G01 X29.4852 Y-5.7673
G01 X29.5332 Y-5.7756
G01 X29.5798 Y-5.7813
G01 X29.6263 Y-5.7847
G01 X29.6729 Y-5.7858
G01 X29.7171 Y-5.7847
G01 X29.7636 Y-5.7813
G01 X29.8123 Y-5.7753
G01 X29.8582 Y-5.7673
G01 X29.9013 Y-5.7576
G01 X29.9486 Y-5.7445
G01 X29.9906 Y-5.7307
G01 X30.0341 Y-5.7139
G01 X30.0790 Y-5.6941
G01 X30.1206 Y-5.6730
G01 X30.1590 Y-5.6513
G01 X30.1985 Y-5.6264
G01 X30.2385 Y-5.5982
G01 X30.2734 Y-5.5709
G01 X30.3088 Y-5.5405
G01 X30.3426 Y-5.5084
G01 X30.3764 Y-5.4729
G01 X30.4068 Y-5.4375
G01 X30.4340 Y-5.4027
G01 X30.4609 Y-5.3646
G01 X30.4872 Y-5.3231
G01 X30.5089 Y-5.2847
G01 X30.5300 Y-5.2431
G01 X30.5498 Y-5.1982
G01 X30.5666 Y-5.1547
G01 X30.5804 Y-5.1127
G01 X30.5935 Y-5.0654
G01 X30.6037 Y-5.0199
G01 X30.6115 Y-4.9743
G01 X30.6170 Y-4.9301
G01 X30.6206 Y-4.8818
G01 X30.6217 Y-4.8346
G01 X30.6206 Y-4.7904
G01 X30.6172 Y-4.7439
G01 X30.6112 Y-4.6952
G01 X30.6032 Y-4.6493
G01 X30.5935 Y-4.6062
G01 X30.5804 Y-4.5589
G01 X30.5657 Y-4.5146
G01 X30.5489 Y-4.4712
G01 X30.5310 Y-4.4307
G01 X30.5101 Y-4.3891
G01 X30.4859 Y-4.3464
G01 X30.4623 Y-4.3090
G01 X30.4388 Y-4.2756
G01 X32.8269 Y-1.8876
G01 X55.1865 Y-1.8876
G01 X50.6465 Y-6.4277
G01 X47.9425 Y-6.4277
G01 X47.9217 Y-6.4288
G01 X47.9023 Y-6.4318
G01 X47.8856 Y-6.4360
G01 X47.8739 Y-6.4398
G01 X47.8493 Y-6.4508
G01 X47.8386 Y-6.4568
G01 X47.8243 Y-6.4664
G01 X47.8072 Y-6.4804
G01 X47.6599 Y-6.6279
G01 X47.6490 Y-6.6411
G01 X47.6420 Y-6.6512
G01 X47.6320 Y-6.6681
G01 X47.6246 Y-6.6836
G01 X47.6202 Y-6.6951
G01 X47.6146 Y-6.7139
G01 X47.6109 Y-6.7332
G01 X47.6091 Y-6.7521
G01 X47.6089 Y-7.1056
G01 X44.3806 Y-7.0853
G01 X44.3220 Y-7.0275
G01 X44.3143 Y-7.0227
G01 X44.3071 Y-7.0198
G01 X44.2996 Y-7.0180
G01 X44.2919 Y-7.0174
G01 X43.1893 Y-7.0174
G01 X43.1817 Y-7.0184
G01 X43.1743 Y-7.0205
G01 X43.1675 Y-7.0237
G01 X43.1617 Y-7.0274
G01 X43.1112 Y-7.0774
G01 X41.5020 Y-7.0673
G01 X41.4746 Y-7.0684
G01 X41.4578 Y-7.0703
G01 X41.4317 Y-7.0753
G01 X41.4103 Y-7.0812
G01 X39.9145 Y-7.0813
G01 X39.9049 Y-7.0827
G01 X39.8979 Y-7.0850
G01 X39.8892 Y-7.0896
G01 X39.8816 Y-7.0958
G01 X39.8754 Y-7.1034
G01 X39.8718 Y-7.1098
G01 X39.8685 Y-7.1191
G01 X39.8672 Y-7.1263
G01 X39.8670 Y-7.5199
G01 X39.3557 Y-7.5192
G01 X39.3555 Y-7.1136
G01 X39.3542 Y-7.1064
G01 X39.3519 Y-7.0994
G01 X39.3473 Y-7.0907
G01 X39.3427 Y-7.0849
G01 X39.3374 Y-7.0798
G01 X39.3314 Y-7.0756
G01 X39.3225 Y-7.0714
G01 X39.3155 Y-7.0695
G01 X39.3057 Y-7.0685
G01 X38.0032 Y-7.0686
G01 X37.9936 Y-7.0700
G01 X37.9866 Y-7.0723
G01 X37.9800 Y-7.0756
G01 X37.9721 Y-7.0815
G01 X37.9670 Y-7.0868
G01 X37.9616 Y-7.0949
G01 X37.9586 Y-7.1017
G01 X37.9567 Y-7.1087
G01 X37.9557 Y-7.1185
G01 X37.9558 Y-8.5210
G01 X37.9572 Y-8.5306
G01 X37.9595 Y-8.5376
G01 X37.9641 Y-8.5463
G01 X37.9687 Y-8.5521
G01 X37.9740 Y-8.5572
G01 X37.9800 Y-8.5614
G01 X37.9889 Y-8.5656
G01 X37.9959 Y-8.5675
G01 X38.0057 Y-8.5685
G01 X39.3057 Y-8.5685
G01 X39.3130 Y-8.5680
G01 X39.3202 Y-8.5663
G01 X39.3271 Y-8.5637
G01 X39.3335 Y-8.5601
G01 X39.3393 Y-8.5555
G01 X39.3444 Y-8.5502
G01 X39.3486 Y-8.5442
G01 X39.3519 Y-8.5376
G01 X39.3542 Y-8.5306
G01 X39.3555 Y-8.5234
G01 X39.3557 Y-8.1195
G01 X39.8670 Y-8.1201
G01 X39.8672 Y-8.4361
G01 X39.8685 Y-8.4433
G01 X39.8708 Y-8.4503
G01 X39.8754 Y-8.4590
G01 X39.8800 Y-8.4648
G01 X39.8872 Y-8.4714
G01 X39.8934 Y-8.4753
G01 X39.9002 Y-8.4783
G01 X39.9097 Y-8.4807
G01 X39.9170 Y-8.4812
G01 X41.5170 Y-8.4812
G01 X41.5291 Y-8.4797
G01 X41.5361 Y-8.4774
G01 X41.5427 Y-8.4741
G01 X41.5506 Y-8.4682
G01 X41.5557 Y-8.4629
G01 X41.5599 Y-8.4569
G01 X41.5632 Y-8.4503
G01 X41.5655 Y-8.4433
G01 X41.5669 Y-8.4337
G01 X41.5670 Y-7.6756
G01 X41.5801 Y-7.6680
G01 X43.1318 Y-7.6778
G01 X43.1566 Y-7.7027
G01 X43.1637 Y-7.7085
G01 X43.1696 Y-7.7120
G01 X43.1768 Y-7.7149
G01 X43.1843 Y-7.7167
G01 X43.1920 Y-7.7173
G01 X44.2946 Y-7.7172
G01 X44.3072 Y-7.7149
G01 X44.3184 Y-7.7098
G01 X44.3257 Y-7.7042
G01 X44.3446 Y-7.6854
G01 X47.6839 Y-7.7063
G01 X48.3751 Y-8.3971
G01 X48.3998 Y-8.4174
G01 X48.4223 Y-8.4324
G01 X48.4372 Y-8.4409
G01 X48.4504 Y-8.4474
G01 X48.4753 Y-8.4578
G01 X48.5059 Y-8.4670
G01 X48.5324 Y-8.4723
G01 X48.5470 Y-8.4741
G01 X48.5776 Y-8.4757
G01 X50.9365 Y-8.4757
G01 X50.9365 Y-9.7631
G01 X50.9381 Y-9.7937
G01 X50.9399 Y-9.8083
G01 X50.9452 Y-9.8348
G01 X50.9544 Y-9.8654
G01 X50.9648 Y-9.8903
G01 X50.9725 Y-9.9057
G01 X50.9864 Y-9.9288
G01 X50.9948 Y-9.9409
G01 X51.0054 Y-9.9544
G01 X51.0235 Y-9.9744
G01 X51.0472 Y-9.9959
G01 X51.0688 Y-10.0120
G01 X51.0813 Y-10.0199
G01 X51.1094 Y-10.0349
G01 X51.1367 Y-10.0461
G01 X51.1649 Y-10.0545
G01 X51.1935 Y-10.0601
G01 X51.2225 Y-10.0629
G01 X51.8171 Y-10.0632
G01 X51.8617 Y-10.1073
G01 X51.8675 Y-10.1110
G01 X51.8743 Y-10.1142
G01 X51.8817 Y-10.1163
G01 X51.8893 Y-10.1173
G01 X52.9945 Y-10.1173
G01 X53.0046 Y-10.1157
G01 X53.0119 Y-10.1132
G01 X53.0183 Y-10.1099
G01 X53.0256 Y-10.1043
G01 X53.2273 Y-9.9026
G01 X53.2331 Y-9.8956
G01 X53.2377 Y-9.8873
G01 X53.2408 Y-9.8775
G01 X53.2419 Y-9.8673
G01 X53.2419 Y-9.6673
G01 X53.2403 Y-9.6546
G01 X53.2366 Y-9.6449
G01 X53.2318 Y-9.6371
G01 X53.2273 Y-9.6319
G01 X53.0274 Y-9.4320
G01 X53.0203 Y-9.4262
G01 X53.0120 Y-9.4216
G01 X53.0022 Y-9.4185
G01 X52.9920 Y-9.4174
G01 X51.8893 Y-9.4175
G01 X51.8767 Y-9.4198
G01 X51.8695 Y-9.4227
G01 X51.8636 Y-9.4262
G01 X51.8565 Y-9.4321
G01 X51.8256 Y-9.4630
G01 X51.5367 Y-9.4630
G01 X51.5367 Y-8.4757
G01 X51.8297 Y-8.4757
G01 X51.8566 Y-8.5027
G01 X51.8642 Y-8.5089
G01 X51.8752 Y-8.5144
G01 X51.8822 Y-8.5163
G01 X51.8895 Y-8.5172
G01 X52.9919 Y-8.5174
G01 X53.0040 Y-8.5159
G01 X53.0155 Y-8.5115
G01 X53.0217 Y-8.5076
G01 X53.0272 Y-8.5028
G01 X53.2273 Y-8.3028
G01 X53.2336 Y-8.2952
G01 X53.2372 Y-8.2888
G01 X53.2405 Y-8.2795
G01 X53.2420 Y-8.2674
G01 X53.2419 Y-8.0673
G01 X53.2404 Y-8.0551
G01 X53.2360 Y-8.0437
G01 X53.2321 Y-8.0375
G01 X53.2273 Y-8.0319
G01 X53.0255 Y-7.8303
G01 X53.0197 Y-7.8257
G01 X53.0133 Y-7.8221
G01 X53.0064 Y-7.8195
G01 X52.9968 Y-7.8175
G01 X51.8895 Y-7.8175
G01 X51.8822 Y-7.8184
G01 X51.8752 Y-7.8203
G01 X51.8684 Y-7.8233
G01 X51.8622 Y-7.8272
G01 X51.8132 Y-7.8755
G01 X51.2195 Y-7.8755
G01 X51.0795 Y-7.7354
G01 X51.0795 Y-6.7021
G01 X55.8939 Y-1.8876
G01 X57.9215 Y-1.8876
G01 X57.9215 Y-9.5646
G01 X57.9231 Y-9.5952
G01 X57.9275 Y-9.6244
G01 X57.9341 Y-9.6505
G01 X57.9386 Y-9.6646
G01 X57.9448 Y-9.6806
G01 X57.9563 Y-9.7050
G01 X57.9648 Y-9.7199
G01 X57.9798 Y-9.7424
G01 X57.9904 Y-9.7559
G01 X58.0085 Y-9.7759
G01 X60.1808 Y-11.9482
G01 X60.1808 Y-13.0237
G01 X60.1813 Y-13.0310
G01 X60.1830 Y-13.0382
G01 X60.1856 Y-13.0451
G01 X60.1892 Y-13.0515
G01 X60.1938 Y-13.0573
G01 X60.1991 Y-13.0624
G01 X60.2051 Y-13.0666
G01 X60.2140 Y-13.0708
G01 X60.2210 Y-13.0727
G01 X60.2283 Y-13.0736
G01 X60.6772 Y-13.0737
G01 X60.7976 Y-14.1121
G01 X60.5483 Y-14.1121
G01 X60.5410 Y-14.1126
G01 X60.5315 Y-14.1150
G01 X60.5247 Y-14.1180
G01 X60.5185 Y-14.1219
G01 X60.5129 Y-14.1267
G01 X60.5081 Y-14.1323
G01 X60.5042 Y-14.1385
G01 X60.5012 Y-14.1453
G01 X60.4993 Y-14.1523
G01 X60.4983 Y-14.1621
G01 X60.4983 Y-15.7621
G01 X60.4993 Y-15.7719
G01 X60.5012 Y-15.7789
G01 X60.5042 Y-15.7857
G01 X60.5096 Y-15.7938
G01 X60.5147 Y-15.7991
G01 X60.5226 Y-15.8050
G01 X60.5292 Y-15.8083
G01 X60.5362 Y-15.8106
G01 X60.5434 Y-15.8119
G01 X60.8980 Y-15.8121
G01 X60.8980 Y-15.8941
G01 X60.0084 Y-18.0214
G01 X60.0026 Y-18.0364
G01 X59.9946 Y-18.0625
G01 X59.9883 Y-18.0940
G01 X59.9865 Y-18.1088
G01 X59.9852 Y-18.1360
G01 X59.9852 Y-18.6119
G01 X59.9328 Y-18.6120
G01 X59.9231 Y-18.6134
G01 X59.9139 Y-18.6167
G01 X59.9036 Y-18.6233
G01 X59.8982 Y-18.6283
G01 X59.8937 Y-18.6341
G01 X59.8901 Y-18.6405
G01 X59.8875 Y-18.6474
G01 X59.8854 Y-18.6594
G01 X59.8853 Y-19.7377
G01 X58.5243 Y-21.1010
G01 X58.5062 Y-21.1210
G01 X58.4958 Y-21.1345
G01 X58.4807 Y-21.1570
G01 X58.4723 Y-21.1719
G01 X58.4608 Y-21.1963
G01 X58.4546 Y-21.2124
G01 X58.4468 Y-21.2382
G01 X58.4430 Y-21.2549
G01 X58.4388 Y-21.2840
G01 X58.4375 Y-21.3122
G01 X58.4375 Y-28.6717
G01 X54.6550 Y-28.6717
G01 X53.5817 Y-27.5984
G01 X53.5608 Y-27.5794
G01 X53.5373 Y-27.5617
G01 X53.5099 Y-27.5453
G01 X53.4967 Y-27.5388
G01 X53.4718 Y-27.5284
G01 X53.4412 Y-27.5192
G01 X53.4147 Y-27.5139
G01 X53.4001 Y-27.5121
G01 X53.3695 Y-27.5105
G01 X53.1161 Y-27.5105
G01 X53.1161 Y-27.4115
G01 X53.1146 Y-27.3994
G01 X53.1102 Y-27.3879
G01 X53.1063 Y-27.3817
G01 X53.1015 Y-27.3761
G01 X53.0959 Y-27.3713
G01 X53.0897 Y-27.3674
G01 X53.0829 Y-27.3644
G01 X53.0759 Y-27.3625
G01 X53.0661 Y-27.3615
G01 X52.4094 Y-27.3615
G01 X51.4971 Y-26.4491
G01 X51.4835 Y-26.4367
G01 X51.4678 Y-26.4249
G01 X51.4510 Y-26.4147
G01 X51.4400 Y-26.4092
G01 X51.4218 Y-26.4018
G01 X51.3958 Y-26.3946
G01 X51.3764 Y-26.3916
G01 X51.3568 Y-26.3905
G01 X50.2403 Y-26.3905
G01 X50.2334 Y-26.3855
G01 X50.2245 Y-26.3813
G01 X50.2175 Y-26.3794
G01 X50.2077 Y-26.3784
G01 X49.6077 Y-26.3784
G01 X49.5979 Y-26.3794
G01 X49.5886 Y-26.3822
G01 X49.5820 Y-26.3855
G01 X49.5760 Y-26.3897
G01 X49.5707 Y-26.3948
G01 X49.5661 Y-26.4006
G01 X49.5625 Y-26.4070
G01 X49.5599 Y-26.4139
G01 X49.5582 Y-26.4211
G01 X49.5577 Y-26.4284
G01 X49.5576 Y-28.0446
G01 X49.5512 Y-28.0725
G01 X49.5497 Y-28.0847
G01 X49.5488 Y-28.1031
G01 X49.5488 Y-29.7683
G01 X48.2408 Y-29.7683
G01 X48.2224 Y-29.7692
G01 X48.2006 Y-29.7724
G01 X48.1839 Y-29.7766
G01 X48.1722 Y-29.7804
G01 X48.1476 Y-29.7914
G01 X48.1369 Y-29.7974
G01 X48.1226 Y-29.8070
G01 X48.1055 Y-29.8210
G01 X48.0934 Y-29.8331
G01 X48.0854 Y-29.8424
G01 X48.0698 Y-29.8645
G01 X48.0594 Y-29.8840
G01 X48.0520 Y-29.9022
G01 X48.0448 Y-29.9282
G01 X48.0418 Y-29.9476
G01 X48.0407 Y-29.9684
G01 X48.0407 Y-30.8812
G01 X48.0427 Y-30.9093
G01 X48.0448 Y-30.9214
G01 X48.0489 Y-30.9377
G01 X48.0489 Y-32.8337
G01 X48.0499 Y-32.8435
G01 X48.0527 Y-32.8528
G01 X48.0573 Y-32.8615
G01 X48.0619 Y-32.8673
G01 X48.0691 Y-32.8739
G01 X48.0775 Y-32.8789
G01 X48.0868 Y-32.8822
G01 X48.0964 Y-32.8836
G01 X48.4038 Y-32.8835
G01 X48.4110 Y-32.8822
G01 X48.4180 Y-32.8799
G01 X48.4267 Y-32.8753
G01 X48.4325 Y-32.8707
G01 X48.4376 Y-32.8654
G01 X48.4430 Y-32.8573
G01 X48.4467 Y-32.8482
G01 X48.4484 Y-32.8410
G01 X48.4489 Y-32.8337
G01 X48.4489 Y-30.8337
G01 X48.4484 Y-30.8264
G01 X48.4467 Y-30.8192
G01 X48.4409 Y-30.8066
G01 X48.4409 Y-30.1685
G01 X49.7575 Y-30.1683
G01 X49.7770 Y-30.1665
G01 X49.7963 Y-30.1628
G01 X49.8151 Y-30.1572
G01 X49.8333 Y-30.1498
G01 X49.8507 Y-30.1406
G01 X49.8688 Y-30.1285
G01 X49.8842 Y-30.1158
G01 X49.8980 Y-30.1018
G01 X49.9103 Y-30.0866
G01 X49.9199 Y-30.0723
G01 X49.9259 Y-30.0616
G01 X49.9342 Y-30.0438
G01 X49.9400 Y-30.0276
G01 X49.9449 Y-30.0086
G01 X49.9470 Y-29.9965
G01 X49.9488 Y-29.9776
G01 X49.9490 Y-28.4784
G01 X50.2077 Y-28.4784
G01 X50.2212 Y-28.4765
G01 X51.4161 Y-28.4765
G01 X51.4161 Y-28.7115
G01 X51.4166 Y-28.7188
G01 X51.4183 Y-28.7260
G01 X51.4220 Y-28.7351
G01 X51.4274 Y-28.7432
G01 X51.4325 Y-28.7485
G01 X51.4383 Y-28.7531
G01 X51.4470 Y-28.7577
G01 X51.4540 Y-28.7600
G01 X51.4612 Y-28.7613
G01 X53.0710 Y-28.7613
G01 X53.0806 Y-28.7593
G01 X53.0875 Y-28.7567
G01 X53.0959 Y-28.7517
G01 X53.1031 Y-28.7451
G01 X53.1077 Y-28.7393
G01 X53.1123 Y-28.7306
G01 X53.1146 Y-28.7236
G01 X53.1160 Y-28.7140
G01 X53.1161 Y-28.1107
G01 X53.2452 Y-28.1107
G01 X54.3282 Y-29.1933
G01 X54.3413 Y-29.2046
G01 X54.3629 Y-29.2207
G01 X54.3775 Y-29.2298
G01 X54.4013 Y-29.2426
G01 X54.4308 Y-29.2548
G01 X54.4566 Y-29.2626
G01 X54.4734 Y-29.2664
G01 X54.5021 Y-29.2706
G01 X54.5307 Y-29.2719
G01 X58.7388 Y-29.2719
G01 X58.7682 Y-29.2703
G01 X58.7828 Y-29.2685
G01 X58.8093 Y-29.2632
G01 X58.8375 Y-29.2548
G01 X58.8668 Y-29.2427
G01 X58.8929 Y-29.2286
G01 X58.9054 Y-29.2207
G01 X58.9270 Y-29.2046
G01 X58.9507 Y-29.1831
G01 X58.9704 Y-29.1612
G01 X58.9865 Y-29.1396
G01 X59.0017 Y-29.1144
G01 X59.0094 Y-29.0990
G01 X59.0206 Y-29.0717
G01 X59.0290 Y-29.0435
G01 X59.0343 Y-29.0170
G01 X59.0364 Y-29.0000
G01 X59.0377 Y-28.9718
G01 X59.0377 Y-21.4364
G01 X59.8854 Y-20.5873
G01 X59.8856 Y-20.8668
G01 X59.8869 Y-20.8741
G01 X59.8892 Y-20.8810
G01 X59.8952 Y-20.8917
G01 X59.9000 Y-20.8973
G01 X59.9056 Y-20.9021
G01 X59.9118 Y-20.9060
G01 X59.9186 Y-20.9090
G01 X59.9281 Y-20.9114
G01 X59.9354 Y-20.9119
G01 X60.6379 Y-20.9117
G01 X60.6499 Y-20.9096
G01 X60.6568 Y-20.9070
G01 X60.6632 Y-20.9034
G01 X60.6725 Y-20.8954
G01 X60.6770 Y-20.8896
G01 X60.6806 Y-20.8832
G01 X60.6844 Y-20.8716
G01 X60.6854 Y-20.8618
G01 X60.6852 Y-18.6593
G01 X60.6831 Y-18.6473
G01 X60.6805 Y-18.6404
G01 X60.6769 Y-18.6340
G01 X60.6689 Y-18.6247
G01 X60.6631 Y-18.6202
G01 X60.6567 Y-18.6166
G01 X60.6474 Y-18.6133
G01 X60.6377 Y-18.6119
G01 X60.5855 Y-18.6118
G01 X60.5854 Y-18.1974
G01 X61.4799 Y-16.0575
G01 X61.4894 Y-16.0268
G01 X61.4947 Y-16.0001
G01 X61.4969 Y-15.9829
G01 X61.4982 Y-15.9545
G01 X61.4983 Y-15.8121
G01 X61.8508 Y-15.8120
G01 X61.8581 Y-15.8111
G01 X61.8651 Y-15.8092
G01 X61.8761 Y-15.8037
G01 X61.8853 Y-15.7957
G01 X61.8899 Y-15.7899
G01 X61.8935 Y-15.7835
G01 X61.8973 Y-15.7719
G01 X61.8983 Y-15.7621
G01 X61.8983 Y-15.2622
G01 X68.3420 Y-15.2623
G01 X68.3692 Y-15.2611
G01 X68.3974 Y-15.2572
G01 X68.4251 Y-15.2506
G01 X68.4409 Y-15.2456
G01 X68.4673 Y-15.2349
G01 X68.4915 Y-15.2224
G01 X72.2192 Y-13.0809
G01 X73.3244 Y-12.4789
G01 X73.3600 Y-12.5127
G01 X73.3992 Y-12.5464
G01 X73.4379 Y-12.5766
G01 X73.4800 Y-12.6063
G01 X73.5257 Y-12.6352
G01 X73.5705 Y-12.6606
G01 X73.6165 Y-12.6837
G01 X73.6615 Y-12.7036
G01 X73.7095 Y-12.7222
G01 X73.7584 Y-12.7384
G01 X73.8081 Y-12.7522
G01 X73.8608 Y-12.7640
G01 X73.9115 Y-12.7728
G01 X73.9623 Y-12.7790
G01 X74.0117 Y-12.7827
G01 X74.0632 Y-12.7840
G01 X74.1171 Y-12.7827
G01 X74.1661 Y-12.7790
G01 X74.2173 Y-12.7728
G01 X74.2680 Y-12.7640
G01 X74.3183 Y-12.7528
G01 X74.3680 Y-12.7391
G01 X74.4170 Y-12.7230
G01 X74.4673 Y-12.7036
G01 X74.5122 Y-12.6837
G01 X74.5583 Y-12.6606
G01 X74.6031 Y-12.6352
G01 X74.6467 Y-12.6077
G01 X74.6909 Y-12.5766
G01 X74.7315 Y-12.5449
G01 X74.7704 Y-12.5112
G01 X74.8077 Y-12.4756
G01 X74.8431 Y-12.4384
G01 X74.8768 Y-12.3992
G01 X74.9085 Y-12.3585
G01 X74.9381 Y-12.3163
G01 X74.9656 Y-12.2727
G01 X74.9910 Y-12.2279
G01 X75.0141 Y-12.1819
G01 X75.0349 Y-12.1347
G01 X75.0534 Y-12.0866
G01 X75.0695 Y-12.0376
G01 X75.0832 Y-11.9879
G01 X75.0944 Y-11.9376
G01 X75.1032 Y-11.8869
G01 X75.1094 Y-11.8361
G01 X75.1131 Y-11.7867
G01 X75.1144 Y-11.7352
G01 X75.1132 Y-11.6837
G01 X75.1094 Y-11.6323
G01 X75.1032 Y-11.5811
G01 X75.0944 Y-11.5304
G01 X75.0832 Y-11.4801
G01 X75.0695 Y-11.4304
G01 X75.0534 Y-11.3814
G01 X75.0349 Y-11.3333
G01 X75.0141 Y-11.2862
G01 X74.9910 Y-11.2401
G01 X74.9827 Y-11.2254
G01 X75.8102 Y-10.3807
G01 X76.1862 Y-10.3807
G01 X76.2033 Y-10.4332
G01 X76.2227 Y-10.4835
G01 X76.2426 Y-10.5284
G01 X76.2657 Y-10.5745
G01 X76.2923 Y-10.6215
G01 X76.3198 Y-10.6648
G01 X76.3482 Y-10.7051
G01 X76.3814 Y-10.7477
G01 X76.4151 Y-10.7866
G01 X76.4507 Y-10.8239
G01 X76.4863 Y-10.8578
G01 X76.5271 Y-10.8930
G01 X76.5658 Y-10.9232
G01 X76.6079 Y-10.9529
G01 X76.6536 Y-10.9818
G01 X76.6963 Y-11.0060
G01 X76.7423 Y-11.0293
G01 X76.7916 Y-11.0511
G01 X76.8397 Y-11.0696
G01 X76.8863 Y-11.0850
G01 X76.9360 Y-11.0988
G01 X76.9887 Y-11.1106
G01 X77.0394 Y-11.1194
G01 X77.0902 Y-11.1256
G01 X77.1396 Y-11.1293
G01 X77.1911 Y-11.1306
G01 X77.2426 Y-11.1294
G01 X77.2940 Y-11.1256
G01 X77.3452 Y-11.1194
G01 X77.3948 Y-11.1108
G01 X77.4120 Y-11.1132
G01 X77.4304 Y-11.1141
G01 X79.6132 Y-11.1141
G01 X79.6413 Y-11.1121
G01 X79.6630 Y-11.1078
G01 X79.6886 Y-11.0993
G01 X79.7086 Y-11.0899
G01 X79.7233 Y-11.0810
G01 X79.7334 Y-11.0740
G01 X79.7547 Y-11.0555
G01 X81.6597 Y-9.1505
G01 X81.6721 Y-9.1369
G01 X81.6839 Y-9.1212
G01 X81.6941 Y-9.1044
G01 X81.7026 Y-9.0867
G01 X81.7093 Y-9.0682
G01 X81.7142 Y-9.0492
G01 X81.7172 Y-9.0298
G01 X81.7183 Y-9.0090
G01 X81.7183 Y-4.8057
G01 X82.8711 Y-3.6529
G01 X87.6391 Y-3.6529
G01 X87.6393 Y-4.3228
G01 X87.6413 Y-4.3324
G01 X87.6450 Y-4.3415
G01 X87.6521 Y-4.3515
G01 X87.6593 Y-4.3581
G01 X87.6677 Y-4.3631
G01 X87.6770 Y-4.3664
G01 X87.6866 Y-4.3678
G01 X87.7008 Y-4.3679
G01 X87.7008 Y-8.6502
G01 X87.7023 Y-8.6623
G01 X87.7046 Y-8.6693
G01 X87.7079 Y-8.6759
G01 X87.7154 Y-8.6856
G01 X87.7210 Y-8.6904
G01 X87.7272 Y-8.6943
G01 X87.7387 Y-8.6987
G01 X87.7508 Y-8.7002
G01 X91.9157 Y-8.7002
G01 X91.9310 Y-8.7009
G01 X91.9596 Y-8.7050
G01 X92.1391 Y-8.7050
G01 X92.1469 Y-10.3271
G01 X92.1469 Y-11.5550
G01 X92.1479 Y-11.5648
G01 X92.1498 Y-11.5718
G01 X92.1528 Y-11.5786
G01 X92.1567 Y-11.5848
G01 X92.1615 Y-11.5904
G01 X92.1691 Y-11.5966
G01 X92.1755 Y-11.6002
G01 X92.1848 Y-11.6035
G01 X92.1969 Y-11.6050
G01 X94.1969 Y-11.6050
G01 X94.2090 Y-11.6035
G01 X94.2205 Y-11.5991
G01 X94.2286 Y-11.5937
G01 X94.2371 Y-11.5848
G01 X94.2410 Y-11.5786
G01 X94.2440 Y-11.5718
G01 X94.2459 Y-11.5648
G01 X94.2469 Y-11.5550
G01 X94.2469 Y-9.0550
G01 X94.2454 Y-9.0429
G01 X94.2416 Y-9.0327
G01 X94.2401 Y-8.7050
G01 X94.7231 Y-8.7050
G01 X94.7635 Y-8.6997
G01 X94.8033 Y-8.6978
G01 X101.3108 Y-8.6978
G01 X101.3506 Y-8.6997
G01 X101.3819 Y-8.7041
G01 X101.3893 Y-8.7045
G01 X101.3992 Y-8.7032
G01 X101.4063 Y-8.7010
G01 X101.4152 Y-8.6964
G01 X101.4229 Y-8.6902
G01 X101.4293 Y-8.6826
G01 X101.4341 Y-8.6739
G01 X101.4364 Y-8.6668
G01 X101.4379 Y-8.6570
G01 X101.4380 Y-1.3234
G01 X101.4370 Y-1.3137
G01 X101.4351 Y-1.3066
G01 X101.4321 Y-1.2999
G01 X101.4281 Y-1.2936
G01 X101.4233 Y-1.2881
G01 X101.4178 Y-1.2833
G01 X101.4115 Y-1.2793
G01 X101.4048 Y-1.2763
G01 X101.3977 Y-1.2744
G01 X101.3880 Y-1.2734
G01 X92.9119 Y-1.2734
G01 X92.9012 Y-1.2694
G01 X92.8891 Y-1.2679
G01 X79.4544 Y-1.2683
G01 X79.4360 Y-1.2692
G01 X79.4238 Y-1.2707
G01 X79.4046 Y-1.2746
G01 X79.3882 Y-1.2796
G01 X79.3767 Y-1.2840
G01 X79.3612 Y-1.2914
G01 X79.3505 Y-1.2974
G01 X79.3362 Y-1.3070
G01 X79.3265 Y-1.3145
G01 X79.3129 Y-1.3269
G01 X78.3597 Y-2.2803
G01 X78.3420 Y-2.3007
G01 X78.3298 Y-2.3191
G01 X78.3217 Y-2.3343
G01 X78.3167 Y-2.3455
G01 X78.3082 Y-2.3711
G01 X78.3039 Y-2.3928
G01 X78.3019 Y-2.4209
G01 X78.3019 Y-8.0927
G01 X77.3518 Y-9.0429
G01 X77.2940 Y-9.0356
G01 X77.2426 Y-9.0318
G01 X77.1911 Y-9.0306
G01 X77.1396 Y-9.0319
G01 X77.0882 Y-9.0358
G01 X77.0394 Y-9.0418
G01 X76.9887 Y-9.0506
G01 X76.9360 Y-9.0624
G01 X76.8863 Y-9.0762
G01 X76.8374 Y-9.0924
G01 X76.7894 Y-9.1110
G01 X76.7423 Y-9.1319
G01 X76.6963 Y-9.1552
G01 X76.6514 Y-9.1806
G01 X76.6081 Y-9.2081
G01 X76.5661 Y-9.2378
G01 X76.5271 Y-9.2682
G01 X76.4879 Y-9.3019
G01 X76.4507 Y-9.3373
G01 X76.4136 Y-9.3762
G01 X76.3814 Y-9.4135
G01 X76.3497 Y-9.4541
G01 X76.3200 Y-9.4962
G01 X76.2923 Y-9.5397
G01 X76.2669 Y-9.5846
G01 X76.2436 Y-9.6306
G01 X76.2227 Y-9.6777
G01 X76.2041 Y-9.7257
G01 X76.1862 Y-9.7805
G01 X75.6679 Y-9.7809
G01 X75.6407 Y-9.7836
G01 X75.6260 Y-9.7862
G01 X75.5947 Y-9.7941
G01 X75.5690 Y-9.8034
G01 X75.5553 Y-9.8095
G01 X75.5269 Y-9.8249
G01 X75.5043 Y-9.8403
G01 X75.4926 Y-9.8495
G01 X75.4697 Y-9.8706
G01 X74.5540 Y-10.8053
G01 X74.5123 Y-10.7843
G01 X74.4673 Y-10.7644
G01 X74.4170 Y-10.7450
G01 X74.3704 Y-10.7296
G01 X74.3207 Y-10.7158
G01 X74.2704 Y-10.7044
G01 X74.2173 Y-10.6952
G01 X74.1661 Y-10.6890
G01 X74.1147 Y-10.6852
G01 X74.0656 Y-10.6840
G01 X74.0141 Y-10.6852
G01 X73.9603 Y-10.6892
G01 X73.9091 Y-10.6956
G01 X73.8584 Y-10.7044
G01 X73.8105 Y-10.7152
G01 X73.7584 Y-10.7296
G01 X73.7095 Y-10.7458
G01 X73.6615 Y-10.7644
G01 X73.6166 Y-10.7843
G01 X73.5705 Y-10.8074
G01 X73.5235 Y-10.8340
G01 X73.4821 Y-10.8603
G01 X73.4399 Y-10.8899
G01 X73.3992 Y-10.9216
G01 X73.3602 Y-10.9552
G01 X73.3211 Y-10.9924
G01 X73.2857 Y-11.0296
G01 X73.2535 Y-11.0669
G01 X73.2203 Y-11.1095
G01 X73.1921 Y-11.1496
G01 X73.1644 Y-11.1931
G01 X73.1378 Y-11.2401
G01 X73.1147 Y-11.2861
G01 X73.0948 Y-11.3311
G01 X73.0754 Y-11.3814
G01 X73.0600 Y-11.4280
G01 X73.0462 Y-11.4777
G01 X73.0344 Y-11.5304
G01 X73.0256 Y-11.5811
G01 X73.0194 Y-11.6319
G01 X73.0157 Y-11.6813
G01 X73.0144 Y-11.7328
G01 X73.0157 Y-11.7867
G01 X73.0194 Y-11.8357
G01 X73.0256 Y-11.8869
G01 X73.0344 Y-11.9376
G01 X73.0374 Y-11.9517
G01 X71.9231 Y-12.5588
G01 X68.2619 Y-14.6621
G01 X61.8983 Y-14.6620
G01 X61.8983 Y-14.1621
G01 X61.8973 Y-14.1523
G01 X61.8945 Y-14.1430
G01 X61.8899 Y-14.1343
G01 X61.8853 Y-14.1285
G01 X61.8781 Y-14.1219
G01 X61.8697 Y-14.1169
G01 X61.8604 Y-14.1136
G01 X61.8508 Y-14.1122
G01 X61.4019 Y-14.1121
G01 X61.2815 Y-13.0737
G01 X61.5308 Y-13.0737
G01 X61.5381 Y-13.0732
G01 X61.5476 Y-13.0708
G01 X61.5544 Y-13.0678
G01 X61.5606 Y-13.0639
G01 X61.5662 Y-13.0591
G01 X61.5710 Y-13.0535
G01 X61.5749 Y-13.0473
G01 X61.5779 Y-13.0405
G01 X61.5798 Y-13.0335
G01 X61.5808 Y-13.0237
G01 X61.5808 Y-11.4237
G01 X61.5798 Y-11.4139
G01 X61.5770 Y-11.4046
G01 X61.5724 Y-11.3959
G01 X61.5678 Y-11.3901
G01 X61.5606 Y-11.3835
G01 X61.5544 Y-11.3796
G01 X61.5476 Y-11.3766
G01 X61.5381 Y-11.3742
G01 X61.5308 Y-11.3737
G01 X61.1809 Y-11.3737
G01 X61.1808 Y-8.3169
G01 X61.5538 Y-8.3170
G01 X61.5539 Y-8.3694
G01 X61.5553 Y-8.3790
G01 X61.5586 Y-8.3883
G01 X61.5622 Y-8.3947
G01 X61.5668 Y-8.4005
G01 X61.5760 Y-8.4085
G01 X61.5824 Y-8.4121
G01 X61.5893 Y-8.4147
G01 X61.6013 Y-8.4168
G01 X63.8038 Y-8.4169
G01 X63.8159 Y-8.4154
G01 X63.8229 Y-8.4131
G01 X63.8295 Y-8.4098
G01 X63.8374 Y-8.4039
G01 X63.8425 Y-8.3986
G01 X63.8467 Y-8.3926
G01 X63.8500 Y-8.3860
G01 X63.8523 Y-8.3790
G01 X63.8537 Y-8.3694
G01 X63.8538 Y-7.6669
G01 X63.8523 Y-7.6548
G01 X63.8500 Y-7.6478
G01 X63.8454 Y-7.6391
G01 X63.8408 Y-7.6333
G01 X63.8336 Y-7.6267
G01 X63.8252 Y-7.6217
G01 X63.8183 Y-7.6191
G01 X63.8111 Y-7.6174
G01 X63.8038 Y-7.6169
G01 X61.6013 Y-7.6170
G01 X61.5940 Y-7.6179
G01 X61.5870 Y-7.6198
G01 X61.5760 Y-7.6253
G01 X61.5668 Y-7.6333
G01 X61.5622 Y-7.6391
G01 X61.5586 Y-7.6455
G01 X61.5553 Y-7.6548
G01 X61.5539 Y-7.6644
G01 X61.5538 Y-7.7167
G01 X60.8807 Y-7.7167
G01 X60.8501 Y-7.7183
G01 X60.8210 Y-7.7227
G01 X60.7924 Y-7.7300
G01 X60.7647 Y-7.7400
G01 X60.7403 Y-7.7515
G01 X60.7254 Y-7.7600
G01 X60.7009 Y-7.7765
G01 X60.6783 Y-7.7953
G01 X60.6575 Y-7.8162
G01 X60.6404 Y-7.8370
G01 X60.6239 Y-7.8615
G01 X60.6099 Y-7.8874
G01 X60.6030 Y-7.9031
G01 X60.5939 Y-7.9285
G01 X60.5866 Y-7.9571
G01 X60.5822 Y-7.9862
G01 X60.5806 Y-8.0156
G01 X60.5807 Y-11.3737
G01 X60.4552 Y-11.3737
G01 X58.5217 Y-9.4403
G01 X58.5214 Y-1.5740
G01 X58.5201 Y-1.5569
G01 X58.5157 Y-1.5277
G01 X58.5091 Y-1.5016
G01 X58.5038 Y-1.4852
G01 X58.4934 Y-1.4603
G01 X58.4857 Y-1.4449
G01 X58.4718 Y-1.4218
G01 X58.4619 Y-1.4077
G01 X58.4448 Y-1.3869
G01 X58.4329 Y-1.3744
G01 X58.4110 Y-1.3547
G01 X58.3894 Y-1.3386
G01 X58.3748 Y-1.3295
G01 X58.3510 Y-1.3167
G01 X58.3353 Y-1.3098
G01 X58.3099 Y-1.3007
G01 X58.2933 Y-1.2961
G01 X58.2647 Y-1.2905
G01 X58.2376 Y-1.2878
G01 X58.2216 Y-1.2874
G01 X32.6866 Y-1.2878
G01 X32.6574 Y-1.2908
G01 X32.6309 Y-1.2961
G01 X32.6027 Y-1.3045
G01 X32.5866 Y-1.3107
G01 X32.5600 Y-1.3234
G01 X32.5351 Y-1.3385
G01 X32.5132 Y-1.3547
G01 X32.4913 Y-1.3744
G01 X29.9407 Y-3.9248
G01 X29.9013 Y-3.9140
G01 X29.8582 Y-3.9043
G01 X29.8123 Y-3.8963
G01 X29.7640 Y-3.8903
G01 X29.7195 Y-3.8870
G01 X29.6729 Y-3.8858
G01 X29.6263 Y-3.8869
G01 X29.5798 Y-3.8903
G01 X29.5335 Y-3.8959
G01 X29.4876 Y-3.9038
G01 X29.4397 Y-3.9146
G01 X29.3948 Y-3.9271
G01 X29.3505 Y-3.9418
G01 X29.3071 Y-3.9586
G01 X29.2644 Y-3.9775
G01 X29.2228 Y-3.9986
G01 X29.1844 Y-4.0203
G01 X29.1567 Y-4.0378
G01 X28.3807 Y-3.2621
G01 X28.3714 Y-3.2541
G01 X28.3576 Y-3.2438
G01 X28.3386 Y-3.2325
G01 X28.3140 Y-3.2215
G01 X28.3023 Y-3.2177
G01 X28.2856 Y-3.2135
G01 X28.2662 Y-3.2105
G01 X28.2454 Y-3.2094
G01 X26.5788 Y-3.2094
G01 X26.5695 Y-3.1761
G01 X26.5579 Y-3.1411
G01 X26.5429 Y-3.1022
G01 X26.5280 Y-3.0686
G01 X26.5104 Y-3.0335
G01 X26.4898 Y-2.9972
G01 X26.4689 Y-2.9642
G01 X26.4476 Y-2.9339
G01 X26.4219 Y-2.9010
G01 X26.3962 Y-2.8714
G01 X26.3708 Y-2.8447
G01 X26.3406 Y-2.8159
G01 X26.3128 Y-2.7919
G01 X26.2818 Y-2.7677
G01 X26.2477 Y-2.7437
G01 X26.2145 Y-2.7227
G01 X26.1825 Y-2.7046
G01 X26.1453 Y-2.6858
G01 X26.1116 Y-2.6709
G01 X26.0750 Y-2.6567
G01 X26.0353 Y-2.6436
G01 X25.9999 Y-2.6338
G01 X25.9616 Y-2.6251
G01 X25.9208 Y-2.6180
G01 X25.8815 Y-2.6132
G01 X25.8423 Y-2.6104
G01 X25.8031 Y-2.6095
G01 X25.7638 Y-2.6105
G01 X25.7247 Y-2.6135
G01 X25.6857 Y-2.6184
G01 X25.6470 Y-2.6251
G01 X25.6087 Y-2.6338
G01 X25.5709 Y-2.6443
G01 X25.5336 Y-2.6567
G01 X25.4970 Y-2.6709
G01 X25.4612 Y-2.6868
G01 X25.4261 Y-2.7046
G01 X25.3920 Y-2.7240
G01 X25.3590 Y-2.7449
G01 X25.3270 Y-2.7675
G01 X25.2958 Y-2.7919
G01 X25.2662 Y-2.8176
G01 X25.2378 Y-2.8447
G01 X25.2107 Y-2.8732
G01 X25.1851 Y-2.9029
G01 X25.1610 Y-2.9339
G01 X25.1385 Y-2.9661
G01 X25.1175 Y-2.9993
G01 X25.0982 Y-3.0335
G01 X25.0806 Y-3.0685
G01 X25.0647 Y-3.1045
G01 X25.0507 Y-3.1411
G01 X25.0384 Y-3.1785
G01 X25.0280 Y-3.2163
G01 X25.0194 Y-3.2546
G01 X25.0128 Y-3.2933
G00 Z3.0000
G00 X25.0128 Y-5.8333
G01 F80.00
G01 Z-0.0746
G01 F50.00
G01 X25.0080 Y-5.8723
G01 X25.0052 Y-5.9115
G01 X25.0043 Y-5.9507
G01 X25.0053 Y-5.9900
G01 X25.0083 Y-6.0291
G01 X25.0132 Y-6.0681
G01 X25.0199 Y-6.1068
G01 X25.0286 Y-6.1451
G01 X25.0391 Y-6.1829
G01 X25.0515 Y-6.2202
G01 X25.0657 Y-6.2568
G01 X25.0816 Y-6.2926
G01 X25.0994 Y-6.3277
G01 X25.1188 Y-6.3618
G01 X25.1397 Y-6.3948
G01 X25.1625 Y-6.4270
G01 X25.1867 Y-6.4580
G01 X25.2107 Y-6.4858
G01 X25.2378 Y-6.5143
G01 X25.2662 Y-6.5414
G01 X25.2958 Y-6.5671
G01 X25.3268 Y-6.5913
G01 X25.3588 Y-6.6140
G01 X25.3920 Y-6.6350
G01 X25.4261 Y-6.6544
G01 X25.4612 Y-6.6722
G01 X25.4970 Y-6.6881
G01 X25.5336 Y-6.7023
G01 X25.5709 Y-6.7147
G01 X25.6087 Y-6.7252
G01 X25.6470 Y-6.7339
G01 X25.6878 Y-6.7410
G01 X25.7247 Y-6.7455
G01 X25.7638 Y-6.7485
G01 X25.8031 Y-6.7495
G01 X25.8448 Y-6.7485
G01 X25.8839 Y-6.7455
G01 X25.9205 Y-6.7410
G01 X25.9592 Y-6.7344
G01 X25.9975 Y-6.7258
G01 X26.0353 Y-6.7154
G01 X26.0727 Y-6.7031
G01 X26.1116 Y-6.6881
G01 X26.1474 Y-6.6722
G01 X26.1825 Y-6.6544
G01 X26.2166 Y-6.6350
G01 X26.2496 Y-6.6141
G01 X26.2816 Y-6.5915
G01 X26.3109 Y-6.5687
G01 X26.3406 Y-6.5431
G01 X26.3691 Y-6.5160
G01 X26.3962 Y-6.4876
G01 X26.4219 Y-6.4580
G01 X26.4476 Y-6.4251
G01 X26.4688 Y-6.3950
G01 X26.4898 Y-6.3618
G01 X26.5092 Y-6.3277
G01 X26.5270 Y-6.2926
G01 X26.5429 Y-6.2568
G01 X26.5571 Y-6.2202
G01 X26.5695 Y-6.1829
G01 X26.5788 Y-6.1496
G01 X28.1625 Y-6.1496
G01 X28.7217 Y-6.7087
G01 X28.7217 Y-8.2758
G01 X28.7227 Y-8.2856
G01 X28.7265 Y-8.2972
G01 X28.7315 Y-8.3056
G01 X28.7381 Y-8.3128
G01 X28.7460 Y-8.3187
G01 X28.7549 Y-8.3229
G01 X28.7619 Y-8.3248
G01 X28.7717 Y-8.3258
G01 X30.5742 Y-8.3257
G01 X30.5838 Y-8.3243
G01 X30.5908 Y-8.3220
G01 X30.5995 Y-8.3174
G01 X30.6071 Y-8.3112
G01 X30.6133 Y-8.3036
G01 X30.6169 Y-8.2972
G01 X30.6202 Y-8.2879
G01 X30.6216 Y-8.2783
G01 X30.6217 Y-6.7087
G01 X31.0186 Y-6.3119
G01 X32.8216 Y-6.3119
G01 X32.8497 Y-6.3099
G01 X32.8618 Y-6.3078
G01 X32.8785 Y-6.3036
G01 X32.8993 Y-6.2962
G01 X32.9234 Y-6.2840
G01 X32.9415 Y-6.2720
G01 X32.9622 Y-6.2541
G01 X33.6378 Y-5.5787
G01 X33.6502 Y-5.5651
G01 X33.6620 Y-5.5494
G01 X33.6685 Y-5.5390
G01 X33.6766 Y-5.5239
G01 X33.6816 Y-5.5126
G01 X33.6874 Y-5.4965
G01 X33.6907 Y-5.4846
G01 X33.6940 Y-5.4678
G01 X33.6955 Y-5.4560
G01 X33.6964 Y-5.4384
G01 X33.6964 Y-3.4960
G01 X34.0555 Y-3.1369
G01 X44.4069 Y-3.1369
G01 X45.1190 Y-3.8491
G01 X45.1098 Y-4.2787
G01 X44.9549 Y-4.4337
G01 X44.9494 Y-4.4410
G01 X44.9451 Y-4.4498
G01 X44.9430 Y-4.4572
G01 X44.9419 Y-4.4674
G01 X44.9422 Y-5.5725
G01 X44.9435 Y-5.5801
G01 X44.9461 Y-5.5874
G01 X44.9494 Y-5.5938
G01 X44.9550 Y-5.6011
G01 X45.0565 Y-5.7028
G01 X45.0636 Y-5.7086
G01 X45.0695 Y-5.7121
G01 X45.0792 Y-5.7158
G01 X45.0868 Y-5.7171
G01 X45.4919 Y-5.7173
G01 X45.5021 Y-5.7162
G01 X45.5143 Y-5.7120
G01 X45.5256 Y-5.7043
G01 X45.6272 Y-5.6028
G01 X45.6331 Y-5.5957
G01 X45.6377 Y-5.5874
G01 X45.6408 Y-5.5776
G01 X45.6419 Y-5.5674
G01 X45.6418 Y-4.4648
G01 X45.6408 Y-4.4572
G01 X45.6377 Y-4.4474
G01 X45.6344 Y-4.4410
G01 X45.6289 Y-4.4337
G01 X45.5093 Y-4.3141
G01 X45.5208 Y-3.7609
G01 X45.5194 Y-3.7433
G01 X45.5175 Y-3.7309
G01 X45.5105 Y-3.7041
G01 X45.5020 Y-3.6830
G01 X45.4885 Y-3.6588
G01 X45.4767 Y-3.6425
G01 X45.4624 Y-3.6265
G01 X44.6251 Y-2.7894
G01 X44.6158 Y-2.7814
G01 X44.6020 Y-2.7711
G01 X44.5916 Y-2.7646
G01 X44.5765 Y-2.7565
G01 X44.5652 Y-2.7515
G01 X44.5491 Y-2.7457
G01 X44.5372 Y-2.7424
G01 X44.5182 Y-2.7388
G01 X44.4898 Y-2.7367
G01 X33.9616 Y-2.7370
G01 X33.9420 Y-2.7391
G01 X33.9252 Y-2.7424
G01 X33.9064 Y-2.7480
G01 X33.8949 Y-2.7524
G01 X33.8772 Y-2.7609
G01 X33.8625 Y-2.7698
G01 X33.8466 Y-2.7814
G01 X33.8373 Y-2.7894
G01 X33.3540 Y-3.2725
G01 X33.3409 Y-3.2871
G01 X33.3293 Y-3.3030
G01 X33.3160 Y-3.3265
G01 X33.3083 Y-3.3445
G01 X33.3045 Y-3.3561
G01 X33.2999 Y-3.3750
G01 X33.2971 Y-3.3947
G01 X33.2962 Y-3.4131
G01 X33.2962 Y-5.3543
G01 X32.7387 Y-5.9117
G01 X30.9357 Y-5.9117
G01 X30.9076 Y-5.9137
G01 X30.8955 Y-5.9158
G01 X30.8788 Y-5.9200
G01 X30.8671 Y-5.9238
G01 X30.8513 Y-5.9304
G01 X30.8403 Y-5.9359
G01 X30.8256 Y-5.9448
G01 X30.8158 Y-5.9517
G01 X30.8023 Y-5.9627
G01 X30.3388 Y-6.4258
G01 X29.0046 Y-6.4258
G01 X28.3860 Y-5.8072
G01 X28.3714 Y-5.7941
G01 X28.3555 Y-5.7825
G01 X28.3386 Y-5.7725
G01 X28.3208 Y-5.7642
G01 X28.3023 Y-5.7577
G01 X28.2835 Y-5.7531
G01 X28.2638 Y-5.7503
G01 X28.2454 Y-5.7494
G01 X26.5788 Y-5.7494
G01 X26.5695 Y-5.7161
G01 X26.5571 Y-5.6788
G01 X26.5429 Y-5.6422
G01 X26.5280 Y-5.6086
G01 X26.5092 Y-5.5713
G01 X26.4898 Y-5.5372
G01 X26.4689 Y-5.5042
G01 X26.4463 Y-5.4722
G01 X26.4235 Y-5.4429
G01 X26.3962 Y-5.4114
G01 X26.3691 Y-5.3830
G01 X26.3424 Y-5.3576
G01 X26.3128 Y-5.3319
G01 X26.2818 Y-5.3077
G01 X26.2477 Y-5.2837
G01 X26.2145 Y-5.2627
G01 X26.1825 Y-5.2446
G01 X26.1474 Y-5.2268
G01 X26.1116 Y-5.2109
G01 X26.0727 Y-5.1959
G01 X26.0353 Y-5.1836
G01 X25.9975 Y-5.1732
G01 X25.9616 Y-5.1651
G01 X25.9229 Y-5.1584
G01 X25.8815 Y-5.1532
G01 X25.8423 Y-5.1504
G01 X25.8055 Y-5.1495
G01 X25.7663 Y-5.1504
G01 X25.7271 Y-5.1532
G01 X25.6881 Y-5.1580
G01 X25.6494 Y-5.1646
G01 X25.6087 Y-5.1738
G01 X25.5709 Y-5.1843
G01 X25.5336 Y-5.1967
G01 X25.4970 Y-5.2109
G01 X25.4612 Y-5.2268
G01 X25.4261 Y-5.2446
G01 X25.3920 Y-5.2640
G01 X25.3590 Y-5.2849
G01 X25.3270 Y-5.3075
G01 X25.2977 Y-5.3303
G01 X25.2680 Y-5.3559
G01 X25.2395 Y-5.3830
G01 X25.2124 Y-5.4114
G01 X25.1867 Y-5.4410
G01 X25.1625 Y-5.4720
G01 X25.1385 Y-5.5061
G01 X25.1175 Y-5.5393
G01 X25.0982 Y-5.5735
G01 X25.0806 Y-5.6085
G01 X25.0647 Y-5.6445
G01 X25.0507 Y-5.6811
G01 X25.0391 Y-5.7161
G01 X25.0286 Y-5.7539
G01 X25.0199 Y-5.7922
G01 X25.0128 Y-5.8333
G00 Z3.0000
G00 X25.5043 Y-7.5895
G01 F80.00
G01 Z-0.0746
G01 F50.00
G01 X24.9043 Y-7.5895
G01 X24.9043 Y-8.1895
G01 X25.0043 Y-8.1895
G01 X25.0044 Y-7.7370
G01 X25.0058 Y-7.7274
G01 X25.0091 Y-7.7181
G01 X25.0127 Y-7.7117
G01 X25.0189 Y-7.7041
G01 X25.0245 Y-7.6993
G01 X25.0329 Y-7.6943
G01 X25.0422 Y-7.6910
G01 X25.0518 Y-7.6896
G01 X25.5043 Y-7.6895
G01 X25.5043 Y-7.5895
G00 Z3.0000
G00 X26.7043 Y-8.1895
G01 F80.00
G01 Z-0.0746
G01 F50.00
G01 X26.7043 Y-7.5895
G01 X26.1043 Y-7.5895
G01 X26.1043 Y-7.6895
G01 X26.5568 Y-7.6896
G01 X26.5664 Y-7.6910
G01 X26.5757 Y-7.6943
G01 X26.5841 Y-7.6993
G01 X26.5897 Y-7.7041
G01 X26.5959 Y-7.7117
G01 X26.5995 Y-7.7181
G01 X26.6028 Y-7.7274
G01 X26.6042 Y-7.7370
G01 X26.6043 Y-8.1895
G01 X26.7043 Y-8.1895
G00 Z3.0000
G00 X26.1043 Y-9.3895
G01 F80.00
G01 Z-0.0746
G01 F50.00
G01 X26.7043 Y-9.3895
G01 X26.7043 Y-8.7895
G01 X26.6043 Y-8.7895
G01 X26.6042 Y-9.2420
G01 X26.6028 Y-9.2516
G01 X26.5995 Y-9.2609
G01 X26.5959 Y-9.2673
G01 X26.5897 Y-9.2749
G01 X26.5821 Y-9.2811
G01 X26.5734 Y-9.2857
G01 X26.5664 Y-9.2880
G01 X26.5568 Y-9.2894
G01 X26.1043 Y-9.2895
G01 X26.1043 Y-9.3895
G00 Z3.0000
G00 X24.9043 Y-9.3895
G01 F80.00
G01 Z-0.0746
G01 F50.00
G01 X25.5043 Y-9.3895
G01 X25.5043 Y-9.2895
G01 X25.0543 Y-9.2895
G01 X25.0445 Y-9.2885
G01 X25.0375 Y-9.2866
G01 X25.0286 Y-9.2824
G01 X25.0226 Y-9.2782
G01 X25.0156 Y-9.2712
G01 X25.0102 Y-9.2631
G01 X25.0065 Y-9.2540
G01 X25.0044 Y-9.2420
G01 X25.0043 Y-8.7895
G01 X24.9043 Y-8.7895
G01 X24.9043 Y-9.3895
G00 Z3.0000
G00 X26.4118 Y-12.8546
G01 F80.00
G01 Z-0.0746
G01 F50.00
G01 X27.7118 Y-12.8546
G01 X27.7239 Y-12.8531
G01 X27.7309 Y-12.8508
G01 X27.7375 Y-12.8475
G01 X27.7435 Y-12.8433
G01 X27.7505 Y-12.8363
G01 X27.7547 Y-12.8303
G01 X27.7580 Y-12.8237
G01 X27.7603 Y-12.8167
G01 X27.7616 Y-12.8095
G01 X27.7618 Y-12.4953
G01 X29.2259 Y-12.8798
G01 X31.2920 Y-14.9457
G01 X31.3047 Y-14.9573
G01 X31.3143 Y-14.9648
G01 X31.3287 Y-14.9744
G01 X31.3394 Y-14.9804
G01 X31.3549 Y-14.9878
G01 X31.3734 Y-14.9945
G01 X31.3852 Y-14.9978
G01 X31.4020 Y-15.0011
G01 X31.4142 Y-15.0026
G01 X31.4326 Y-15.0035
G01 X39.0239 Y-15.0032
G01 X39.0435 Y-15.0011
G01 X39.0603 Y-14.9978
G01 X39.0791 Y-14.9922
G01 X39.0906 Y-14.9878
G01 X39.1061 Y-14.9804
G01 X39.1230 Y-14.9704
G01 X39.1389 Y-14.9588
G01 X39.1482 Y-14.9508
G01 X39.9689 Y-14.1304
G01 X42.0688 Y-14.1304
G01 X42.0969 Y-14.1284
G01 X42.1186 Y-14.1241
G01 X42.1442 Y-14.1156
G01 X42.1642 Y-14.1062
G01 X42.1789 Y-14.0973
G01 X42.1890 Y-14.0903
G01 X42.2103 Y-14.0718
G01 X43.7647 Y-12.5173
G01 X44.2920 Y-12.5173
G01 X44.2997 Y-12.5167
G01 X44.3097 Y-12.5141
G01 X44.3184 Y-12.5098
G01 X44.3257 Y-12.5042
G01 X44.4289 Y-12.4010
G01 X44.4366 Y-12.3897
G01 X44.4408 Y-12.3775
G01 X44.4419 Y-12.3673
G01 X44.4418 Y-11.9647
G01 X44.4408 Y-11.9571
G01 X44.4377 Y-11.9473
G01 X44.4331 Y-11.9390
G01 X44.4272 Y-11.9319
G01 X44.3256 Y-11.8304
G01 X44.3183 Y-11.8249
G01 X44.3119 Y-11.8216
G01 X44.3046 Y-11.8190
G01 X44.2970 Y-11.8177
G01 X43.1919 Y-11.8173
G01 X43.1792 Y-11.8190
G01 X43.1695 Y-11.8226
G01 X43.1636 Y-11.8261
G01 X43.1565 Y-11.8320
G01 X42.9566 Y-12.0321
G01 X42.9508 Y-12.0391
G01 X42.9473 Y-12.0450
G01 X42.9431 Y-12.0572
G01 X42.9420 Y-12.0674
G01 X42.9421 Y-12.2699
G01 X42.9431 Y-12.2775
G01 X42.9462 Y-12.2873
G01 X42.9495 Y-12.2937
G01 X42.9550 Y-12.3010
G01 X43.1565 Y-12.5027
G01 X43.1655 Y-12.5099
G01 X43.1767 Y-12.5150
G01 X43.1868 Y-12.5171
G01 X43.1988 Y-12.5174
G01 X41.9859 Y-13.7302
G01 X39.8860 Y-13.7302
G01 X39.8579 Y-13.7322
G01 X39.8458 Y-13.7343
G01 X39.8291 Y-13.7385
G01 X39.8083 Y-13.7459
G01 X39.7842 Y-13.7581
G01 X39.7661 Y-13.7702
G01 X39.7454 Y-13.7880
G01 X38.9300 Y-14.6033
G01 X31.5155 Y-14.6033
G01 X29.4706 Y-12.5585
G01 X29.4554 Y-12.5448
G01 X29.4399 Y-12.5334
G01 X29.4234 Y-12.5236
G01 X29.4083 Y-12.5163
G01 X29.3971 Y-12.5119
G01 X29.3799 Y-12.5065
G01 X27.7618 Y-12.0816
G01 X27.7617 Y-11.4021
G01 X27.7608 Y-11.3948
G01 X27.7580 Y-11.3855
G01 X27.7547 Y-11.3789
G01 X27.7488 Y-11.3710
G01 X27.7435 Y-11.3659
G01 X27.7354 Y-11.3605
G01 X27.7286 Y-11.3575
G01 X27.7191 Y-11.3551
G01 X27.7118 Y-11.3546
G01 X26.4118 Y-11.3546
G01 X26.4020 Y-11.3556
G01 X26.3927 Y-11.3584
G01 X26.3820 Y-11.3644
G01 X26.3748 Y-11.3710
G01 X26.3702 Y-11.3768
G01 X26.3656 Y-11.3855
G01 X26.3628 Y-11.3948
G01 X26.3618 Y-11.4046
G01 X26.3619 Y-12.8071
G01 X26.3633 Y-12.8167
G01 X26.3666 Y-12.8260
G01 X26.3702 Y-12.8324
G01 X26.3764 Y-12.8400
G01 X26.3840 Y-12.8462
G01 X26.3927 Y-12.8508
G01 X26.4020 Y-12.8536
G01 X26.4118 Y-12.8546
G00 Z3.0000
G00 X26.2804 Y-14.3259
G01 F80.00
G01 Z-0.0746
G01 F50.00
G01 X26.2814 Y-14.3162
G01 X26.2834 Y-14.3091
G01 X26.2863 Y-14.3024
G01 X26.2918 Y-14.2942
G01 X26.2969 Y-14.2889
G01 X26.3047 Y-14.2831
G01 X26.3136 Y-14.2789
G01 X26.3207 Y-14.2769
G01 X26.3304 Y-14.2759
G01 X26.5356 Y-14.2759
G01 X26.5417 Y-14.2755
G01 X26.5488 Y-14.2737
G01 X26.5555 Y-14.2706
G01 X26.5614 Y-14.2662
G01 X26.5663 Y-14.2608
G01 X26.5701 Y-14.2544
G01 X26.5726 Y-14.2475
G01 X26.5737 Y-14.2402
G01 X26.5733 Y-14.2329
G01 X26.5715 Y-14.2258
G01 X26.5663 Y-14.2160
G01 X26.5586 Y-14.2083
G01 X26.5488 Y-14.2031
G01 X26.5380 Y-14.2009
G01 X25.9502 Y-14.2009
G01 X25.9387 Y-14.2025
G01 X25.9336 Y-14.2045
G01 X25.9272 Y-14.2083
G01 X25.9218 Y-14.2132
G01 X25.9184 Y-14.2176
G01 X25.9149 Y-14.2240
G01 X25.9132 Y-14.2293
G01 X25.9121 Y-14.2366
G01 X25.9125 Y-14.2439
G01 X25.9143 Y-14.2510
G01 X25.9174 Y-14.2577
G01 X25.9206 Y-14.2622
G01 X25.9258 Y-14.2674
G01 X25.9319 Y-14.2715
G01 X25.9387 Y-14.2743
G01 X25.9502 Y-14.2759
G01 X26.1554 Y-14.2759
G01 X26.1627 Y-14.2765
G01 X26.1745 Y-14.2797
G01 X26.1811 Y-14.2831
G01 X26.1871 Y-14.2873
G01 X26.1924 Y-14.2924
G01 X26.1969 Y-14.2982
G01 X26.2006 Y-14.3046
G01 X26.2032 Y-14.3114
G01 X26.2048 Y-14.3186
G01 X26.2054 Y-14.3259
G01 X26.2054 Y-15.2180
G01 X26.2061 Y-15.2235
G01 X26.2082 Y-15.2306
G01 X26.2117 Y-15.2370
G01 X26.2164 Y-15.2427
G01 X26.2221 Y-15.2474
G01 X26.2285 Y-15.2509
G01 X26.2356 Y-15.2530
G01 X26.2411 Y-15.2537
G01 X26.2484 Y-15.2533
G01 X26.2555 Y-15.2515
G01 X26.2622 Y-15.2484
G01 X26.2681 Y-15.2440
G01 X26.2730 Y-15.2386
G01 X26.2768 Y-15.2322
G01 X26.2793 Y-15.2253
G01 X26.2804 Y-15.2180
G01 X26.2804 Y-14.3259
G00 Z3.0000
G00 X25.3515 Y-15.0323
G01 F80.00
G01 Z-0.0746
G01 F50.00
G01 X25.3518 Y-14.8710
G01 X25.3537 Y-14.8614
G01 X25.3574 Y-14.8524
G01 X25.3629 Y-14.8442
G01 X25.3698 Y-14.8373
G01 X25.3780 Y-14.8318
G01 X25.3847 Y-14.8289
G01 X25.3918 Y-14.8269
G01 X25.3991 Y-14.8260
G01 X25.6067 Y-14.8259
G01 X25.6146 Y-14.8252
G01 X25.6217 Y-14.8231
G01 X25.6281 Y-14.8196
G01 X25.6338 Y-14.8149
G01 X25.6374 Y-14.8108
G01 X25.6412 Y-14.8044
G01 X25.6437 Y-14.7975
G01 X25.6446 Y-14.7921
G01 X25.6446 Y-14.7847
G01 X25.6432 Y-14.7775
G01 X25.6412 Y-14.7724
G01 X25.6374 Y-14.7660
G01 X25.6338 Y-14.7619
G01 X25.6281 Y-14.7572
G01 X25.6233 Y-14.7545
G01 X25.6128 Y-14.7513
G01 X25.3991 Y-14.7508
G01 X25.3918 Y-14.7499
G01 X25.3847 Y-14.7479
G01 X25.3758 Y-14.7437
G01 X25.3698 Y-14.7395
G01 X25.3629 Y-14.7326
G01 X25.3574 Y-14.7244
G01 X25.3537 Y-14.7154
G01 X25.3518 Y-14.7058
G01 X25.3515 Y-14.5446
G01 X25.3504 Y-14.5349
G01 X25.3479 Y-14.5280
G01 X25.3441 Y-14.5216
G01 X25.3405 Y-14.5175
G01 X25.3348 Y-14.5128
G01 X25.3300 Y-14.5101
G01 X25.3231 Y-14.5076
G01 X25.3177 Y-14.5067
G01 X25.3103 Y-14.5067
G01 X25.3049 Y-14.5076
G01 X25.2980 Y-14.5101
G01 X25.2888 Y-14.5162
G01 X25.2818 Y-14.5247
G01 X25.2787 Y-14.5314
G01 X25.2772 Y-14.5367
G01 X25.2765 Y-14.5446
G01 X25.2762 Y-14.7058
G01 X25.2743 Y-14.7154
G01 X25.2706 Y-14.7244
G01 X25.2651 Y-14.7326
G01 X25.2600 Y-14.7379
G01 X25.2522 Y-14.7437
G01 X25.2456 Y-14.7471
G01 X25.2386 Y-14.7494
G01 X25.2289 Y-14.7508
G01 X25.0213 Y-14.7509
G01 X25.0134 Y-14.7516
G01 X25.0063 Y-14.7537
G01 X25.0014 Y-14.7562
G01 X24.9955 Y-14.7606
G01 X24.9906 Y-14.7660
G01 X24.9868 Y-14.7724
G01 X24.9848 Y-14.7775
G01 X24.9834 Y-14.7847
G01 X24.9834 Y-14.7921
G01 X24.9848 Y-14.7993
G01 X24.9868 Y-14.8044
G01 X24.9906 Y-14.8108
G01 X24.9942 Y-14.8149
G01 X24.9999 Y-14.8196
G01 X25.0047 Y-14.8223
G01 X25.0152 Y-14.8255
G01 X25.2289 Y-14.8260
G01 X25.2362 Y-14.8269
G01 X25.2433 Y-14.8289
G01 X25.2542 Y-14.8344
G01 X25.2618 Y-14.8406
G01 X25.2693 Y-14.8502
G01 X25.2743 Y-14.8614
G01 X25.2762 Y-14.8710
G01 X25.2765 Y-15.0323
G01 X25.2772 Y-15.0402
G01 X25.2801 Y-15.0489
G01 X25.2839 Y-15.0553
G01 X25.2875 Y-15.0594
G01 X25.2932 Y-15.0641
G01 X25.2980 Y-15.0668
G01 X25.3049 Y-15.0693
G01 X25.3103 Y-15.0702
G01 X25.3177 Y-15.0702
G01 X25.3231 Y-15.0693
G01 X25.3284 Y-15.0676
G01 X25.3348 Y-15.0641
G01 X25.3405 Y-15.0594
G01 X25.3441 Y-15.0553
G01 X25.3479 Y-15.0489
G01 X25.3499 Y-15.0438
G01 X25.3515 Y-15.0323
G00 Z3.0000
G00 X27.5814 Y-14.2164
G01 F80.00
G01 Z-0.0746
G01 F50.00
G01 X27.2836 Y-14.6133
G01 X27.2767 Y-14.6202
G01 X27.2664 Y-14.6266
G01 X27.2548 Y-14.6304
G01 X27.2452 Y-14.6314
G01 X27.2355 Y-14.6304
G01 X27.2239 Y-14.6266
G01 X27.2136 Y-14.6202
G01 X27.2067 Y-14.6133
G01 X26.9062 Y-14.2130
G01 X26.9007 Y-14.2081
G01 X26.8927 Y-14.2037
G01 X26.8838 Y-14.2012
G01 X26.8765 Y-14.2009
G01 X26.8692 Y-14.2020
G01 X26.8606 Y-14.2054
G01 X26.8531 Y-14.2107
G01 X26.8482 Y-14.2162
G01 X26.8431 Y-14.2259
G01 X26.8410 Y-14.2368
G01 X26.8421 Y-14.2477
G01 X26.8439 Y-14.2529
G01 X26.8474 Y-14.2594
G01 X27.1757 Y-14.6973
G01 X27.1808 Y-14.7058
G01 X27.1835 Y-14.7127
G01 X27.1852 Y-14.7199
G01 X27.1857 Y-14.7273
G01 X27.1852 Y-14.7347
G01 X27.1835 Y-14.7419
G01 X27.1808 Y-14.7488
G01 X27.1757 Y-14.7573
G01 X26.8464 Y-15.1967
G01 X26.8432 Y-15.2034
G01 X26.8414 Y-15.2105
G01 X26.8410 Y-15.2178
G01 X26.8417 Y-15.2233
G01 X26.8438 Y-15.2304
G01 X26.8472 Y-15.2369
G01 X26.8518 Y-15.2426
G01 X26.8575 Y-15.2473
G01 X26.8623 Y-15.2500
G01 X26.8692 Y-15.2526
G01 X26.8746 Y-15.2535
G01 X26.8820 Y-15.2536
G01 X26.8892 Y-15.2522
G01 X26.8960 Y-15.2494
G01 X26.9022 Y-15.2453
G01 X26.9062 Y-15.2416
G01 X27.2067 Y-14.8413
G01 X27.2136 Y-14.8344
G01 X27.2239 Y-14.8280
G01 X27.2355 Y-14.8242
G01 X27.2452 Y-14.8232
G01 X27.2548 Y-14.8242
G01 X27.2664 Y-14.8280
G01 X27.2767 Y-14.8344
G01 X27.2836 Y-14.8413
G01 X27.5841 Y-15.2416
G01 X27.5896 Y-15.2465
G01 X27.5976 Y-15.2509
G01 X27.6065 Y-15.2534
G01 X27.6138 Y-15.2537
G01 X27.6211 Y-15.2526
G01 X27.6297 Y-15.2492
G01 X27.6372 Y-15.2439
G01 X27.6421 Y-15.2384
G01 X27.6472 Y-15.2287
G01 X27.6493 Y-15.2178
G01 X27.6482 Y-15.2069
G01 X27.6464 Y-15.2017
G01 X27.6429 Y-15.1952
G01 X27.3146 Y-14.7573
G01 X27.3106 Y-14.7511
G01 X27.3075 Y-14.7443
G01 X27.3056 Y-14.7371
G01 X27.3046 Y-14.7298
G01 X27.3051 Y-14.7199
G01 X27.3068 Y-14.7127
G01 X27.3095 Y-14.7058
G01 X27.3146 Y-14.6973
G01 X27.6448 Y-14.2563
G01 X27.6477 Y-14.2495
G01 X27.6491 Y-14.2423
G01 X27.6492 Y-14.2349
G01 X27.6478 Y-14.2277
G01 X27.6450 Y-14.2209
G01 X27.6409 Y-14.2147
G01 X27.6372 Y-14.2107
G01 X27.6313 Y-14.2063
G01 X27.6263 Y-14.2038
G01 X27.6193 Y-14.2016
G01 X27.6120 Y-14.2009
G01 X27.6047 Y-14.2016
G01 X27.5976 Y-14.2037
G01 X27.5911 Y-14.2071
G01 X27.5854 Y-14.2117
G01 X27.5814 Y-14.2164
G00 Z3.0000
G00 X28.0924 Y-15.3043
G01 F80.00
G01 Z-0.0746
G01 F50.00
G01 X28.0886 Y-15.3557
G01 X28.0874 Y-15.4072
G01 X28.0887 Y-15.4588
G01 X28.0926 Y-15.5102
G01 X28.0990 Y-15.5613
G01 X28.1078 Y-15.6121
G01 X28.1192 Y-15.6624
G01 X28.1330 Y-15.7121
G01 X28.1492 Y-15.7611
G01 X28.1678 Y-15.8091
G01 X28.1888 Y-15.8562
G01 X28.2120 Y-15.9021
G01 X28.2375 Y-15.9471
G01 X28.2651 Y-15.9906
G01 X28.2949 Y-16.0328
G01 X28.3266 Y-16.0734
G01 X28.3604 Y-16.1124
G01 X28.3951 Y-16.1488
G01 X29.8093 Y-17.5630
G01 X29.8457 Y-17.5977
G01 X29.8866 Y-17.6330
G01 X29.9273 Y-17.6647
G01 X29.9675 Y-17.6930
G01 X30.0110 Y-17.7206
G01 X30.0558 Y-17.7461
G01 X30.1019 Y-17.7693
G01 X30.1490 Y-17.7903
G01 X30.1994 Y-17.8097
G01 X30.2483 Y-17.8258
G01 X30.2980 Y-17.8395
G01 X30.3460 Y-17.8503
G01 X30.3992 Y-17.8595
G01 X30.4479 Y-17.8655
G01 X30.4993 Y-17.8694
G01 X30.5509 Y-17.8707
G01 X30.6049 Y-17.8694
G01 X30.6538 Y-17.8657
G01 X30.7050 Y-17.8595
G01 X30.7582 Y-17.8503
G01 X30.8085 Y-17.8389
G01 X30.8582 Y-17.8251
G01 X30.9048 Y-17.8097
G01 X30.9530 Y-17.7912
G01 X31.0023 Y-17.7693
G01 X31.0482 Y-17.7461
G01 X31.0911 Y-17.7219
G01 X31.1347 Y-17.6943
G01 X31.1789 Y-17.6632
G01 X31.2176 Y-17.6330
G01 X31.2567 Y-17.5994
G01 X31.2949 Y-17.5630
G01 X31.3313 Y-17.5248
G01 X31.3649 Y-17.4857
G01 X31.3951 Y-17.4470
G01 X31.4262 Y-17.4028
G01 X31.4525 Y-17.3613
G01 X31.4780 Y-17.3165
G01 X31.5023 Y-17.2682
G01 X31.5222 Y-17.2233
G01 X31.5408 Y-17.1753
G01 X31.5570 Y-17.1263
G01 X31.5714 Y-17.0743
G01 X31.5826 Y-17.0239
G01 X31.5910 Y-16.9756
G01 X31.5974 Y-16.9244
G01 X31.6014 Y-16.8705
G01 X31.6026 Y-16.8214
G01 X31.6014 Y-16.7699
G01 X31.5974 Y-16.7160
G01 X31.5910 Y-16.6649
G01 X31.5826 Y-16.6165
G01 X31.5708 Y-16.5638
G01 X31.5562 Y-16.5116
G01 X32.2703 Y-16.5116
G01 X32.2705 Y-16.9665
G01 X32.2718 Y-16.9737
G01 X32.2741 Y-16.9807
G01 X32.2787 Y-16.9894
G01 X32.2833 Y-16.9952
G01 X32.2886 Y-17.0003
G01 X32.2946 Y-17.0045
G01 X32.3012 Y-17.0078
G01 X32.3105 Y-17.0106
G01 X32.3203 Y-17.0116
G01 X33.7203 Y-17.0116
G01 X33.7276 Y-17.0111
G01 X33.7348 Y-17.0094
G01 X33.7417 Y-17.0068
G01 X33.7501 Y-17.0018
G01 X33.7573 Y-16.9952
G01 X33.7619 Y-16.9894
G01 X33.7655 Y-16.9830
G01 X33.7681 Y-16.9761
G01 X33.7698 Y-16.9689
G01 X33.7703 Y-16.9616
G01 X33.7703 Y-15.6616
G01 X33.7698 Y-15.6543
G01 X33.7681 Y-15.6471
G01 X33.7644 Y-15.6380
G01 X33.7605 Y-15.6318
G01 X33.7557 Y-15.6262
G01 X33.7501 Y-15.6214
G01 X33.7439 Y-15.6175
G01 X33.7348 Y-15.6138
G01 X33.7276 Y-15.6121
G01 X33.7203 Y-15.6116
G01 X32.3203 Y-15.6116
G01 X32.3105 Y-15.6126
G01 X32.3035 Y-15.6145
G01 X32.2946 Y-15.6187
G01 X32.2886 Y-15.6229
G01 X32.2833 Y-15.6280
G01 X32.2787 Y-15.6338
G01 X32.2741 Y-15.6425
G01 X32.2718 Y-15.6495
G01 X32.2705 Y-15.6567
G01 X32.2703 Y-16.1115
G01 X31.3274 Y-16.1115
G01 X31.2949 Y-16.0774
G01 X29.8807 Y-14.6632
G01 X29.8443 Y-14.6285
G01 X29.8053 Y-14.5947
G01 X29.7627 Y-14.5615
G01 X29.7225 Y-14.5332
G01 X29.6790 Y-14.5056
G01 X29.6320 Y-14.4790
G01 X29.5859 Y-14.4558
G01 X29.5388 Y-14.4350
G01 X29.4906 Y-14.4165
G01 X29.4440 Y-14.4011
G01 X29.3943 Y-14.3873
G01 X29.3440 Y-14.3759
G01 X29.2908 Y-14.3667
G01 X29.2421 Y-14.3607
G01 X29.1907 Y-14.3568
G01 X29.1391 Y-14.3555
G01 X29.0876 Y-14.3567
G01 X29.0362 Y-14.3605
G01 X28.9850 Y-14.3667
G01 X28.9342 Y-14.3755
G01 X28.8838 Y-14.3867
G01 X28.8341 Y-14.4004
G01 X28.7852 Y-14.4165
G01 X28.7370 Y-14.4350
G01 X28.6899 Y-14.4558
G01 X28.6418 Y-14.4801
G01 X28.5989 Y-14.5043
G01 X28.5553 Y-14.5319
G01 X28.5131 Y-14.5615
G01 X28.4724 Y-14.5932
G01 X28.4333 Y-14.6268
G01 X28.3951 Y-14.6632
G01 X28.3604 Y-14.6996
G01 X28.3266 Y-14.7386
G01 X28.2949 Y-14.7792
G01 X28.2651 Y-14.8214
G01 X28.2375 Y-14.8649
G01 X28.2120 Y-14.9097
G01 X28.1888 Y-14.9558
G01 X28.1678 Y-15.0029
G01 X28.1492 Y-15.0509
G01 X28.1330 Y-15.0999
G01 X28.1192 Y-15.1496
G01 X28.1078 Y-15.1999
G01 X28.0990 Y-15.2506
G01 X28.0924 Y-15.3043
G00 Z3.0000
G00 X31.3376 Y-13.1870
G01 F80.00
G01 Z-0.0746
G01 F50.00
G01 X32.7376 Y-13.1870
G01 X32.7449 Y-13.1865
G01 X32.7544 Y-13.1841
G01 X32.7612 Y-13.1811
G01 X32.7674 Y-13.1772
G01 X32.7730 Y-13.1724
G01 X32.7778 Y-13.1668
G01 X32.7817 Y-13.1606
G01 X32.7847 Y-13.1538
G01 X32.7866 Y-13.1468
G01 X32.7875 Y-13.1395
G01 X32.7876 Y-12.6887
G01 X33.5893 Y-12.6905
G01 X33.5895 Y-13.1470
G01 X33.5908 Y-13.1542
G01 X33.5941 Y-13.1635
G01 X33.5991 Y-13.1719
G01 X33.6057 Y-13.1791
G01 X33.6136 Y-13.1850
G01 X33.6225 Y-13.1892
G01 X33.6320 Y-13.1916
G01 X33.6393 Y-13.1921
G01 X35.0393 Y-13.1921
G01 X35.0466 Y-13.1916
G01 X35.0561 Y-13.1892
G01 X35.0629 Y-13.1862
G01 X35.0691 Y-13.1823
G01 X35.0747 Y-13.1775
G01 X35.0795 Y-13.1719
G01 X35.0834 Y-13.1657
G01 X35.0864 Y-13.1589
G01 X35.0883 Y-13.1519
G01 X35.0892 Y-13.1446
G01 X35.0893 Y-12.6797
G01 X35.9102 Y-12.6659
G01 X35.9104 Y-13.1469
G01 X35.9117 Y-13.1541
G01 X35.9150 Y-13.1634
G01 X35.9200 Y-13.1718
G01 X35.9266 Y-13.1790
G01 X35.9345 Y-13.1849
G01 X35.9434 Y-13.1891
G01 X35.9529 Y-13.1915
G01 X35.9602 Y-13.1920
G01 X37.5602 Y-13.1920
G01 X37.5675 Y-13.1915
G01 X37.5747 Y-13.1898
G01 X37.5816 Y-13.1872
G01 X37.5880 Y-13.1836
G01 X37.5938 Y-13.1790
G01 X37.5989 Y-13.1737
G01 X37.6031 Y-13.1677
G01 X37.6064 Y-13.1611
G01 X37.6087 Y-13.1541
G01 X37.6101 Y-13.1445
G01 X37.6102 Y-12.6921
G01 X38.5907 Y-12.6921
G01 X38.5909 Y-12.7302
G01 X38.5929 Y-12.7398
G01 X38.5978 Y-12.7510
G01 X38.6053 Y-12.7607
G01 X38.6150 Y-12.7682
G01 X38.6262 Y-12.7731
G01 X38.6382 Y-12.7752
G01 X39.9407 Y-12.7753
G01 X39.9505 Y-12.7743
G01 X39.9575 Y-12.7724
G01 X39.9664 Y-12.7682
G01 X39.9724 Y-12.7640
G01 X39.9777 Y-12.7589
G01 X39.9823 Y-12.7531
G01 X39.9869 Y-12.7444
G01 X39.9892 Y-12.7374
G01 X39.9906 Y-12.7278
G01 X39.9907 Y-11.3253
G01 X39.9897 Y-11.3155
G01 X39.9869 Y-11.3062
G01 X39.9836 Y-11.2996
G01 X39.9777 Y-11.2917
G01 X39.9724 Y-11.2866
G01 X39.9664 Y-11.2824
G01 X39.9575 Y-11.2782
G01 X39.9480 Y-11.2758
G01 X39.9407 Y-11.2753
G01 X38.6407 Y-11.2753
G01 X38.6334 Y-11.2758
G01 X38.6262 Y-11.2775
G01 X38.6193 Y-11.2801
G01 X38.6129 Y-11.2837
G01 X38.6037 Y-11.2917
G01 X38.5966 Y-11.3017
G01 X38.5922 Y-11.3132
G01 X38.5907 Y-11.3253
G01 X38.5907 Y-12.2919
G01 X37.6102 Y-12.2919
G01 X37.6100 Y-11.8371
G01 X37.6087 Y-11.8299
G01 X37.6054 Y-11.8206
G01 X37.6018 Y-11.8142
G01 X37.5956 Y-11.8066
G01 X37.5880 Y-11.8004
G01 X37.5793 Y-11.7958
G01 X37.5723 Y-11.7935
G01 X37.5627 Y-11.7921
G01 X35.9602 Y-11.7920
G01 X35.9504 Y-11.7930
G01 X35.9434 Y-11.7949
G01 X35.9345 Y-11.7991
G01 X35.9285 Y-11.8033
G01 X35.9232 Y-11.8084
G01 X35.9186 Y-11.8142
G01 X35.9140 Y-11.8229
G01 X35.9117 Y-11.8299
G01 X35.9104 Y-11.8371
G01 X35.9102 Y-12.2657
G01 X35.0893 Y-12.2795
G01 X35.0892 Y-11.8396
G01 X35.0883 Y-11.8323
G01 X35.0864 Y-11.8253
G01 X35.0834 Y-11.8185
G01 X35.0795 Y-11.8123
G01 X35.0747 Y-11.8067
G01 X35.0691 Y-11.8019
G01 X35.0629 Y-11.7980
G01 X35.0561 Y-11.7950
G01 X35.0466 Y-11.7926
G01 X35.0393 Y-11.7921
G01 X33.6393 Y-11.7921
G01 X33.6320 Y-11.7926
G01 X33.6225 Y-11.7950
G01 X33.6157 Y-11.7980
G01 X33.6095 Y-11.8019
G01 X33.6023 Y-11.8085
G01 X33.5977 Y-11.8143
G01 X33.5931 Y-11.8230
G01 X33.5908 Y-11.8300
G01 X33.5895 Y-11.8372
G01 X33.5893 Y-12.2904
G01 X32.7876 Y-12.2886
G01 X32.7874 Y-11.8321
G01 X32.7861 Y-11.8249
G01 X32.7838 Y-11.8179
G01 X32.7792 Y-11.8092
G01 X32.7746 Y-11.8034
G01 X32.7693 Y-11.7983
G01 X32.7633 Y-11.7941
G01 X32.7544 Y-11.7899
G01 X32.7474 Y-11.7880
G01 X32.7376 Y-11.7870
G01 X31.3376 Y-11.7870
G01 X31.3278 Y-11.7880
G01 X31.3208 Y-11.7899
G01 X31.3140 Y-11.7929
G01 X31.3059 Y-11.7983
G01 X31.3006 Y-11.8034
G01 X31.2960 Y-11.8092
G01 X31.2914 Y-11.8179
G01 X31.2886 Y-11.8272
G01 X31.2877 Y-11.8345
G01 X31.2876 Y-13.1370
G01 X31.2886 Y-13.1468
G01 X31.2914 Y-13.1561
G01 X31.2960 Y-13.1648
G01 X31.3022 Y-13.1724
G01 X31.3098 Y-13.1786
G01 X31.3185 Y-13.1832
G01 X31.3278 Y-13.1860
G01 X31.3376 Y-13.1870
G00 Z3.0000
G00 X32.1703 Y-15.9614
G01 F80.00
G01 Z-0.0746
G01 F50.00
G01 X32.1693 Y-15.9711
G01 X32.1665 Y-15.9805
G01 X32.1619 Y-15.9891
G01 X32.1557 Y-15.9967
G01 X32.1501 Y-16.0015
G01 X32.1417 Y-16.0066
G01 X32.1325 Y-16.0099
G01 X32.1228 Y-16.0113
G01 X31.3912 Y-16.0114
G01 X31.3839 Y-16.0109
G01 X31.3767 Y-16.0092
G01 X31.3655 Y-16.0043
G01 X31.3558 Y-15.9967
G01 X29.9519 Y-14.5928
G01 X29.9106 Y-14.5535
G01 X29.8678 Y-14.5166
G01 X29.8233 Y-14.4818
G01 X29.7771 Y-14.4493
G01 X29.7294 Y-14.4191
G01 X29.6803 Y-14.3913
G01 X29.6298 Y-14.3659
G01 X29.5782 Y-14.3430
G01 X29.5255 Y-14.3227
G01 X29.4719 Y-14.3050
G01 X29.4175 Y-14.2899
G01 X29.3624 Y-14.2775
G01 X29.3067 Y-14.2679
G01 X29.2507 Y-14.2610
G01 X29.1944 Y-14.2568
G01 X29.1379 Y-14.2554
G01 X29.0814 Y-14.2568
G01 X29.0251 Y-14.2610
G01 X28.9691 Y-14.2679
G01 X28.9134 Y-14.2775
G01 X28.8583 Y-14.2899
G01 X28.8039 Y-14.3050
G01 X28.7503 Y-14.3227
G01 X28.6976 Y-14.3430
G01 X28.6460 Y-14.3659
G01 X28.5955 Y-14.3913
G01 X28.5464 Y-14.4191
G01 X28.4987 Y-14.4493
G01 X28.4525 Y-14.4818
G01 X28.4080 Y-14.5166
G01 X28.3652 Y-14.5535
G01 X28.3243 Y-14.5924
G01 X28.2854 Y-14.6333
G01 X28.2485 Y-14.6761
G01 X28.2137 Y-14.7206
G01 X28.1812 Y-14.7668
G01 X28.1510 Y-14.8145
G01 X28.1232 Y-14.8636
G01 X28.0978 Y-14.9141
G01 X28.0749 Y-14.9657
G01 X28.0546 Y-15.0184
G01 X28.0369 Y-15.0720
G01 X28.0218 Y-15.1264
G01 X28.0094 Y-15.1815
G01 X27.9998 Y-15.2372
G01 X27.9929 Y-15.2932
G01 X27.9887 Y-15.3495
G01 X27.9873 Y-15.4060
G01 X27.9887 Y-15.4625
G01 X27.9929 Y-15.5188
G01 X27.9998 Y-15.5748
G01 X28.0094 Y-15.6305
G01 X28.0218 Y-15.6856
G01 X28.0369 Y-15.7400
G01 X28.0546 Y-15.7936
G01 X28.0749 Y-15.8463
G01 X28.0978 Y-15.8979
G01 X28.1232 Y-15.9484
G01 X28.1510 Y-15.9975
G01 X28.1812 Y-16.0452
G01 X28.2137 Y-16.0914
G01 X28.2485 Y-16.1359
G01 X28.2854 Y-16.1787
G01 X28.3247 Y-16.2200
G01 X29.7381 Y-17.6334
G01 X29.7794 Y-17.6727
G01 X29.8222 Y-17.7096
G01 X29.8667 Y-17.7444
G01 X29.9129 Y-17.7769
G01 X29.9606 Y-17.8071
G01 X30.0097 Y-17.8349
G01 X30.0602 Y-17.8603
G01 X30.1118 Y-17.8832
G01 X30.1645 Y-17.9035
G01 X30.2181 Y-17.9212
G01 X30.2725 Y-17.9363
G01 X30.3276 Y-17.9487
G01 X30.3833 Y-17.9583
G01 X30.4393 Y-17.9652
G01 X30.4956 Y-17.9694
G01 X30.5521 Y-17.9708
G01 X30.6086 Y-17.9694
G01 X30.6649 Y-17.9652
G01 X30.7209 Y-17.9583
G01 X30.7766 Y-17.9487
G01 X30.8317 Y-17.9363
G01 X30.8861 Y-17.9212
G01 X30.9397 Y-17.9035
G01 X30.9924 Y-17.8832
G01 X31.0440 Y-17.8603
G01 X31.0945 Y-17.8349
G01 X31.1436 Y-17.8071
G01 X31.1913 Y-17.7769
G01 X31.2375 Y-17.7444
G01 X31.2820 Y-17.7096
G01 X31.3248 Y-17.6727
G01 X31.3657 Y-17.6338
G01 X31.4046 Y-17.5929
G01 X31.4415 Y-17.5501
G01 X31.4763 Y-17.5056
G01 X31.5088 Y-17.4594
G01 X31.5390 Y-17.4117
G01 X31.5668 Y-17.3626
G01 X31.5922 Y-17.3121
G01 X31.6151 Y-17.2605
G01 X31.6354 Y-17.2078
G01 X31.6531 Y-17.1542
G01 X31.6682 Y-17.0998
G01 X31.6806 Y-17.0447
G01 X31.6902 Y-16.9890
G01 X31.6971 Y-16.9330
G01 X31.7013 Y-16.8767
G01 X31.7027 Y-16.8202
G01 X31.7013 Y-16.7637
G01 X31.6971 Y-16.7074
G01 X31.6920 Y-16.6654
G01 X31.6927 Y-16.6530
G01 X31.6945 Y-16.6457
G01 X31.6974 Y-16.6389
G01 X31.7013 Y-16.6325
G01 X31.7061 Y-16.6268
G01 X31.7117 Y-16.6218
G01 X31.7180 Y-16.6178
G01 X31.7296 Y-16.6133
G01 X31.7419 Y-16.6117
G01 X32.1228 Y-16.6118
G01 X32.1324 Y-16.6132
G01 X32.1417 Y-16.6165
G01 X32.1501 Y-16.6216
G01 X32.1573 Y-16.6281
G01 X32.1632 Y-16.6360
G01 X32.1665 Y-16.6426
G01 X32.1693 Y-16.6520
G01 X32.1702 Y-16.6593
G01 X32.1703 Y-17.1116
G01 X33.8703 Y-17.1116
G01 X33.8703 Y-15.5116
G01 X32.1703 Y-15.5116
G01 X32.1703 Y-15.9614
G00 Z3.0000
G00 X34.6194 Y-17.0141
G01 F80.00
G01 Z-0.0746
G01 F50.00
G01 X36.0194 Y-17.0141
G01 X36.0292 Y-17.0131
G01 X36.0362 Y-17.0112
G01 X36.0430 Y-17.0082
G01 X36.0492 Y-17.0043
G01 X36.0548 Y-16.9995
G01 X36.0596 Y-16.9939
G01 X36.0635 Y-16.9877
G01 X36.0665 Y-16.9809
G01 X36.0684 Y-16.9739
G01 X36.0693 Y-16.9666
G01 X36.0694 Y-16.5096
G01 X39.1715 Y-16.5116
G01 X39.1996 Y-16.5096
G01 X39.2213 Y-16.5053
G01 X39.2470 Y-16.4968
G01 X39.2669 Y-16.4874
G01 X39.2817 Y-16.4785
G01 X39.2917 Y-16.4715
G01 X39.3122 Y-16.4538
G01 X40.3261 Y-15.4401
G01 X43.0213 Y-15.4401
G01 X43.0397 Y-15.4392
G01 X43.0519 Y-15.4377
G01 X43.0687 Y-15.4344
G01 X43.0875 Y-15.4288
G01 X43.1057 Y-15.4214
G01 X43.1252 Y-15.4110
G01 X43.1473 Y-15.3954
G01 X43.1628 Y-15.3815
G01 X44.7308 Y-13.8135
G01 X44.9419 Y-13.8149
G01 X44.9419 Y-14.2673
G01 X44.9425 Y-14.2750
G01 X44.9443 Y-14.2825
G01 X44.9494 Y-14.2937
G01 X44.9565 Y-14.3026
G01 X45.1565 Y-14.5027
G01 X45.1641 Y-14.5090
G01 X45.1728 Y-14.5136
G01 X45.1821 Y-14.5164
G01 X45.1919 Y-14.5174
G01 X45.3946 Y-14.5173
G01 X45.4047 Y-14.5157
G01 X45.4120 Y-14.5132
G01 X45.4184 Y-14.5099
G01 X45.4257 Y-14.5043
G01 X45.6290 Y-14.3010
G01 X45.6367 Y-14.2897
G01 X45.6396 Y-14.2825
G01 X45.6414 Y-14.2750
G01 X45.6420 Y-14.2673
G01 X45.6419 Y-13.1673
G01 X45.6413 Y-13.1596
G01 X45.6387 Y-13.1496
G01 X45.6344 Y-13.1409
G01 X45.6288 Y-13.1336
G01 X45.5272 Y-13.0320
G01 X45.5163 Y-13.0237
G01 X45.5095 Y-13.0206
G01 X45.5021 Y-13.0185
G01 X45.4919 Y-13.0174
G01 X45.0919 Y-13.0173
G01 X45.0842 Y-13.0179
G01 X45.0767 Y-13.0197
G01 X45.0695 Y-13.0226
G01 X45.0636 Y-13.0261
G01 X45.0565 Y-13.0320
G01 X44.9549 Y-13.1337
G01 X44.9482 Y-13.1430
G01 X44.9443 Y-13.1522
G01 X44.9425 Y-13.1597
G01 X44.9419 Y-13.1674
G01 X44.9419 Y-13.4148
G01 X44.6499 Y-13.4127
G01 X44.6289 Y-13.4137
G01 X44.6020 Y-13.4182
G01 X44.5901 Y-13.4215
G01 X44.5737 Y-13.4272
G01 X44.5624 Y-13.4322
G01 X44.5471 Y-13.4403
G01 X44.5368 Y-13.4468
G01 X44.5227 Y-13.4573
G01 X44.5070 Y-13.4713
G01 X42.9384 Y-15.0399
G01 X40.2432 Y-15.0399
G01 X40.2151 Y-15.0419
G01 X40.2030 Y-15.0440
G01 X40.1863 Y-15.0482
G01 X40.1655 Y-15.0556
G01 X40.1414 Y-15.0678
G01 X40.1230 Y-15.0800
G01 X40.1026 Y-15.0977
G01 X39.0888 Y-16.1114
G01 X36.0694 Y-16.1094
G01 X36.0693 Y-15.6616
G01 X36.0684 Y-15.6543
G01 X36.0665 Y-15.6473
G01 X36.0635 Y-15.6405
G01 X36.0596 Y-15.6343
G01 X36.0548 Y-15.6287
G01 X36.0492 Y-15.6239
G01 X36.0430 Y-15.6200
G01 X36.0362 Y-15.6170
G01 X36.0267 Y-15.6146
G01 X36.0194 Y-15.6141
G01 X34.6194 Y-15.6141
G01 X34.6121 Y-15.6146
G01 X34.6026 Y-15.6170
G01 X34.5958 Y-15.6200
G01 X34.5896 Y-15.6239
G01 X34.5840 Y-15.6287
G01 X34.5792 Y-15.6343
G01 X34.5753 Y-15.6405
G01 X34.5723 Y-15.6473
G01 X34.5704 Y-15.6543
G01 X34.5695 Y-15.6616
G01 X34.5694 Y-16.9641
G01 X34.5704 Y-16.9739
G01 X34.5732 Y-16.9832
G01 X34.5778 Y-16.9919
G01 X34.5840 Y-16.9995
G01 X34.5916 Y-17.0057
G01 X34.6003 Y-17.0103
G01 X34.6096 Y-17.0131
G01 X34.6194 Y-17.0141
G00 Z3.0000
G00 X37.3445 Y-19.3589
G01 F80.00
G01 Z-0.0746
G01 F50.00
G01 X37.3443 Y-25.5587
G01 X37.3452 Y-25.5771
G01 X37.3467 Y-25.5892
G01 X37.3500 Y-25.6061
G01 X37.3533 Y-25.6179
G01 X37.3630 Y-25.6431
G01 X37.3734 Y-25.6626
G01 X37.3890 Y-25.6847
G01 X37.4029 Y-25.7002
G01 X40.2605 Y-28.5577
G01 X40.2741 Y-28.5701
G01 X40.2838 Y-28.5776
G01 X40.3002 Y-28.5884
G01 X40.3175 Y-28.5976
G01 X40.3334 Y-28.6042
G01 X40.3522 Y-28.6100
G01 X40.3642 Y-28.6127
G01 X40.3812 Y-28.6152
G01 X40.4008 Y-28.6163
G01 X41.5938 Y-28.6163
G01 X41.6134 Y-28.6152
G01 X41.6328 Y-28.6122
G01 X41.6518 Y-28.6073
G01 X41.6703 Y-28.6006
G01 X41.6880 Y-28.5921
G01 X41.7048 Y-28.5819
G01 X41.7204 Y-28.5701
G01 X41.7341 Y-28.5577
G01 X42.7867 Y-27.5051
G01 X44.9110 Y-27.5051
G01 X44.9111 Y-27.9475
G01 X44.9120 Y-27.9548
G01 X44.9139 Y-27.9618
G01 X44.9169 Y-27.9686
G01 X44.9208 Y-27.9748
G01 X44.9256 Y-27.9804
G01 X44.9312 Y-27.9852
G01 X44.9374 Y-27.9891
G01 X44.9442 Y-27.9921
G01 X44.9512 Y-27.9940
G01 X44.9610 Y-27.9950
G01 X46.2410 Y-27.9950
G01 X46.2508 Y-27.9940
G01 X46.2578 Y-27.9921
G01 X46.2667 Y-27.9879
G01 X46.2746 Y-27.9820
G01 X46.2812 Y-27.9748
G01 X46.2862 Y-27.9664
G01 X46.2895 Y-27.9571
G01 X46.2908 Y-27.9499
G01 X46.2910 Y-27.5051
G01 X47.1374 Y-27.5051
G01 X47.2558 Y-27.5382
G01 X47.2558 Y-28.4284
G01 X47.2563 Y-28.4357
G01 X47.2587 Y-28.4452
G01 X47.2617 Y-28.4520
G01 X47.2671 Y-28.4601
G01 X47.2760 Y-28.4686
G01 X47.2844 Y-28.4736
G01 X47.2960 Y-28.4774
G01 X47.3058 Y-28.4784
G01 X47.9083 Y-28.4783
G01 X47.9179 Y-28.4769
G01 X47.9272 Y-28.4736
G01 X47.9375 Y-28.4671
G01 X47.9445 Y-28.4601
G01 X47.9499 Y-28.4520
G01 X47.9529 Y-28.4452
G01 X47.9553 Y-28.4357
G01 X47.9558 Y-28.4284
G01 X47.9558 Y-26.4284
G01 X47.9553 Y-26.4211
G01 X47.9536 Y-26.4139
G01 X47.9510 Y-26.4070
G01 X47.9460 Y-26.3986
G01 X47.9412 Y-26.3930
G01 X47.9356 Y-26.3882
G01 X47.9272 Y-26.3832
G01 X47.9203 Y-26.3806
G01 X47.9131 Y-26.3789
G01 X47.9058 Y-26.3784
G01 X47.3058 Y-26.3784
G01 X47.2960 Y-26.3794
G01 X47.2867 Y-26.3822
G01 X47.2760 Y-26.3882
G01 X47.2688 Y-26.3948
G01 X47.2629 Y-26.4027
G01 X47.2587 Y-26.4116
G01 X47.2563 Y-26.4211
G01 X47.2558 Y-26.4284
G01 X47.2558 Y-27.1227
G01 X47.2177 Y-27.1120
G01 X47.2022 Y-27.1084
G01 X47.1842 Y-27.1059
G01 X47.1660 Y-27.1049
G01 X46.2910 Y-27.1049
G01 X46.2908 Y-26.6601
G01 X46.2895 Y-26.6529
G01 X46.2872 Y-26.6459
G01 X46.2826 Y-26.6372
G01 X46.2780 Y-26.6314
G01 X46.2727 Y-26.6263
G01 X46.2667 Y-26.6221
G01 X46.2601 Y-26.6188
G01 X46.2508 Y-26.6160
G01 X46.2410 Y-26.6150
G01 X44.9610 Y-26.6150
G01 X44.9537 Y-26.6155
G01 X44.9465 Y-26.6172
G01 X44.9374 Y-26.6209
G01 X44.9293 Y-26.6263
G01 X44.9240 Y-26.6314
G01 X44.9194 Y-26.6372
G01 X44.9148 Y-26.6459
G01 X44.9125 Y-26.6529
G01 X44.9112 Y-26.6601
G01 X44.9110 Y-27.1049
G01 X42.7038 Y-27.1049
G01 X42.6757 Y-27.1069
G01 X42.6540 Y-27.1112
G01 X42.6284 Y-27.1197
G01 X42.6084 Y-27.1291
G01 X42.5937 Y-27.1380
G01 X42.5839 Y-27.1449
G01 X42.5632 Y-27.1627
G01 X41.5097 Y-28.2161
G01 X40.4849 Y-28.2161
G01 X37.7445 Y-25.4758
G01 X37.7445 Y-19.4504
G01 X39.4927 Y-17.7023
G01 X44.6486 Y-17.7023
G01 X44.6669 Y-17.7014
G01 X44.6791 Y-17.6999
G01 X44.6959 Y-17.6966
G01 X44.7077 Y-17.6933
G01 X44.7238 Y-17.6876
G01 X44.7350 Y-17.6827
G01 X44.7501 Y-17.6746
G01 X44.7604 Y-17.6681
G01 X44.7761 Y-17.6564
G01 X44.7888 Y-17.6449
G01 X44.7973 Y-17.6361
G01 X44.8089 Y-17.6219
G01 X47.0312 Y-14.6453
G01 X47.0425 Y-14.6285
G01 X47.0515 Y-14.6117
G01 X47.0612 Y-14.5875
G01 X47.0662 Y-14.5691
G01 X47.0694 Y-14.5504
G01 X47.0705 Y-14.5385
G01 X47.0726 Y-14.4573
G01 X47.2272 Y-14.3028
G01 X47.2331 Y-14.2957
G01 X47.2366 Y-14.2898
G01 X47.2408 Y-14.2776
G01 X47.2419 Y-14.2674
G01 X47.2416 Y-13.1623
G01 X47.2403 Y-13.1547
G01 X47.2377 Y-13.1474
G01 X47.2344 Y-13.1410
G01 X47.2289 Y-13.1337
G01 X47.1240 Y-13.0290
G01 X47.1164 Y-13.0238
G01 X47.1097 Y-13.0206
G01 X47.0997 Y-13.0180
G01 X47.0920 Y-13.0174
G01 X46.6919 Y-13.0173
G01 X46.6817 Y-13.0184
G01 X46.6695 Y-13.0226
G01 X46.6582 Y-13.0304
G01 X46.5566 Y-13.1320
G01 X46.5495 Y-13.1409
G01 X46.5462 Y-13.1473
G01 X46.5436 Y-13.1546
G01 X46.5420 Y-13.1673
G01 X46.5422 Y-14.2724
G01 X46.5435 Y-14.2800
G01 X46.5461 Y-14.2873
G01 X46.5494 Y-14.2937
G01 X46.5549 Y-14.3010
G01 X46.6732 Y-14.4194
G01 X46.6724 Y-14.4571
G01 X44.5483 Y-17.3021
G01 X39.4098 Y-17.3021
G01 X39.3817 Y-17.3041
G01 X39.3696 Y-17.3062
G01 X39.3529 Y-17.3104
G01 X39.3322 Y-17.3178
G01 X39.3080 Y-17.3300
G01 X39.2897 Y-17.3422
G01 X39.2683 Y-17.3607
G01 X37.4029 Y-19.2260
G01 X37.3905 Y-19.2396
G01 X37.3787 Y-19.2553
G01 X37.3685 Y-19.2721
G01 X37.3600 Y-19.2898
G01 X37.3533 Y-19.3082
G01 X37.3484 Y-19.3273
G01 X37.3454 Y-19.3467
G01 X37.3445 Y-19.3589
G00 Z3.0000
G00 X38.8147 Y-20.1728
G01 F80.00
G01 Z-0.0746
G01 F50.00
G01 X38.8127 Y-20.2009
G01 X38.8128 Y-24.6461
G01 X38.8137 Y-24.6645
G01 X38.8152 Y-24.6767
G01 X38.8185 Y-24.6935
G01 X38.8218 Y-24.7054
G01 X38.8285 Y-24.7238
G01 X38.8407 Y-24.7479
G01 X38.8529 Y-24.7662
G01 X38.8706 Y-24.7867
G01 X39.9285 Y-25.8446
G01 X39.8976 Y-25.8932
G01 X39.8734 Y-25.9359
G01 X39.8501 Y-25.9819
G01 X39.8292 Y-26.0290
G01 X39.8106 Y-26.0770
G01 X39.7937 Y-26.1283
G01 X39.7800 Y-26.1780
G01 X39.7692 Y-26.2259
G01 X39.7604 Y-26.2766
G01 X39.7540 Y-26.3278
G01 X39.7500 Y-26.3816
G01 X39.7488 Y-26.4307
G01 X39.7500 Y-26.4822
G01 X39.7540 Y-26.5360
G01 X39.7600 Y-26.5848
G01 X39.7688 Y-26.6355
G01 X39.7806 Y-26.6882
G01 X39.7944 Y-26.7379
G01 X39.8106 Y-26.7868
G01 X39.8292 Y-26.8348
G01 X39.8491 Y-26.8797
G01 X39.8722 Y-26.9258
G01 X39.8976 Y-26.9706
G01 X39.9265 Y-27.0163
G01 X39.9560 Y-27.0581
G01 X39.9879 Y-27.0990
G01 X40.0201 Y-27.1363
G01 X40.0555 Y-27.1735
G01 X40.0944 Y-27.2106
G01 X40.1317 Y-27.2428
G01 X40.1723 Y-27.2745
G01 X40.2165 Y-27.3056
G01 X40.2579 Y-27.3319
G01 X40.3028 Y-27.3573
G01 X40.3509 Y-27.3816
G01 X40.3959 Y-27.4015
G01 X40.4439 Y-27.4201
G01 X40.4952 Y-27.4370
G01 X40.5449 Y-27.4507
G01 X40.5928 Y-27.4615
G01 X40.6459 Y-27.4707
G01 X40.6967 Y-27.4769
G01 X40.7461 Y-27.4806
G01 X40.8000 Y-27.4819
G01 X40.8491 Y-27.4807
G01 X40.9005 Y-27.4769
G01 X40.9541 Y-27.4703
G01 X41.0048 Y-27.4615
G01 X41.0527 Y-27.4507
G01 X41.1048 Y-27.4363
G01 X41.1537 Y-27.4201
G01 X41.2017 Y-27.4015
G01 X41.2488 Y-27.3806
G01 X41.2927 Y-27.3585
G01 X41.3375 Y-27.3331
G01 X41.3811 Y-27.3056
G01 X41.4250 Y-27.2747
G01 X41.4659 Y-27.2428
G01 X41.5048 Y-27.2091
G01 X41.5404 Y-27.1752
G01 X41.5760 Y-27.1379
G01 X41.6097 Y-27.0990
G01 X41.6429 Y-27.0564
G01 X41.6725 Y-27.0142
G01 X41.7000 Y-26.9706
G01 X41.7242 Y-26.9279
G01 X41.7475 Y-26.8819
G01 X41.7684 Y-26.8348
G01 X41.7870 Y-26.7868
G01 X41.8032 Y-26.7379
G01 X41.8176 Y-26.6858
G01 X41.8284 Y-26.6379
G01 X41.8372 Y-26.5872
G01 X41.8436 Y-26.5360
G01 X41.8475 Y-26.4846
G01 X41.8488 Y-26.4331
G01 X41.8475 Y-26.3792
G01 X41.8436 Y-26.3278
G01 X41.8372 Y-26.2766
G01 X41.8284 Y-26.2259
G01 X41.8176 Y-26.1780
G01 X41.8032 Y-26.1259
G01 X41.7870 Y-26.0770
G01 X41.7684 Y-26.0290
G01 X41.7475 Y-25.9819
G01 X41.7242 Y-25.9359
G01 X41.7000 Y-25.8932
G01 X41.6725 Y-25.8496
G01 X41.6416 Y-25.8057
G01 X41.6112 Y-25.7667
G01 X41.5775 Y-25.7275
G01 X41.5421 Y-25.6903
G01 X41.5032 Y-25.6532
G01 X41.4659 Y-25.6210
G01 X41.4233 Y-25.5878
G01 X41.3811 Y-25.5582
G01 X41.3375 Y-25.5307
G01 X41.2927 Y-25.5053
G01 X41.2467 Y-25.4822
G01 X41.1995 Y-25.4614
G01 X41.1514 Y-25.4429
G01 X41.1024 Y-25.4268
G01 X41.0527 Y-25.4131
G01 X41.0024 Y-25.4019
G01 X40.9517 Y-25.3931
G01 X40.9009 Y-25.3869
G01 X40.8491 Y-25.3831
G01 X40.7976 Y-25.3819
G01 X40.7461 Y-25.3832
G01 X40.6947 Y-25.3871
G01 X40.6435 Y-25.3935
G01 X40.5928 Y-25.4023
G01 X40.5425 Y-25.4137
G01 X40.4928 Y-25.4275
G01 X40.4439 Y-25.4437
G01 X40.3959 Y-25.4623
G01 X40.3488 Y-25.4832
G01 X40.3028 Y-25.5065
G01 X40.2579 Y-25.5319
G01 X40.2115 Y-25.5617
G01 X39.2130 Y-24.5632
G01 X39.2129 Y-20.2838
G01 X40.3658 Y-19.1310
G01 X49.8873 Y-19.1310
G01 X49.9154 Y-19.1290
G01 X49.9371 Y-19.1247
G01 X49.9535 Y-19.1197
G01 X49.9650 Y-19.1153
G01 X49.9891 Y-19.1031
G01 X50.0075 Y-19.0909
G01 X50.0288 Y-19.0724
G01 X51.0739 Y-18.0271
G01 X51.0856 Y-18.0142
G01 X51.0932 Y-18.0044
G01 X51.1029 Y-17.9899
G01 X51.1089 Y-17.9791
G01 X51.1199 Y-17.9541
G01 X51.1237 Y-17.9423
G01 X51.1278 Y-17.9254
G01 X51.1307 Y-17.9057
G01 X51.1317 Y-17.8846
G01 X51.0995 Y-14.4305
G01 X51.2288 Y-14.3011
G01 X51.2344 Y-14.2938
G01 X51.2377 Y-14.2874
G01 X51.2403 Y-14.2801
G01 X51.2416 Y-14.2725
G01 X51.2419 Y-13.1674
G01 X51.2403 Y-13.1547
G01 X51.2356 Y-13.1430
G01 X51.2273 Y-13.1321
G01 X51.1256 Y-13.0304
G01 X51.1143 Y-13.0226
G01 X51.1021 Y-13.0184
G01 X51.0919 Y-13.0173
G01 X50.6894 Y-13.0175
G01 X50.6818 Y-13.0185
G01 X50.6720 Y-13.0216
G01 X50.6637 Y-13.0262
G01 X50.6566 Y-13.0320
G01 X50.5551 Y-13.1337
G01 X50.5495 Y-13.1410
G01 X50.5462 Y-13.1474
G01 X50.5437 Y-13.1547
G01 X50.5423 Y-13.1623
G01 X50.5422 Y-14.2725
G01 X50.5435 Y-14.2801
G01 X50.5461 Y-14.2874
G01 X50.5494 Y-14.2938
G01 X50.5550 Y-14.3011
G01 X50.6995 Y-14.4457
G01 X50.7308 Y-17.8044
G01 X49.8044 Y-18.7308
G01 X40.2829 Y-18.7308
G01 X40.2548 Y-18.7328
G01 X40.2427 Y-18.7349
G01 X40.2237 Y-18.7398
G01 X40.2075 Y-18.7456
G01 X40.1963 Y-18.7506
G01 X40.1790 Y-18.7599
G01 X40.1647 Y-18.7695
G01 X40.1550 Y-18.7770
G01 X40.1423 Y-18.7886
G01 X38.8713 Y-20.0594
G01 X38.8589 Y-20.0730
G01 X38.8515 Y-20.0826
G01 X38.8418 Y-20.0970
G01 X38.8325 Y-20.1143
G01 X38.8275 Y-20.1255
G01 X38.8210 Y-20.1439
G01 X38.8168 Y-20.1607
G01 X38.8147 Y-20.1728
G00 Z3.0000
G00 X39.7538 Y-21.2502
G01 F80.00
G01 Z-0.0746
G01 F50.00
G01 X39.7500 Y-21.3016
G01 X39.7488 Y-21.3531
G01 X39.7501 Y-21.4046
G01 X39.7540 Y-21.4560
G01 X39.7604 Y-21.5072
G01 X39.7692 Y-21.5579
G01 X39.7806 Y-21.6082
G01 X39.7944 Y-21.6579
G01 X39.8106 Y-21.7068
G01 X39.8292 Y-21.7548
G01 X39.8501 Y-21.8019
G01 X39.8734 Y-21.8479
G01 X39.8988 Y-21.8928
G01 X39.9263 Y-21.9361
G01 X39.9560 Y-21.9781
