(G-CODE GENERATED BY FLATCAM v8.993 - www.flatcam.org - Version Date: 2020/06/05)

(Name: Syntez2_контур.gbr_iso_combined2_cnc)
(Type: G-code from Geometry)
(Units: MM)

(Created on Thursday, 24 September 2020 at 15:25)

(This preprocessor is the default preprocessor used by FlatCAM.)
(It is made to work with MACH3 compatible motion controllers.)

(TOOL DIAMETER: 0.8 mm)
(Feedrate_XY: 60.0 mm/min)
(Feedrate_Z: 60.0 mm/min)
(Feedrate rapids 1500.0 mm/min)

(Z_Cut: -1.51 mm)
(DepthPerCut: 0.1 mm <=>16 passes)
(Z_Move: 2.0 mm)
(Z Start: None mm)
(Z End: 25.0 mm)
(Steps per circle: 128)
(Preprocessor Geometry: default)

(X range:    0.1348 ...   99.0836  mm)
(Y range:  -34.1748 ...   -0.1350  mm)

(Spindle Speed: None RPM)
G21
G90
G94



G01 F60.00
G00 Z2.0000

M03
G00 X0.5065 Y-14.7707
G01 F60.00
G01 Z-0.1000
G01 F60.00
G01 X0.5259 Y-14.7781
G01 X0.5492 Y-14.7858
G01 X0.5729 Y-14.7924
G01 X0.5968 Y-14.7977
G01 X0.6210 Y-14.8019
G01 X0.6454 Y-14.8049
G01 X0.6699 Y-14.8067
G01 X0.6944 Y-14.8073
G01 X21.1265 Y-14.8073
G01 X21.1608 Y-14.8061
G01 X21.1981 Y-14.8022
G01 X21.5259 Y-14.8102
G01 X21.9175 Y-14.8391
G01 X22.3072 Y-14.8872
G01 X22.6941 Y-14.9543
G01 X23.0772 Y-15.0403
G01 X23.4556 Y-15.1451
G01 X23.8285 Y-15.2682
G01 X24.1948 Y-15.4095
G01 X24.5538 Y-15.5687
G01 X24.9045 Y-15.7452
G01 X25.2461 Y-15.9387
G01 X25.5779 Y-16.1488
G01 X25.8989 Y-16.3749
G01 X26.2084 Y-16.6165
G01 X26.5057 Y-16.8729
G01 X26.7901 Y-17.1437
G01 X27.0609 Y-17.4281
G01 X27.3173 Y-17.7254
G01 X27.5589 Y-18.0349
G01 X27.7850 Y-18.3559
G01 X27.9951 Y-18.6877
G01 X28.1886 Y-19.0293
G01 X28.3651 Y-19.3800
G01 X28.5243 Y-19.7390
G01 X28.6656 Y-20.1053
G01 X28.7887 Y-20.4782
G01 X28.8935 Y-20.8566
G01 X28.9795 Y-21.2397
G01 X29.0466 Y-21.6266
G01 X29.0947 Y-22.0163
G01 X29.1235 Y-22.4069
G01 X29.1289 Y-22.6772
G01 X29.1221 Y-22.7077
G01 X29.1175 Y-22.7368
G01 X29.1143 Y-22.7710
G01 X29.1135 Y-22.8004
G01 X29.1138 Y-33.6944
G01 X29.1169 Y-33.7336
G01 X29.1231 Y-33.7724
G01 X29.1309 Y-33.8058
G01 X29.1427 Y-33.8433
G01 X29.1574 Y-33.8797
G01 X29.1748 Y-33.9148
G01 X29.1950 Y-33.9485
G01 X29.2178 Y-33.9805
G01 X29.2430 Y-34.0106
G01 X29.2705 Y-34.0386
G01 X29.3001 Y-34.0644
G01 X29.3316 Y-34.0878
G01 X29.3649 Y-34.1087
G01 X29.3997 Y-34.1268
G01 X29.4358 Y-34.1422
G01 X29.4683 Y-34.1533
G01 X29.5015 Y-34.1621
G01 X29.5401 Y-34.1694
G01 X29.5792 Y-34.1736
G01 X29.6135 Y-34.1748
G01 X64.6309 Y-34.1748
G01 X64.6652 Y-34.1736
G01 X64.7043 Y-34.1694
G01 X64.7476 Y-34.1610
G01 X64.7901 Y-34.1488
G01 X64.8268 Y-34.1349
G01 X64.8666 Y-34.1158
G01 X64.9046 Y-34.0933
G01 X64.9405 Y-34.0675
G01 X64.9703 Y-34.0420
G01 X65.0014 Y-34.0106
G01 X65.0296 Y-33.9766
G01 X65.0547 Y-33.9402
G01 X65.0742 Y-33.9062
G01 X65.0929 Y-33.8662
G01 X65.1080 Y-33.8246
G01 X65.1193 Y-33.7820
G01 X65.1269 Y-33.7384
G01 X65.1306 Y-33.6944
G01 X65.1309 Y-22.8004
G01 X65.1297 Y-22.7661
G01 X65.1259 Y-22.7298
G01 X65.1338 Y-22.4079
G01 X65.1627 Y-22.0163
G01 X65.2108 Y-21.6266
G01 X65.2779 Y-21.2397
G01 X65.3639 Y-20.8566
G01 X65.4687 Y-20.4782
G01 X65.5918 Y-20.1053
G01 X65.7331 Y-19.7390
G01 X65.8923 Y-19.3800
G01 X66.0688 Y-19.0293
G01 X66.2623 Y-18.6877
G01 X66.4724 Y-18.3559
G01 X66.6985 Y-18.0349
G01 X66.9401 Y-17.7254
G01 X67.1965 Y-17.4281
G01 X67.4673 Y-17.1437
G01 X67.7517 Y-16.8729
G01 X68.0490 Y-16.6165
G01 X68.3585 Y-16.3749
G01 X68.6795 Y-16.1488
G01 X69.0113 Y-15.9387
G01 X69.3529 Y-15.7452
G01 X69.7036 Y-15.5687
G01 X70.0626 Y-15.4095
G01 X70.4289 Y-15.2682
G01 X70.8018 Y-15.1451
G01 X71.1802 Y-15.0403
G01 X71.5633 Y-14.9543
G01 X71.9502 Y-14.8872
G01 X72.3399 Y-14.8391
G01 X72.7315 Y-14.8102
G01 X73.1556 Y-14.7994
G01 X73.1988 Y-14.7948
G01 X73.2372 Y-14.7874
G01 X98.5836 Y-14.7874
G01 X98.6130 Y-14.7866
G01 X98.6424 Y-14.7840
G01 X98.6763 Y-14.7788
G01 X98.7051 Y-14.7725
G01 X98.7334 Y-14.7645
G01 X98.7613 Y-14.7548
G01 X98.7885 Y-14.7435
G01 X98.8150 Y-14.7307
G01 X98.8449 Y-14.7138
G01 X98.8735 Y-14.6948
G01 X98.9008 Y-14.6739
G01 X98.9230 Y-14.6546
G01 X98.9474 Y-14.6304
G01 X98.9701 Y-14.6046
G01 X98.9910 Y-14.5773
G01 X99.0100 Y-14.5487
G01 X99.0246 Y-14.5231
G01 X99.0397 Y-14.4923
G01 X99.0527 Y-14.4605
G01 X99.0635 Y-14.4279
G01 X99.0720 Y-14.3946
G01 X99.0782 Y-14.3608
G01 X99.0817 Y-14.3315
G01 X99.0835 Y-14.2972
G01 X99.0836 Y-0.6350
G01 X99.0824 Y-0.6006
G01 X99.0782 Y-0.5616
G01 X99.0698 Y-0.5181
G01 X99.0576 Y-0.4757
G01 X99.0416 Y-0.4344
G01 X99.0221 Y-0.3947
G01 X98.9992 Y-0.3569
G01 X98.9850 Y-0.3369
G01 X98.9699 Y-0.3175
G01 X98.9404 Y-0.2846
G01 X98.9080 Y-0.2545
G01 X98.8731 Y-0.2273
G01 X98.8360 Y-0.2033
G01 X98.7969 Y-0.1827
G01 X98.7561 Y-0.1656
G01 X98.7139 Y-0.1523
G01 X98.6708 Y-0.1426
G01 X98.6270 Y-0.1368
G01 X98.5828 Y-0.1350
G01 X0.6340 Y-0.2937
G01 X0.5997 Y-0.2949
G01 X0.5607 Y-0.2992
G01 X0.5174 Y-0.3076
G01 X0.4750 Y-0.3199
G01 X0.4339 Y-0.3358
G01 X0.3943 Y-0.3553
G01 X0.3566 Y-0.3782
G01 X0.3365 Y-0.3923
G01 X0.3172 Y-0.4074
G01 X0.2844 Y-0.4369
G01 X0.2543 Y-0.4692
G01 X0.2272 Y-0.5040
G01 X0.2033 Y-0.5411
G01 X0.1827 Y-0.5801
G01 X0.1656 Y-0.6208
G01 X0.1522 Y-0.6628
G01 X0.1425 Y-0.7059
G01 X0.1367 Y-0.7496
G01 X0.1348 Y-0.7937
G01 X0.1350 Y-14.3021
G01 X0.1377 Y-14.3413
G01 X0.1444 Y-14.3850
G01 X0.1535 Y-14.4231
G01 X0.1657 Y-14.4605
G01 X0.1807 Y-14.4967
G01 X0.1985 Y-14.5317
G01 X0.2190 Y-14.5652
G01 X0.2452 Y-14.6008
G01 X0.2710 Y-14.6304
G01 X0.2990 Y-14.6579
G01 X0.3291 Y-14.6831
G01 X0.3611 Y-14.7059
G01 X0.3948 Y-14.7261
G01 X0.4299 Y-14.7435
G01 X0.4663 Y-14.7582
G01 X0.5065 Y-14.7707
G00 X0.5065 Y-14.7707
G01 F60.00
G01 Z-0.2000
G01 F60.00
G01 X0.5259 Y-14.7781
G01 X0.5492 Y-14.7858
G01 X0.5729 Y-14.7924
G01 X0.5968 Y-14.7977
G01 X0.6210 Y-14.8019
G01 X0.6454 Y-14.8049
G01 X0.6699 Y-14.8067
G01 X0.6944 Y-14.8073
G01 X21.1265 Y-14.8073
G01 X21.1608 Y-14.8061
G01 X21.1981 Y-14.8022
G01 X21.5259 Y-14.8102
G01 X21.9175 Y-14.8391
G01 X22.3072 Y-14.8872
G01 X22.6941 Y-14.9543
G01 X23.0772 Y-15.0403
G01 X23.4556 Y-15.1451
G01 X23.8285 Y-15.2682
G01 X24.1948 Y-15.4095
G01 X24.5538 Y-15.5687
G01 X24.9045 Y-15.7452
G01 X25.2461 Y-15.9387
G01 X25.5779 Y-16.1488
G01 X25.8989 Y-16.3749
G01 X26.2084 Y-16.6165
G01 X26.5057 Y-16.8729
G01 X26.7901 Y-17.1437
G01 X27.0609 Y-17.4281
G01 X27.3173 Y-17.7254
G01 X27.5589 Y-18.0349
G01 X27.7850 Y-18.3559
G01 X27.9951 Y-18.6877
G01 X28.1886 Y-19.0293
G01 X28.3651 Y-19.3800
G01 X28.5243 Y-19.7390
G01 X28.6656 Y-20.1053
G01 X28.7887 Y-20.4782
G01 X28.8935 Y-20.8566
G01 X28.9795 Y-21.2397
G01 X29.0466 Y-21.6266
G01 X29.0947 Y-22.0163
G01 X29.1235 Y-22.4069
G01 X29.1289 Y-22.6772
G01 X29.1221 Y-22.7077
G01 X29.1175 Y-22.7368
G01 X29.1143 Y-22.7710
G01 X29.1135 Y-22.8004
G01 X29.1138 Y-33.6944
G01 X29.1169 Y-33.7336
G01 X29.1231 Y-33.7724
G01 X29.1309 Y-33.8058
G01 X29.1427 Y-33.8433
G01 X29.1574 Y-33.8797
G01 X29.1748 Y-33.9148
G01 X29.1950 Y-33.9485
G01 X29.2178 Y-33.9805
G01 X29.2430 Y-34.0106
G01 X29.2705 Y-34.0386
G01 X29.3001 Y-34.0644
G01 X29.3316 Y-34.0878
G01 X29.3649 Y-34.1087
G01 X29.3997 Y-34.1268
G01 X29.4358 Y-34.1422
G01 X29.4683 Y-34.1533
G01 X29.5015 Y-34.1621
G01 X29.5401 Y-34.1694
G01 X29.5792 Y-34.1736
G01 X29.6135 Y-34.1748
G01 X64.6309 Y-34.1748
G01 X64.6652 Y-34.1736
G01 X64.7043 Y-34.1694
G01 X64.7476 Y-34.1610
G01 X64.7901 Y-34.1488
G01 X64.8268 Y-34.1349
G01 X64.8666 Y-34.1158
G01 X64.9046 Y-34.0933
G01 X64.9405 Y-34.0675
G01 X64.9703 Y-34.0420
G01 X65.0014 Y-34.0106
G01 X65.0296 Y-33.9766
G01 X65.0547 Y-33.9402
G01 X65.0742 Y-33.9062
G01 X65.0929 Y-33.8662
G01 X65.1080 Y-33.8246
G01 X65.1193 Y-33.7820
G01 X65.1269 Y-33.7384
G01 X65.1306 Y-33.6944
G01 X65.1309 Y-22.8004
G01 X65.1297 Y-22.7661
G01 X65.1259 Y-22.7298
G01 X65.1338 Y-22.4079
G01 X65.1627 Y-22.0163
G01 X65.2108 Y-21.6266
G01 X65.2779 Y-21.2397
G01 X65.3639 Y-20.8566
G01 X65.4687 Y-20.4782
G01 X65.5918 Y-20.1053
G01 X65.7331 Y-19.7390
G01 X65.8923 Y-19.3800
G01 X66.0688 Y-19.0293
G01 X66.2623 Y-18.6877
G01 X66.4724 Y-18.3559
G01 X66.6985 Y-18.0349
G01 X66.9401 Y-17.7254
G01 X67.1965 Y-17.4281
G01 X67.4673 Y-17.1437
G01 X67.7517 Y-16.8729
G01 X68.0490 Y-16.6165
G01 X68.3585 Y-16.3749
G01 X68.6795 Y-16.1488
G01 X69.0113 Y-15.9387
G01 X69.3529 Y-15.7452
G01 X69.7036 Y-15.5687
G01 X70.0626 Y-15.4095
G01 X70.4289 Y-15.2682
G01 X70.8018 Y-15.1451
G01 X71.1802 Y-15.0403
G01 X71.5633 Y-14.9543
G01 X71.9502 Y-14.8872
G01 X72.3399 Y-14.8391
G01 X72.7315 Y-14.8102
G01 X73.1556 Y-14.7994
G01 X73.1988 Y-14.7948
G01 X73.2372 Y-14.7874
G01 X98.5836 Y-14.7874
G01 X98.6130 Y-14.7866
G01 X98.6424 Y-14.7840
G01 X98.6763 Y-14.7788
G01 X98.7051 Y-14.7725
G01 X98.7334 Y-14.7645
G01 X98.7613 Y-14.7548
G01 X98.7885 Y-14.7435
G01 X98.8150 Y-14.7307
G01 X98.8449 Y-14.7138
G01 X98.8735 Y-14.6948
G01 X98.9008 Y-14.6739
G01 X98.9230 Y-14.6546
G01 X98.9474 Y-14.6304
G01 X98.9701 Y-14.6046
G01 X98.9910 Y-14.5773
G01 X99.0100 Y-14.5487
G01 X99.0246 Y-14.5231
G01 X99.0397 Y-14.4923
G01 X99.0527 Y-14.4605
G01 X99.0635 Y-14.4279
G01 X99.0720 Y-14.3946
G01 X99.0782 Y-14.3608
G01 X99.0817 Y-14.3315
G01 X99.0835 Y-14.2972
G01 X99.0836 Y-0.6350
G01 X99.0824 Y-0.6006
G01 X99.0782 Y-0.5616
G01 X99.0698 Y-0.5181
G01 X99.0576 Y-0.4757
G01 X99.0416 Y-0.4344
G01 X99.0221 Y-0.3947
G01 X98.9992 Y-0.3569
G01 X98.9850 Y-0.3369
G01 X98.9699 Y-0.3175
G01 X98.9404 Y-0.2846
G01 X98.9080 Y-0.2545
G01 X98.8731 Y-0.2273
G01 X98.8360 Y-0.2033
G01 X98.7969 Y-0.1827
G01 X98.7561 Y-0.1656
G01 X98.7139 Y-0.1523
G01 X98.6708 Y-0.1426
G01 X98.6270 Y-0.1368
G01 X98.5828 Y-0.1350
G01 X0.6340 Y-0.2937
G01 X0.5997 Y-0.2949
G01 X0.5607 Y-0.2992
G01 X0.5174 Y-0.3076
G01 X0.4750 Y-0.3199
G01 X0.4339 Y-0.3358
G01 X0.3943 Y-0.3553
G01 X0.3566 Y-0.3782
G01 X0.3365 Y-0.3923
G01 X0.3172 Y-0.4074
G01 X0.2844 Y-0.4369
G01 X0.2543 Y-0.4692
G01 X0.2272 Y-0.5040
G01 X0.2033 Y-0.5411
G01 X0.1827 Y-0.5801
G01 X0.1656 Y-0.6208
G01 X0.1522 Y-0.6628
G01 X0.1425 Y-0.7059
G01 X0.1367 Y-0.7496
G01 X0.1348 Y-0.7937
G01 X0.1350 Y-14.3021
G01 X0.1377 Y-14.3413
G01 X0.1444 Y-14.3850
G01 X0.1535 Y-14.4231
G01 X0.1657 Y-14.4605
G01 X0.1807 Y-14.4967
G01 X0.1985 Y-14.5317
G01 X0.2190 Y-14.5652
G01 X0.2452 Y-14.6008
G01 X0.2710 Y-14.6304
G01 X0.2990 Y-14.6579
G01 X0.3291 Y-14.6831
G01 X0.3611 Y-14.7059
G01 X0.3948 Y-14.7261
G01 X0.4299 Y-14.7435
G01 X0.4663 Y-14.7582
G01 X0.5065 Y-14.7707
G00 X0.5065 Y-14.7707
G01 F60.00
G01 Z-0.3000
G01 F60.00
G01 X0.5259 Y-14.7781
G01 X0.5492 Y-14.7858
G01 X0.5729 Y-14.7924
G01 X0.5968 Y-14.7977
G01 X0.6210 Y-14.8019
G01 X0.6454 Y-14.8049
G01 X0.6699 Y-14.8067
G01 X0.6944 Y-14.8073
G01 X21.1265 Y-14.8073
G01 X21.1608 Y-14.8061
G01 X21.1981 Y-14.8022
G01 X21.5259 Y-14.8102
G01 X21.9175 Y-14.8391
G01 X22.3072 Y-14.8872
G01 X22.6941 Y-14.9543
G01 X23.0772 Y-15.0403
G01 X23.4556 Y-15.1451
G01 X23.8285 Y-15.2682
G01 X24.1948 Y-15.4095
G01 X24.5538 Y-15.5687
G01 X24.9045 Y-15.7452
G01 X25.2461 Y-15.9387
G01 X25.5779 Y-16.1488
G01 X25.8989 Y-16.3749
G01 X26.2084 Y-16.6165
G01 X26.5057 Y-16.8729
G01 X26.7901 Y-17.1437
G01 X27.0609 Y-17.4281
G01 X27.3173 Y-17.7254
G01 X27.5589 Y-18.0349
G01 X27.7850 Y-18.3559
G01 X27.9951 Y-18.6877
G01 X28.1886 Y-19.0293
G01 X28.3651 Y-19.3800
G01 X28.5243 Y-19.7390
G01 X28.6656 Y-20.1053
G01 X28.7887 Y-20.4782
G01 X28.8935 Y-20.8566
G01 X28.9795 Y-21.2397
G01 X29.0466 Y-21.6266
G01 X29.0947 Y-22.0163
G01 X29.1235 Y-22.4069
G01 X29.1289 Y-22.6772
G01 X29.1221 Y-22.7077
G01 X29.1175 Y-22.7368
G01 X29.1143 Y-22.7710
G01 X29.1135 Y-22.8004
G01 X29.1138 Y-33.6944
G01 X29.1169 Y-33.7336
G01 X29.1231 Y-33.7724
G01 X29.1309 Y-33.8058
G01 X29.1427 Y-33.8433
G01 X29.1574 Y-33.8797
G01 X29.1748 Y-33.9148
G01 X29.1950 Y-33.9485
G01 X29.2178 Y-33.9805
G01 X29.2430 Y-34.0106
G01 X29.2705 Y-34.0386
G01 X29.3001 Y-34.0644
G01 X29.3316 Y-34.0878
G01 X29.3649 Y-34.1087
G01 X29.3997 Y-34.1268
G01 X29.4358 Y-34.1422
G01 X29.4683 Y-34.1533
G01 X29.5015 Y-34.1621
G01 X29.5401 Y-34.1694
G01 X29.5792 Y-34.1736
G01 X29.6135 Y-34.1748
G01 X64.6309 Y-34.1748
G01 X64.6652 Y-34.1736
G01 X64.7043 Y-34.1694
G01 X64.7476 Y-34.1610
G01 X64.7901 Y-34.1488
G01 X64.8268 Y-34.1349
G01 X64.8666 Y-34.1158
G01 X64.9046 Y-34.0933
G01 X64.9405 Y-34.0675
G01 X64.9703 Y-34.0420
G01 X65.0014 Y-34.0106
G01 X65.0296 Y-33.9766
G01 X65.0547 Y-33.9402
G01 X65.0742 Y-33.9062
G01 X65.0929 Y-33.8662
G01 X65.1080 Y-33.8246
G01 X65.1193 Y-33.7820
G01 X65.1269 Y-33.7384
G01 X65.1306 Y-33.6944
G01 X65.1309 Y-22.8004
G01 X65.1297 Y-22.7661
G01 X65.1259 Y-22.7298
G01 X65.1338 Y-22.4079
G01 X65.1627 Y-22.0163
G01 X65.2108 Y-21.6266
G01 X65.2779 Y-21.2397
G01 X65.3639 Y-20.8566
G01 X65.4687 Y-20.4782
G01 X65.5918 Y-20.1053
G01 X65.7331 Y-19.7390
G01 X65.8923 Y-19.3800
G01 X66.0688 Y-19.0293
G01 X66.2623 Y-18.6877
G01 X66.4724 Y-18.3559
G01 X66.6985 Y-18.0349
G01 X66.9401 Y-17.7254
G01 X67.1965 Y-17.4281
G01 X67.4673 Y-17.1437
G01 X67.7517 Y-16.8729
G01 X68.0490 Y-16.6165
G01 X68.3585 Y-16.3749
G01 X68.6795 Y-16.1488
G01 X69.0113 Y-15.9387
G01 X69.3529 Y-15.7452
G01 X69.7036 Y-15.5687
G01 X70.0626 Y-15.4095
G01 X70.4289 Y-15.2682
G01 X70.8018 Y-15.1451
G01 X71.1802 Y-15.0403
G01 X71.5633 Y-14.9543
G01 X71.9502 Y-14.8872
G01 X72.3399 Y-14.8391
G01 X72.7315 Y-14.8102
G01 X73.1556 Y-14.7994
G01 X73.1988 Y-14.7948
G01 X73.2372 Y-14.7874
G01 X98.5836 Y-14.7874
G01 X98.6130 Y-14.7866
G01 X98.6424 Y-14.7840
G01 X98.6763 Y-14.7788
G01 X98.7051 Y-14.7725
G01 X98.7334 Y-14.7645
G01 X98.7613 Y-14.7548
G01 X98.7885 Y-14.7435
G01 X98.8150 Y-14.7307
G01 X98.8449 Y-14.7138
G01 X98.8735 Y-14.6948
G01 X98.9008 Y-14.6739
G01 X98.9230 Y-14.6546
G01 X98.9474 Y-14.6304
G01 X98.9701 Y-14.6046
G01 X98.9910 Y-14.5773
G01 X99.0100 Y-14.5487
G01 X99.0246 Y-14.5231
G01 X99.0397 Y-14.4923
G01 X99.0527 Y-14.4605
G01 X99.0635 Y-14.4279
G01 X99.0720 Y-14.3946
G01 X99.0782 Y-14.3608
G01 X99.0817 Y-14.3315
G01 X99.0835 Y-14.2972
G01 X99.0836 Y-0.6350
G01 X99.0824 Y-0.6006
G01 X99.0782 Y-0.5616
G01 X99.0698 Y-0.5181
G01 X99.0576 Y-0.4757
G01 X99.0416 Y-0.4344
G01 X99.0221 Y-0.3947
G01 X98.9992 Y-0.3569
G01 X98.9850 Y-0.3369
G01 X98.9699 Y-0.3175
G01 X98.9404 Y-0.2846
G01 X98.9080 Y-0.2545
G01 X98.8731 Y-0.2273
G01 X98.8360 Y-0.2033
G01 X98.7969 Y-0.1827
G01 X98.7561 Y-0.1656
G01 X98.7139 Y-0.1523
G01 X98.6708 Y-0.1426
G01 X98.6270 Y-0.1368
G01 X98.5828 Y-0.1350
G01 X0.6340 Y-0.2937
G01 X0.5997 Y-0.2949
G01 X0.5607 Y-0.2992
G01 X0.5174 Y-0.3076
G01 X0.4750 Y-0.3199
G01 X0.4339 Y-0.3358
G01 X0.3943 Y-0.3553
G01 X0.3566 Y-0.3782
G01 X0.3365 Y-0.3923
G01 X0.3172 Y-0.4074
G01 X0.2844 Y-0.4369
G01 X0.2543 Y-0.4692
G01 X0.2272 Y-0.5040
G01 X0.2033 Y-0.5411
G01 X0.1827 Y-0.5801
G01 X0.1656 Y-0.6208
G01 X0.1522 Y-0.6628
G01 X0.1425 Y-0.7059
G01 X0.1367 Y-0.7496
G01 X0.1348 Y-0.7937
G01 X0.1350 Y-14.3021
G01 X0.1377 Y-14.3413
G01 X0.1444 Y-14.3850
G01 X0.1535 Y-14.4231
G01 X0.1657 Y-14.4605
G01 X0.1807 Y-14.4967
G01 X0.1985 Y-14.5317
G01 X0.2190 Y-14.5652
G01 X0.2452 Y-14.6008
G01 X0.2710 Y-14.6304
G01 X0.2990 Y-14.6579
G01 X0.3291 Y-14.6831
G01 X0.3611 Y-14.7059
G01 X0.3948 Y-14.7261
G01 X0.4299 Y-14.7435
G01 X0.4663 Y-14.7582
G01 X0.5065 Y-14.7707
G00 X0.5065 Y-14.7707
G01 F60.00
G01 Z-0.4000
G01 F60.00
G01 X0.5259 Y-14.7781
G01 X0.5492 Y-14.7858
G01 X0.5729 Y-14.7924
G01 X0.5968 Y-14.7977
G01 X0.6210 Y-14.8019
G01 X0.6454 Y-14.8049
G01 X0.6699 Y-14.8067
G01 X0.6944 Y-14.8073
G01 X21.1265 Y-14.8073
G01 X21.1608 Y-14.8061
G01 X21.1981 Y-14.8022
G01 X21.5259 Y-14.8102
G01 X21.9175 Y-14.8391
G01 X22.3072 Y-14.8872
G01 X22.6941 Y-14.9543
G01 X23.0772 Y-15.0403
G01 X23.4556 Y-15.1451
G01 X23.8285 Y-15.2682
G01 X24.1948 Y-15.4095
G01 X24.5538 Y-15.5687
G01 X24.9045 Y-15.7452
G01 X25.2461 Y-15.9387
G01 X25.5779 Y-16.1488
G01 X25.8989 Y-16.3749
G01 X26.2084 Y-16.6165
G01 X26.5057 Y-16.8729
G01 X26.7901 Y-17.1437
G01 X27.0609 Y-17.4281
G01 X27.3173 Y-17.7254
G01 X27.5589 Y-18.0349
G01 X27.7850 Y-18.3559
G01 X27.9951 Y-18.6877
G01 X28.1886 Y-19.0293
G01 X28.3651 Y-19.3800
G01 X28.5243 Y-19.7390
G01 X28.6656 Y-20.1053
G01 X28.7887 Y-20.4782
G01 X28.8935 Y-20.8566
G01 X28.9795 Y-21.2397
G01 X29.0466 Y-21.6266
G01 X29.0947 Y-22.0163
G01 X29.1235 Y-22.4069
G01 X29.1289 Y-22.6772
G01 X29.1221 Y-22.7077
G01 X29.1175 Y-22.7368
G01 X29.1143 Y-22.7710
G01 X29.1135 Y-22.8004
G01 X29.1138 Y-33.6944
G01 X29.1169 Y-33.7336
G01 X29.1231 Y-33.7724
G01 X29.1309 Y-33.8058
G01 X29.1427 Y-33.8433
G01 X29.1574 Y-33.8797
G01 X29.1748 Y-33.9148
G01 X29.1950 Y-33.9485
G01 X29.2178 Y-33.9805
G01 X29.2430 Y-34.0106
G01 X29.2705 Y-34.0386
G01 X29.3001 Y-34.0644
G01 X29.3316 Y-34.0878
G01 X29.3649 Y-34.1087
G01 X29.3997 Y-34.1268
G01 X29.4358 Y-34.1422
G01 X29.4683 Y-34.1533
G01 X29.5015 Y-34.1621
G01 X29.5401 Y-34.1694
G01 X29.5792 Y-34.1736
G01 X29.6135 Y-34.1748
G01 X64.6309 Y-34.1748
G01 X64.6652 Y-34.1736
G01 X64.7043 Y-34.1694
G01 X64.7476 Y-34.1610
G01 X64.7901 Y-34.1488
G01 X64.8268 Y-34.1349
G01 X64.8666 Y-34.1158
G01 X64.9046 Y-34.0933
G01 X64.9405 Y-34.0675
G01 X64.9703 Y-34.0420
G01 X65.0014 Y-34.0106
G01 X65.0296 Y-33.9766
G01 X65.0547 Y-33.9402
G01 X65.0742 Y-33.9062
G01 X65.0929 Y-33.8662
G01 X65.1080 Y-33.8246
G01 X65.1193 Y-33.7820
G01 X65.1269 Y-33.7384
G01 X65.1306 Y-33.6944
G01 X65.1309 Y-22.8004
G01 X65.1297 Y-22.7661
G01 X65.1259 Y-22.7298
G01 X65.1338 Y-22.4079
G01 X65.1627 Y-22.0163
G01 X65.2108 Y-21.6266
G01 X65.2779 Y-21.2397
G01 X65.3639 Y-20.8566
G01 X65.4687 Y-20.4782
G01 X65.5918 Y-20.1053
G01 X65.7331 Y-19.7390
G01 X65.8923 Y-19.3800
G01 X66.0688 Y-19.0293
G01 X66.2623 Y-18.6877
G01 X66.4724 Y-18.3559
G01 X66.6985 Y-18.0349
G01 X66.9401 Y-17.7254
G01 X67.1965 Y-17.4281
G01 X67.4673 Y-17.1437
G01 X67.7517 Y-16.8729
G01 X68.0490 Y-16.6165
G01 X68.3585 Y-16.3749
G01 X68.6795 Y-16.1488
G01 X69.0113 Y-15.9387
G01 X69.3529 Y-15.7452
G01 X69.7036 Y-15.5687
G01 X70.0626 Y-15.4095
G01 X70.4289 Y-15.2682
G01 X70.8018 Y-15.1451
G01 X71.1802 Y-15.0403
G01 X71.5633 Y-14.9543
G01 X71.9502 Y-14.8872
G01 X72.3399 Y-14.8391
G01 X72.7315 Y-14.8102
G01 X73.1556 Y-14.7994
G01 X73.1988 Y-14.7948
G01 X73.2372 Y-14.7874
G01 X98.5836 Y-14.7874
G01 X98.6130 Y-14.7866
G01 X98.6424 Y-14.7840
G01 X98.6763 Y-14.7788
G01 X98.7051 Y-14.7725
G01 X98.7334 Y-14.7645
G01 X98.7613 Y-14.7548
G01 X98.7885 Y-14.7435
G01 X98.8150 Y-14.7307
G01 X98.8449 Y-14.7138
G01 X98.8735 Y-14.6948
G01 X98.9008 Y-14.6739
G01 X98.9230 Y-14.6546
G01 X98.9474 Y-14.6304
G01 X98.9701 Y-14.6046
G01 X98.9910 Y-14.5773
G01 X99.0100 Y-14.5487
G01 X99.0246 Y-14.5231
G01 X99.0397 Y-14.4923
G01 X99.0527 Y-14.4605
G01 X99.0635 Y-14.4279
G01 X99.0720 Y-14.3946
G01 X99.0782 Y-14.3608
G01 X99.0817 Y-14.3315
G01 X99.0835 Y-14.2972
G01 X99.0836 Y-0.6350
G01 X99.0824 Y-0.6006
G01 X99.0782 Y-0.5616
G01 X99.0698 Y-0.5181
G01 X99.0576 Y-0.4757
G01 X99.0416 Y-0.4344
G01 X99.0221 Y-0.3947
G01 X98.9992 Y-0.3569
G01 X98.9850 Y-0.3369
G01 X98.9699 Y-0.3175
G01 X98.9404 Y-0.2846
G01 X98.9080 Y-0.2545
G01 X98.8731 Y-0.2273
G01 X98.8360 Y-0.2033
G01 X98.7969 Y-0.1827
G01 X98.7561 Y-0.1656
G01 X98.7139 Y-0.1523
G01 X98.6708 Y-0.1426
G01 X98.6270 Y-0.1368
G01 X98.5828 Y-0.1350
G01 X0.6340 Y-0.2937
G01 X0.5997 Y-0.2949
G01 X0.5607 Y-0.2992
G01 X0.5174 Y-0.3076
G01 X0.4750 Y-0.3199
G01 X0.4339 Y-0.3358
G01 X0.3943 Y-0.3553
G01 X0.3566 Y-0.3782
G01 X0.3365 Y-0.3923
G01 X0.3172 Y-0.4074
G01 X0.2844 Y-0.4369
G01 X0.2543 Y-0.4692
G01 X0.2272 Y-0.5040
G01 X0.2033 Y-0.5411
G01 X0.1827 Y-0.5801
G01 X0.1656 Y-0.6208
G01 X0.1522 Y-0.6628
G01 X0.1425 Y-0.7059
G01 X0.1367 Y-0.7496
G01 X0.1348 Y-0.7937
G01 X0.1350 Y-14.3021
G01 X0.1377 Y-14.3413
G01 X0.1444 Y-14.3850
G01 X0.1535 Y-14.4231
G01 X0.1657 Y-14.4605
G01 X0.1807 Y-14.4967
G01 X0.1985 Y-14.5317
G01 X0.2190 Y-14.5652
G01 X0.2452 Y-14.6008
G01 X0.2710 Y-14.6304
G01 X0.2990 Y-14.6579
G01 X0.3291 Y-14.6831
G01 X0.3611 Y-14.7059
G01 X0.3948 Y-14.7261
G01 X0.4299 Y-14.7435
G01 X0.4663 Y-14.7582
G01 X0.5065 Y-14.7707
G00 X0.5065 Y-14.7707
G01 F60.00
G01 Z-0.5000
G01 F60.00
G01 X0.5259 Y-14.7781
G01 X0.5492 Y-14.7858
G01 X0.5729 Y-14.7924
G01 X0.5968 Y-14.7977
G01 X0.6210 Y-14.8019
G01 X0.6454 Y-14.8049
G01 X0.6699 Y-14.8067
G01 X0.6944 Y-14.8073
G01 X21.1265 Y-14.8073
G01 X21.1608 Y-14.8061
G01 X21.1981 Y-14.8022
G01 X21.5259 Y-14.8102
G01 X21.9175 Y-14.8391
G01 X22.3072 Y-14.8872
G01 X22.6941 Y-14.9543
G01 X23.0772 Y-15.0403
G01 X23.4556 Y-15.1451
G01 X23.8285 Y-15.2682
G01 X24.1948 Y-15.4095
G01 X24.5538 Y-15.5687
G01 X24.9045 Y-15.7452
G01 X25.2461 Y-15.9387
G01 X25.5779 Y-16.1488
G01 X25.8989 Y-16.3749
G01 X26.2084 Y-16.6165
G01 X26.5057 Y-16.8729
G01 X26.7901 Y-17.1437
G01 X27.0609 Y-17.4281
G01 X27.3173 Y-17.7254
G01 X27.5589 Y-18.0349
G01 X27.7850 Y-18.3559
G01 X27.9951 Y-18.6877
G01 X28.1886 Y-19.0293
G01 X28.3651 Y-19.3800
G01 X28.5243 Y-19.7390
G01 X28.6656 Y-20.1053
G01 X28.7887 Y-20.4782
G01 X28.8935 Y-20.8566
G01 X28.9795 Y-21.2397
G01 X29.0466 Y-21.6266
G01 X29.0947 Y-22.0163
G01 X29.1235 Y-22.4069
G01 X29.1289 Y-22.6772
G01 X29.1221 Y-22.7077
G01 X29.1175 Y-22.7368
G01 X29.1143 Y-22.7710
G01 X29.1135 Y-22.8004
G01 X29.1138 Y-33.6944
G01 X29.1169 Y-33.7336
G01 X29.1231 Y-33.7724
G01 X29.1309 Y-33.8058
G01 X29.1427 Y-33.8433
G01 X29.1574 Y-33.8797
G01 X29.1748 Y-33.9148
G01 X29.1950 Y-33.9485
G01 X29.2178 Y-33.9805
G01 X29.2430 Y-34.0106
G01 X29.2705 Y-34.0386
G01 X29.3001 Y-34.0644
G01 X29.3316 Y-34.0878
G01 X29.3649 Y-34.1087
G01 X29.3997 Y-34.1268
G01 X29.4358 Y-34.1422
G01 X29.4683 Y-34.1533
G01 X29.5015 Y-34.1621
G01 X29.5401 Y-34.1694
G01 X29.5792 Y-34.1736
G01 X29.6135 Y-34.1748
G01 X64.6309 Y-34.1748
G01 X64.6652 Y-34.1736
G01 X64.7043 Y-34.1694
G01 X64.7476 Y-34.1610
G01 X64.7901 Y-34.1488
G01 X64.8268 Y-34.1349
G01 X64.8666 Y-34.1158
G01 X64.9046 Y-34.0933
G01 X64.9405 Y-34.0675
G01 X64.9703 Y-34.0420
G01 X65.0014 Y-34.0106
G01 X65.0296 Y-33.9766
G01 X65.0547 Y-33.9402
G01 X65.0742 Y-33.9062
G01 X65.0929 Y-33.8662
G01 X65.1080 Y-33.8246
G01 X65.1193 Y-33.7820
G01 X65.1269 Y-33.7384
G01 X65.1306 Y-33.6944
G01 X65.1309 Y-22.8004
G01 X65.1297 Y-22.7661
G01 X65.1259 Y-22.7298
G01 X65.1338 Y-22.4079
G01 X65.1627 Y-22.0163
G01 X65.2108 Y-21.6266
G01 X65.2779 Y-21.2397
G01 X65.3639 Y-20.8566
G01 X65.4687 Y-20.4782
G01 X65.5918 Y-20.1053
G01 X65.7331 Y-19.7390
G01 X65.8923 Y-19.3800
G01 X66.0688 Y-19.0293
G01 X66.2623 Y-18.6877
G01 X66.4724 Y-18.3559
G01 X66.6985 Y-18.0349
G01 X66.9401 Y-17.7254
G01 X67.1965 Y-17.4281
G01 X67.4673 Y-17.1437
G01 X67.7517 Y-16.8729
G01 X68.0490 Y-16.6165
G01 X68.3585 Y-16.3749
G01 X68.6795 Y-16.1488
G01 X69.0113 Y-15.9387
G01 X69.3529 Y-15.7452
G01 X69.7036 Y-15.5687
G01 X70.0626 Y-15.4095
G01 X70.4289 Y-15.2682
G01 X70.8018 Y-15.1451
G01 X71.1802 Y-15.0403
G01 X71.5633 Y-14.9543
G01 X71.9502 Y-14.8872
G01 X72.3399 Y-14.8391
G01 X72.7315 Y-14.8102
G01 X73.1556 Y-14.7994
G01 X73.1988 Y-14.7948
G01 X73.2372 Y-14.7874
G01 X98.5836 Y-14.7874
G01 X98.6130 Y-14.7866
G01 X98.6424 Y-14.7840
G01 X98.6763 Y-14.7788
G01 X98.7051 Y-14.7725
G01 X98.7334 Y-14.7645
G01 X98.7613 Y-14.7548
G01 X98.7885 Y-14.7435
G01 X98.8150 Y-14.7307
G01 X98.8449 Y-14.7138
G01 X98.8735 Y-14.6948
G01 X98.9008 Y-14.6739
G01 X98.9230 Y-14.6546
G01 X98.9474 Y-14.6304
G01 X98.9701 Y-14.6046
G01 X98.9910 Y-14.5773
G01 X99.0100 Y-14.5487
G01 X99.0246 Y-14.5231
G01 X99.0397 Y-14.4923
G01 X99.0527 Y-14.4605
G01 X99.0635 Y-14.4279
G01 X99.0720 Y-14.3946
G01 X99.0782 Y-14.3608
G01 X99.0817 Y-14.3315
G01 X99.0835 Y-14.2972
G01 X99.0836 Y-0.6350
G01 X99.0824 Y-0.6006
G01 X99.0782 Y-0.5616
G01 X99.0698 Y-0.5181
G01 X99.0576 Y-0.4757
G01 X99.0416 Y-0.4344
G01 X99.0221 Y-0.3947
G01 X98.9992 Y-0.3569
G01 X98.9850 Y-0.3369
G01 X98.9699 Y-0.3175
G01 X98.9404 Y-0.2846
G01 X98.9080 Y-0.2545
G01 X98.8731 Y-0.2273
G01 X98.8360 Y-0.2033
G01 X98.7969 Y-0.1827
G01 X98.7561 Y-0.1656
G01 X98.7139 Y-0.1523
G01 X98.6708 Y-0.1426
G01 X98.6270 Y-0.1368
G01 X98.5828 Y-0.1350
G01 X0.6340 Y-0.2937
G01 X0.5997 Y-0.2949
G01 X0.5607 Y-0.2992
G01 X0.5174 Y-0.3076
G01 X0.4750 Y-0.3199
G01 X0.4339 Y-0.3358
G01 X0.3943 Y-0.3553
G01 X0.3566 Y-0.3782
G01 X0.3365 Y-0.3923
G01 X0.3172 Y-0.4074
G01 X0.2844 Y-0.4369
G01 X0.2543 Y-0.4692
G01 X0.2272 Y-0.5040
G01 X0.2033 Y-0.5411
G01 X0.1827 Y-0.5801
G01 X0.1656 Y-0.6208
G01 X0.1522 Y-0.6628
G01 X0.1425 Y-0.7059
G01 X0.1367 Y-0.7496
G01 X0.1348 Y-0.7937
G01 X0.1350 Y-14.3021
G01 X0.1377 Y-14.3413
G01 X0.1444 Y-14.3850
G01 X0.1535 Y-14.4231
G01 X0.1657 Y-14.4605
G01 X0.1807 Y-14.4967
G01 X0.1985 Y-14.5317
G01 X0.2190 Y-14.5652
G01 X0.2452 Y-14.6008
G01 X0.2710 Y-14.6304
G01 X0.2990 Y-14.6579
G01 X0.3291 Y-14.6831
G01 X0.3611 Y-14.7059
G01 X0.3948 Y-14.7261
G01 X0.4299 Y-14.7435
G01 X0.4663 Y-14.7582
G01 X0.5065 Y-14.7707
G00 X0.5065 Y-14.7707
G01 F60.00
G01 Z-0.6000
G01 F60.00
G01 X0.5259 Y-14.7781
G01 X0.5492 Y-14.7858
G01 X0.5729 Y-14.7924
G01 X0.5968 Y-14.7977
G01 X0.6210 Y-14.8019
G01 X0.6454 Y-14.8049
G01 X0.6699 Y-14.8067
G01 X0.6944 Y-14.8073
G01 X21.1265 Y-14.8073
G01 X21.1608 Y-14.8061
G01 X21.1981 Y-14.8022
G01 X21.5259 Y-14.8102
G01 X21.9175 Y-14.8391
G01 X22.3072 Y-14.8872
G01 X22.6941 Y-14.9543
G01 X23.0772 Y-15.0403
G01 X23.4556 Y-15.1451
G01 X23.8285 Y-15.2682
G01 X24.1948 Y-15.4095
G01 X24.5538 Y-15.5687
G01 X24.9045 Y-15.7452
G01 X25.2461 Y-15.9387
G01 X25.5779 Y-16.1488
G01 X25.8989 Y-16.3749
G01 X26.2084 Y-16.6165
G01 X26.5057 Y-16.8729
G01 X26.7901 Y-17.1437
G01 X27.0609 Y-17.4281
G01 X27.3173 Y-17.7254
G01 X27.5589 Y-18.0349
G01 X27.7850 Y-18.3559
G01 X27.9951 Y-18.6877
G01 X28.1886 Y-19.0293
G01 X28.3651 Y-19.3800
G01 X28.5243 Y-19.7390
G01 X28.6656 Y-20.1053
G01 X28.7887 Y-20.4782
G01 X28.8935 Y-20.8566
G01 X28.9795 Y-21.2397
G01 X29.0466 Y-21.6266
G01 X29.0947 Y-22.0163
G01 X29.1235 Y-22.4069
G01 X29.1289 Y-22.6772
G01 X29.1221 Y-22.7077
G01 X29.1175 Y-22.7368
G01 X29.1143 Y-22.7710
G01 X29.1135 Y-22.8004
G01 X29.1138 Y-33.6944
G01 X29.1169 Y-33.7336
G01 X29.1231 Y-33.7724
G01 X29.1309 Y-33.8058
G01 X29.1427 Y-33.8433
G01 X29.1574 Y-33.8797
G01 X29.1748 Y-33.9148
G01 X29.1950 Y-33.9485
G01 X29.2178 Y-33.9805
G01 X29.2430 Y-34.0106
G01 X29.2705 Y-34.0386
G01 X29.3001 Y-34.0644
G01 X29.3316 Y-34.0878
G01 X29.3649 Y-34.1087
G01 X29.3997 Y-34.1268
G01 X29.4358 Y-34.1422
G01 X29.4683 Y-34.1533
G01 X29.5015 Y-34.1621
G01 X29.5401 Y-34.1694
G01 X29.5792 Y-34.1736
G01 X29.6135 Y-34.1748
G01 X64.6309 Y-34.1748
G01 X64.6652 Y-34.1736
G01 X64.7043 Y-34.1694
G01 X64.7476 Y-34.1610
G01 X64.7901 Y-34.1488
G01 X64.8268 Y-34.1349
G01 X64.8666 Y-34.1158
G01 X64.9046 Y-34.0933
G01 X64.9405 Y-34.0675
G01 X64.9703 Y-34.0420
G01 X65.0014 Y-34.0106
G01 X65.0296 Y-33.9766
G01 X65.0547 Y-33.9402
G01 X65.0742 Y-33.9062
G01 X65.0929 Y-33.8662
G01 X65.1080 Y-33.8246
G01 X65.1193 Y-33.7820
G01 X65.1269 Y-33.7384
G01 X65.1306 Y-33.6944
G01 X65.1309 Y-22.8004
G01 X65.1297 Y-22.7661
G01 X65.1259 Y-22.7298
G01 X65.1338 Y-22.4079
G01 X65.1627 Y-22.0163
G01 X65.2108 Y-21.6266
G01 X65.2779 Y-21.2397
G01 X65.3639 Y-20.8566
G01 X65.4687 Y-20.4782
G01 X65.5918 Y-20.1053
G01 X65.7331 Y-19.7390
G01 X65.8923 Y-19.3800
G01 X66.0688 Y-19.0293
G01 X66.2623 Y-18.6877
G01 X66.4724 Y-18.3559
G01 X66.6985 Y-18.0349
G01 X66.9401 Y-17.7254
G01 X67.1965 Y-17.4281
G01 X67.4673 Y-17.1437
G01 X67.7517 Y-16.8729
G01 X68.0490 Y-16.6165
G01 X68.3585 Y-16.3749
G01 X68.6795 Y-16.1488
G01 X69.0113 Y-15.9387
G01 X69.3529 Y-15.7452
G01 X69.7036 Y-15.5687
G01 X70.0626 Y-15.4095
G01 X70.4289 Y-15.2682
G01 X70.8018 Y-15.1451
G01 X71.1802 Y-15.0403
G01 X71.5633 Y-14.9543
G01 X71.9502 Y-14.8872
G01 X72.3399 Y-14.8391
G01 X72.7315 Y-14.8102
G01 X73.1556 Y-14.7994
G01 X73.1988 Y-14.7948
G01 X73.2372 Y-14.7874
G01 X98.5836 Y-14.7874
G01 X98.6130 Y-14.7866
G01 X98.6424 Y-14.7840
G01 X98.6763 Y-14.7788
G01 X98.7051 Y-14.7725
G01 X98.7334 Y-14.7645
G01 X98.7613 Y-14.7548
G01 X98.7885 Y-14.7435
G01 X98.8150 Y-14.7307
G01 X98.8449 Y-14.7138
G01 X98.8735 Y-14.6948
G01 X98.9008 Y-14.6739
G01 X98.9230 Y-14.6546
G01 X98.9474 Y-14.6304
G01 X98.9701 Y-14.6046
G01 X98.9910 Y-14.5773
G01 X99.0100 Y-14.5487
G01 X99.0246 Y-14.5231
G01 X99.0397 Y-14.4923
G01 X99.0527 Y-14.4605
G01 X99.0635 Y-14.4279
G01 X99.0720 Y-14.3946
G01 X99.0782 Y-14.3608
G01 X99.0817 Y-14.3315
G01 X99.0835 Y-14.2972
G01 X99.0836 Y-0.6350
G01 X99.0824 Y-0.6006
G01 X99.0782 Y-0.5616
G01 X99.0698 Y-0.5181
G01 X99.0576 Y-0.4757
G01 X99.0416 Y-0.4344
G01 X99.0221 Y-0.3947
G01 X98.9992 Y-0.3569
G01 X98.9850 Y-0.3369
G01 X98.9699 Y-0.3175
G01 X98.9404 Y-0.2846
G01 X98.9080 Y-0.2545
G01 X98.8731 Y-0.2273
G01 X98.8360 Y-0.2033
G01 X98.7969 Y-0.1827
G01 X98.7561 Y-0.1656
G01 X98.7139 Y-0.1523
G01 X98.6708 Y-0.1426
G01 X98.6270 Y-0.1368
G01 X98.5828 Y-0.1350
G01 X0.6340 Y-0.2937
G01 X0.5997 Y-0.2949
G01 X0.5607 Y-0.2992
G01 X0.5174 Y-0.3076
G01 X0.4750 Y-0.3199
G01 X0.4339 Y-0.3358
G01 X0.3943 Y-0.3553
G01 X0.3566 Y-0.3782
G01 X0.3365 Y-0.3923
G01 X0.3172 Y-0.4074
G01 X0.2844 Y-0.4369
G01 X0.2543 Y-0.4692
G01 X0.2272 Y-0.5040
G01 X0.2033 Y-0.5411
G01 X0.1827 Y-0.5801
G01 X0.1656 Y-0.6208
G01 X0.1522 Y-0.6628
G01 X0.1425 Y-0.7059
G01 X0.1367 Y-0.7496
G01 X0.1348 Y-0.7937
G01 X0.1350 Y-14.3021
G01 X0.1377 Y-14.3413
G01 X0.1444 Y-14.3850
G01 X0.1535 Y-14.4231
G01 X0.1657 Y-14.4605
G01 X0.1807 Y-14.4967
G01 X0.1985 Y-14.5317
G01 X0.2190 Y-14.5652
G01 X0.2452 Y-14.6008
G01 X0.2710 Y-14.6304
G01 X0.2990 Y-14.6579
G01 X0.3291 Y-14.6831
G01 X0.3611 Y-14.7059
G01 X0.3948 Y-14.7261
G01 X0.4299 Y-14.7435
G01 X0.4663 Y-14.7582
G01 X0.5065 Y-14.7707
G00 X0.5065 Y-14.7707
G01 F60.00
G01 Z-0.7000
G01 F60.00
G01 X0.5259 Y-14.7781
G01 X0.5492 Y-14.7858
G01 X0.5729 Y-14.7924
G01 X0.5968 Y-14.7977
G01 X0.6210 Y-14.8019
G01 X0.6454 Y-14.8049
G01 X0.6699 Y-14.8067
G01 X0.6944 Y-14.8073
G01 X21.1265 Y-14.8073
G01 X21.1608 Y-14.8061
G01 X21.1981 Y-14.8022
G01 X21.5259 Y-14.8102
G01 X21.9175 Y-14.8391
G01 X22.3072 Y-14.8872
G01 X22.6941 Y-14.9543
G01 X23.0772 Y-15.0403
G01 X23.4556 Y-15.1451
G01 X23.8285 Y-15.2682
G01 X24.1948 Y-15.4095
G01 X24.5538 Y-15.5687
G01 X24.9045 Y-15.7452
G01 X25.2461 Y-15.9387
G01 X25.5779 Y-16.1488
G01 X25.8989 Y-16.3749
G01 X26.2084 Y-16.6165
G01 X26.5057 Y-16.8729
G01 X26.7901 Y-17.1437
G01 X27.0609 Y-17.4281
G01 X27.3173 Y-17.7254
G01 X27.5589 Y-18.0349
G01 X27.7850 Y-18.3559
G01 X27.9951 Y-18.6877
G01 X28.1886 Y-19.0293
G01 X28.3651 Y-19.3800
G01 X28.5243 Y-19.7390
G01 X28.6656 Y-20.1053
G01 X28.7887 Y-20.4782
G01 X28.8935 Y-20.8566
G01 X28.9795 Y-21.2397
G01 X29.0466 Y-21.6266
G01 X29.0947 Y-22.0163
G01 X29.1235 Y-22.4069
G01 X29.1289 Y-22.6772
G01 X29.1221 Y-22.7077
G01 X29.1175 Y-22.7368
G01 X29.1143 Y-22.7710
G01 X29.1135 Y-22.8004
G01 X29.1138 Y-33.6944
G01 X29.1169 Y-33.7336
G01 X29.1231 Y-33.7724
G01 X29.1309 Y-33.8058
G01 X29.1427 Y-33.8433
G01 X29.1574 Y-33.8797
G01 X29.1748 Y-33.9148
G01 X29.1950 Y-33.9485
G01 X29.2178 Y-33.9805
G01 X29.2430 Y-34.0106
G01 X29.2705 Y-34.0386
G01 X29.3001 Y-34.0644
G01 X29.3316 Y-34.0878
G01 X29.3649 Y-34.1087
G01 X29.3997 Y-34.1268
G01 X29.4358 Y-34.1422
G01 X29.4683 Y-34.1533
G01 X29.5015 Y-34.1621
G01 X29.5401 Y-34.1694
G01 X29.5792 Y-34.1736
G01 X29.6135 Y-34.1748
G01 X64.6309 Y-34.1748
G01 X64.6652 Y-34.1736
G01 X64.7043 Y-34.1694
G01 X64.7476 Y-34.1610
G01 X64.7901 Y-34.1488
G01 X64.8268 Y-34.1349
G01 X64.8666 Y-34.1158
G01 X64.9046 Y-34.0933
G01 X64.9405 Y-34.0675
G01 X64.9703 Y-34.0420
G01 X65.0014 Y-34.0106
G01 X65.0296 Y-33.9766
G01 X65.0547 Y-33.9402
G01 X65.0742 Y-33.9062
G01 X65.0929 Y-33.8662
G01 X65.1080 Y-33.8246
G01 X65.1193 Y-33.7820
G01 X65.1269 Y-33.7384
G01 X65.1306 Y-33.6944
G01 X65.1309 Y-22.8004
G01 X65.1297 Y-22.7661
G01 X65.1259 Y-22.7298
G01 X65.1338 Y-22.4079
G01 X65.1627 Y-22.0163
G01 X65.2108 Y-21.6266
G01 X65.2779 Y-21.2397
G01 X65.3639 Y-20.8566
G01 X65.4687 Y-20.4782
G01 X65.5918 Y-20.1053
G01 X65.7331 Y-19.7390
G01 X65.8923 Y-19.3800
G01 X66.0688 Y-19.0293
G01 X66.2623 Y-18.6877
G01 X66.4724 Y-18.3559
G01 X66.6985 Y-18.0349
G01 X66.9401 Y-17.7254
G01 X67.1965 Y-17.4281
G01 X67.4673 Y-17.1437
G01 X67.7517 Y-16.8729
G01 X68.0490 Y-16.6165
G01 X68.3585 Y-16.3749
G01 X68.6795 Y-16.1488
G01 X69.0113 Y-15.9387
G01 X69.3529 Y-15.7452
G01 X69.7036 Y-15.5687
G01 X70.0626 Y-15.4095
G01 X70.4289 Y-15.2682
G01 X70.8018 Y-15.1451
G01 X71.1802 Y-15.0403
G01 X71.5633 Y-14.9543
G01 X71.9502 Y-14.8872
G01 X72.3399 Y-14.8391
G01 X72.7315 Y-14.8102
G01 X73.1556 Y-14.7994
G01 X73.1988 Y-14.7948
G01 X73.2372 Y-14.7874
G01 X98.5836 Y-14.7874
G01 X98.6130 Y-14.7866
G01 X98.6424 Y-14.7840
G01 X98.6763 Y-14.7788
G01 X98.7051 Y-14.7725
G01 X98.7334 Y-14.7645
G01 X98.7613 Y-14.7548
G01 X98.7885 Y-14.7435
G01 X98.8150 Y-14.7307
G01 X98.8449 Y-14.7138
G01 X98.8735 Y-14.6948
G01 X98.9008 Y-14.6739
G01 X98.9230 Y-14.6546
G01 X98.9474 Y-14.6304
G01 X98.9701 Y-14.6046
G01 X98.9910 Y-14.5773
G01 X99.0100 Y-14.5487
G01 X99.0246 Y-14.5231
G01 X99.0397 Y-14.4923
G01 X99.0527 Y-14.4605
G01 X99.0635 Y-14.4279
G01 X99.0720 Y-14.3946
G01 X99.0782 Y-14.3608
G01 X99.0817 Y-14.3315
G01 X99.0835 Y-14.2972
G01 X99.0836 Y-0.6350
G01 X99.0824 Y-0.6006
G01 X99.0782 Y-0.5616
G01 X99.0698 Y-0.5181
G01 X99.0576 Y-0.4757
G01 X99.0416 Y-0.4344
G01 X99.0221 Y-0.3947
G01 X98.9992 Y-0.3569
G01 X98.9850 Y-0.3369
G01 X98.9699 Y-0.3175
G01 X98.9404 Y-0.2846
G01 X98.9080 Y-0.2545
G01 X98.8731 Y-0.2273
G01 X98.8360 Y-0.2033
G01 X98.7969 Y-0.1827
G01 X98.7561 Y-0.1656
G01 X98.7139 Y-0.1523
G01 X98.6708 Y-0.1426
G01 X98.6270 Y-0.1368
G01 X98.5828 Y-0.1350
G01 X0.6340 Y-0.2937
G01 X0.5997 Y-0.2949
G01 X0.5607 Y-0.2992
G01 X0.5174 Y-0.3076
G01 X0.4750 Y-0.3199
G01 X0.4339 Y-0.3358
G01 X0.3943 Y-0.3553
G01 X0.3566 Y-0.3782
G01 X0.3365 Y-0.3923
G01 X0.3172 Y-0.4074
G01 X0.2844 Y-0.4369
G01 X0.2543 Y-0.4692
G01 X0.2272 Y-0.5040
G01 X0.2033 Y-0.5411
G01 X0.1827 Y-0.5801
G01 X0.1656 Y-0.6208
G01 X0.1522 Y-0.6628
G01 X0.1425 Y-0.7059
G01 X0.1367 Y-0.7496
G01 X0.1348 Y-0.7937
G01 X0.1350 Y-14.3021
G01 X0.1377 Y-14.3413
G01 X0.1444 Y-14.3850
G01 X0.1535 Y-14.4231
G01 X0.1657 Y-14.4605
G01 X0.1807 Y-14.4967
G01 X0.1985 Y-14.5317
G01 X0.2190 Y-14.5652
G01 X0.2452 Y-14.6008
G01 X0.2710 Y-14.6304
G01 X0.2990 Y-14.6579
G01 X0.3291 Y-14.6831
G01 X0.3611 Y-14.7059
G01 X0.3948 Y-14.7261
G01 X0.4299 Y-14.7435
G01 X0.4663 Y-14.7582
G01 X0.5065 Y-14.7707
G00 X0.5065 Y-14.7707
G01 F60.00
G01 Z-0.8000
G01 F60.00
G01 X0.5259 Y-14.7781
G01 X0.5492 Y-14.7858
G01 X0.5729 Y-14.7924
G01 X0.5968 Y-14.7977
G01 X0.6210 Y-14.8019
G01 X0.6454 Y-14.8049
G01 X0.6699 Y-14.8067
G01 X0.6944 Y-14.8073
G01 X21.1265 Y-14.8073
G01 X21.1608 Y-14.8061
G01 X21.1981 Y-14.8022
G01 X21.5259 Y-14.8102
G01 X21.9175 Y-14.8391
G01 X22.3072 Y-14.8872
G01 X22.6941 Y-14.9543
G01 X23.0772 Y-15.0403
G01 X23.4556 Y-15.1451
G01 X23.8285 Y-15.2682
G01 X24.1948 Y-15.4095
G01 X24.5538 Y-15.5687
G01 X24.9045 Y-15.7452
G01 X25.2461 Y-15.9387
G01 X25.5779 Y-16.1488
G01 X25.8989 Y-16.3749
G01 X26.2084 Y-16.6165
G01 X26.5057 Y-16.8729
G01 X26.7901 Y-17.1437
G01 X27.0609 Y-17.4281
G01 X27.3173 Y-17.7254
G01 X27.5589 Y-18.0349
G01 X27.7850 Y-18.3559
G01 X27.9951 Y-18.6877
G01 X28.1886 Y-19.0293
G01 X28.3651 Y-19.3800
G01 X28.5243 Y-19.7390
G01 X28.6656 Y-20.1053
G01 X28.7887 Y-20.4782
G01 X28.8935 Y-20.8566
G01 X28.9795 Y-21.2397
G01 X29.0466 Y-21.6266
G01 X29.0947 Y-22.0163
G01 X29.1235 Y-22.4069
G01 X29.1289 Y-22.6772
G01 X29.1221 Y-22.7077
G01 X29.1175 Y-22.7368
G01 X29.1143 Y-22.7710
G01 X29.1135 Y-22.8004
G01 X29.1138 Y-33.6944
G01 X29.1169 Y-33.7336
G01 X29.1231 Y-33.7724
G01 X29.1309 Y-33.8058
G01 X29.1427 Y-33.8433
G01 X29.1574 Y-33.8797
G01 X29.1748 Y-33.9148
G01 X29.1950 Y-33.9485
G01 X29.2178 Y-33.9805
G01 X29.2430 Y-34.0106
G01 X29.2705 Y-34.0386
G01 X29.3001 Y-34.0644
G01 X29.3316 Y-34.0878
G01 X29.3649 Y-34.1087
G01 X29.3997 Y-34.1268
G01 X29.4358 Y-34.1422
G01 X29.4683 Y-34.1533
G01 X29.5015 Y-34.1621
G01 X29.5401 Y-34.1694
G01 X29.5792 Y-34.1736
G01 X29.6135 Y-34.1748
G01 X64.6309 Y-34.1748
G01 X64.6652 Y-34.1736
G01 X64.7043 Y-34.1694
G01 X64.7476 Y-34.1610
G01 X64.7901 Y-34.1488
G01 X64.8268 Y-34.1349
G01 X64.8666 Y-34.1158
G01 X64.9046 Y-34.0933
G01 X64.9405 Y-34.0675
G01 X64.9703 Y-34.0420
G01 X65.0014 Y-34.0106
G01 X65.0296 Y-33.9766
G01 X65.0547 Y-33.9402
G01 X65.0742 Y-33.9062
G01 X65.0929 Y-33.8662
G01 X65.1080 Y-33.8246
G01 X65.1193 Y-33.7820
G01 X65.1269 Y-33.7384
G01 X65.1306 Y-33.6944
G01 X65.1309 Y-22.8004
G01 X65.1297 Y-22.7661
G01 X65.1259 Y-22.7298
G01 X65.1338 Y-22.4079
G01 X65.1627 Y-22.0163
G01 X65.2108 Y-21.6266
G01 X65.2779 Y-21.2397
G01 X65.3639 Y-20.8566
G01 X65.4687 Y-20.4782
G01 X65.5918 Y-20.1053
G01 X65.7331 Y-19.7390
G01 X65.8923 Y-19.3800
G01 X66.0688 Y-19.0293
G01 X66.2623 Y-18.6877
G01 X66.4724 Y-18.3559
G01 X66.6985 Y-18.0349
G01 X66.9401 Y-17.7254
G01 X67.1965 Y-17.4281
G01 X67.4673 Y-17.1437
G01 X67.7517 Y-16.8729
G01 X68.0490 Y-16.6165
G01 X68.3585 Y-16.3749
G01 X68.6795 Y-16.1488
G01 X69.0113 Y-15.9387
G01 X69.3529 Y-15.7452
G01 X69.7036 Y-15.5687
G01 X70.0626 Y-15.4095
G01 X70.4289 Y-15.2682
G01 X70.8018 Y-15.1451
G01 X71.1802 Y-15.0403
G01 X71.5633 Y-14.9543
G01 X71.9502 Y-14.8872
G01 X72.3399 Y-14.8391
G01 X72.7315 Y-14.8102
G01 X73.1556 Y-14.7994
G01 X73.1988 Y-14.7948
G01 X73.2372 Y-14.7874
G01 X98.5836 Y-14.7874
G01 X98.6130 Y-14.7866
G01 X98.6424 Y-14.7840
G01 X98.6763 Y-14.7788
G01 X98.7051 Y-14.7725
G01 X98.7334 Y-14.7645
G01 X98.7613 Y-14.7548
G01 X98.7885 Y-14.7435
G01 X98.8150 Y-14.7307
G01 X98.8449 Y-14.7138
G01 X98.8735 Y-14.6948
G01 X98.9008 Y-14.6739
G01 X98.9230 Y-14.6546
G01 X98.9474 Y-14.6304
G01 X98.9701 Y-14.6046
G01 X98.9910 Y-14.5773
G01 X99.0100 Y-14.5487
G01 X99.0246 Y-14.5231
G01 X99.0397 Y-14.4923
G01 X99.0527 Y-14.4605
G01 X99.0635 Y-14.4279
G01 X99.0720 Y-14.3946
G01 X99.0782 Y-14.3608
G01 X99.0817 Y-14.3315
G01 X99.0835 Y-14.2972
G01 X99.0836 Y-0.6350
G01 X99.0824 Y-0.6006
G01 X99.0782 Y-0.5616
G01 X99.0698 Y-0.5181
G01 X99.0576 Y-0.4757
G01 X99.0416 Y-0.4344
G01 X99.0221 Y-0.3947
G01 X98.9992 Y-0.3569
G01 X98.9850 Y-0.3369
G01 X98.9699 Y-0.3175
G01 X98.9404 Y-0.2846
G01 X98.9080 Y-0.2545
G01 X98.8731 Y-0.2273
G01 X98.8360 Y-0.2033
G01 X98.7969 Y-0.1827
G01 X98.7561 Y-0.1656
G01 X98.7139 Y-0.1523
G01 X98.6708 Y-0.1426
G01 X98.6270 Y-0.1368
G01 X98.5828 Y-0.1350
G01 X0.6340 Y-0.2937
G01 X0.5997 Y-0.2949
G01 X0.5607 Y-0.2992
G01 X0.5174 Y-0.3076
G01 X0.4750 Y-0.3199
G01 X0.4339 Y-0.3358
G01 X0.3943 Y-0.3553
G01 X0.3566 Y-0.3782
G01 X0.3365 Y-0.3923
G01 X0.3172 Y-0.4074
G01 X0.2844 Y-0.4369
G01 X0.2543 Y-0.4692
G01 X0.2272 Y-0.5040
G01 X0.2033 Y-0.5411
G01 X0.1827 Y-0.5801
G01 X0.1656 Y-0.6208
G01 X0.1522 Y-0.6628
G01 X0.1425 Y-0.7059
G01 X0.1367 Y-0.7496
G01 X0.1348 Y-0.7937
G01 X0.1350 Y-14.3021
G01 X0.1377 Y-14.3413
G01 X0.1444 Y-14.3850
G01 X0.1535 Y-14.4231
G01 X0.1657 Y-14.4605
G01 X0.1807 Y-14.4967
G01 X0.1985 Y-14.5317
G01 X0.2190 Y-14.5652
G01 X0.2452 Y-14.6008
G01 X0.2710 Y-14.6304
G01 X0.2990 Y-14.6579
G01 X0.3291 Y-14.6831
G01 X0.3611 Y-14.7059
G01 X0.3948 Y-14.7261
G01 X0.4299 Y-14.7435
G01 X0.4663 Y-14.7582
G01 X0.5065 Y-14.7707
G00 X0.5065 Y-14.7707
G01 F60.00
G01 Z-0.9000
G01 F60.00
G01 X0.5259 Y-14.7781
G01 X0.5492 Y-14.7858
G01 X0.5729 Y-14.7924
G01 X0.5968 Y-14.7977
G01 X0.6210 Y-14.8019
G01 X0.6454 Y-14.8049
G01 X0.6699 Y-14.8067
G01 X0.6944 Y-14.8073
G01 X21.1265 Y-14.8073
G01 X21.1608 Y-14.8061
G01 X21.1981 Y-14.8022
G01 X21.5259 Y-14.8102
G01 X21.9175 Y-14.8391
G01 X22.3072 Y-14.8872
G01 X22.6941 Y-14.9543
G01 X23.0772 Y-15.0403
G01 X23.4556 Y-15.1451
G01 X23.8285 Y-15.2682
G01 X24.1948 Y-15.4095
G01 X24.5538 Y-15.5687
G01 X24.9045 Y-15.7452
G01 X25.2461 Y-15.9387
G01 X25.5779 Y-16.1488
G01 X25.8989 Y-16.3749
G01 X26.2084 Y-16.6165
G01 X26.5057 Y-16.8729
G01 X26.7901 Y-17.1437
G01 X27.0609 Y-17.4281
G01 X27.3173 Y-17.7254
G01 X27.5589 Y-18.0349
G01 X27.7850 Y-18.3559
G01 X27.9951 Y-18.6877
G01 X28.1886 Y-19.0293
G01 X28.3651 Y-19.3800
G01 X28.5243 Y-19.7390
G01 X28.6656 Y-20.1053
G01 X28.7887 Y-20.4782
G01 X28.8935 Y-20.8566
G01 X28.9795 Y-21.2397
G01 X29.0466 Y-21.6266
G01 X29.0947 Y-22.0163
G01 X29.1235 Y-22.4069
G01 X29.1289 Y-22.6772
G01 X29.1221 Y-22.7077
G01 X29.1175 Y-22.7368
G01 X29.1143 Y-22.7710
G01 X29.1135 Y-22.8004
G01 X29.1138 Y-33.6944
G01 X29.1169 Y-33.7336
G01 X29.1231 Y-33.7724
G01 X29.1309 Y-33.8058
G01 X29.1427 Y-33.8433
G01 X29.1574 Y-33.8797
G01 X29.1748 Y-33.9148
G01 X29.1950 Y-33.9485
G01 X29.2178 Y-33.9805
G01 X29.2430 Y-34.0106
G01 X29.2705 Y-34.0386
G01 X29.3001 Y-34.0644
G01 X29.3316 Y-34.0878
G01 X29.3649 Y-34.1087
G01 X29.3997 Y-34.1268
G01 X29.4358 Y-34.1422
G01 X29.4683 Y-34.1533
G01 X29.5015 Y-34.1621
G01 X29.5401 Y-34.1694
G01 X29.5792 Y-34.1736
G01 X29.6135 Y-34.1748
G01 X64.6309 Y-34.1748
G01 X64.6652 Y-34.1736
G01 X64.7043 Y-34.1694
G01 X64.7476 Y-34.1610
G01 X64.7901 Y-34.1488
G01 X64.8268 Y-34.1349
G01 X64.8666 Y-34.1158
G01 X64.9046 Y-34.0933
G01 X64.9405 Y-34.0675
G01 X64.9703 Y-34.0420
G01 X65.0014 Y-34.0106
G01 X65.0296 Y-33.9766
G01 X65.0547 Y-33.9402
G01 X65.0742 Y-33.9062
G01 X65.0929 Y-33.8662
G01 X65.1080 Y-33.8246
G01 X65.1193 Y-33.7820
G01 X65.1269 Y-33.7384
G01 X65.1306 Y-33.6944
G01 X65.1309 Y-22.8004
G01 X65.1297 Y-22.7661
G01 X65.1259 Y-22.7298
G01 X65.1338 Y-22.4079
G01 X65.1627 Y-22.0163
G01 X65.2108 Y-21.6266
G01 X65.2779 Y-21.2397
G01 X65.3639 Y-20.8566
G01 X65.4687 Y-20.4782
G01 X65.5918 Y-20.1053
G01 X65.7331 Y-19.7390
G01 X65.8923 Y-19.3800
G01 X66.0688 Y-19.0293
G01 X66.2623 Y-18.6877
G01 X66.4724 Y-18.3559
G01 X66.6985 Y-18.0349
G01 X66.9401 Y-17.7254
G01 X67.1965 Y-17.4281
G01 X67.4673 Y-17.1437
G01 X67.7517 Y-16.8729
G01 X68.0490 Y-16.6165
G01 X68.3585 Y-16.3749
G01 X68.6795 Y-16.1488
G01 X69.0113 Y-15.9387
G01 X69.3529 Y-15.7452
G01 X69.7036 Y-15.5687
G01 X70.0626 Y-15.4095
G01 X70.4289 Y-15.2682
G01 X70.8018 Y-15.1451
G01 X71.1802 Y-15.0403
G01 X71.5633 Y-14.9543
G01 X71.9502 Y-14.8872
G01 X72.3399 Y-14.8391
G01 X72.7315 Y-14.8102
G01 X73.1556 Y-14.7994
G01 X73.1988 Y-14.7948
G01 X73.2372 Y-14.7874
G01 X98.5836 Y-14.7874
G01 X98.6130 Y-14.7866
G01 X98.6424 Y-14.7840
G01 X98.6763 Y-14.7788
G01 X98.7051 Y-14.7725
G01 X98.7334 Y-14.7645
G01 X98.7613 Y-14.7548
G01 X98.7885 Y-14.7435
G01 X98.8150 Y-14.7307
G01 X98.8449 Y-14.7138
G01 X98.8735 Y-14.6948
G01 X98.9008 Y-14.6739
G01 X98.9230 Y-14.6546
G01 X98.9474 Y-14.6304
G01 X98.9701 Y-14.6046
G01 X98.9910 Y-14.5773
G01 X99.0100 Y-14.5487
G01 X99.0246 Y-14.5231
G01 X99.0397 Y-14.4923
G01 X99.0527 Y-14.4605
G01 X99.0635 Y-14.4279
G01 X99.0720 Y-14.3946
G01 X99.0782 Y-14.3608
G01 X99.0817 Y-14.3315
G01 X99.0835 Y-14.2972
G01 X99.0836 Y-0.6350
G01 X99.0824 Y-0.6006
G01 X99.0782 Y-0.5616
G01 X99.0698 Y-0.5181
G01 X99.0576 Y-0.4757
G01 X99.0416 Y-0.4344
G01 X99.0221 Y-0.3947
G01 X98.9992 Y-0.3569
G01 X98.9850 Y-0.3369
G01 X98.9699 Y-0.3175
G01 X98.9404 Y-0.2846
G01 X98.9080 Y-0.2545
G01 X98.8731 Y-0.2273
G01 X98.8360 Y-0.2033
G01 X98.7969 Y-0.1827
G01 X98.7561 Y-0.1656
G01 X98.7139 Y-0.1523
G01 X98.6708 Y-0.1426
G01 X98.6270 Y-0.1368
G01 X98.5828 Y-0.1350
G01 X0.6340 Y-0.2937
G01 X0.5997 Y-0.2949
G01 X0.5607 Y-0.2992
G01 X0.5174 Y-0.3076
G01 X0.4750 Y-0.3199
G01 X0.4339 Y-0.3358
G01 X0.3943 Y-0.3553
G01 X0.3566 Y-0.3782
G01 X0.3365 Y-0.3923
G01 X0.3172 Y-0.4074
G01 X0.2844 Y-0.4369
G01 X0.2543 Y-0.4692
G01 X0.2272 Y-0.5040
G01 X0.2033 Y-0.5411
G01 X0.1827 Y-0.5801
G01 X0.1656 Y-0.6208
G01 X0.1522 Y-0.6628
G01 X0.1425 Y-0.7059
G01 X0.1367 Y-0.7496
G01 X0.1348 Y-0.7937
G01 X0.1350 Y-14.3021
G01 X0.1377 Y-14.3413
G01 X0.1444 Y-14.3850
G01 X0.1535 Y-14.4231
G01 X0.1657 Y-14.4605
G01 X0.1807 Y-14.4967
G01 X0.1985 Y-14.5317
G01 X0.2190 Y-14.5652
G01 X0.2452 Y-14.6008
G01 X0.2710 Y-14.6304
G01 X0.2990 Y-14.6579
G01 X0.3291 Y-14.6831
G01 X0.3611 Y-14.7059
G01 X0.3948 Y-14.7261
G01 X0.4299 Y-14.7435
G01 X0.4663 Y-14.7582
G01 X0.5065 Y-14.7707
G00 X0.5065 Y-14.7707
G01 F60.00
G01 Z-1.0000
G01 F60.00
G01 X0.5259 Y-14.7781
G01 X0.5492 Y-14.7858
G01 X0.5729 Y-14.7924
G01 X0.5968 Y-14.7977
G01 X0.6210 Y-14.8019
G01 X0.6454 Y-14.8049
G01 X0.6699 Y-14.8067
G01 X0.6944 Y-14.8073
G01 X21.1265 Y-14.8073
G01 X21.1608 Y-14.8061
G01 X21.1981 Y-14.8022
G01 X21.5259 Y-14.8102
G01 X21.9175 Y-14.8391
G01 X22.3072 Y-14.8872
G01 X22.6941 Y-14.9543
G01 X23.0772 Y-15.0403
G01 X23.4556 Y-15.1451
G01 X23.8285 Y-15.2682
G01 X24.1948 Y-15.4095
G01 X24.5538 Y-15.5687
G01 X24.9045 Y-15.7452
G01 X25.2461 Y-15.9387
G01 X25.5779 Y-16.1488
G01 X25.8989 Y-16.3749
G01 X26.2084 Y-16.6165
G01 X26.5057 Y-16.8729
G01 X26.7901 Y-17.1437
G01 X27.0609 Y-17.4281
G01 X27.3173 Y-17.7254
G01 X27.5589 Y-18.0349
G01 X27.7850 Y-18.3559
G01 X27.9951 Y-18.6877
G01 X28.1886 Y-19.0293
G01 X28.3651 Y-19.3800
G01 X28.5243 Y-19.7390
G01 X28.6656 Y-20.1053
G01 X28.7887 Y-20.4782
G01 X28.8935 Y-20.8566
G01 X28.9795 Y-21.2397
G01 X29.0466 Y-21.6266
G01 X29.0947 Y-22.0163
G01 X29.1235 Y-22.4069
G01 X29.1289 Y-22.6772
G01 X29.1221 Y-22.7077
G01 X29.1175 Y-22.7368
G01 X29.1143 Y-22.7710
G01 X29.1135 Y-22.8004
G01 X29.1138 Y-33.6944
G01 X29.1169 Y-33.7336
G01 X29.1231 Y-33.7724
G01 X29.1309 Y-33.8058
G01 X29.1427 Y-33.8433
G01 X29.1574 Y-33.8797
G01 X29.1748 Y-33.9148
G01 X29.1950 Y-33.9485
G01 X29.2178 Y-33.9805
G01 X29.2430 Y-34.0106
G01 X29.2705 Y-34.0386
G01 X29.3001 Y-34.0644
G01 X29.3316 Y-34.0878
G01 X29.3649 Y-34.1087
G01 X29.3997 Y-34.1268
G01 X29.4358 Y-34.1422
G01 X29.4683 Y-34.1533
G01 X29.5015 Y-34.1621
G01 X29.5401 Y-34.1694
G01 X29.5792 Y-34.1736
G01 X29.6135 Y-34.1748
G01 X64.6309 Y-34.1748
G01 X64.6652 Y-34.1736
G01 X64.7043 Y-34.1694
G01 X64.7476 Y-34.1610
G01 X64.7901 Y-34.1488
G01 X64.8268 Y-34.1349
G01 X64.8666 Y-34.1158
G01 X64.9046 Y-34.0933
G01 X64.9405 Y-34.0675
G01 X64.9703 Y-34.0420
G01 X65.0014 Y-34.0106
G01 X65.0296 Y-33.9766
G01 X65.0547 Y-33.9402
G01 X65.0742 Y-33.9062
G01 X65.0929 Y-33.8662
G01 X65.1080 Y-33.8246
G01 X65.1193 Y-33.7820
G01 X65.1269 Y-33.7384
G01 X65.1306 Y-33.6944
G01 X65.1309 Y-22.8004
G01 X65.1297 Y-22.7661
G01 X65.1259 Y-22.7298
G01 X65.1338 Y-22.4079
G01 X65.1627 Y-22.0163
G01 X65.2108 Y-21.6266
G01 X65.2779 Y-21.2397
G01 X65.3639 Y-20.8566
G01 X65.4687 Y-20.4782
G01 X65.5918 Y-20.1053
G01 X65.7331 Y-19.7390
G01 X65.8923 Y-19.3800
G01 X66.0688 Y-19.0293
G01 X66.2623 Y-18.6877
G01 X66.4724 Y-18.3559
G01 X66.6985 Y-18.0349
G01 X66.9401 Y-17.7254
G01 X67.1965 Y-17.4281
G01 X67.4673 Y-17.1437
G01 X67.7517 Y-16.8729
G01 X68.0490 Y-16.6165
G01 X68.3585 Y-16.3749
G01 X68.6795 Y-16.1488
G01 X69.0113 Y-15.9387
G01 X69.3529 Y-15.7452
G01 X69.7036 Y-15.5687
G01 X70.0626 Y-15.4095
G01 X70.4289 Y-15.2682
G01 X70.8018 Y-15.1451
G01 X71.1802 Y-15.0403
G01 X71.5633 Y-14.9543
G01 X71.9502 Y-14.8872
G01 X72.3399 Y-14.8391
G01 X72.7315 Y-14.8102
G01 X73.1556 Y-14.7994
G01 X73.1988 Y-14.7948
G01 X73.2372 Y-14.7874
G01 X98.5836 Y-14.7874
G01 X98.6130 Y-14.7866
G01 X98.6424 Y-14.7840
G01 X98.6763 Y-14.7788
G01 X98.7051 Y-14.7725
G01 X98.7334 Y-14.7645
G01 X98.7613 Y-14.7548
G01 X98.7885 Y-14.7435
G01 X98.8150 Y-14.7307
G01 X98.8449 Y-14.7138
G01 X98.8735 Y-14.6948
G01 X98.9008 Y-14.6739
G01 X98.9230 Y-14.6546
G01 X98.9474 Y-14.6304
G01 X98.9701 Y-14.6046
G01 X98.9910 Y-14.5773
G01 X99.0100 Y-14.5487
G01 X99.0246 Y-14.5231
G01 X99.0397 Y-14.4923
G01 X99.0527 Y-14.4605
G01 X99.0635 Y-14.4279
G01 X99.0720 Y-14.3946
G01 X99.0782 Y-14.3608
G01 X99.0817 Y-14.3315
G01 X99.0835 Y-14.2972
G01 X99.0836 Y-0.6350
G01 X99.0824 Y-0.6006
G01 X99.0782 Y-0.5616
G01 X99.0698 Y-0.5181
G01 X99.0576 Y-0.4757
G01 X99.0416 Y-0.4344
G01 X99.0221 Y-0.3947
G01 X98.9992 Y-0.3569
G01 X98.9850 Y-0.3369
G01 X98.9699 Y-0.3175
G01 X98.9404 Y-0.2846
G01 X98.9080 Y-0.2545
G01 X98.8731 Y-0.2273
G01 X98.8360 Y-0.2033
G01 X98.7969 Y-0.1827
G01 X98.7561 Y-0.1656
G01 X98.7139 Y-0.1523
G01 X98.6708 Y-0.1426
G01 X98.6270 Y-0.1368
G01 X98.5828 Y-0.1350
G01 X0.6340 Y-0.2937
G01 X0.5997 Y-0.2949
G01 X0.5607 Y-0.2992
G01 X0.5174 Y-0.3076
G01 X0.4750 Y-0.3199
G01 X0.4339 Y-0.3358
G01 X0.3943 Y-0.3553
G01 X0.3566 Y-0.3782
G01 X0.3365 Y-0.3923
G01 X0.3172 Y-0.4074
G01 X0.2844 Y-0.4369
G01 X0.2543 Y-0.4692
G01 X0.2272 Y-0.5040
G01 X0.2033 Y-0.5411
G01 X0.1827 Y-0.5801
G01 X0.1656 Y-0.6208
G01 X0.1522 Y-0.6628
G01 X0.1425 Y-0.7059
G01 X0.1367 Y-0.7496
G01 X0.1348 Y-0.7937
G01 X0.1350 Y-14.3021
G01 X0.1377 Y-14.3413
G01 X0.1444 Y-14.3850
G01 X0.1535 Y-14.4231
G01 X0.1657 Y-14.4605
G01 X0.1807 Y-14.4967
G01 X0.1985 Y-14.5317
G01 X0.2190 Y-14.5652
G01 X0.2452 Y-14.6008
G01 X0.2710 Y-14.6304
G01 X0.2990 Y-14.6579
G01 X0.3291 Y-14.6831
G01 X0.3611 Y-14.7059
G01 X0.3948 Y-14.7261
G01 X0.4299 Y-14.7435
G01 X0.4663 Y-14.7582
G01 X0.5065 Y-14.7707
G00 X0.5065 Y-14.7707
G01 F60.00
G01 Z-1.1000
G01 F60.00
G01 X0.5259 Y-14.7781
G01 X0.5492 Y-14.7858
G01 X0.5729 Y-14.7924
G01 X0.5968 Y-14.7977
G01 X0.6210 Y-14.8019
G01 X0.6454 Y-14.8049
G01 X0.6699 Y-14.8067
G01 X0.6944 Y-14.8073
G01 X21.1265 Y-14.8073
G01 X21.1608 Y-14.8061
G01 X21.1981 Y-14.8022
G01 X21.5259 Y-14.8102
G01 X21.9175 Y-14.8391
G01 X22.3072 Y-14.8872
G01 X22.6941 Y-14.9543
G01 X23.0772 Y-15.0403
G01 X23.4556 Y-15.1451
G01 X23.8285 Y-15.2682
G01 X24.1948 Y-15.4095
G01 X24.5538 Y-15.5687
G01 X24.9045 Y-15.7452
G01 X25.2461 Y-15.9387
G01 X25.5779 Y-16.1488
G01 X25.8989 Y-16.3749
G01 X26.2084 Y-16.6165
G01 X26.5057 Y-16.8729
G01 X26.7901 Y-17.1437
G01 X27.0609 Y-17.4281
G01 X27.3173 Y-17.7254
G01 X27.5589 Y-18.0349
G01 X27.7850 Y-18.3559
G01 X27.9951 Y-18.6877
G01 X28.1886 Y-19.0293
G01 X28.3651 Y-19.3800
G01 X28.5243 Y-19.7390
G01 X28.6656 Y-20.1053
G01 X28.7887 Y-20.4782
G01 X28.8935 Y-20.8566
G01 X28.9795 Y-21.2397
G01 X29.0466 Y-21.6266
G01 X29.0947 Y-22.0163
G01 X29.1235 Y-22.4069
G01 X29.1289 Y-22.6772
G01 X29.1221 Y-22.7077
G01 X29.1175 Y-22.7368
G01 X29.1143 Y-22.7710
G01 X29.1135 Y-22.8004
G01 X29.1138 Y-33.6944
G01 X29.1169 Y-33.7336
G01 X29.1231 Y-33.7724
G01 X29.1309 Y-33.8058
G01 X29.1427 Y-33.8433
G01 X29.1574 Y-33.8797
G01 X29.1748 Y-33.9148
G01 X29.1950 Y-33.9485
G01 X29.2178 Y-33.9805
G01 X29.2430 Y-34.0106
G01 X29.2705 Y-34.0386
G01 X29.3001 Y-34.0644
G01 X29.3316 Y-34.0878
G01 X29.3649 Y-34.1087
G01 X29.3997 Y-34.1268
G01 X29.4358 Y-34.1422
G01 X29.4683 Y-34.1533
G01 X29.5015 Y-34.1621
G01 X29.5401 Y-34.1694
G01 X29.5792 Y-34.1736
G01 X29.6135 Y-34.1748
G01 X64.6309 Y-34.1748
G01 X64.6652 Y-34.1736
G01 X64.7043 Y-34.1694
G01 X64.7476 Y-34.1610
G01 X64.7901 Y-34.1488
G01 X64.8268 Y-34.1349
G01 X64.8666 Y-34.1158
G01 X64.9046 Y-34.0933
G01 X64.9405 Y-34.0675
G01 X64.9703 Y-34.0420
G01 X65.0014 Y-34.0106
G01 X65.0296 Y-33.9766
G01 X65.0547 Y-33.9402
G01 X65.0742 Y-33.9062
G01 X65.0929 Y-33.8662
G01 X65.1080 Y-33.8246
G01 X65.1193 Y-33.7820
G01 X65.1269 Y-33.7384
G01 X65.1306 Y-33.6944
G01 X65.1309 Y-22.8004
G01 X65.1297 Y-22.7661
G01 X65.1259 Y-22.7298
G01 X65.1338 Y-22.4079
G01 X65.1627 Y-22.0163
G01 X65.2108 Y-21.6266
G01 X65.2779 Y-21.2397
G01 X65.3639 Y-20.8566
G01 X65.4687 Y-20.4782
G01 X65.5918 Y-20.1053
G01 X65.7331 Y-19.7390
G01 X65.8923 Y-19.3800
G01 X66.0688 Y-19.0293
G01 X66.2623 Y-18.6877
G01 X66.4724 Y-18.3559
G01 X66.6985 Y-18.0349
G01 X66.9401 Y-17.7254
G01 X67.1965 Y-17.4281
G01 X67.4673 Y-17.1437
G01 X67.7517 Y-16.8729
G01 X68.0490 Y-16.6165
G01 X68.3585 Y-16.3749
G01 X68.6795 Y-16.1488
G01 X69.0113 Y-15.9387
G01 X69.3529 Y-15.7452
G01 X69.7036 Y-15.5687
G01 X70.0626 Y-15.4095
G01 X70.4289 Y-15.2682
G01 X70.8018 Y-15.1451
G01 X71.1802 Y-15.0403
G01 X71.5633 Y-14.9543
G01 X71.9502 Y-14.8872
G01 X72.3399 Y-14.8391
G01 X72.7315 Y-14.8102
G01 X73.1556 Y-14.7994
G01 X73.1988 Y-14.7948
G01 X73.2372 Y-14.7874
G01 X98.5836 Y-14.7874
G01 X98.6130 Y-14.7866
G01 X98.6424 Y-14.7840
G01 X98.6763 Y-14.7788
G01 X98.7051 Y-14.7725
G01 X98.7334 Y-14.7645
G01 X98.7613 Y-14.7548
G01 X98.7885 Y-14.7435
G01 X98.8150 Y-14.7307
G01 X98.8449 Y-14.7138
G01 X98.8735 Y-14.6948
G01 X98.9008 Y-14.6739
G01 X98.9230 Y-14.6546
G01 X98.9474 Y-14.6304
G01 X98.9701 Y-14.6046
G01 X98.9910 Y-14.5773
G01 X99.0100 Y-14.5487
G01 X99.0246 Y-14.5231
G01 X99.0397 Y-14.4923
G01 X99.0527 Y-14.4605
G01 X99.0635 Y-14.4279
G01 X99.0720 Y-14.3946
G01 X99.0782 Y-14.3608
G01 X99.0817 Y-14.3315
G01 X99.0835 Y-14.2972
G01 X99.0836 Y-0.6350
G01 X99.0824 Y-0.6006
G01 X99.0782 Y-0.5616
G01 X99.0698 Y-0.5181
G01 X99.0576 Y-0.4757
G01 X99.0416 Y-0.4344
G01 X99.0221 Y-0.3947
G01 X98.9992 Y-0.3569
G01 X98.9850 Y-0.3369
G01 X98.9699 Y-0.3175
G01 X98.9404 Y-0.2846
G01 X98.9080 Y-0.2545
G01 X98.8731 Y-0.2273
G01 X98.8360 Y-0.2033
G01 X98.7969 Y-0.1827
G01 X98.7561 Y-0.1656
G01 X98.7139 Y-0.1523
G01 X98.6708 Y-0.1426
G01 X98.6270 Y-0.1368
G01 X98.5828 Y-0.1350
G01 X0.6340 Y-0.2937
G01 X0.5997 Y-0.2949
G01 X0.5607 Y-0.2992
G01 X0.5174 Y-0.3076
G01 X0.4750 Y-0.3199
G01 X0.4339 Y-0.3358
G01 X0.3943 Y-0.3553
G01 X0.3566 Y-0.3782
G01 X0.3365 Y-0.3923
G01 X0.3172 Y-0.4074
G01 X0.2844 Y-0.4369
G01 X0.2543 Y-0.4692
G01 X0.2272 Y-0.5040
G01 X0.2033 Y-0.5411
G01 X0.1827 Y-0.5801
G01 X0.1656 Y-0.6208
G01 X0.1522 Y-0.6628
G01 X0.1425 Y-0.7059
G01 X0.1367 Y-0.7496
G01 X0.1348 Y-0.7937
G01 X0.1350 Y-14.3021
G01 X0.1377 Y-14.3413
G01 X0.1444 Y-14.3850
G01 X0.1535 Y-14.4231
G01 X0.1657 Y-14.4605
G01 X0.1807 Y-14.4967
G01 X0.1985 Y-14.5317
G01 X0.2190 Y-14.5652
G01 X0.2452 Y-14.6008
G01 X0.2710 Y-14.6304
G01 X0.2990 Y-14.6579
G01 X0.3291 Y-14.6831
G01 X0.3611 Y-14.7059
G01 X0.3948 Y-14.7261
G01 X0.4299 Y-14.7435
G01 X0.4663 Y-14.7582
G01 X0.5065 Y-14.7707
G00 X0.5065 Y-14.7707
G01 F60.00
G01 Z-1.2000
G01 F60.00
G01 X0.5259 Y-14.7781
G01 X0.5492 Y-14.7858
G01 X0.5729 Y-14.7924
G01 X0.5968 Y-14.7977
G01 X0.6210 Y-14.8019
G01 X0.6454 Y-14.8049
G01 X0.6699 Y-14.8067
G01 X0.6944 Y-14.8073
G01 X21.1265 Y-14.8073
G01 X21.1608 Y-14.8061
G01 X21.1981 Y-14.8022
G01 X21.5259 Y-14.8102
G01 X21.9175 Y-14.8391
G01 X22.3072 Y-14.8872
G01 X22.6941 Y-14.9543
G01 X23.0772 Y-15.0403
G01 X23.4556 Y-15.1451
G01 X23.8285 Y-15.2682
G01 X24.1948 Y-15.4095
G01 X24.5538 Y-15.5687
G01 X24.9045 Y-15.7452
G01 X25.2461 Y-15.9387
G01 X25.5779 Y-16.1488
G01 X25.8989 Y-16.3749
G01 X26.2084 Y-16.6165
G01 X26.5057 Y-16.8729
G01 X26.7901 Y-17.1437
G01 X27.0609 Y-17.4281
G01 X27.3173 Y-17.7254
G01 X27.5589 Y-18.0349
G01 X27.7850 Y-18.3559
G01 X27.9951 Y-18.6877
G01 X28.1886 Y-19.0293
G01 X28.3651 Y-19.3800
G01 X28.5243 Y-19.7390
G01 X28.6656 Y-20.1053
G01 X28.7887 Y-20.4782
G01 X28.8935 Y-20.8566
G01 X28.9795 Y-21.2397
G01 X29.0466 Y-21.6266
G01 X29.0947 Y-22.0163
G01 X29.1235 Y-22.4069
G01 X29.1289 Y-22.6772
G01 X29.1221 Y-22.7077
G01 X29.1175 Y-22.7368
G01 X29.1143 Y-22.7710
G01 X29.1135 Y-22.8004
G01 X29.1138 Y-33.6944
G01 X29.1169 Y-33.7336
G01 X29.1231 Y-33.7724
G01 X29.1309 Y-33.8058
G01 X29.1427 Y-33.8433
G01 X29.1574 Y-33.8797
G01 X29.1748 Y-33.9148
G01 X29.1950 Y-33.9485
G01 X29.2178 Y-33.9805
G01 X29.2430 Y-34.0106
G01 X29.2705 Y-34.0386
G01 X29.3001 Y-34.0644
G01 X29.3316 Y-34.0878
G01 X29.3649 Y-34.1087
G01 X29.3997 Y-34.1268
G01 X29.4358 Y-34.1422
G01 X29.4683 Y-34.1533
G01 X29.5015 Y-34.1621
G01 X29.5401 Y-34.1694
G01 X29.5792 Y-34.1736
G01 X29.6135 Y-34.1748
G01 X64.6309 Y-34.1748
G01 X64.6652 Y-34.1736
G01 X64.7043 Y-34.1694
G01 X64.7476 Y-34.1610
G01 X64.7901 Y-34.1488
G01 X64.8268 Y-34.1349
G01 X64.8666 Y-34.1158
G01 X64.9046 Y-34.0933
G01 X64.9405 Y-34.0675
G01 X64.9703 Y-34.0420
G01 X65.0014 Y-34.0106
G01 X65.0296 Y-33.9766
G01 X65.0547 Y-33.9402
G01 X65.0742 Y-33.9062
G01 X65.0929 Y-33.8662
G01 X65.1080 Y-33.8246
G01 X65.1193 Y-33.7820
G01 X65.1269 Y-33.7384
G01 X65.1306 Y-33.6944
G01 X65.1309 Y-22.8004
G01 X65.1297 Y-22.7661
G01 X65.1259 Y-22.7298
G01 X65.1338 Y-22.4079
G01 X65.1627 Y-22.0163
G01 X65.2108 Y-21.6266
G01 X65.2779 Y-21.2397
G01 X65.3639 Y-20.8566
G01 X65.4687 Y-20.4782
G01 X65.5918 Y-20.1053
G01 X65.7331 Y-19.7390
G01 X65.8923 Y-19.3800
G01 X66.0688 Y-19.0293
G01 X66.2623 Y-18.6877
G01 X66.4724 Y-18.3559
G01 X66.6985 Y-18.0349
G01 X66.9401 Y-17.7254
G01 X67.1965 Y-17.4281
G01 X67.4673 Y-17.1437
G01 X67.7517 Y-16.8729
G01 X68.0490 Y-16.6165
G01 X68.3585 Y-16.3749
G01 X68.6795 Y-16.1488
G01 X69.0113 Y-15.9387
G01 X69.3529 Y-15.7452
G01 X69.7036 Y-15.5687
G01 X70.0626 Y-15.4095
G01 X70.4289 Y-15.2682
G01 X70.8018 Y-15.1451
G01 X71.1802 Y-15.0403
G01 X71.5633 Y-14.9543
G01 X71.9502 Y-14.8872
G01 X72.3399 Y-14.8391
G01 X72.7315 Y-14.8102
G01 X73.1556 Y-14.7994
G01 X73.1988 Y-14.7948
G01 X73.2372 Y-14.7874
G01 X98.5836 Y-14.7874
G01 X98.6130 Y-14.7866
G01 X98.6424 Y-14.7840
G01 X98.6763 Y-14.7788
G01 X98.7051 Y-14.7725
G01 X98.7334 Y-14.7645
G01 X98.7613 Y-14.7548
G01 X98.7885 Y-14.7435
G01 X98.8150 Y-14.7307
G01 X98.8449 Y-14.7138
G01 X98.8735 Y-14.6948
G01 X98.9008 Y-14.6739
G01 X98.9230 Y-14.6546
G01 X98.9474 Y-14.6304
G01 X98.9701 Y-14.6046
G01 X98.9910 Y-14.5773
G01 X99.0100 Y-14.5487
G01 X99.0246 Y-14.5231
G01 X99.0397 Y-14.4923
G01 X99.0527 Y-14.4605
G01 X99.0635 Y-14.4279
G01 X99.0720 Y-14.3946
G01 X99.0782 Y-14.3608
G01 X99.0817 Y-14.3315
G01 X99.0835 Y-14.2972
G01 X99.0836 Y-0.6350
G01 X99.0824 Y-0.6006
G01 X99.0782 Y-0.5616
G01 X99.0698 Y-0.5181
G01 X99.0576 Y-0.4757
G01 X99.0416 Y-0.4344
G01 X99.0221 Y-0.3947
G01 X98.9992 Y-0.3569
G01 X98.9850 Y-0.3369
G01 X98.9699 Y-0.3175
G01 X98.9404 Y-0.2846
G01 X98.9080 Y-0.2545
G01 X98.8731 Y-0.2273
G01 X98.8360 Y-0.2033
G01 X98.7969 Y-0.1827
G01 X98.7561 Y-0.1656
G01 X98.7139 Y-0.1523
G01 X98.6708 Y-0.1426
G01 X98.6270 Y-0.1368
G01 X98.5828 Y-0.1350
G01 X0.6340 Y-0.2937
G01 X0.5997 Y-0.2949
G01 X0.5607 Y-0.2992
G01 X0.5174 Y-0.3076
G01 X0.4750 Y-0.3199
G01 X0.4339 Y-0.3358
G01 X0.3943 Y-0.3553
G01 X0.3566 Y-0.3782
G01 X0.3365 Y-0.3923
G01 X0.3172 Y-0.4074
G01 X0.2844 Y-0.4369
G01 X0.2543 Y-0.4692
G01 X0.2272 Y-0.5040
G01 X0.2033 Y-0.5411
G01 X0.1827 Y-0.5801
G01 X0.1656 Y-0.6208
G01 X0.1522 Y-0.6628
G01 X0.1425 Y-0.7059
G01 X0.1367 Y-0.7496
G01 X0.1348 Y-0.7937
G01 X0.1350 Y-14.3021
G01 X0.1377 Y-14.3413
G01 X0.1444 Y-14.3850
G01 X0.1535 Y-14.4231
G01 X0.1657 Y-14.4605
G01 X0.1807 Y-14.4967
G01 X0.1985 Y-14.5317
G01 X0.2190 Y-14.5652
G01 X0.2452 Y-14.6008
G01 X0.2710 Y-14.6304
G01 X0.2990 Y-14.6579
G01 X0.3291 Y-14.6831
G01 X0.3611 Y-14.7059
G01 X0.3948 Y-14.7261
G01 X0.4299 Y-14.7435
G01 X0.4663 Y-14.7582
G01 X0.5065 Y-14.7707
G00 X0.5065 Y-14.7707
G01 F60.00
G01 Z-1.3000
G01 F60.00
G01 X0.5259 Y-14.7781
G01 X0.5492 Y-14.7858
G01 X0.5729 Y-14.7924
G01 X0.5968 Y-14.7977
G01 X0.6210 Y-14.8019
G01 X0.6454 Y-14.8049
G01 X0.6699 Y-14.8067
G01 X0.6944 Y-14.8073
G01 X21.1265 Y-14.8073
G01 X21.1608 Y-14.8061
G01 X21.1981 Y-14.8022
G01 X21.5259 Y-14.8102
G01 X21.9175 Y-14.8391
G01 X22.3072 Y-14.8872
G01 X22.6941 Y-14.9543
G01 X23.0772 Y-15.0403
G01 X23.4556 Y-15.1451
G01 X23.8285 Y-15.2682
G01 X24.1948 Y-15.4095
G01 X24.5538 Y-15.5687
G01 X24.9045 Y-15.7452
G01 X25.2461 Y-15.9387
G01 X25.5779 Y-16.1488
G01 X25.8989 Y-16.3749
G01 X26.2084 Y-16.6165
G01 X26.5057 Y-16.8729
G01 X26.7901 Y-17.1437
G01 X27.0609 Y-17.4281
G01 X27.3173 Y-17.7254
G01 X27.5589 Y-18.0349
G01 X27.7850 Y-18.3559
G01 X27.9951 Y-18.6877
G01 X28.1886 Y-19.0293
G01 X28.3651 Y-19.3800
G01 X28.5243 Y-19.7390
G01 X28.6656 Y-20.1053
G01 X28.7887 Y-20.4782
G01 X28.8935 Y-20.8566
G01 X28.9795 Y-21.2397
G01 X29.0466 Y-21.6266
G01 X29.0947 Y-22.0163
G01 X29.1235 Y-22.4069
G01 X29.1289 Y-22.6772
G01 X29.1221 Y-22.7077
G01 X29.1175 Y-22.7368
G01 X29.1143 Y-22.7710
G01 X29.1135 Y-22.8004
G01 X29.1138 Y-33.6944
G01 X29.1169 Y-33.7336
G01 X29.1231 Y-33.7724
G01 X29.1309 Y-33.8058
G01 X29.1427 Y-33.8433
G01 X29.1574 Y-33.8797
G01 X29.1748 Y-33.9148
G01 X29.1950 Y-33.9485
G01 X29.2178 Y-33.9805
G01 X29.2430 Y-34.0106
G01 X29.2705 Y-34.0386
G01 X29.3001 Y-34.0644
G01 X29.3316 Y-34.0878
G01 X29.3649 Y-34.1087
G01 X29.3997 Y-34.1268
G01 X29.4358 Y-34.1422
G01 X29.4683 Y-34.1533
G01 X29.5015 Y-34.1621
G01 X29.5401 Y-34.1694
G01 X29.5792 Y-34.1736
G01 X29.6135 Y-34.1748
G01 X64.6309 Y-34.1748
G01 X64.6652 Y-34.1736
G01 X64.7043 Y-34.1694
G01 X64.7476 Y-34.1610
G01 X64.7901 Y-34.1488
G01 X64.8268 Y-34.1349
G01 X64.8666 Y-34.1158
G01 X64.9046 Y-34.0933
G01 X64.9405 Y-34.0675
G01 X64.9703 Y-34.0420
G01 X65.0014 Y-34.0106
G01 X65.0296 Y-33.9766
G01 X65.0547 Y-33.9402
G01 X65.0742 Y-33.9062
G01 X65.0929 Y-33.8662
G01 X65.1080 Y-33.8246
G01 X65.1193 Y-33.7820
G01 X65.1269 Y-33.7384
G01 X65.1306 Y-33.6944
G01 X65.1309 Y-22.8004
G01 X65.1297 Y-22.7661
G01 X65.1259 Y-22.7298
G01 X65.1338 Y-22.4079
G01 X65.1627 Y-22.0163
G01 X65.2108 Y-21.6266
G01 X65.2779 Y-21.2397
G01 X65.3639 Y-20.8566
G01 X65.4687 Y-20.4782
G01 X65.5918 Y-20.1053
G01 X65.7331 Y-19.7390
G01 X65.8923 Y-19.3800
G01 X66.0688 Y-19.0293
G01 X66.2623 Y-18.6877
G01 X66.4724 Y-18.3559
G01 X66.6985 Y-18.0349
G01 X66.9401 Y-17.7254
G01 X67.1965 Y-17.4281
G01 X67.4673 Y-17.1437
G01 X67.7517 Y-16.8729
G01 X68.0490 Y-16.6165
G01 X68.3585 Y-16.3749
G01 X68.6795 Y-16.1488
G01 X69.0113 Y-15.9387
G01 X69.3529 Y-15.7452
G01 X69.7036 Y-15.5687
G01 X70.0626 Y-15.4095
G01 X70.4289 Y-15.2682
G01 X70.8018 Y-15.1451
G01 X71.1802 Y-15.0403
G01 X71.5633 Y-14.9543
G01 X71.9502 Y-14.8872
G01 X72.3399 Y-14.8391
G01 X72.7315 Y-14.8102
G01 X73.1556 Y-14.7994
G01 X73.1988 Y-14.7948
G01 X73.2372 Y-14.7874
G01 X98.5836 Y-14.7874
G01 X98.6130 Y-14.7866
G01 X98.6424 Y-14.7840
G01 X98.6763 Y-14.7788
G01 X98.7051 Y-14.7725
G01 X98.7334 Y-14.7645
G01 X98.7613 Y-14.7548
G01 X98.7885 Y-14.7435
G01 X98.8150 Y-14.7307
G01 X98.8449 Y-14.7138
G01 X98.8735 Y-14.6948
G01 X98.9008 Y-14.6739
G01 X98.9230 Y-14.6546
G01 X98.9474 Y-14.6304
G01 X98.9701 Y-14.6046
G01 X98.9910 Y-14.5773
G01 X99.0100 Y-14.5487
G01 X99.0246 Y-14.5231
G01 X99.0397 Y-14.4923
G01 X99.0527 Y-14.4605
G01 X99.0635 Y-14.4279
G01 X99.0720 Y-14.3946
G01 X99.0782 Y-14.3608
G01 X99.0817 Y-14.3315
G01 X99.0835 Y-14.2972
G01 X99.0836 Y-0.6350
G01 X99.0824 Y-0.6006
G01 X99.0782 Y-0.5616
G01 X99.0698 Y-0.5181
G01 X99.0576 Y-0.4757
G01 X99.0416 Y-0.4344
G01 X99.0221 Y-0.3947
G01 X98.9992 Y-0.3569
G01 X98.9850 Y-0.3369
G01 X98.9699 Y-0.3175
G01 X98.9404 Y-0.2846
G01 X98.9080 Y-0.2545
G01 X98.8731 Y-0.2273
G01 X98.8360 Y-0.2033
G01 X98.7969 Y-0.1827
G01 X98.7561 Y-0.1656
G01 X98.7139 Y-0.1523
G01 X98.6708 Y-0.1426
G01 X98.6270 Y-0.1368
G01 X98.5828 Y-0.1350
G01 X0.6340 Y-0.2937
G01 X0.5997 Y-0.2949
G01 X0.5607 Y-0.2992
G01 X0.5174 Y-0.3076
G01 X0.4750 Y-0.3199
G01 X0.4339 Y-0.3358
G01 X0.3943 Y-0.3553
G01 X0.3566 Y-0.3782
G01 X0.3365 Y-0.3923
G01 X0.3172 Y-0.4074
G01 X0.2844 Y-0.4369
G01 X0.2543 Y-0.4692
G01 X0.2272 Y-0.5040
G01 X0.2033 Y-0.5411
G01 X0.1827 Y-0.5801
G01 X0.1656 Y-0.6208
G01 X0.1522 Y-0.6628
G01 X0.1425 Y-0.7059
G01 X0.1367 Y-0.7496
G01 X0.1348 Y-0.7937
G01 X0.1350 Y-14.3021
G01 X0.1377 Y-14.3413
G01 X0.1444 Y-14.3850
G01 X0.1535 Y-14.4231
G01 X0.1657 Y-14.4605
G01 X0.1807 Y-14.4967
G01 X0.1985 Y-14.5317
G01 X0.2190 Y-14.5652
G01 X0.2452 Y-14.6008
G01 X0.2710 Y-14.6304
G01 X0.2990 Y-14.6579
G01 X0.3291 Y-14.6831
G01 X0.3611 Y-14.7059
G01 X0.3948 Y-14.7261
G01 X0.4299 Y-14.7435
G01 X0.4663 Y-14.7582
G01 X0.5065 Y-14.7707
G00 X0.5065 Y-14.7707
G01 F60.00
G01 Z-1.4000
G01 F60.00
G01 X0.5259 Y-14.7781
G01 X0.5492 Y-14.7858
G01 X0.5729 Y-14.7924
G01 X0.5968 Y-14.7977
G01 X0.6210 Y-14.8019
G01 X0.6454 Y-14.8049
G01 X0.6699 Y-14.8067
G01 X0.6944 Y-14.8073
G01 X21.1265 Y-14.8073
G01 X21.1608 Y-14.8061
G01 X21.1981 Y-14.8022
G01 X21.5259 Y-14.8102
G01 X21.9175 Y-14.8391
G01 X22.3072 Y-14.8872
G01 X22.6941 Y-14.9543
G01 X23.0772 Y-15.0403
G01 X23.4556 Y-15.1451
G01 X23.8285 Y-15.2682
G01 X24.1948 Y-15.4095
G01 X24.5538 Y-15.5687
G01 X24.9045 Y-15.7452
G01 X25.2461 Y-15.9387
G01 X25.5779 Y-16.1488
G01 X25.8989 Y-16.3749
G01 X26.2084 Y-16.6165
G01 X26.5057 Y-16.8729
G01 X26.7901 Y-17.1437
G01 X27.0609 Y-17.4281
G01 X27.3173 Y-17.7254
G01 X27.5589 Y-18.0349
G01 X27.7850 Y-18.3559
G01 X27.9951 Y-18.6877
G01 X28.1886 Y-19.0293
G01 X28.3651 Y-19.3800
G01 X28.5243 Y-19.7390
G01 X28.6656 Y-20.1053
G01 X28.7887 Y-20.4782
G01 X28.8935 Y-20.8566
G01 X28.9795 Y-21.2397
G01 X29.0466 Y-21.6266
G01 X29.0947 Y-22.0163
G01 X29.1235 Y-22.4069
G01 X29.1289 Y-22.6772
G01 X29.1221 Y-22.7077
G01 X29.1175 Y-22.7368
G01 X29.1143 Y-22.7710
G01 X29.1135 Y-22.8004
G01 X29.1138 Y-33.6944
G01 X29.1169 Y-33.7336
G01 X29.1231 Y-33.7724
G01 X29.1309 Y-33.8058
G01 X29.1427 Y-33.8433
G01 X29.1574 Y-33.8797
G01 X29.1748 Y-33.9148
G01 X29.1950 Y-33.9485
G01 X29.2178 Y-33.9805
G01 X29.2430 Y-34.0106
G01 X29.2705 Y-34.0386
G01 X29.3001 Y-34.0644
G01 X29.3316 Y-34.0878
G01 X29.3649 Y-34.1087
G01 X29.3997 Y-34.1268
G01 X29.4358 Y-34.1422
G01 X29.4683 Y-34.1533
G01 X29.5015 Y-34.1621
G01 X29.5401 Y-34.1694
G01 X29.5792 Y-34.1736
G01 X29.6135 Y-34.1748
G01 X64.6309 Y-34.1748
G01 X64.6652 Y-34.1736
G01 X64.7043 Y-34.1694
G01 X64.7476 Y-34.1610
G01 X64.7901 Y-34.1488
G01 X64.8268 Y-34.1349
G01 X64.8666 Y-34.1158
G01 X64.9046 Y-34.0933
G01 X64.9405 Y-34.0675
G01 X64.9703 Y-34.0420
G01 X65.0014 Y-34.0106
G01 X65.0296 Y-33.9766
G01 X65.0547 Y-33.9402
G01 X65.0742 Y-33.9062
G01 X65.0929 Y-33.8662
G01 X65.1080 Y-33.8246
G01 X65.1193 Y-33.7820
G01 X65.1269 Y-33.7384
G01 X65.1306 Y-33.6944
G01 X65.1309 Y-22.8004
G01 X65.1297 Y-22.7661
G01 X65.1259 Y-22.7298
G01 X65.1338 Y-22.4079
G01 X65.1627 Y-22.0163
G01 X65.2108 Y-21.6266
G01 X65.2779 Y-21.2397
G01 X65.3639 Y-20.8566
G01 X65.4687 Y-20.4782
G01 X65.5918 Y-20.1053
G01 X65.7331 Y-19.7390
G01 X65.8923 Y-19.3800
G01 X66.0688 Y-19.0293
G01 X66.2623 Y-18.6877
G01 X66.4724 Y-18.3559
G01 X66.6985 Y-18.0349
G01 X66.9401 Y-17.7254
G01 X67.1965 Y-17.4281
G01 X67.4673 Y-17.1437
G01 X67.7517 Y-16.8729
G01 X68.0490 Y-16.6165
G01 X68.3585 Y-16.3749
G01 X68.6795 Y-16.1488
G01 X69.0113 Y-15.9387
G01 X69.3529 Y-15.7452
G01 X69.7036 Y-15.5687
G01 X70.0626 Y-15.4095
G01 X70.4289 Y-15.2682
G01 X70.8018 Y-15.1451
G01 X71.1802 Y-15.0403
G01 X71.5633 Y-14.9543
G01 X71.9502 Y-14.8872
G01 X72.3399 Y-14.8391
G01 X72.7315 Y-14.8102
G01 X73.1556 Y-14.7994
G01 X73.1988 Y-14.7948
G01 X73.2372 Y-14.7874
G01 X98.5836 Y-14.7874
G01 X98.6130 Y-14.7866
G01 X98.6424 Y-14.7840
G01 X98.6763 Y-14.7788
G01 X98.7051 Y-14.7725
G01 X98.7334 Y-14.7645
G01 X98.7613 Y-14.7548
G01 X98.7885 Y-14.7435
G01 X98.8150 Y-14.7307
G01 X98.8449 Y-14.7138
G01 X98.8735 Y-14.6948
G01 X98.9008 Y-14.6739
G01 X98.9230 Y-14.6546
G01 X98.9474 Y-14.6304
G01 X98.9701 Y-14.6046
G01 X98.9910 Y-14.5773
G01 X99.0100 Y-14.5487
G01 X99.0246 Y-14.5231
G01 X99.0397 Y-14.4923
G01 X99.0527 Y-14.4605
G01 X99.0635 Y-14.4279
G01 X99.0720 Y-14.3946
G01 X99.0782 Y-14.3608
G01 X99.0817 Y-14.3315
G01 X99.0835 Y-14.2972
G01 X99.0836 Y-0.6350
G01 X99.0824 Y-0.6006
G01 X99.0782 Y-0.5616
G01 X99.0698 Y-0.5181
G01 X99.0576 Y-0.4757
G01 X99.0416 Y-0.4344
G01 X99.0221 Y-0.3947
G01 X98.9992 Y-0.3569
G01 X98.9850 Y-0.3369
G01 X98.9699 Y-0.3175
G01 X98.9404 Y-0.2846
G01 X98.9080 Y-0.2545
G01 X98.8731 Y-0.2273
G01 X98.8360 Y-0.2033
G01 X98.7969 Y-0.1827
G01 X98.7561 Y-0.1656
G01 X98.7139 Y-0.1523
G01 X98.6708 Y-0.1426
G01 X98.6270 Y-0.1368
G01 X98.5828 Y-0.1350
G01 X0.6340 Y-0.2937
G01 X0.5997 Y-0.2949
G01 X0.5607 Y-0.2992
G01 X0.5174 Y-0.3076
G01 X0.4750 Y-0.3199
G01 X0.4339 Y-0.3358
G01 X0.3943 Y-0.3553
G01 X0.3566 Y-0.3782
G01 X0.3365 Y-0.3923
G01 X0.3172 Y-0.4074
G01 X0.2844 Y-0.4369
G01 X0.2543 Y-0.4692
G01 X0.2272 Y-0.5040
G01 X0.2033 Y-0.5411
G01 X0.1827 Y-0.5801
G01 X0.1656 Y-0.6208
G01 X0.1522 Y-0.6628
G01 X0.1425 Y-0.7059
G01 X0.1367 Y-0.7496
G01 X0.1348 Y-0.7937
G01 X0.1350 Y-14.3021
G01 X0.1377 Y-14.3413
G01 X0.1444 Y-14.3850
G01 X0.1535 Y-14.4231
G01 X0.1657 Y-14.4605
G01 X0.1807 Y-14.4967
G01 X0.1985 Y-14.5317
G01 X0.2190 Y-14.5652
G01 X0.2452 Y-14.6008
G01 X0.2710 Y-14.6304
G01 X0.2990 Y-14.6579
G01 X0.3291 Y-14.6831
G01 X0.3611 Y-14.7059
G01 X0.3948 Y-14.7261
G01 X0.4299 Y-14.7435
G01 X0.4663 Y-14.7582
G01 X0.5065 Y-14.7707
G00 X0.5065 Y-14.7707
G01 F60.00
G01 Z-1.5000
G01 F60.00
G01 X0.5259 Y-14.7781
G01 X0.5492 Y-14.7858
G01 X0.5729 Y-14.7924
G01 X0.5968 Y-14.7977
G01 X0.6210 Y-14.8019
G01 X0.6454 Y-14.8049
G01 X0.6699 Y-14.8067
G01 X0.6944 Y-14.8073
G01 X21.1265 Y-14.8073
G01 X21.1608 Y-14.8061
G01 X21.1981 Y-14.8022
G01 X21.5259 Y-14.8102
G01 X21.9175 Y-14.8391
G01 X22.3072 Y-14.8872
G01 X22.6941 Y-14.9543
G01 X23.0772 Y-15.0403
G01 X23.4556 Y-15.1451
G01 X23.8285 Y-15.2682
G01 X24.1948 Y-15.4095
G01 X24.5538 Y-15.5687
G01 X24.9045 Y-15.7452
G01 X25.2461 Y-15.9387
G01 X25.5779 Y-16.1488
G01 X25.8989 Y-16.3749
G01 X26.2084 Y-16.6165
G01 X26.5057 Y-16.8729
G01 X26.7901 Y-17.1437
G01 X27.0609 Y-17.4281
G01 X27.3173 Y-17.7254
G01 X27.5589 Y-18.0349
G01 X27.7850 Y-18.3559
G01 X27.9951 Y-18.6877
G01 X28.1886 Y-19.0293
G01 X28.3651 Y-19.3800
G01 X28.5243 Y-19.7390
G01 X28.6656 Y-20.1053
G01 X28.7887 Y-20.4782
G01 X28.8935 Y-20.8566
G01 X28.9795 Y-21.2397
G01 X29.0466 Y-21.6266
G01 X29.0947 Y-22.0163
G01 X29.1235 Y-22.4069
G01 X29.1289 Y-22.6772
G01 X29.1221 Y-22.7077
G01 X29.1175 Y-22.7368
G01 X29.1143 Y-22.7710
G01 X29.1135 Y-22.8004
G01 X29.1138 Y-33.6944
G01 X29.1169 Y-33.7336
G01 X29.1231 Y-33.7724
G01 X29.1309 Y-33.8058
G01 X29.1427 Y-33.8433
G01 X29.1574 Y-33.8797
G01 X29.1748 Y-33.9148
G01 X29.1950 Y-33.9485
G01 X29.2178 Y-33.9805
G01 X29.2430 Y-34.0106
G01 X29.2705 Y-34.0386
G01 X29.3001 Y-34.0644
G01 X29.3316 Y-34.0878
G01 X29.3649 Y-34.1087
G01 X29.3997 Y-34.1268
G01 X29.4358 Y-34.1422
G01 X29.4683 Y-34.1533
G01 X29.5015 Y-34.1621
G01 X29.5401 Y-34.1694
G01 X29.5792 Y-34.1736
G01 X29.6135 Y-34.1748
G01 X64.6309 Y-34.1748
G01 X64.6652 Y-34.1736
G01 X64.7043 Y-34.1694
G01 X64.7476 Y-34.1610
G01 X64.7901 Y-34.1488
G01 X64.8268 Y-34.1349
G01 X64.8666 Y-34.1158
G01 X64.9046 Y-34.0933
G01 X64.9405 Y-34.0675
G01 X64.9703 Y-34.0420
G01 X65.0014 Y-34.0106
G01 X65.0296 Y-33.9766
G01 X65.0547 Y-33.9402
G01 X65.0742 Y-33.9062
G01 X65.0929 Y-33.8662
G01 X65.1080 Y-33.8246
G01 X65.1193 Y-33.7820
G01 X65.1269 Y-33.7384
G01 X65.1306 Y-33.6944
G01 X65.1309 Y-22.8004
G01 X65.1297 Y-22.7661
G01 X65.1259 Y-22.7298
G01 X65.1338 Y-22.4079
G01 X65.1627 Y-22.0163
G01 X65.2108 Y-21.6266
G01 X65.2779 Y-21.2397
G01 X65.3639 Y-20.8566
G01 X65.4687 Y-20.4782
G01 X65.5918 Y-20.1053
G01 X65.7331 Y-19.7390
G01 X65.8923 Y-19.3800
G01 X66.0688 Y-19.0293
G01 X66.2623 Y-18.6877
G01 X66.4724 Y-18.3559
G01 X66.6985 Y-18.0349
G01 X66.9401 Y-17.7254
G01 X67.1965 Y-17.4281
G01 X67.4673 Y-17.1437
G01 X67.7517 Y-16.8729
G01 X68.0490 Y-16.6165
G01 X68.3585 Y-16.3749
G01 X68.6795 Y-16.1488
G01 X69.0113 Y-15.9387
G01 X69.3529 Y-15.7452
G01 X69.7036 Y-15.5687
G01 X70.0626 Y-15.4095
G01 X70.4289 Y-15.2682
G01 X70.8018 Y-15.1451
G01 X71.1802 Y-15.0403
G01 X71.5633 Y-14.9543
G01 X71.9502 Y-14.8872
G01 X72.3399 Y-14.8391
G01 X72.7315 Y-14.8102
G01 X73.1556 Y-14.7994
G01 X73.1988 Y-14.7948
G01 X73.2372 Y-14.7874
G01 X98.5836 Y-14.7874
G01 X98.6130 Y-14.7866
G01 X98.6424 Y-14.7840
G01 X98.6763 Y-14.7788
G01 X98.7051 Y-14.7725
G01 X98.7334 Y-14.7645
G01 X98.7613 Y-14.7548
G01 X98.7885 Y-14.7435
G01 X98.8150 Y-14.7307
G01 X98.8449 Y-14.7138
G01 X98.8735 Y-14.6948
G01 X98.9008 Y-14.6739
G01 X98.9230 Y-14.6546
G01 X98.9474 Y-14.6304
G01 X98.9701 Y-14.6046
G01 X98.9910 Y-14.5773
G01 X99.0100 Y-14.5487
G01 X99.0246 Y-14.5231
G01 X99.0397 Y-14.4923
G01 X99.0527 Y-14.4605
G01 X99.0635 Y-14.4279
G01 X99.0720 Y-14.3946
G01 X99.0782 Y-14.3608
G01 X99.0817 Y-14.3315
G01 X99.0835 Y-14.2972
G01 X99.0836 Y-0.6350
G01 X99.0824 Y-0.6006
G01 X99.0782 Y-0.5616
G01 X99.0698 Y-0.5181
G01 X99.0576 Y-0.4757
G01 X99.0416 Y-0.4344
G01 X99.0221 Y-0.3947
G01 X98.9992 Y-0.3569
G01 X98.9850 Y-0.3369
G01 X98.9699 Y-0.3175
G01 X98.9404 Y-0.2846
G01 X98.9080 Y-0.2545
G01 X98.8731 Y-0.2273
G01 X98.8360 Y-0.2033
G01 X98.7969 Y-0.1827
G01 X98.7561 Y-0.1656
G01 X98.7139 Y-0.1523
G01 X98.6708 Y-0.1426
G01 X98.6270 Y-0.1368
G01 X98.5828 Y-0.1350
G01 X0.6340 Y-0.2937
G01 X0.5997 Y-0.2949
G01 X0.5607 Y-0.2992
G01 X0.5174 Y-0.3076
G01 X0.4750 Y-0.3199
G01 X0.4339 Y-0.3358
G01 X0.3943 Y-0.3553
G01 X0.3566 Y-0.3782
G01 X0.3365 Y-0.3923
G01 X0.3172 Y-0.4074
G01 X0.2844 Y-0.4369
G01 X0.2543 Y-0.4692
G01 X0.2272 Y-0.5040
G01 X0.2033 Y-0.5411
G01 X0.1827 Y-0.5801
G01 X0.1656 Y-0.6208
G01 X0.1522 Y-0.6628
G01 X0.1425 Y-0.7059
G01 X0.1367 Y-0.7496
G01 X0.1348 Y-0.7937
G01 X0.1350 Y-14.3021
G01 X0.1377 Y-14.3413
G01 X0.1444 Y-14.3850
G01 X0.1535 Y-14.4231
G01 X0.1657 Y-14.4605
G01 X0.1807 Y-14.4967
G01 X0.1985 Y-14.5317
G01 X0.2190 Y-14.5652
G01 X0.2452 Y-14.6008
G01 X0.2710 Y-14.6304
G01 X0.2990 Y-14.6579
G01 X0.3291 Y-14.6831
G01 X0.3611 Y-14.7059
G01 X0.3948 Y-14.7261
G01 X0.4299 Y-14.7435
G01 X0.4663 Y-14.7582
G01 X0.5065 Y-14.7707
G00 X0.5065 Y-14.7707
G01 F60.00
G01 Z-1.5100
G01 F60.00
G01 X0.5259 Y-14.7781
G01 X0.5492 Y-14.7858
G01 X0.5729 Y-14.7924
G01 X0.5968 Y-14.7977
G01 X0.6210 Y-14.8019
G01 X0.6454 Y-14.8049
G01 X0.6699 Y-14.8067
G01 X0.6944 Y-14.8073
G01 X21.1265 Y-14.8073
G01 X21.1608 Y-14.8061
G01 X21.1981 Y-14.8022
G01 X21.5259 Y-14.8102
G01 X21.9175 Y-14.8391
G01 X22.3072 Y-14.8872
G01 X22.6941 Y-14.9543
G01 X23.0772 Y-15.0403
G01 X23.4556 Y-15.1451
G01 X23.8285 Y-15.2682
G01 X24.1948 Y-15.4095
G01 X24.5538 Y-15.5687
G01 X24.9045 Y-15.7452
G01 X25.2461 Y-15.9387
G01 X25.5779 Y-16.1488
G01 X25.8989 Y-16.3749
G01 X26.2084 Y-16.6165
G01 X26.5057 Y-16.8729
G01 X26.7901 Y-17.1437
G01 X27.0609 Y-17.4281
G01 X27.3173 Y-17.7254
G01 X27.5589 Y-18.0349
G01 X27.7850 Y-18.3559
G01 X27.9951 Y-18.6877
G01 X28.1886 Y-19.0293
G01 X28.3651 Y-19.3800
G01 X28.5243 Y-19.7390
G01 X28.6656 Y-20.1053
G01 X28.7887 Y-20.4782
G01 X28.8935 Y-20.8566
G01 X28.9795 Y-21.2397
G01 X29.0466 Y-21.6266
G01 X29.0947 Y-22.0163
G01 X29.1235 Y-22.4069
G01 X29.1289 Y-22.6772
G01 X29.1221 Y-22.7077
G01 X29.1175 Y-22.7368
G01 X29.1143 Y-22.7710
G01 X29.1135 Y-22.8004
G01 X29.1138 Y-33.6944
G01 X29.1169 Y-33.7336
G01 X29.1231 Y-33.7724
G01 X29.1309 Y-33.8058
G01 X29.1427 Y-33.8433
G01 X29.1574 Y-33.8797
G01 X29.1748 Y-33.9148
G01 X29.1950 Y-33.9485
G01 X29.2178 Y-33.9805
G01 X29.2430 Y-34.0106
G01 X29.2705 Y-34.0386
G01 X29.3001 Y-34.0644
G01 X29.3316 Y-34.0878
G01 X29.3649 Y-34.1087
G01 X29.3997 Y-34.1268
G01 X29.4358 Y-34.1422
G01 X29.4683 Y-34.1533
G01 X29.5015 Y-34.1621
G01 X29.5401 Y-34.1694
G01 X29.5792 Y-34.1736
G01 X29.6135 Y-34.1748
G01 X64.6309 Y-34.1748
G01 X64.6652 Y-34.1736
G01 X64.7043 Y-34.1694
G01 X64.7476 Y-34.1610
G01 X64.7901 Y-34.1488
G01 X64.8268 Y-34.1349
G01 X64.8666 Y-34.1158
G01 X64.9046 Y-34.0933
G01 X64.9405 Y-34.0675
G01 X64.9703 Y-34.0420
G01 X65.0014 Y-34.0106
G01 X65.0296 Y-33.9766
G01 X65.0547 Y-33.9402
G01 X65.0742 Y-33.9062
G01 X65.0929 Y-33.8662
G01 X65.1080 Y-33.8246
G01 X65.1193 Y-33.7820
G01 X65.1269 Y-33.7384
G01 X65.1306 Y-33.6944
G01 X65.1309 Y-22.8004
G01 X65.1297 Y-22.7661
G01 X65.1259 Y-22.7298
G01 X65.1338 Y-22.4079
G01 X65.1627 Y-22.0163
G01 X65.2108 Y-21.6266
G01 X65.2779 Y-21.2397
G01 X65.3639 Y-20.8566
G01 X65.4687 Y-20.4782
G01 X65.5918 Y-20.1053
G01 X65.7331 Y-19.7390
G01 X65.8923 Y-19.3800
G01 X66.0688 Y-19.0293
G01 X66.2623 Y-18.6877
G01 X66.4724 Y-18.3559
G01 X66.6985 Y-18.0349
G01 X66.9401 Y-17.7254
G01 X67.1965 Y-17.4281
G01 X67.4673 Y-17.1437
G01 X67.7517 Y-16.8729
G01 X68.0490 Y-16.6165
G01 X68.3585 Y-16.3749
G01 X68.6795 Y-16.1488
G01 X69.0113 Y-15.9387
G01 X69.3529 Y-15.7452
G01 X69.7036 Y-15.5687
G01 X70.0626 Y-15.4095
G01 X70.4289 Y-15.2682
G01 X70.8018 Y-15.1451
G01 X71.1802 Y-15.0403
G01 X71.5633 Y-14.9543
G01 X71.9502 Y-14.8872
G01 X72.3399 Y-14.8391
G01 X72.7315 Y-14.8102
G01 X73.1556 Y-14.7994
G01 X73.1988 Y-14.7948
G01 X73.2372 Y-14.7874
G01 X98.5836 Y-14.7874
G01 X98.6130 Y-14.7866
G01 X98.6424 Y-14.7840
G01 X98.6763 Y-14.7788
G01 X98.7051 Y-14.7725
G01 X98.7334 Y-14.7645
G01 X98.7613 Y-14.7548
G01 X98.7885 Y-14.7435
G01 X98.8150 Y-14.7307
G01 X98.8449 Y-14.7138
G01 X98.8735 Y-14.6948
G01 X98.9008 Y-14.6739
G01 X98.9230 Y-14.6546
G01 X98.9474 Y-14.6304
G01 X98.9701 Y-14.6046
G01 X98.9910 Y-14.5773
G01 X99.0100 Y-14.5487
G01 X99.0246 Y-14.5231
G01 X99.0397 Y-14.4923
G01 X99.0527 Y-14.4605
G01 X99.0635 Y-14.4279
G01 X99.0720 Y-14.3946
G01 X99.0782 Y-14.3608
G01 X99.0817 Y-14.3315
G01 X99.0835 Y-14.2972
G01 X99.0836 Y-0.6350
G01 X99.0824 Y-0.6006
G01 X99.0782 Y-0.5616
G01 X99.0698 Y-0.5181
G01 X99.0576 Y-0.4757
G01 X99.0416 Y-0.4344
G01 X99.0221 Y-0.3947
G01 X98.9992 Y-0.3569
G01 X98.9850 Y-0.3369
G01 X98.9699 Y-0.3175
G01 X98.9404 Y-0.2846
G01 X98.9080 Y-0.2545
G01 X98.8731 Y-0.2273
G01 X98.8360 Y-0.2033
G01 X98.7969 Y-0.1827
G01 X98.7561 Y-0.1656
G01 X98.7139 Y-0.1523
G01 X98.6708 Y-0.1426
G01 X98.6270 Y-0.1368
G01 X98.5828 Y-0.1350
G01 X0.6340 Y-0.2937
G01 X0.5997 Y-0.2949
G01 X0.5607 Y-0.2992
G01 X0.5174 Y-0.3076
G01 X0.4750 Y-0.3199
G01 X0.4339 Y-0.3358
G01 X0.3943 Y-0.3553
G01 X0.3566 Y-0.3782
G01 X0.3365 Y-0.3923
G01 X0.3172 Y-0.4074
G01 X0.2844 Y-0.4369
G01 X0.2543 Y-0.4692
G01 X0.2272 Y-0.5040
G01 X0.2033 Y-0.5411
G01 X0.1827 Y-0.5801
G01 X0.1656 Y-0.6208
G01 X0.1522 Y-0.6628
G01 X0.1425 Y-0.7059
G01 X0.1367 Y-0.7496
G01 X0.1348 Y-0.7937
G01 X0.1350 Y-14.3021
G01 X0.1377 Y-14.3413
G01 X0.1444 Y-14.3850
G01 X0.1535 Y-14.4231
G01 X0.1657 Y-14.4605
G01 X0.1807 Y-14.4967
G01 X0.1985 Y-14.5317
G01 X0.2190 Y-14.5652
G01 X0.2452 Y-14.6008
G01 X0.2710 Y-14.6304
G01 X0.2990 Y-14.6579
G01 X0.3291 Y-14.6831
G01 X0.3611 Y-14.7059
G01 X0.3948 Y-14.7261
G01 X0.4299 Y-14.7435
G01 X0.4663 Y-14.7582
G01 X0.5065 Y-14.7707
G00 Z2.0000
M05
G00 Z2.0000
G00 Z25.00

