(G-CODE GENERATED BY FLATCAM v8.95 - www.flatcam.org - Version Date: 2019/08/17)

(Name: Syntez2.drl_mill_cnc)
(Type: G-code from Geometry)
(Units: MM)

(Created on Friday, 11 September 2020 at 23:28)

(TOOL DIAMETER: 0.5 mm)
(Feedrate: 50.0 mm/min)
(Feedrate_Z: 79.9998 mm/min)
(Feedrate rapids 79.9998 mm/min)

(Z_Cut: -1.52 mm)
(DepthPerCut: 0.05 mm <=>31 passes)
(Z_Move: 3.0 mm)
(Z Toolchange: 12.7 mm)
(X,Y Toolchange: 0.0000, 0.0000 mm)
(Z Start: None mm)
(Z End: 12.7 mm)
(Steps per circle: 128)
(Postprocessor Geometry: default)

(X range:    5.0200 ...  100.4500  mm)
(Y range:  -32.5000 ...   -2.9300  mm)

(Spindle Speed: None RPM)

G21
G90
G94

G01 F50.00
G00 Z3.0000

M03
G00 X7.5200 Y-6.2700
G01 F80.00
G01 Z-0.0500
G01 F50.00
G01 X7.5140 Y-6.3925
G01 X7.4960 Y-6.5139
G01 X7.4662 Y-6.6329
G01 X7.4248 Y-6.7484
G01 X7.3724 Y-6.8592
G01 X7.3093 Y-6.9645
G01 X7.2363 Y-7.0630
G01 X7.1539 Y-7.1539
G01 X7.0630 Y-7.2363
G01 X6.9645 Y-7.3093
G01 X6.8592 Y-7.3724
G01 X6.7484 Y-7.4248
G01 X6.6329 Y-7.4662
G01 X6.5139 Y-7.4960
G01 X6.3925 Y-7.5140
G01 X6.2700 Y-7.5200
G01 X6.1475 Y-7.5140
G01 X6.0261 Y-7.4960
G01 X5.9071 Y-7.4662
G01 X5.7916 Y-7.4248
G01 X5.6808 Y-7.3724
G01 X5.5755 Y-7.3093
G01 X5.4770 Y-7.2363
G01 X5.3861 Y-7.1539
G01 X5.3037 Y-7.0630
G01 X5.2307 Y-6.9645
G01 X5.1676 Y-6.8592
G01 X5.1152 Y-6.7484
G01 X5.0738 Y-6.6329
G01 X5.0440 Y-6.5139
G01 X5.0260 Y-6.3925
G01 X5.0200 Y-6.2700
G01 X5.0260 Y-6.1475
G01 X5.0440 Y-6.0261
G01 X5.0738 Y-5.9071
G01 X5.1152 Y-5.7916
G01 X5.1676 Y-5.6808
G01 X5.2307 Y-5.5755
G01 X5.3037 Y-5.4770
G01 X5.3861 Y-5.3861
G01 X5.4770 Y-5.3037
G01 X5.5755 Y-5.2307
G01 X5.6808 Y-5.1676
G01 X5.7916 Y-5.1152
G01 X5.9071 Y-5.0738
G01 X6.0261 Y-5.0440
G01 X6.1475 Y-5.0260
G01 X6.2700 Y-5.0200
G01 X6.3925 Y-5.0260
G01 X6.5139 Y-5.0440
G01 X6.6329 Y-5.0738
G01 X6.7484 Y-5.1152
G01 X6.8592 Y-5.1676
G01 X6.9645 Y-5.2307
G01 X7.0630 Y-5.3037
G01 X7.1539 Y-5.3861
G01 X7.2363 Y-5.4770
G01 X7.3093 Y-5.5755
G01 X7.3724 Y-5.6808
G01 X7.4248 Y-5.7916
G01 X7.4662 Y-5.9071
G01 X7.4960 Y-6.0261
G01 X7.5140 Y-6.1475
G01 X7.5200 Y-6.2700
G00 X7.5200 Y-6.2700
G01 F80.00
G01 Z-0.1000
G01 F50.00
G01 X7.5140 Y-6.3925
G01 X7.4960 Y-6.5139
G01 X7.4662 Y-6.6329
G01 X7.4248 Y-6.7484
G01 X7.3724 Y-6.8592
G01 X7.3093 Y-6.9645
G01 X7.2363 Y-7.0630
G01 X7.1539 Y-7.1539
G01 X7.0630 Y-7.2363
G01 X6.9645 Y-7.3093
G01 X6.8592 Y-7.3724
G01 X6.7484 Y-7.4248
G01 X6.6329 Y-7.4662
G01 X6.5139 Y-7.4960
G01 X6.3925 Y-7.5140
G01 X6.2700 Y-7.5200
G01 X6.1475 Y-7.5140
G01 X6.0261 Y-7.4960
G01 X5.9071 Y-7.4662
G01 X5.7916 Y-7.4248
G01 X5.6808 Y-7.3724
G01 X5.5755 Y-7.3093
G01 X5.4770 Y-7.2363
G01 X5.3861 Y-7.1539
G01 X5.3037 Y-7.0630
G01 X5.2307 Y-6.9645
G01 X5.1676 Y-6.8592
G01 X5.1152 Y-6.7484
G01 X5.0738 Y-6.6329
G01 X5.0440 Y-6.5139
G01 X5.0260 Y-6.3925
G01 X5.0200 Y-6.2700
G01 X5.0260 Y-6.1475
G01 X5.0440 Y-6.0261
G01 X5.0738 Y-5.9071
G01 X5.1152 Y-5.7916
G01 X5.1676 Y-5.6808
G01 X5.2307 Y-5.5755
G01 X5.3037 Y-5.4770
G01 X5.3861 Y-5.3861
G01 X5.4770 Y-5.3037
G01 X5.5755 Y-5.2307
G01 X5.6808 Y-5.1676
G01 X5.7916 Y-5.1152
G01 X5.9071 Y-5.0738
G01 X6.0261 Y-5.0440
G01 X6.1475 Y-5.0260
G01 X6.2700 Y-5.0200
G01 X6.3925 Y-5.0260
G01 X6.5139 Y-5.0440
G01 X6.6329 Y-5.0738
G01 X6.7484 Y-5.1152
G01 X6.8592 Y-5.1676
G01 X6.9645 Y-5.2307
G01 X7.0630 Y-5.3037
G01 X7.1539 Y-5.3861
G01 X7.2363 Y-5.4770
G01 X7.3093 Y-5.5755
G01 X7.3724 Y-5.6808
G01 X7.4248 Y-5.7916
G01 X7.4662 Y-5.9071
G01 X7.4960 Y-6.0261
G01 X7.5140 Y-6.1475
G01 X7.5200 Y-6.2700
G00 X7.5200 Y-6.2700
G01 F80.00
G01 Z-0.1500
G01 F50.00
G01 X7.5140 Y-6.3925
G01 X7.4960 Y-6.5139
G01 X7.4662 Y-6.6329
G01 X7.4248 Y-6.7484
G01 X7.3724 Y-6.8592
G01 X7.3093 Y-6.9645
G01 X7.2363 Y-7.0630
G01 X7.1539 Y-7.1539
G01 X7.0630 Y-7.2363
G01 X6.9645 Y-7.3093
G01 X6.8592 Y-7.3724
G01 X6.7484 Y-7.4248
G01 X6.6329 Y-7.4662
G01 X6.5139 Y-7.4960
G01 X6.3925 Y-7.5140
G01 X6.2700 Y-7.5200
G01 X6.1475 Y-7.5140
G01 X6.0261 Y-7.4960
G01 X5.9071 Y-7.4662
G01 X5.7916 Y-7.4248
G01 X5.6808 Y-7.3724
G01 X5.5755 Y-7.3093
G01 X5.4770 Y-7.2363
G01 X5.3861 Y-7.1539
G01 X5.3037 Y-7.0630
G01 X5.2307 Y-6.9645
G01 X5.1676 Y-6.8592
G01 X5.1152 Y-6.7484
G01 X5.0738 Y-6.6329
G01 X5.0440 Y-6.5139
G01 X5.0260 Y-6.3925
G01 X5.0200 Y-6.2700
G01 X5.0260 Y-6.1475
G01 X5.0440 Y-6.0261
G01 X5.0738 Y-5.9071
G01 X5.1152 Y-5.7916
G01 X5.1676 Y-5.6808
G01 X5.2307 Y-5.5755
G01 X5.3037 Y-5.4770
G01 X5.3861 Y-5.3861
G01 X5.4770 Y-5.3037
G01 X5.5755 Y-5.2307
G01 X5.6808 Y-5.1676
G01 X5.7916 Y-5.1152
G01 X5.9071 Y-5.0738
G01 X6.0261 Y-5.0440
G01 X6.1475 Y-5.0260
G01 X6.2700 Y-5.0200
G01 X6.3925 Y-5.0260
G01 X6.5139 Y-5.0440
G01 X6.6329 Y-5.0738
G01 X6.7484 Y-5.1152
G01 X6.8592 Y-5.1676
G01 X6.9645 Y-5.2307
G01 X7.0630 Y-5.3037
G01 X7.1539 Y-5.3861
G01 X7.2363 Y-5.4770
G01 X7.3093 Y-5.5755
G01 X7.3724 Y-5.6808
G01 X7.4248 Y-5.7916
G01 X7.4662 Y-5.9071
G01 X7.4960 Y-6.0261
G01 X7.5140 Y-6.1475
G01 X7.5200 Y-6.2700
G00 X7.5200 Y-6.2700
G01 F80.00
G01 Z-0.2000
G01 F50.00
G01 X7.5140 Y-6.3925
G01 X7.4960 Y-6.5139
G01 X7.4662 Y-6.6329
G01 X7.4248 Y-6.7484
G01 X7.3724 Y-6.8592
G01 X7.3093 Y-6.9645
G01 X7.2363 Y-7.0630
G01 X7.1539 Y-7.1539
G01 X7.0630 Y-7.2363
G01 X6.9645 Y-7.3093
G01 X6.8592 Y-7.3724
G01 X6.7484 Y-7.4248
G01 X6.6329 Y-7.4662
G01 X6.5139 Y-7.4960
G01 X6.3925 Y-7.5140
G01 X6.2700 Y-7.5200
G01 X6.1475 Y-7.5140
G01 X6.0261 Y-7.4960
G01 X5.9071 Y-7.4662
G01 X5.7916 Y-7.4248
G01 X5.6808 Y-7.3724
G01 X5.5755 Y-7.3093
G01 X5.4770 Y-7.2363
G01 X5.3861 Y-7.1539
G01 X5.3037 Y-7.0630
G01 X5.2307 Y-6.9645
G01 X5.1676 Y-6.8592
G01 X5.1152 Y-6.7484
G01 X5.0738 Y-6.6329
G01 X5.0440 Y-6.5139
G01 X5.0260 Y-6.3925
G01 X5.0200 Y-6.2700
G01 X5.0260 Y-6.1475
G01 X5.0440 Y-6.0261
G01 X5.0738 Y-5.9071
G01 X5.1152 Y-5.7916
G01 X5.1676 Y-5.6808
G01 X5.2307 Y-5.5755
G01 X5.3037 Y-5.4770
G01 X5.3861 Y-5.3861
G01 X5.4770 Y-5.3037
G01 X5.5755 Y-5.2307
G01 X5.6808 Y-5.1676
G01 X5.7916 Y-5.1152
G01 X5.9071 Y-5.0738
G01 X6.0261 Y-5.0440
G01 X6.1475 Y-5.0260
G01 X6.2700 Y-5.0200
G01 X6.3925 Y-5.0260
G01 X6.5139 Y-5.0440
G01 X6.6329 Y-5.0738
G01 X6.7484 Y-5.1152
G01 X6.8592 Y-5.1676
G01 X6.9645 Y-5.2307
G01 X7.0630 Y-5.3037
G01 X7.1539 Y-5.3861
G01 X7.2363 Y-5.4770
G01 X7.3093 Y-5.5755
G01 X7.3724 Y-5.6808
G01 X7.4248 Y-5.7916
G01 X7.4662 Y-5.9071
G01 X7.4960 Y-6.0261
G01 X7.5140 Y-6.1475
G01 X7.5200 Y-6.2700
G00 X7.5200 Y-6.2700
G01 F80.00
G01 Z-0.2500
G01 F50.00
G01 X7.5140 Y-6.3925
G01 X7.4960 Y-6.5139
G01 X7.4662 Y-6.6329
G01 X7.4248 Y-6.7484
G01 X7.3724 Y-6.8592
G01 X7.3093 Y-6.9645
G01 X7.2363 Y-7.0630
G01 X7.1539 Y-7.1539
G01 X7.0630 Y-7.2363
G01 X6.9645 Y-7.3093
G01 X6.8592 Y-7.3724
G01 X6.7484 Y-7.4248
G01 X6.6329 Y-7.4662
G01 X6.5139 Y-7.4960
G01 X6.3925 Y-7.5140
G01 X6.2700 Y-7.5200
G01 X6.1475 Y-7.5140
G01 X6.0261 Y-7.4960
G01 X5.9071 Y-7.4662
G01 X5.7916 Y-7.4248
G01 X5.6808 Y-7.3724
G01 X5.5755 Y-7.3093
G01 X5.4770 Y-7.2363
G01 X5.3861 Y-7.1539
G01 X5.3037 Y-7.0630
G01 X5.2307 Y-6.9645
G01 X5.1676 Y-6.8592
G01 X5.1152 Y-6.7484
G01 X5.0738 Y-6.6329
G01 X5.0440 Y-6.5139
G01 X5.0260 Y-6.3925
G01 X5.0200 Y-6.2700
G01 X5.0260 Y-6.1475
G01 X5.0440 Y-6.0261
G01 X5.0738 Y-5.9071
G01 X5.1152 Y-5.7916
G01 X5.1676 Y-5.6808
G01 X5.2307 Y-5.5755
G01 X5.3037 Y-5.4770
G01 X5.3861 Y-5.3861
G01 X5.4770 Y-5.3037
G01 X5.5755 Y-5.2307
G01 X5.6808 Y-5.1676
G01 X5.7916 Y-5.1152
G01 X5.9071 Y-5.0738
G01 X6.0261 Y-5.0440
G01 X6.1475 Y-5.0260
G01 X6.2700 Y-5.0200
G01 X6.3925 Y-5.0260
G01 X6.5139 Y-5.0440
G01 X6.6329 Y-5.0738
G01 X6.7484 Y-5.1152
G01 X6.8592 Y-5.1676
G01 X6.9645 Y-5.2307
G01 X7.0630 Y-5.3037
G01 X7.1539 Y-5.3861
G01 X7.2363 Y-5.4770
G01 X7.3093 Y-5.5755
G01 X7.3724 Y-5.6808
G01 X7.4248 Y-5.7916
G01 X7.4662 Y-5.9071
G01 X7.4960 Y-6.0261
G01 X7.5140 Y-6.1475
G01 X7.5200 Y-6.2700
G00 X7.5200 Y-6.2700
G01 F80.00
G01 Z-0.3000
G01 F50.00
G01 X7.5140 Y-6.3925
G01 X7.4960 Y-6.5139
G01 X7.4662 Y-6.6329
G01 X7.4248 Y-6.7484
G01 X7.3724 Y-6.8592
G01 X7.3093 Y-6.9645
G01 X7.2363 Y-7.0630
G01 X7.1539 Y-7.1539
G01 X7.0630 Y-7.2363
G01 X6.9645 Y-7.3093
G01 X6.8592 Y-7.3724
G01 X6.7484 Y-7.4248
G01 X6.6329 Y-7.4662
G01 X6.5139 Y-7.4960
G01 X6.3925 Y-7.5140
G01 X6.2700 Y-7.5200
G01 X6.1475 Y-7.5140
G01 X6.0261 Y-7.4960
G01 X5.9071 Y-7.4662
G01 X5.7916 Y-7.4248
G01 X5.6808 Y-7.3724
G01 X5.5755 Y-7.3093
G01 X5.4770 Y-7.2363
G01 X5.3861 Y-7.1539
G01 X5.3037 Y-7.0630
G01 X5.2307 Y-6.9645
G01 X5.1676 Y-6.8592
G01 X5.1152 Y-6.7484
G01 X5.0738 Y-6.6329
G01 X5.0440 Y-6.5139
G01 X5.0260 Y-6.3925
G01 X5.0200 Y-6.2700
G01 X5.0260 Y-6.1475
G01 X5.0440 Y-6.0261
G01 X5.0738 Y-5.9071
G01 X5.1152 Y-5.7916
G01 X5.1676 Y-5.6808
G01 X5.2307 Y-5.5755
G01 X5.3037 Y-5.4770
G01 X5.3861 Y-5.3861
G01 X5.4770 Y-5.3037
G01 X5.5755 Y-5.2307
G01 X5.6808 Y-5.1676
G01 X5.7916 Y-5.1152
G01 X5.9071 Y-5.0738
G01 X6.0261 Y-5.0440
G01 X6.1475 Y-5.0260
G01 X6.2700 Y-5.0200
G01 X6.3925 Y-5.0260
G01 X6.5139 Y-5.0440
G01 X6.6329 Y-5.0738
G01 X6.7484 Y-5.1152
G01 X6.8592 Y-5.1676
G01 X6.9645 Y-5.2307
G01 X7.0630 Y-5.3037
G01 X7.1539 Y-5.3861
G01 X7.2363 Y-5.4770
G01 X7.3093 Y-5.5755
G01 X7.3724 Y-5.6808
G01 X7.4248 Y-5.7916
G01 X7.4662 Y-5.9071
G01 X7.4960 Y-6.0261
G01 X7.5140 Y-6.1475
G01 X7.5200 Y-6.2700
G00 X7.5200 Y-6.2700
G01 F80.00
G01 Z-0.3500
G01 F50.00
G01 X7.5140 Y-6.3925
G01 X7.4960 Y-6.5139
G01 X7.4662 Y-6.6329
G01 X7.4248 Y-6.7484
G01 X7.3724 Y-6.8592
G01 X7.3093 Y-6.9645
G01 X7.2363 Y-7.0630
G01 X7.1539 Y-7.1539
G01 X7.0630 Y-7.2363
G01 X6.9645 Y-7.3093
G01 X6.8592 Y-7.3724
G01 X6.7484 Y-7.4248
G01 X6.6329 Y-7.4662
G01 X6.5139 Y-7.4960
G01 X6.3925 Y-7.5140
G01 X6.2700 Y-7.5200
G01 X6.1475 Y-7.5140
G01 X6.0261 Y-7.4960
G01 X5.9071 Y-7.4662
G01 X5.7916 Y-7.4248
G01 X5.6808 Y-7.3724
G01 X5.5755 Y-7.3093
G01 X5.4770 Y-7.2363
G01 X5.3861 Y-7.1539
G01 X5.3037 Y-7.0630
G01 X5.2307 Y-6.9645
G01 X5.1676 Y-6.8592
G01 X5.1152 Y-6.7484
G01 X5.0738 Y-6.6329
G01 X5.0440 Y-6.5139
G01 X5.0260 Y-6.3925
G01 X5.0200 Y-6.2700
G01 X5.0260 Y-6.1475
G01 X5.0440 Y-6.0261
G01 X5.0738 Y-5.9071
G01 X5.1152 Y-5.7916
G01 X5.1676 Y-5.6808
G01 X5.2307 Y-5.5755
G01 X5.3037 Y-5.4770
G01 X5.3861 Y-5.3861
G01 X5.4770 Y-5.3037
G01 X5.5755 Y-5.2307
G01 X5.6808 Y-5.1676
G01 X5.7916 Y-5.1152
G01 X5.9071 Y-5.0738
G01 X6.0261 Y-5.0440
G01 X6.1475 Y-5.0260
G01 X6.2700 Y-5.0200
G01 X6.3925 Y-5.0260
G01 X6.5139 Y-5.0440
G01 X6.6329 Y-5.0738
G01 X6.7484 Y-5.1152
G01 X6.8592 Y-5.1676
G01 X6.9645 Y-5.2307
G01 X7.0630 Y-5.3037
G01 X7.1539 Y-5.3861
G01 X7.2363 Y-5.4770
G01 X7.3093 Y-5.5755
G01 X7.3724 Y-5.6808
G01 X7.4248 Y-5.7916
G01 X7.4662 Y-5.9071
G01 X7.4960 Y-6.0261
G01 X7.5140 Y-6.1475
G01 X7.5200 Y-6.2700
G00 X7.5200 Y-6.2700
G01 F80.00
G01 Z-0.4000
G01 F50.00
G01 X7.5140 Y-6.3925
G01 X7.4960 Y-6.5139
G01 X7.4662 Y-6.6329
G01 X7.4248 Y-6.7484
G01 X7.3724 Y-6.8592
G01 X7.3093 Y-6.9645
G01 X7.2363 Y-7.0630
G01 X7.1539 Y-7.1539
G01 X7.0630 Y-7.2363
G01 X6.9645 Y-7.3093
G01 X6.8592 Y-7.3724
G01 X6.7484 Y-7.4248
G01 X6.6329 Y-7.4662
G01 X6.5139 Y-7.4960
G01 X6.3925 Y-7.5140
G01 X6.2700 Y-7.5200
G01 X6.1475 Y-7.5140
G01 X6.0261 Y-7.4960
G01 X5.9071 Y-7.4662
G01 X5.7916 Y-7.4248
G01 X5.6808 Y-7.3724
G01 X5.5755 Y-7.3093
G01 X5.4770 Y-7.2363
G01 X5.3861 Y-7.1539
G01 X5.3037 Y-7.0630
G01 X5.2307 Y-6.9645
G01 X5.1676 Y-6.8592
G01 X5.1152 Y-6.7484
G01 X5.0738 Y-6.6329
G01 X5.0440 Y-6.5139
G01 X5.0260 Y-6.3925
G01 X5.0200 Y-6.2700
G01 X5.0260 Y-6.1475
G01 X5.0440 Y-6.0261
G01 X5.0738 Y-5.9071
G01 X5.1152 Y-5.7916
G01 X5.1676 Y-5.6808
G01 X5.2307 Y-5.5755
G01 X5.3037 Y-5.4770
G01 X5.3861 Y-5.3861
G01 X5.4770 Y-5.3037
G01 X5.5755 Y-5.2307
G01 X5.6808 Y-5.1676
G01 X5.7916 Y-5.1152
G01 X5.9071 Y-5.0738
G01 X6.0261 Y-5.0440
G01 X6.1475 Y-5.0260
G01 X6.2700 Y-5.0200
G01 X6.3925 Y-5.0260
G01 X6.5139 Y-5.0440
G01 X6.6329 Y-5.0738
G01 X6.7484 Y-5.1152
G01 X6.8592 Y-5.1676
G01 X6.9645 Y-5.2307
G01 X7.0630 Y-5.3037
G01 X7.1539 Y-5.3861
G01 X7.2363 Y-5.4770
G01 X7.3093 Y-5.5755
G01 X7.3724 Y-5.6808
G01 X7.4248 Y-5.7916
G01 X7.4662 Y-5.9071
G01 X7.4960 Y-6.0261
G01 X7.5140 Y-6.1475
G01 X7.5200 Y-6.2700
G00 X7.5200 Y-6.2700
G01 F80.00
G01 Z-0.4500
G01 F50.00
G01 X7.5140 Y-6.3925
G01 X7.4960 Y-6.5139
G01 X7.4662 Y-6.6329
G01 X7.4248 Y-6.7484
G01 X7.3724 Y-6.8592
G01 X7.3093 Y-6.9645
G01 X7.2363 Y-7.0630
G01 X7.1539 Y-7.1539
G01 X7.0630 Y-7.2363
G01 X6.9645 Y-7.3093
G01 X6.8592 Y-7.3724
G01 X6.7484 Y-7.4248
G01 X6.6329 Y-7.4662
G01 X6.5139 Y-7.4960
G01 X6.3925 Y-7.5140
G01 X6.2700 Y-7.5200
G01 X6.1475 Y-7.5140
G01 X6.0261 Y-7.4960
G01 X5.9071 Y-7.4662
G01 X5.7916 Y-7.4248
G01 X5.6808 Y-7.3724
G01 X5.5755 Y-7.3093
G01 X5.4770 Y-7.2363
G01 X5.3861 Y-7.1539
G01 X5.3037 Y-7.0630
G01 X5.2307 Y-6.9645
G01 X5.1676 Y-6.8592
G01 X5.1152 Y-6.7484
G01 X5.0738 Y-6.6329
G01 X5.0440 Y-6.5139
G01 X5.0260 Y-6.3925
G01 X5.0200 Y-6.2700
G01 X5.0260 Y-6.1475
G01 X5.0440 Y-6.0261
G01 X5.0738 Y-5.9071
G01 X5.1152 Y-5.7916
G01 X5.1676 Y-5.6808
G01 X5.2307 Y-5.5755
G01 X5.3037 Y-5.4770
G01 X5.3861 Y-5.3861
G01 X5.4770 Y-5.3037
G01 X5.5755 Y-5.2307
G01 X5.6808 Y-5.1676
G01 X5.7916 Y-5.1152
G01 X5.9071 Y-5.0738
G01 X6.0261 Y-5.0440
G01 X6.1475 Y-5.0260
G01 X6.2700 Y-5.0200
G01 X6.3925 Y-5.0260
G01 X6.5139 Y-5.0440
G01 X6.6329 Y-5.0738
G01 X6.7484 Y-5.1152
G01 X6.8592 Y-5.1676
G01 X6.9645 Y-5.2307
G01 X7.0630 Y-5.3037
G01 X7.1539 Y-5.3861
G01 X7.2363 Y-5.4770
G01 X7.3093 Y-5.5755
G01 X7.3724 Y-5.6808
G01 X7.4248 Y-5.7916
G01 X7.4662 Y-5.9071
G01 X7.4960 Y-6.0261
G01 X7.5140 Y-6.1475
G01 X7.5200 Y-6.2700
G00 X7.5200 Y-6.2700
G01 F80.00
G01 Z-0.5000
G01 F50.00
G01 X7.5140 Y-6.3925
G01 X7.4960 Y-6.5139
G01 X7.4662 Y-6.6329
G01 X7.4248 Y-6.7484
G01 X7.3724 Y-6.8592
G01 X7.3093 Y-6.9645
G01 X7.2363 Y-7.0630
G01 X7.1539 Y-7.1539
G01 X7.0630 Y-7.2363
G01 X6.9645 Y-7.3093
G01 X6.8592 Y-7.3724
G01 X6.7484 Y-7.4248
G01 X6.6329 Y-7.4662
G01 X6.5139 Y-7.4960
G01 X6.3925 Y-7.5140
G01 X6.2700 Y-7.5200
G01 X6.1475 Y-7.5140
G01 X6.0261 Y-7.4960
G01 X5.9071 Y-7.4662
G01 X5.7916 Y-7.4248
G01 X5.6808 Y-7.3724
G01 X5.5755 Y-7.3093
G01 X5.4770 Y-7.2363
G01 X5.3861 Y-7.1539
G01 X5.3037 Y-7.0630
G01 X5.2307 Y-6.9645
G01 X5.1676 Y-6.8592
G01 X5.1152 Y-6.7484
G01 X5.0738 Y-6.6329
G01 X5.0440 Y-6.5139
G01 X5.0260 Y-6.3925
G01 X5.0200 Y-6.2700
G01 X5.0260 Y-6.1475
G01 X5.0440 Y-6.0261
G01 X5.0738 Y-5.9071
G01 X5.1152 Y-5.7916
G01 X5.1676 Y-5.6808
G01 X5.2307 Y-5.5755
G01 X5.3037 Y-5.4770
G01 X5.3861 Y-5.3861
G01 X5.4770 Y-5.3037
G01 X5.5755 Y-5.2307
G01 X5.6808 Y-5.1676
G01 X5.7916 Y-5.1152
G01 X5.9071 Y-5.0738
G01 X6.0261 Y-5.0440
G01 X6.1475 Y-5.0260
G01 X6.2700 Y-5.0200
G01 X6.3925 Y-5.0260
G01 X6.5139 Y-5.0440
G01 X6.6329 Y-5.0738
G01 X6.7484 Y-5.1152
G01 X6.8592 Y-5.1676
G01 X6.9645 Y-5.2307
G01 X7.0630 Y-5.3037
G01 X7.1539 Y-5.3861
G01 X7.2363 Y-5.4770
G01 X7.3093 Y-5.5755
G01 X7.3724 Y-5.6808
G01 X7.4248 Y-5.7916
G01 X7.4662 Y-5.9071
G01 X7.4960 Y-6.0261
G01 X7.5140 Y-6.1475
G01 X7.5200 Y-6.2700
G00 X7.5200 Y-6.2700
G01 F80.00
G01 Z-0.5500
G01 F50.00
G01 X7.5140 Y-6.3925
G01 X7.4960 Y-6.5139
G01 X7.4662 Y-6.6329
G01 X7.4248 Y-6.7484
G01 X7.3724 Y-6.8592
G01 X7.3093 Y-6.9645
G01 X7.2363 Y-7.0630
G01 X7.1539 Y-7.1539
G01 X7.0630 Y-7.2363
G01 X6.9645 Y-7.3093
G01 X6.8592 Y-7.3724
G01 X6.7484 Y-7.4248
G01 X6.6329 Y-7.4662
G01 X6.5139 Y-7.4960
G01 X6.3925 Y-7.5140
G01 X6.2700 Y-7.5200
G01 X6.1475 Y-7.5140
G01 X6.0261 Y-7.4960
G01 X5.9071 Y-7.4662
G01 X5.7916 Y-7.4248
G01 X5.6808 Y-7.3724
G01 X5.5755 Y-7.3093
G01 X5.4770 Y-7.2363
G01 X5.3861 Y-7.1539
G01 X5.3037 Y-7.0630
G01 X5.2307 Y-6.9645
G01 X5.1676 Y-6.8592
G01 X5.1152 Y-6.7484
G01 X5.0738 Y-6.6329
G01 X5.0440 Y-6.5139
G01 X5.0260 Y-6.3925
G01 X5.0200 Y-6.2700
G01 X5.0260 Y-6.1475
G01 X5.0440 Y-6.0261
G01 X5.0738 Y-5.9071
G01 X5.1152 Y-5.7916
G01 X5.1676 Y-5.6808
G01 X5.2307 Y-5.5755
G01 X5.3037 Y-5.4770
G01 X5.3861 Y-5.3861
G01 X5.4770 Y-5.3037
G01 X5.5755 Y-5.2307
G01 X5.6808 Y-5.1676
G01 X5.7916 Y-5.1152
G01 X5.9071 Y-5.0738
G01 X6.0261 Y-5.0440
G01 X6.1475 Y-5.0260
G01 X6.2700 Y-5.0200
G01 X6.3925 Y-5.0260
G01 X6.5139 Y-5.0440
G01 X6.6329 Y-5.0738
G01 X6.7484 Y-5.1152
G01 X6.8592 Y-5.1676
G01 X6.9645 Y-5.2307
G01 X7.0630 Y-5.3037
G01 X7.1539 Y-5.3861
G01 X7.2363 Y-5.4770
G01 X7.3093 Y-5.5755
G01 X7.3724 Y-5.6808
G01 X7.4248 Y-5.7916
G01 X7.4662 Y-5.9071
G01 X7.4960 Y-6.0261
G01 X7.5140 Y-6.1475
G01 X7.5200 Y-6.2700
G00 X7.5200 Y-6.2700
G01 F80.00
G01 Z-0.6000
G01 F50.00
G01 X7.5140 Y-6.3925
G01 X7.4960 Y-6.5139
G01 X7.4662 Y-6.6329
G01 X7.4248 Y-6.7484
G01 X7.3724 Y-6.8592
G01 X7.3093 Y-6.9645
G01 X7.2363 Y-7.0630
G01 X7.1539 Y-7.1539
G01 X7.0630 Y-7.2363
G01 X6.9645 Y-7.3093
G01 X6.8592 Y-7.3724
G01 X6.7484 Y-7.4248
G01 X6.6329 Y-7.4662
G01 X6.5139 Y-7.4960
G01 X6.3925 Y-7.5140
G01 X6.2700 Y-7.5200
G01 X6.1475 Y-7.5140
G01 X6.0261 Y-7.4960
G01 X5.9071 Y-7.4662
G01 X5.7916 Y-7.4248
G01 X5.6808 Y-7.3724
G01 X5.5755 Y-7.3093
G01 X5.4770 Y-7.2363
G01 X5.3861 Y-7.1539
G01 X5.3037 Y-7.0630
G01 X5.2307 Y-6.9645
G01 X5.1676 Y-6.8592
G01 X5.1152 Y-6.7484
G01 X5.0738 Y-6.6329
G01 X5.0440 Y-6.5139
G01 X5.0260 Y-6.3925
G01 X5.0200 Y-6.2700
G01 X5.0260 Y-6.1475
G01 X5.0440 Y-6.0261
G01 X5.0738 Y-5.9071
G01 X5.1152 Y-5.7916
G01 X5.1676 Y-5.6808
G01 X5.2307 Y-5.5755
G01 X5.3037 Y-5.4770
G01 X5.3861 Y-5.3861
G01 X5.4770 Y-5.3037
G01 X5.5755 Y-5.2307
G01 X5.6808 Y-5.1676
G01 X5.7916 Y-5.1152
G01 X5.9071 Y-5.0738
G01 X6.0261 Y-5.0440
G01 X6.1475 Y-5.0260
G01 X6.2700 Y-5.0200
G01 X6.3925 Y-5.0260
G01 X6.5139 Y-5.0440
G01 X6.6329 Y-5.0738
G01 X6.7484 Y-5.1152
G01 X6.8592 Y-5.1676
G01 X6.9645 Y-5.2307
G01 X7.0630 Y-5.3037
G01 X7.1539 Y-5.3861
G01 X7.2363 Y-5.4770
G01 X7.3093 Y-5.5755
G01 X7.3724 Y-5.6808
G01 X7.4248 Y-5.7916
G01 X7.4662 Y-5.9071
G01 X7.4960 Y-6.0261
G01 X7.5140 Y-6.1475
G01 X7.5200 Y-6.2700
G00 X7.5200 Y-6.2700
G01 F80.00
G01 Z-0.6500
G01 F50.00
G01 X7.5140 Y-6.3925
G01 X7.4960 Y-6.5139
G01 X7.4662 Y-6.6329
G01 X7.4248 Y-6.7484
G01 X7.3724 Y-6.8592
G01 X7.3093 Y-6.9645
G01 X7.2363 Y-7.0630
G01 X7.1539 Y-7.1539
G01 X7.0630 Y-7.2363
G01 X6.9645 Y-7.3093
G01 X6.8592 Y-7.3724
G01 X6.7484 Y-7.4248
G01 X6.6329 Y-7.4662
G01 X6.5139 Y-7.4960
G01 X6.3925 Y-7.5140
G01 X6.2700 Y-7.5200
G01 X6.1475 Y-7.5140
G01 X6.0261 Y-7.4960
G01 X5.9071 Y-7.4662
G01 X5.7916 Y-7.4248
G01 X5.6808 Y-7.3724
G01 X5.5755 Y-7.3093
G01 X5.4770 Y-7.2363
G01 X5.3861 Y-7.1539
G01 X5.3037 Y-7.0630
G01 X5.2307 Y-6.9645
G01 X5.1676 Y-6.8592
G01 X5.1152 Y-6.7484
G01 X5.0738 Y-6.6329
G01 X5.0440 Y-6.5139
G01 X5.0260 Y-6.3925
G01 X5.0200 Y-6.2700
G01 X5.0260 Y-6.1475
G01 X5.0440 Y-6.0261
G01 X5.0738 Y-5.9071
G01 X5.1152 Y-5.7916
G01 X5.1676 Y-5.6808
G01 X5.2307 Y-5.5755
G01 X5.3037 Y-5.4770
G01 X5.3861 Y-5.3861
G01 X5.4770 Y-5.3037
G01 X5.5755 Y-5.2307
G01 X5.6808 Y-5.1676
G01 X5.7916 Y-5.1152
G01 X5.9071 Y-5.0738
G01 X6.0261 Y-5.0440
G01 X6.1475 Y-5.0260
G01 X6.2700 Y-5.0200
G01 X6.3925 Y-5.0260
G01 X6.5139 Y-5.0440
G01 X6.6329 Y-5.0738
G01 X6.7484 Y-5.1152
G01 X6.8592 Y-5.1676
G01 X6.9645 Y-5.2307
G01 X7.0630 Y-5.3037
G01 X7.1539 Y-5.3861
G01 X7.2363 Y-5.4770
G01 X7.3093 Y-5.5755
G01 X7.3724 Y-5.6808
G01 X7.4248 Y-5.7916
G01 X7.4662 Y-5.9071
G01 X7.4960 Y-6.0261
G01 X7.5140 Y-6.1475
G01 X7.5200 Y-6.2700
G00 X7.5200 Y-6.2700
G01 F80.00
G01 Z-0.7000
G01 F50.00
G01 X7.5140 Y-6.3925
G01 X7.4960 Y-6.5139
G01 X7.4662 Y-6.6329
G01 X7.4248 Y-6.7484
G01 X7.3724 Y-6.8592
G01 X7.3093 Y-6.9645
G01 X7.2363 Y-7.0630
G01 X7.1539 Y-7.1539
G01 X7.0630 Y-7.2363
G01 X6.9645 Y-7.3093
G01 X6.8592 Y-7.3724
G01 X6.7484 Y-7.4248
G01 X6.6329 Y-7.4662
G01 X6.5139 Y-7.4960
G01 X6.3925 Y-7.5140
G01 X6.2700 Y-7.5200
G01 X6.1475 Y-7.5140
G01 X6.0261 Y-7.4960
G01 X5.9071 Y-7.4662
G01 X5.7916 Y-7.4248
G01 X5.6808 Y-7.3724
G01 X5.5755 Y-7.3093
G01 X5.4770 Y-7.2363
G01 X5.3861 Y-7.1539
G01 X5.3037 Y-7.0630
G01 X5.2307 Y-6.9645
G01 X5.1676 Y-6.8592
G01 X5.1152 Y-6.7484
G01 X5.0738 Y-6.6329
G01 X5.0440 Y-6.5139
G01 X5.0260 Y-6.3925
G01 X5.0200 Y-6.2700
G01 X5.0260 Y-6.1475
G01 X5.0440 Y-6.0261
G01 X5.0738 Y-5.9071
G01 X5.1152 Y-5.7916
G01 X5.1676 Y-5.6808
G01 X5.2307 Y-5.5755
G01 X5.3037 Y-5.4770
G01 X5.3861 Y-5.3861
G01 X5.4770 Y-5.3037
G01 X5.5755 Y-5.2307
G01 X5.6808 Y-5.1676
G01 X5.7916 Y-5.1152
G01 X5.9071 Y-5.0738
G01 X6.0261 Y-5.0440
G01 X6.1475 Y-5.0260
G01 X6.2700 Y-5.0200
G01 X6.3925 Y-5.0260
G01 X6.5139 Y-5.0440
G01 X6.6329 Y-5.0738
G01 X6.7484 Y-5.1152
G01 X6.8592 Y-5.1676
G01 X6.9645 Y-5.2307
G01 X7.0630 Y-5.3037
G01 X7.1539 Y-5.3861
G01 X7.2363 Y-5.4770
G01 X7.3093 Y-5.5755
G01 X7.3724 Y-5.6808
G01 X7.4248 Y-5.7916
G01 X7.4662 Y-5.9071
G01 X7.4960 Y-6.0261
G01 X7.5140 Y-6.1475
G01 X7.5200 Y-6.2700
G00 X7.5200 Y-6.2700
G01 F80.00
G01 Z-0.7500
G01 F50.00
G01 X7.5140 Y-6.3925
G01 X7.4960 Y-6.5139
G01 X7.4662 Y-6.6329
G01 X7.4248 Y-6.7484
G01 X7.3724 Y-6.8592
G01 X7.3093 Y-6.9645
G01 X7.2363 Y-7.0630
G01 X7.1539 Y-7.1539
G01 X7.0630 Y-7.2363
G01 X6.9645 Y-7.3093
G01 X6.8592 Y-7.3724
G01 X6.7484 Y-7.4248
G01 X6.6329 Y-7.4662
G01 X6.5139 Y-7.4960
G01 X6.3925 Y-7.5140
G01 X6.2700 Y-7.5200
G01 X6.1475 Y-7.5140
G01 X6.0261 Y-7.4960
G01 X5.9071 Y-7.4662
G01 X5.7916 Y-7.4248
G01 X5.6808 Y-7.3724
G01 X5.5755 Y-7.3093
G01 X5.4770 Y-7.2363
G01 X5.3861 Y-7.1539
G01 X5.3037 Y-7.0630
G01 X5.2307 Y-6.9645
G01 X5.1676 Y-6.8592
G01 X5.1152 Y-6.7484
G01 X5.0738 Y-6.6329
G01 X5.0440 Y-6.5139
G01 X5.0260 Y-6.3925
G01 X5.0200 Y-6.2700
G01 X5.0260 Y-6.1475
G01 X5.0440 Y-6.0261
G01 X5.0738 Y-5.9071
G01 X5.1152 Y-5.7916
G01 X5.1676 Y-5.6808
G01 X5.2307 Y-5.5755
G01 X5.3037 Y-5.4770
G01 X5.3861 Y-5.3861
G01 X5.4770 Y-5.3037
G01 X5.5755 Y-5.2307
G01 X5.6808 Y-5.1676
G01 X5.7916 Y-5.1152
G01 X5.9071 Y-5.0738
G01 X6.0261 Y-5.0440
G01 X6.1475 Y-5.0260
G01 X6.2700 Y-5.0200
G01 X6.3925 Y-5.0260
G01 X6.5139 Y-5.0440
G01 X6.6329 Y-5.0738
G01 X6.7484 Y-5.1152
G01 X6.8592 Y-5.1676
G01 X6.9645 Y-5.2307
G01 X7.0630 Y-5.3037
G01 X7.1539 Y-5.3861
G01 X7.2363 Y-5.4770
G01 X7.3093 Y-5.5755
G01 X7.3724 Y-5.6808
G01 X7.4248 Y-5.7916
G01 X7.4662 Y-5.9071
G01 X7.4960 Y-6.0261
G01 X7.5140 Y-6.1475
G01 X7.5200 Y-6.2700
G00 X7.5200 Y-6.2700
G01 F80.00
G01 Z-0.8000
G01 F50.00
G01 X7.5140 Y-6.3925
G01 X7.4960 Y-6.5139
G01 X7.4662 Y-6.6329
G01 X7.4248 Y-6.7484
G01 X7.3724 Y-6.8592
G01 X7.3093 Y-6.9645
G01 X7.2363 Y-7.0630
G01 X7.1539 Y-7.1539
G01 X7.0630 Y-7.2363
G01 X6.9645 Y-7.3093
G01 X6.8592 Y-7.3724
G01 X6.7484 Y-7.4248
G01 X6.6329 Y-7.4662
G01 X6.5139 Y-7.4960
G01 X6.3925 Y-7.5140
G01 X6.2700 Y-7.5200
G01 X6.1475 Y-7.5140
G01 X6.0261 Y-7.4960
G01 X5.9071 Y-7.4662
G01 X5.7916 Y-7.4248
G01 X5.6808 Y-7.3724
G01 X5.5755 Y-7.3093
G01 X5.4770 Y-7.2363
G01 X5.3861 Y-7.1539
G01 X5.3037 Y-7.0630
G01 X5.2307 Y-6.9645
G01 X5.1676 Y-6.8592
G01 X5.1152 Y-6.7484
G01 X5.0738 Y-6.6329
G01 X5.0440 Y-6.5139
G01 X5.0260 Y-6.3925
G01 X5.0200 Y-6.2700
G01 X5.0260 Y-6.1475
G01 X5.0440 Y-6.0261
G01 X5.0738 Y-5.9071
G01 X5.1152 Y-5.7916
G01 X5.1676 Y-5.6808
G01 X5.2307 Y-5.5755
G01 X5.3037 Y-5.4770
G01 X5.3861 Y-5.3861
G01 X5.4770 Y-5.3037
G01 X5.5755 Y-5.2307
G01 X5.6808 Y-5.1676
G01 X5.7916 Y-5.1152
G01 X5.9071 Y-5.0738
G01 X6.0261 Y-5.0440
G01 X6.1475 Y-5.0260
G01 X6.2700 Y-5.0200
G01 X6.3925 Y-5.0260
G01 X6.5139 Y-5.0440
G01 X6.6329 Y-5.0738
G01 X6.7484 Y-5.1152
G01 X6.8592 Y-5.1676
G01 X6.9645 Y-5.2307
G01 X7.0630 Y-5.3037
G01 X7.1539 Y-5.3861
G01 X7.2363 Y-5.4770
G01 X7.3093 Y-5.5755
G01 X7.3724 Y-5.6808
G01 X7.4248 Y-5.7916
G01 X7.4662 Y-5.9071
G01 X7.4960 Y-6.0261
G01 X7.5140 Y-6.1475
G01 X7.5200 Y-6.2700
G00 X7.5200 Y-6.2700
G01 F80.00
G01 Z-0.8500
G01 F50.00
G01 X7.5140 Y-6.3925
G01 X7.4960 Y-6.5139
G01 X7.4662 Y-6.6329
G01 X7.4248 Y-6.7484
G01 X7.3724 Y-6.8592
G01 X7.3093 Y-6.9645
G01 X7.2363 Y-7.0630
G01 X7.1539 Y-7.1539
G01 X7.0630 Y-7.2363
G01 X6.9645 Y-7.3093
G01 X6.8592 Y-7.3724
G01 X6.7484 Y-7.4248
G01 X6.6329 Y-7.4662
G01 X6.5139 Y-7.4960
G01 X6.3925 Y-7.5140
G01 X6.2700 Y-7.5200
G01 X6.1475 Y-7.5140
G01 X6.0261 Y-7.4960
G01 X5.9071 Y-7.4662
G01 X5.7916 Y-7.4248
G01 X5.6808 Y-7.3724
G01 X5.5755 Y-7.3093
G01 X5.4770 Y-7.2363
G01 X5.3861 Y-7.1539
G01 X5.3037 Y-7.0630
G01 X5.2307 Y-6.9645
G01 X5.1676 Y-6.8592
G01 X5.1152 Y-6.7484
G01 X5.0738 Y-6.6329
G01 X5.0440 Y-6.5139
G01 X5.0260 Y-6.3925
G01 X5.0200 Y-6.2700
G01 X5.0260 Y-6.1475
G01 X5.0440 Y-6.0261
G01 X5.0738 Y-5.9071
G01 X5.1152 Y-5.7916
G01 X5.1676 Y-5.6808
G01 X5.2307 Y-5.5755
G01 X5.3037 Y-5.4770
G01 X5.3861 Y-5.3861
G01 X5.4770 Y-5.3037
G01 X5.5755 Y-5.2307
G01 X5.6808 Y-5.1676
G01 X5.7916 Y-5.1152
G01 X5.9071 Y-5.0738
G01 X6.0261 Y-5.0440
G01 X6.1475 Y-5.0260
G01 X6.2700 Y-5.0200
G01 X6.3925 Y-5.0260
G01 X6.5139 Y-5.0440
G01 X6.6329 Y-5.0738
G01 X6.7484 Y-5.1152
G01 X6.8592 Y-5.1676
G01 X6.9645 Y-5.2307
G01 X7.0630 Y-5.3037
G01 X7.1539 Y-5.3861
G01 X7.2363 Y-5.4770
G01 X7.3093 Y-5.5755
G01 X7.3724 Y-5.6808
G01 X7.4248 Y-5.7916
G01 X7.4662 Y-5.9071
G01 X7.4960 Y-6.0261
G01 X7.5140 Y-6.1475
G01 X7.5200 Y-6.2700
G00 X7.5200 Y-6.2700
G01 F80.00
G01 Z-0.9000
G01 F50.00
G01 X7.5140 Y-6.3925
G01 X7.4960 Y-6.5139
G01 X7.4662 Y-6.6329
G01 X7.4248 Y-6.7484
G01 X7.3724 Y-6.8592
G01 X7.3093 Y-6.9645
G01 X7.2363 Y-7.0630
G01 X7.1539 Y-7.1539
G01 X7.0630 Y-7.2363
G01 X6.9645 Y-7.3093
G01 X6.8592 Y-7.3724
G01 X6.7484 Y-7.4248
G01 X6.6329 Y-7.4662
G01 X6.5139 Y-7.4960
G01 X6.3925 Y-7.5140
G01 X6.2700 Y-7.5200
G01 X6.1475 Y-7.5140
G01 X6.0261 Y-7.4960
G01 X5.9071 Y-7.4662
G01 X5.7916 Y-7.4248
G01 X5.6808 Y-7.3724
G01 X5.5755 Y-7.3093
G01 X5.4770 Y-7.2363
G01 X5.3861 Y-7.1539
G01 X5.3037 Y-7.0630
G01 X5.2307 Y-6.9645
G01 X5.1676 Y-6.8592
G01 X5.1152 Y-6.7484
G01 X5.0738 Y-6.6329
G01 X5.0440 Y-6.5139
G01 X5.0260 Y-6.3925
G01 X5.0200 Y-6.2700
G01 X5.0260 Y-6.1475
G01 X5.0440 Y-6.0261
G01 X5.0738 Y-5.9071
G01 X5.1152 Y-5.7916
G01 X5.1676 Y-5.6808
G01 X5.2307 Y-5.5755
G01 X5.3037 Y-5.4770
G01 X5.3861 Y-5.3861
G01 X5.4770 Y-5.3037
G01 X5.5755 Y-5.2307
G01 X5.6808 Y-5.1676
G01 X5.7916 Y-5.1152
G01 X5.9071 Y-5.0738
G01 X6.0261 Y-5.0440
G01 X6.1475 Y-5.0260
G01 X6.2700 Y-5.0200
G01 X6.3925 Y-5.0260
G01 X6.5139 Y-5.0440
G01 X6.6329 Y-5.0738
G01 X6.7484 Y-5.1152
G01 X6.8592 Y-5.1676
G01 X6.9645 Y-5.2307
G01 X7.0630 Y-5.3037
G01 X7.1539 Y-5.3861
G01 X7.2363 Y-5.4770
G01 X7.3093 Y-5.5755
G01 X7.3724 Y-5.6808
G01 X7.4248 Y-5.7916
G01 X7.4662 Y-5.9071
G01 X7.4960 Y-6.0261
G01 X7.5140 Y-6.1475
G01 X7.5200 Y-6.2700
G00 X7.5200 Y-6.2700
G01 F80.00
G01 Z-0.9500
G01 F50.00
G01 X7.5140 Y-6.3925
G01 X7.4960 Y-6.5139
G01 X7.4662 Y-6.6329
G01 X7.4248 Y-6.7484
G01 X7.3724 Y-6.8592
G01 X7.3093 Y-6.9645
G01 X7.2363 Y-7.0630
G01 X7.1539 Y-7.1539
G01 X7.0630 Y-7.2363
G01 X6.9645 Y-7.3093
G01 X6.8592 Y-7.3724
G01 X6.7484 Y-7.4248
G01 X6.6329 Y-7.4662
G01 X6.5139 Y-7.4960
G01 X6.3925 Y-7.5140
G01 X6.2700 Y-7.5200
G01 X6.1475 Y-7.5140
G01 X6.0261 Y-7.4960
G01 X5.9071 Y-7.4662
G01 X5.7916 Y-7.4248
G01 X5.6808 Y-7.3724
G01 X5.5755 Y-7.3093
G01 X5.4770 Y-7.2363
G01 X5.3861 Y-7.1539
G01 X5.3037 Y-7.0630
G01 X5.2307 Y-6.9645
G01 X5.1676 Y-6.8592
G01 X5.1152 Y-6.7484
G01 X5.0738 Y-6.6329
G01 X5.0440 Y-6.5139
G01 X5.0260 Y-6.3925
G01 X5.0200 Y-6.2700
G01 X5.0260 Y-6.1475
G01 X5.0440 Y-6.0261
G01 X5.0738 Y-5.9071
G01 X5.1152 Y-5.7916
G01 X5.1676 Y-5.6808
G01 X5.2307 Y-5.5755
G01 X5.3037 Y-5.4770
G01 X5.3861 Y-5.3861
G01 X5.4770 Y-5.3037
G01 X5.5755 Y-5.2307
G01 X5.6808 Y-5.1676
G01 X5.7916 Y-5.1152
G01 X5.9071 Y-5.0738
G01 X6.0261 Y-5.0440
G01 X6.1475 Y-5.0260
G01 X6.2700 Y-5.0200
G01 X6.3925 Y-5.0260
G01 X6.5139 Y-5.0440
G01 X6.6329 Y-5.0738
G01 X6.7484 Y-5.1152
G01 X6.8592 Y-5.1676
G01 X6.9645 Y-5.2307
G01 X7.0630 Y-5.3037
G01 X7.1539 Y-5.3861
G01 X7.2363 Y-5.4770
G01 X7.3093 Y-5.5755
G01 X7.3724 Y-5.6808
G01 X7.4248 Y-5.7916
G01 X7.4662 Y-5.9071
G01 X7.4960 Y-6.0261
G01 X7.5140 Y-6.1475
G01 X7.5200 Y-6.2700
G00 X7.5200 Y-6.2700
G01 F80.00
G01 Z-1.0000
G01 F50.00
G01 X7.5140 Y-6.3925
G01 X7.4960 Y-6.5139
G01 X7.4662 Y-6.6329
G01 X7.4248 Y-6.7484
G01 X7.3724 Y-6.8592
G01 X7.3093 Y-6.9645
G01 X7.2363 Y-7.0630
G01 X7.1539 Y-7.1539
G01 X7.0630 Y-7.2363
G01 X6.9645 Y-7.3093
G01 X6.8592 Y-7.3724
G01 X6.7484 Y-7.4248
G01 X6.6329 Y-7.4662
G01 X6.5139 Y-7.4960
G01 X6.3925 Y-7.5140
G01 X6.2700 Y-7.5200
G01 X6.1475 Y-7.5140
G01 X6.0261 Y-7.4960
G01 X5.9071 Y-7.4662
G01 X5.7916 Y-7.4248
G01 X5.6808 Y-7.3724
G01 X5.5755 Y-7.3093
G01 X5.4770 Y-7.2363
G01 X5.3861 Y-7.1539
G01 X5.3037 Y-7.0630
G01 X5.2307 Y-6.9645
G01 X5.1676 Y-6.8592
G01 X5.1152 Y-6.7484
G01 X5.0738 Y-6.6329
G01 X5.0440 Y-6.5139
G01 X5.0260 Y-6.3925
G01 X5.0200 Y-6.2700
G01 X5.0260 Y-6.1475
G01 X5.0440 Y-6.0261
G01 X5.0738 Y-5.9071
G01 X5.1152 Y-5.7916
G01 X5.1676 Y-5.6808
G01 X5.2307 Y-5.5755
G01 X5.3037 Y-5.4770
G01 X5.3861 Y-5.3861
G01 X5.4770 Y-5.3037
G01 X5.5755 Y-5.2307
G01 X5.6808 Y-5.1676
G01 X5.7916 Y-5.1152
G01 X5.9071 Y-5.0738
G01 X6.0261 Y-5.0440
G01 X6.1475 Y-5.0260
G01 X6.2700 Y-5.0200
G01 X6.3925 Y-5.0260
G01 X6.5139 Y-5.0440
G01 X6.6329 Y-5.0738
G01 X6.7484 Y-5.1152
G01 X6.8592 Y-5.1676
G01 X6.9645 Y-5.2307
G01 X7.0630 Y-5.3037
G01 X7.1539 Y-5.3861
G01 X7.2363 Y-5.4770
G01 X7.3093 Y-5.5755
G01 X7.3724 Y-5.6808
G01 X7.4248 Y-5.7916
G01 X7.4662 Y-5.9071
G01 X7.4960 Y-6.0261
G01 X7.5140 Y-6.1475
G01 X7.5200 Y-6.2700
G00 X7.5200 Y-6.2700
G01 F80.00
G01 Z-1.0500
G01 F50.00
G01 X7.5140 Y-6.3925
G01 X7.4960 Y-6.5139
G01 X7.4662 Y-6.6329
G01 X7.4248 Y-6.7484
G01 X7.3724 Y-6.8592
G01 X7.3093 Y-6.9645
G01 X7.2363 Y-7.0630
G01 X7.1539 Y-7.1539
G01 X7.0630 Y-7.2363
G01 X6.9645 Y-7.3093
G01 X6.8592 Y-7.3724
G01 X6.7484 Y-7.4248
G01 X6.6329 Y-7.4662
G01 X6.5139 Y-7.4960
G01 X6.3925 Y-7.5140
G01 X6.2700 Y-7.5200
G01 X6.1475 Y-7.5140
G01 X6.0261 Y-7.4960
G01 X5.9071 Y-7.4662
G01 X5.7916 Y-7.4248
G01 X5.6808 Y-7.3724
G01 X5.5755 Y-7.3093
G01 X5.4770 Y-7.2363
G01 X5.3861 Y-7.1539
G01 X5.3037 Y-7.0630
G01 X5.2307 Y-6.9645
G01 X5.1676 Y-6.8592
G01 X5.1152 Y-6.7484
G01 X5.0738 Y-6.6329
G01 X5.0440 Y-6.5139
G01 X5.0260 Y-6.3925
G01 X5.0200 Y-6.2700
G01 X5.0260 Y-6.1475
G01 X5.0440 Y-6.0261
G01 X5.0738 Y-5.9071
G01 X5.1152 Y-5.7916
G01 X5.1676 Y-5.6808
G01 X5.2307 Y-5.5755
G01 X5.3037 Y-5.4770
G01 X5.3861 Y-5.3861
G01 X5.4770 Y-5.3037
G01 X5.5755 Y-5.2307
G01 X5.6808 Y-5.1676
G01 X5.7916 Y-5.1152
G01 X5.9071 Y-5.0738
G01 X6.0261 Y-5.0440
G01 X6.1475 Y-5.0260
G01 X6.2700 Y-5.0200
G01 X6.3925 Y-5.0260
G01 X6.5139 Y-5.0440
G01 X6.6329 Y-5.0738
G01 X6.7484 Y-5.1152
G01 X6.8592 Y-5.1676
G01 X6.9645 Y-5.2307
G01 X7.0630 Y-5.3037
G01 X7.1539 Y-5.3861
G01 X7.2363 Y-5.4770
G01 X7.3093 Y-5.5755
G01 X7.3724 Y-5.6808
G01 X7.4248 Y-5.7916
G01 X7.4662 Y-5.9071
G01 X7.4960 Y-6.0261
G01 X7.5140 Y-6.1475
G01 X7.5200 Y-6.2700
G00 X7.5200 Y-6.2700
G01 F80.00
G01 Z-1.1000
G01 F50.00
G01 X7.5140 Y-6.3925
G01 X7.4960 Y-6.5139
G01 X7.4662 Y-6.6329
G01 X7.4248 Y-6.7484
G01 X7.3724 Y-6.8592
G01 X7.3093 Y-6.9645
G01 X7.2363 Y-7.0630
G01 X7.1539 Y-7.1539
G01 X7.0630 Y-7.2363
G01 X6.9645 Y-7.3093
G01 X6.8592 Y-7.3724
G01 X6.7484 Y-7.4248
G01 X6.6329 Y-7.4662
G01 X6.5139 Y-7.4960
G01 X6.3925 Y-7.5140
G01 X6.2700 Y-7.5200
G01 X6.1475 Y-7.5140
G01 X6.0261 Y-7.4960
G01 X5.9071 Y-7.4662
G01 X5.7916 Y-7.4248
G01 X5.6808 Y-7.3724
G01 X5.5755 Y-7.3093
G01 X5.4770 Y-7.2363
G01 X5.3861 Y-7.1539
G01 X5.3037 Y-7.0630
G01 X5.2307 Y-6.9645
G01 X5.1676 Y-6.8592
G01 X5.1152 Y-6.7484
G01 X5.0738 Y-6.6329
G01 X5.0440 Y-6.5139
G01 X5.0260 Y-6.3925
G01 X5.0200 Y-6.2700
G01 X5.0260 Y-6.1475
G01 X5.0440 Y-6.0261
G01 X5.0738 Y-5.9071
G01 X5.1152 Y-5.7916
G01 X5.1676 Y-5.6808
G01 X5.2307 Y-5.5755
G01 X5.3037 Y-5.4770
G01 X5.3861 Y-5.3861
G01 X5.4770 Y-5.3037
G01 X5.5755 Y-5.2307
G01 X5.6808 Y-5.1676
G01 X5.7916 Y-5.1152
G01 X5.9071 Y-5.0738
G01 X6.0261 Y-5.0440
G01 X6.1475 Y-5.0260
G01 X6.2700 Y-5.0200
G01 X6.3925 Y-5.0260
G01 X6.5139 Y-5.0440
G01 X6.6329 Y-5.0738
G01 X6.7484 Y-5.1152
G01 X6.8592 Y-5.1676
G01 X6.9645 Y-5.2307
G01 X7.0630 Y-5.3037
G01 X7.1539 Y-5.3861
G01 X7.2363 Y-5.4770
G01 X7.3093 Y-5.5755
G01 X7.3724 Y-5.6808
G01 X7.4248 Y-5.7916
G01 X7.4662 Y-5.9071
G01 X7.4960 Y-6.0261
G01 X7.5140 Y-6.1475
G01 X7.5200 Y-6.2700
G00 X7.5200 Y-6.2700
G01 F80.00
G01 Z-1.1500
G01 F50.00
G01 X7.5140 Y-6.3925
G01 X7.4960 Y-6.5139
G01 X7.4662 Y-6.6329
G01 X7.4248 Y-6.7484
G01 X7.3724 Y-6.8592
G01 X7.3093 Y-6.9645
G01 X7.2363 Y-7.0630
G01 X7.1539 Y-7.1539
G01 X7.0630 Y-7.2363
G01 X6.9645 Y-7.3093
G01 X6.8592 Y-7.3724
G01 X6.7484 Y-7.4248
G01 X6.6329 Y-7.4662
G01 X6.5139 Y-7.4960
G01 X6.3925 Y-7.5140
G01 X6.2700 Y-7.5200
G01 X6.1475 Y-7.5140
G01 X6.0261 Y-7.4960
G01 X5.9071 Y-7.4662
G01 X5.7916 Y-7.4248
G01 X5.6808 Y-7.3724
G01 X5.5755 Y-7.3093
G01 X5.4770 Y-7.2363
G01 X5.3861 Y-7.1539
G01 X5.3037 Y-7.0630
G01 X5.2307 Y-6.9645
G01 X5.1676 Y-6.8592
G01 X5.1152 Y-6.7484
G01 X5.0738 Y-6.6329
G01 X5.0440 Y-6.5139
G01 X5.0260 Y-6.3925
G01 X5.0200 Y-6.2700
G01 X5.0260 Y-6.1475
G01 X5.0440 Y-6.0261
G01 X5.0738 Y-5.9071
G01 X5.1152 Y-5.7916
G01 X5.1676 Y-5.6808
G01 X5.2307 Y-5.5755
G01 X5.3037 Y-5.4770
G01 X5.3861 Y-5.3861
G01 X5.4770 Y-5.3037
G01 X5.5755 Y-5.2307
G01 X5.6808 Y-5.1676
G01 X5.7916 Y-5.1152
G01 X5.9071 Y-5.0738
G01 X6.0261 Y-5.0440
G01 X6.1475 Y-5.0260
G01 X6.2700 Y-5.0200
G01 X6.3925 Y-5.0260
G01 X6.5139 Y-5.0440
G01 X6.6329 Y-5.0738
G01 X6.7484 Y-5.1152
G01 X6.8592 Y-5.1676
G01 X6.9645 Y-5.2307
G01 X7.0630 Y-5.3037
G01 X7.1539 Y-5.3861
G01 X7.2363 Y-5.4770
G01 X7.3093 Y-5.5755
G01 X7.3724 Y-5.6808
G01 X7.4248 Y-5.7916
G01 X7.4662 Y-5.9071
G01 X7.4960 Y-6.0261
G01 X7.5140 Y-6.1475
G01 X7.5200 Y-6.2700
G00 X7.5200 Y-6.2700
G01 F80.00
G01 Z-1.2000
G01 F50.00
G01 X7.5140 Y-6.3925
G01 X7.4960 Y-6.5139
G01 X7.4662 Y-6.6329
G01 X7.4248 Y-6.7484
G01 X7.3724 Y-6.8592
G01 X7.3093 Y-6.9645
G01 X7.2363 Y-7.0630
G01 X7.1539 Y-7.1539
G01 X7.0630 Y-7.2363
G01 X6.9645 Y-7.3093
G01 X6.8592 Y-7.3724
G01 X6.7484 Y-7.4248
G01 X6.6329 Y-7.4662
G01 X6.5139 Y-7.4960
G01 X6.3925 Y-7.5140
G01 X6.2700 Y-7.5200
G01 X6.1475 Y-7.5140
G01 X6.0261 Y-7.4960
G01 X5.9071 Y-7.4662
G01 X5.7916 Y-7.4248
G01 X5.6808 Y-7.3724
G01 X5.5755 Y-7.3093
G01 X5.4770 Y-7.2363
G01 X5.3861 Y-7.1539
G01 X5.3037 Y-7.0630
G01 X5.2307 Y-6.9645
G01 X5.1676 Y-6.8592
G01 X5.1152 Y-6.7484
G01 X5.0738 Y-6.6329
G01 X5.0440 Y-6.5139
G01 X5.0260 Y-6.3925
G01 X5.0200 Y-6.2700
G01 X5.0260 Y-6.1475
G01 X5.0440 Y-6.0261
G01 X5.0738 Y-5.9071
G01 X5.1152 Y-5.7916
G01 X5.1676 Y-5.6808
G01 X5.2307 Y-5.5755
G01 X5.3037 Y-5.4770
G01 X5.3861 Y-5.3861
G01 X5.4770 Y-5.3037
G01 X5.5755 Y-5.2307
G01 X5.6808 Y-5.1676
G01 X5.7916 Y-5.1152
G01 X5.9071 Y-5.0738
G01 X6.0261 Y-5.0440
G01 X6.1475 Y-5.0260
G01 X6.2700 Y-5.0200
G01 X6.3925 Y-5.0260
G01 X6.5139 Y-5.0440
G01 X6.6329 Y-5.0738
G01 X6.7484 Y-5.1152
G01 X6.8592 Y-5.1676
G01 X6.9645 Y-5.2307
G01 X7.0630 Y-5.3037
G01 X7.1539 Y-5.3861
G01 X7.2363 Y-5.4770
G01 X7.3093 Y-5.5755
G01 X7.3724 Y-5.6808
G01 X7.4248 Y-5.7916
G01 X7.4662 Y-5.9071
G01 X7.4960 Y-6.0261
G01 X7.5140 Y-6.1475
G01 X7.5200 Y-6.2700
G00 X7.5200 Y-6.2700
G01 F80.00
G01 Z-1.2500
G01 F50.00
G01 X7.5140 Y-6.3925
G01 X7.4960 Y-6.5139
G01 X7.4662 Y-6.6329
G01 X7.4248 Y-6.7484
G01 X7.3724 Y-6.8592
G01 X7.3093 Y-6.9645
G01 X7.2363 Y-7.0630
G01 X7.1539 Y-7.1539
G01 X7.0630 Y-7.2363
G01 X6.9645 Y-7.3093
G01 X6.8592 Y-7.3724
G01 X6.7484 Y-7.4248
G01 X6.6329 Y-7.4662
G01 X6.5139 Y-7.4960
G01 X6.3925 Y-7.5140
G01 X6.2700 Y-7.5200
G01 X6.1475 Y-7.5140
G01 X6.0261 Y-7.4960
G01 X5.9071 Y-7.4662
G01 X5.7916 Y-7.4248
G01 X5.6808 Y-7.3724
G01 X5.5755 Y-7.3093
G01 X5.4770 Y-7.2363
G01 X5.3861 Y-7.1539
G01 X5.3037 Y-7.0630
G01 X5.2307 Y-6.9645
G01 X5.1676 Y-6.8592
G01 X5.1152 Y-6.7484
G01 X5.0738 Y-6.6329
G01 X5.0440 Y-6.5139
G01 X5.0260 Y-6.3925
G01 X5.0200 Y-6.2700
G01 X5.0260 Y-6.1475
G01 X5.0440 Y-6.0261
G01 X5.0738 Y-5.9071
G01 X5.1152 Y-5.7916
G01 X5.1676 Y-5.6808
G01 X5.2307 Y-5.5755
G01 X5.3037 Y-5.4770
G01 X5.3861 Y-5.3861
G01 X5.4770 Y-5.3037
G01 X5.5755 Y-5.2307
G01 X5.6808 Y-5.1676
G01 X5.7916 Y-5.1152
G01 X5.9071 Y-5.0738
G01 X6.0261 Y-5.0440
G01 X6.1475 Y-5.0260
G01 X6.2700 Y-5.0200
G01 X6.3925 Y-5.0260
G01 X6.5139 Y-5.0440
G01 X6.6329 Y-5.0738
G01 X6.7484 Y-5.1152
G01 X6.8592 Y-5.1676
G01 X6.9645 Y-5.2307
G01 X7.0630 Y-5.3037
G01 X7.1539 Y-5.3861
G01 X7.2363 Y-5.4770
G01 X7.3093 Y-5.5755
G01 X7.3724 Y-5.6808
G01 X7.4248 Y-5.7916
G01 X7.4662 Y-5.9071
G01 X7.4960 Y-6.0261
G01 X7.5140 Y-6.1475
G01 X7.5200 Y-6.2700
G00 X7.5200 Y-6.2700
G01 F80.00
G01 Z-1.3000
G01 F50.00
G01 X7.5140 Y-6.3925
G01 X7.4960 Y-6.5139
G01 X7.4662 Y-6.6329
G01 X7.4248 Y-6.7484
G01 X7.3724 Y-6.8592
G01 X7.3093 Y-6.9645
G01 X7.2363 Y-7.0630
G01 X7.1539 Y-7.1539
G01 X7.0630 Y-7.2363
G01 X6.9645 Y-7.3093
G01 X6.8592 Y-7.3724
G01 X6.7484 Y-7.4248
G01 X6.6329 Y-7.4662
G01 X6.5139 Y-7.4960
G01 X6.3925 Y-7.5140
G01 X6.2700 Y-7.5200
G01 X6.1475 Y-7.5140
G01 X6.0261 Y-7.4960
G01 X5.9071 Y-7.4662
G01 X5.7916 Y-7.4248
G01 X5.6808 Y-7.3724
G01 X5.5755 Y-7.3093
G01 X5.4770 Y-7.2363
G01 X5.3861 Y-7.1539
G01 X5.3037 Y-7.0630
G01 X5.2307 Y-6.9645
G01 X5.1676 Y-6.8592
G01 X5.1152 Y-6.7484
G01 X5.0738 Y-6.6329
G01 X5.0440 Y-6.5139
G01 X5.0260 Y-6.3925
G01 X5.0200 Y-6.2700
G01 X5.0260 Y-6.1475
G01 X5.0440 Y-6.0261
G01 X5.0738 Y-5.9071
G01 X5.1152 Y-5.7916
G01 X5.1676 Y-5.6808
G01 X5.2307 Y-5.5755
G01 X5.3037 Y-5.4770
G01 X5.3861 Y-5.3861
G01 X5.4770 Y-5.3037
G01 X5.5755 Y-5.2307
G01 X5.6808 Y-5.1676
G01 X5.7916 Y-5.1152
G01 X5.9071 Y-5.0738
G01 X6.0261 Y-5.0440
G01 X6.1475 Y-5.0260
G01 X6.2700 Y-5.0200
G01 X6.3925 Y-5.0260
G01 X6.5139 Y-5.0440
G01 X6.6329 Y-5.0738
G01 X6.7484 Y-5.1152
G01 X6.8592 Y-5.1676
G01 X6.9645 Y-5.2307
G01 X7.0630 Y-5.3037
G01 X7.1539 Y-5.3861
G01 X7.2363 Y-5.4770
G01 X7.3093 Y-5.5755
G01 X7.3724 Y-5.6808
G01 X7.4248 Y-5.7916
G01 X7.4662 Y-5.9071
G01 X7.4960 Y-6.0261
G01 X7.5140 Y-6.1475
G01 X7.5200 Y-6.2700
G00 X7.5200 Y-6.2700
G01 F80.00
G01 Z-1.3500
G01 F50.00
G01 X7.5140 Y-6.3925
G01 X7.4960 Y-6.5139
G01 X7.4662 Y-6.6329
G01 X7.4248 Y-6.7484
G01 X7.3724 Y-6.8592
G01 X7.3093 Y-6.9645
G01 X7.2363 Y-7.0630
G01 X7.1539 Y-7.1539
G01 X7.0630 Y-7.2363
G01 X6.9645 Y-7.3093
G01 X6.8592 Y-7.3724
G01 X6.7484 Y-7.4248
G01 X6.6329 Y-7.4662
G01 X6.5139 Y-7.4960
G01 X6.3925 Y-7.5140
G01 X6.2700 Y-7.5200
G01 X6.1475 Y-7.5140
G01 X6.0261 Y-7.4960
G01 X5.9071 Y-7.4662
G01 X5.7916 Y-7.4248
G01 X5.6808 Y-7.3724
G01 X5.5755 Y-7.3093
G01 X5.4770 Y-7.2363
G01 X5.3861 Y-7.1539
G01 X5.3037 Y-7.0630
G01 X5.2307 Y-6.9645
G01 X5.1676 Y-6.8592
G01 X5.1152 Y-6.7484
G01 X5.0738 Y-6.6329
G01 X5.0440 Y-6.5139
G01 X5.0260 Y-6.3925
G01 X5.0200 Y-6.2700
G01 X5.0260 Y-6.1475
G01 X5.0440 Y-6.0261
G01 X5.0738 Y-5.9071
G01 X5.1152 Y-5.7916
G01 X5.1676 Y-5.6808
G01 X5.2307 Y-5.5755
G01 X5.3037 Y-5.4770
G01 X5.3861 Y-5.3861
G01 X5.4770 Y-5.3037
G01 X5.5755 Y-5.2307
G01 X5.6808 Y-5.1676
G01 X5.7916 Y-5.1152
G01 X5.9071 Y-5.0738
G01 X6.0261 Y-5.0440
G01 X6.1475 Y-5.0260
G01 X6.2700 Y-5.0200
G01 X6.3925 Y-5.0260
G01 X6.5139 Y-5.0440
G01 X6.6329 Y-5.0738
G01 X6.7484 Y-5.1152
G01 X6.8592 Y-5.1676
G01 X6.9645 Y-5.2307
G01 X7.0630 Y-5.3037
G01 X7.1539 Y-5.3861
G01 X7.2363 Y-5.4770
G01 X7.3093 Y-5.5755
G01 X7.3724 Y-5.6808
G01 X7.4248 Y-5.7916
G01 X7.4662 Y-5.9071
G01 X7.4960 Y-6.0261
G01 X7.5140 Y-6.1475
G01 X7.5200 Y-6.2700
G00 X7.5200 Y-6.2700
G01 F80.00
G01 Z-1.4000
G01 F50.00
G01 X7.5140 Y-6.3925
G01 X7.4960 Y-6.5139
G01 X7.4662 Y-6.6329
G01 X7.4248 Y-6.7484
G01 X7.3724 Y-6.8592
G01 X7.3093 Y-6.9645
G01 X7.2363 Y-7.0630
G01 X7.1539 Y-7.1539
G01 X7.0630 Y-7.2363
G01 X6.9645 Y-7.3093
G01 X6.8592 Y-7.3724
G01 X6.7484 Y-7.4248
G01 X6.6329 Y-7.4662
G01 X6.5139 Y-7.4960
G01 X6.3925 Y-7.5140
G01 X6.2700 Y-7.5200
G01 X6.1475 Y-7.5140
G01 X6.0261 Y-7.4960
G01 X5.9071 Y-7.4662
G01 X5.7916 Y-7.4248
G01 X5.6808 Y-7.3724
G01 X5.5755 Y-7.3093
G01 X5.4770 Y-7.2363
G01 X5.3861 Y-7.1539
G01 X5.3037 Y-7.0630
G01 X5.2307 Y-6.9645
G01 X5.1676 Y-6.8592
G01 X5.1152 Y-6.7484
G01 X5.0738 Y-6.6329
G01 X5.0440 Y-6.5139
G01 X5.0260 Y-6.3925
G01 X5.0200 Y-6.2700
G01 X5.0260 Y-6.1475
G01 X5.0440 Y-6.0261
G01 X5.0738 Y-5.9071
G01 X5.1152 Y-5.7916
G01 X5.1676 Y-5.6808
G01 X5.2307 Y-5.5755
G01 X5.3037 Y-5.4770
G01 X5.3861 Y-5.3861
G01 X5.4770 Y-5.3037
G01 X5.5755 Y-5.2307
G01 X5.6808 Y-5.1676
G01 X5.7916 Y-5.1152
G01 X5.9071 Y-5.0738
G01 X6.0261 Y-5.0440
G01 X6.1475 Y-5.0260
G01 X6.2700 Y-5.0200
G01 X6.3925 Y-5.0260
G01 X6.5139 Y-5.0440
G01 X6.6329 Y-5.0738
G01 X6.7484 Y-5.1152
G01 X6.8592 Y-5.1676
G01 X6.9645 Y-5.2307
G01 X7.0630 Y-5.3037
G01 X7.1539 Y-5.3861
G01 X7.2363 Y-5.4770
G01 X7.3093 Y-5.5755
G01 X7.3724 Y-5.6808
G01 X7.4248 Y-5.7916
G01 X7.4662 Y-5.9071
G01 X7.4960 Y-6.0261
G01 X7.5140 Y-6.1475
G01 X7.5200 Y-6.2700
G00 X7.5200 Y-6.2700
G01 F80.00
G01 Z-1.4500
G01 F50.00
G01 X7.5140 Y-6.3925
G01 X7.4960 Y-6.5139
G01 X7.4662 Y-6.6329
G01 X7.4248 Y-6.7484
G01 X7.3724 Y-6.8592
G01 X7.3093 Y-6.9645
G01 X7.2363 Y-7.0630
G01 X7.1539 Y-7.1539
G01 X7.0630 Y-7.2363
G01 X6.9645 Y-7.3093
G01 X6.8592 Y-7.3724
G01 X6.7484 Y-7.4248
G01 X6.6329 Y-7.4662
G01 X6.5139 Y-7.4960
G01 X6.3925 Y-7.5140
G01 X6.2700 Y-7.5200
G01 X6.1475 Y-7.5140
G01 X6.0261 Y-7.4960
G01 X5.9071 Y-7.4662
G01 X5.7916 Y-7.4248
G01 X5.6808 Y-7.3724
G01 X5.5755 Y-7.3093
G01 X5.4770 Y-7.2363
G01 X5.3861 Y-7.1539
G01 X5.3037 Y-7.0630
G01 X5.2307 Y-6.9645
G01 X5.1676 Y-6.8592
G01 X5.1152 Y-6.7484
G01 X5.0738 Y-6.6329
G01 X5.0440 Y-6.5139
G01 X5.0260 Y-6.3925
G01 X5.0200 Y-6.2700
G01 X5.0260 Y-6.1475
G01 X5.0440 Y-6.0261
G01 X5.0738 Y-5.9071
G01 X5.1152 Y-5.7916
G01 X5.1676 Y-5.6808
G01 X5.2307 Y-5.5755
G01 X5.3037 Y-5.4770
G01 X5.3861 Y-5.3861
G01 X5.4770 Y-5.3037
G01 X5.5755 Y-5.2307
G01 X5.6808 Y-5.1676
G01 X5.7916 Y-5.1152
G01 X5.9071 Y-5.0738
G01 X6.0261 Y-5.0440
G01 X6.1475 Y-5.0260
G01 X6.2700 Y-5.0200
G01 X6.3925 Y-5.0260
G01 X6.5139 Y-5.0440
G01 X6.6329 Y-5.0738
G01 X6.7484 Y-5.1152
G01 X6.8592 Y-5.1676
G01 X6.9645 Y-5.2307
G01 X7.0630 Y-5.3037
G01 X7.1539 Y-5.3861
G01 X7.2363 Y-5.4770
G01 X7.3093 Y-5.5755
G01 X7.3724 Y-5.6808
G01 X7.4248 Y-5.7916
G01 X7.4662 Y-5.9071
G01 X7.4960 Y-6.0261
G01 X7.5140 Y-6.1475
G01 X7.5200 Y-6.2700
G00 X7.5200 Y-6.2700
G01 F80.00
G01 Z-1.5000
G01 F50.00
G01 X7.5140 Y-6.3925
G01 X7.4960 Y-6.5139
G01 X7.4662 Y-6.6329
G01 X7.4248 Y-6.7484
G01 X7.3724 Y-6.8592
G01 X7.3093 Y-6.9645
G01 X7.2363 Y-7.0630
G01 X7.1539 Y-7.1539
G01 X7.0630 Y-7.2363
G01 X6.9645 Y-7.3093
G01 X6.8592 Y-7.3724
G01 X6.7484 Y-7.4248
G01 X6.6329 Y-7.4662
G01 X6.5139 Y-7.4960
G01 X6.3925 Y-7.5140
G01 X6.2700 Y-7.5200
G01 X6.1475 Y-7.5140
G01 X6.0261 Y-7.4960
G01 X5.9071 Y-7.4662
G01 X5.7916 Y-7.4248
G01 X5.6808 Y-7.3724
G01 X5.5755 Y-7.3093
G01 X5.4770 Y-7.2363
G01 X5.3861 Y-7.1539
G01 X5.3037 Y-7.0630
G01 X5.2307 Y-6.9645
G01 X5.1676 Y-6.8592
G01 X5.1152 Y-6.7484
G01 X5.0738 Y-6.6329
G01 X5.0440 Y-6.5139
G01 X5.0260 Y-6.3925
G01 X5.0200 Y-6.2700
G01 X5.0260 Y-6.1475
G01 X5.0440 Y-6.0261
G01 X5.0738 Y-5.9071
G01 X5.1152 Y-5.7916
G01 X5.1676 Y-5.6808
G01 X5.2307 Y-5.5755
G01 X5.3037 Y-5.4770
G01 X5.3861 Y-5.3861
G01 X5.4770 Y-5.3037
G01 X5.5755 Y-5.2307
G01 X5.6808 Y-5.1676
G01 X5.7916 Y-5.1152
G01 X5.9071 Y-5.0738
G01 X6.0261 Y-5.0440
G01 X6.1475 Y-5.0260
G01 X6.2700 Y-5.0200
G01 X6.3925 Y-5.0260
G01 X6.5139 Y-5.0440
G01 X6.6329 Y-5.0738
G01 X6.7484 Y-5.1152
G01 X6.8592 Y-5.1676
G01 X6.9645 Y-5.2307
G01 X7.0630 Y-5.3037
G01 X7.1539 Y-5.3861
G01 X7.2363 Y-5.4770
G01 X7.3093 Y-5.5755
G01 X7.3724 Y-5.6808
G01 X7.4248 Y-5.7916
G01 X7.4662 Y-5.9071
G01 X7.4960 Y-6.0261
G01 X7.5140 Y-6.1475
G01 X7.5200 Y-6.2700
G00 X7.5200 Y-6.2700
G01 F80.00
G01 Z-1.5200
G01 F50.00
G01 X7.5140 Y-6.3925
G01 X7.4960 Y-6.5139
G01 X7.4662 Y-6.6329
G01 X7.4248 Y-6.7484
G01 X7.3724 Y-6.8592
G01 X7.3093 Y-6.9645
G01 X7.2363 Y-7.0630
G01 X7.1539 Y-7.1539
G01 X7.0630 Y-7.2363
G01 X6.9645 Y-7.3093
G01 X6.8592 Y-7.3724
G01 X6.7484 Y-7.4248
G01 X6.6329 Y-7.4662
G01 X6.5139 Y-7.4960
G01 X6.3925 Y-7.5140
G01 X6.2700 Y-7.5200
G01 X6.1475 Y-7.5140
G01 X6.0261 Y-7.4960
G01 X5.9071 Y-7.4662
G01 X5.7916 Y-7.4248
G01 X5.6808 Y-7.3724
G01 X5.5755 Y-7.3093
G01 X5.4770 Y-7.2363
G01 X5.3861 Y-7.1539
G01 X5.3037 Y-7.0630
G01 X5.2307 Y-6.9645
G01 X5.1676 Y-6.8592
G01 X5.1152 Y-6.7484
G01 X5.0738 Y-6.6329
G01 X5.0440 Y-6.5139
G01 X5.0260 Y-6.3925
G01 X5.0200 Y-6.2700
G01 X5.0260 Y-6.1475
G01 X5.0440 Y-6.0261
G01 X5.0738 Y-5.9071
G01 X5.1152 Y-5.7916
G01 X5.1676 Y-5.6808
G01 X5.2307 Y-5.5755
G01 X5.3037 Y-5.4770
G01 X5.3861 Y-5.3861
G01 X5.4770 Y-5.3037
G01 X5.5755 Y-5.2307
G01 X5.6808 Y-5.1676
G01 X5.7916 Y-5.1152
G01 X5.9071 Y-5.0738
G01 X6.0261 Y-5.0440
G01 X6.1475 Y-5.0260
G01 X6.2700 Y-5.0200
G01 X6.3925 Y-5.0260
G01 X6.5139 Y-5.0440
G01 X6.6329 Y-5.0738
G01 X6.7484 Y-5.1152
G01 X6.8592 Y-5.1676
G01 X6.9645 Y-5.2307
G01 X7.0630 Y-5.3037
G01 X7.1539 Y-5.3861
G01 X7.2363 Y-5.4770
G01 X7.3093 Y-5.5755
G01 X7.3724 Y-5.6808
G01 X7.4248 Y-5.7916
G01 X7.4662 Y-5.9071
G01 X7.4960 Y-6.0261
G01 X7.5140 Y-6.1475
G01 X7.5200 Y-6.2700
G00 Z3.0000
G00 X15.5900 Y-12.7800
G01 F80.00
G01 Z-0.0500
G01 F50.00
G01 X15.5893 Y-12.7947
G01 X15.5871 Y-12.8093
G01 X15.5835 Y-12.8235
G01 X15.5786 Y-12.8374
G01 X15.5723 Y-12.8507
G01 X15.5647 Y-12.8633
G01 X15.5560 Y-12.8752
G01 X15.5461 Y-12.8861
G01 X15.5352 Y-12.8960
G01 X15.5233 Y-12.9047
G01 X15.5107 Y-12.9123
G01 X15.4974 Y-12.9186
G01 X15.4835 Y-12.9235
G01 X15.4693 Y-12.9271
G01 X15.4547 Y-12.9293
G01 X15.4400 Y-12.9300
G01 X15.4253 Y-12.9293
G01 X15.4107 Y-12.9271
G01 X15.3965 Y-12.9235
G01 X15.3826 Y-12.9186
G01 X15.3693 Y-12.9123
G01 X15.3567 Y-12.9047
G01 X15.3448 Y-12.8960
G01 X15.3339 Y-12.8861
G01 X15.3240 Y-12.8752
G01 X15.3153 Y-12.8633
G01 X15.3077 Y-12.8507
G01 X15.3014 Y-12.8374
G01 X15.2965 Y-12.8235
G01 X15.2929 Y-12.8093
G01 X15.2907 Y-12.7947
G01 X15.2900 Y-12.7800
G01 X15.2907 Y-12.7653
G01 X15.2929 Y-12.7507
G01 X15.2965 Y-12.7365
G01 X15.3014 Y-12.7226
G01 X15.3077 Y-12.7093
G01 X15.3153 Y-12.6967
G01 X15.3240 Y-12.6848
G01 X15.3339 Y-12.6739
G01 X15.3448 Y-12.6640
G01 X15.3567 Y-12.6553
G01 X15.3693 Y-12.6477
G01 X15.3826 Y-12.6414
G01 X15.3965 Y-12.6365
G01 X15.4107 Y-12.6329
G01 X15.4253 Y-12.6307
G01 X15.4400 Y-12.6300
G01 X15.4547 Y-12.6307
G01 X15.4693 Y-12.6329
G01 X15.4835 Y-12.6365
G01 X15.4974 Y-12.6414
G01 X15.5107 Y-12.6477
G01 X15.5233 Y-12.6553
G01 X15.5352 Y-12.6640
G01 X15.5461 Y-12.6739
G01 X15.5560 Y-12.6848
G01 X15.5647 Y-12.6967
G01 X15.5723 Y-12.7093
G01 X15.5786 Y-12.7226
G01 X15.5835 Y-12.7365
G01 X15.5871 Y-12.7507
G01 X15.5893 Y-12.7653
G01 X15.5900 Y-12.7800
G00 X15.5900 Y-12.7800
G01 F80.00
G01 Z-0.1000
G01 F50.00
G01 X15.5893 Y-12.7947
G01 X15.5871 Y-12.8093
G01 X15.5835 Y-12.8235
G01 X15.5786 Y-12.8374
G01 X15.5723 Y-12.8507
G01 X15.5647 Y-12.8633
G01 X15.5560 Y-12.8752
G01 X15.5461 Y-12.8861
G01 X15.5352 Y-12.8960
G01 X15.5233 Y-12.9047
G01 X15.5107 Y-12.9123
G01 X15.4974 Y-12.9186
G01 X15.4835 Y-12.9235
G01 X15.4693 Y-12.9271
G01 X15.4547 Y-12.9293
G01 X15.4400 Y-12.9300
G01 X15.4253 Y-12.9293
G01 X15.4107 Y-12.9271
G01 X15.3965 Y-12.9235
G01 X15.3826 Y-12.9186
G01 X15.3693 Y-12.9123
G01 X15.3567 Y-12.9047
G01 X15.3448 Y-12.8960
G01 X15.3339 Y-12.8861
G01 X15.3240 Y-12.8752
G01 X15.3153 Y-12.8633
G01 X15.3077 Y-12.8507
G01 X15.3014 Y-12.8374
G01 X15.2965 Y-12.8235
G01 X15.2929 Y-12.8093
G01 X15.2907 Y-12.7947
G01 X15.2900 Y-12.7800
G01 X15.2907 Y-12.7653
G01 X15.2929 Y-12.7507
G01 X15.2965 Y-12.7365
G01 X15.3014 Y-12.7226
G01 X15.3077 Y-12.7093
G01 X15.3153 Y-12.6967
G01 X15.3240 Y-12.6848
G01 X15.3339 Y-12.6739
G01 X15.3448 Y-12.6640
G01 X15.3567 Y-12.6553
G01 X15.3693 Y-12.6477
G01 X15.3826 Y-12.6414
G01 X15.3965 Y-12.6365
G01 X15.4107 Y-12.6329
G01 X15.4253 Y-12.6307
G01 X15.4400 Y-12.6300
G01 X15.4547 Y-12.6307
G01 X15.4693 Y-12.6329
G01 X15.4835 Y-12.6365
G01 X15.4974 Y-12.6414
G01 X15.5107 Y-12.6477
G01 X15.5233 Y-12.6553
G01 X15.5352 Y-12.6640
G01 X15.5461 Y-12.6739
G01 X15.5560 Y-12.6848
G01 X15.5647 Y-12.6967
G01 X15.5723 Y-12.7093
G01 X15.5786 Y-12.7226
G01 X15.5835 Y-12.7365
G01 X15.5871 Y-12.7507
G01 X15.5893 Y-12.7653
G01 X15.5900 Y-12.7800
G00 X15.5900 Y-12.7800
G01 F80.00
G01 Z-0.1500
G01 F50.00
G01 X15.5893 Y-12.7947
G01 X15.5871 Y-12.8093
G01 X15.5835 Y-12.8235
G01 X15.5786 Y-12.8374
G01 X15.5723 Y-12.8507
G01 X15.5647 Y-12.8633
G01 X15.5560 Y-12.8752
G01 X15.5461 Y-12.8861
G01 X15.5352 Y-12.8960
G01 X15.5233 Y-12.9047
G01 X15.5107 Y-12.9123
G01 X15.4974 Y-12.9186
G01 X15.4835 Y-12.9235
G01 X15.4693 Y-12.9271
G01 X15.4547 Y-12.9293
G01 X15.4400 Y-12.9300
G01 X15.4253 Y-12.9293
G01 X15.4107 Y-12.9271
G01 X15.3965 Y-12.9235
G01 X15.3826 Y-12.9186
G01 X15.3693 Y-12.9123
G01 X15.3567 Y-12.9047
G01 X15.3448 Y-12.8960
G01 X15.3339 Y-12.8861
G01 X15.3240 Y-12.8752
G01 X15.3153 Y-12.8633
G01 X15.3077 Y-12.8507
G01 X15.3014 Y-12.8374
G01 X15.2965 Y-12.8235
G01 X15.2929 Y-12.8093
G01 X15.2907 Y-12.7947
G01 X15.2900 Y-12.7800
G01 X15.2907 Y-12.7653
G01 X15.2929 Y-12.7507
G01 X15.2965 Y-12.7365
G01 X15.3014 Y-12.7226
G01 X15.3077 Y-12.7093
G01 X15.3153 Y-12.6967
G01 X15.3240 Y-12.6848
G01 X15.3339 Y-12.6739
G01 X15.3448 Y-12.6640
G01 X15.3567 Y-12.6553
G01 X15.3693 Y-12.6477
G01 X15.3826 Y-12.6414
G01 X15.3965 Y-12.6365
G01 X15.4107 Y-12.6329
G01 X15.4253 Y-12.6307
G01 X15.4400 Y-12.6300
G01 X15.4547 Y-12.6307
G01 X15.4693 Y-12.6329
G01 X15.4835 Y-12.6365
G01 X15.4974 Y-12.6414
G01 X15.5107 Y-12.6477
G01 X15.5233 Y-12.6553
G01 X15.5352 Y-12.6640
G01 X15.5461 Y-12.6739
G01 X15.5560 Y-12.6848
G01 X15.5647 Y-12.6967
G01 X15.5723 Y-12.7093
G01 X15.5786 Y-12.7226
G01 X15.5835 Y-12.7365
G01 X15.5871 Y-12.7507
G01 X15.5893 Y-12.7653
G01 X15.5900 Y-12.7800
G00 X15.5900 Y-12.7800
G01 F80.00
G01 Z-0.2000
G01 F50.00
G01 X15.5893 Y-12.7947
G01 X15.5871 Y-12.8093
G01 X15.5835 Y-12.8235
G01 X15.5786 Y-12.8374
G01 X15.5723 Y-12.8507
G01 X15.5647 Y-12.8633
G01 X15.5560 Y-12.8752
G01 X15.5461 Y-12.8861
G01 X15.5352 Y-12.8960
G01 X15.5233 Y-12.9047
G01 X15.5107 Y-12.9123
G01 X15.4974 Y-12.9186
G01 X15.4835 Y-12.9235
G01 X15.4693 Y-12.9271
G01 X15.4547 Y-12.9293
G01 X15.4400 Y-12.9300
G01 X15.4253 Y-12.9293
G01 X15.4107 Y-12.9271
G01 X15.3965 Y-12.9235
G01 X15.3826 Y-12.9186
G01 X15.3693 Y-12.9123
G01 X15.3567 Y-12.9047
G01 X15.3448 Y-12.8960
G01 X15.3339 Y-12.8861
G01 X15.3240 Y-12.8752
G01 X15.3153 Y-12.8633
G01 X15.3077 Y-12.8507
G01 X15.3014 Y-12.8374
G01 X15.2965 Y-12.8235
G01 X15.2929 Y-12.8093
G01 X15.2907 Y-12.7947
G01 X15.2900 Y-12.7800
G01 X15.2907 Y-12.7653
G01 X15.2929 Y-12.7507
G01 X15.2965 Y-12.7365
G01 X15.3014 Y-12.7226
G01 X15.3077 Y-12.7093
G01 X15.3153 Y-12.6967
G01 X15.3240 Y-12.6848
G01 X15.3339 Y-12.6739
G01 X15.3448 Y-12.6640
G01 X15.3567 Y-12.6553
G01 X15.3693 Y-12.6477
G01 X15.3826 Y-12.6414
G01 X15.3965 Y-12.6365
G01 X15.4107 Y-12.6329
G01 X15.4253 Y-12.6307
G01 X15.4400 Y-12.6300
G01 X15.4547 Y-12.6307
G01 X15.4693 Y-12.6329
G01 X15.4835 Y-12.6365
G01 X15.4974 Y-12.6414
G01 X15.5107 Y-12.6477
G01 X15.5233 Y-12.6553
G01 X15.5352 Y-12.6640
G01 X15.5461 Y-12.6739
G01 X15.5560 Y-12.6848
G01 X15.5647 Y-12.6967
G01 X15.5723 Y-12.7093
G01 X15.5786 Y-12.7226
G01 X15.5835 Y-12.7365
G01 X15.5871 Y-12.7507
G01 X15.5893 Y-12.7653
G01 X15.5900 Y-12.7800
G00 X15.5900 Y-12.7800
G01 F80.00
G01 Z-0.2500
G01 F50.00
G01 X15.5893 Y-12.7947
G01 X15.5871 Y-12.8093
G01 X15.5835 Y-12.8235
G01 X15.5786 Y-12.8374
G01 X15.5723 Y-12.8507
G01 X15.5647 Y-12.8633
G01 X15.5560 Y-12.8752
G01 X15.5461 Y-12.8861
G01 X15.5352 Y-12.8960
G01 X15.5233 Y-12.9047
G01 X15.5107 Y-12.9123
G01 X15.4974 Y-12.9186
G01 X15.4835 Y-12.9235
G01 X15.4693 Y-12.9271
G01 X15.4547 Y-12.9293
G01 X15.4400 Y-12.9300
G01 X15.4253 Y-12.9293
G01 X15.4107 Y-12.9271
G01 X15.3965 Y-12.9235
G01 X15.3826 Y-12.9186
G01 X15.3693 Y-12.9123
G01 X15.3567 Y-12.9047
G01 X15.3448 Y-12.8960
G01 X15.3339 Y-12.8861
G01 X15.3240 Y-12.8752
G01 X15.3153 Y-12.8633
G01 X15.3077 Y-12.8507
G01 X15.3014 Y-12.8374
G01 X15.2965 Y-12.8235
G01 X15.2929 Y-12.8093
G01 X15.2907 Y-12.7947
G01 X15.2900 Y-12.7800
G01 X15.2907 Y-12.7653
G01 X15.2929 Y-12.7507
G01 X15.2965 Y-12.7365
G01 X15.3014 Y-12.7226
G01 X15.3077 Y-12.7093
G01 X15.3153 Y-12.6967
G01 X15.3240 Y-12.6848
G01 X15.3339 Y-12.6739
G01 X15.3448 Y-12.6640
G01 X15.3567 Y-12.6553
G01 X15.3693 Y-12.6477
G01 X15.3826 Y-12.6414
G01 X15.3965 Y-12.6365
G01 X15.4107 Y-12.6329
G01 X15.4253 Y-12.6307
G01 X15.4400 Y-12.6300
G01 X15.4547 Y-12.6307
G01 X15.4693 Y-12.6329
G01 X15.4835 Y-12.6365
G01 X15.4974 Y-12.6414
G01 X15.5107 Y-12.6477
G01 X15.5233 Y-12.6553
G01 X15.5352 Y-12.6640
G01 X15.5461 Y-12.6739
G01 X15.5560 Y-12.6848
G01 X15.5647 Y-12.6967
G01 X15.5723 Y-12.7093
G01 X15.5786 Y-12.7226
G01 X15.5835 Y-12.7365
G01 X15.5871 Y-12.7507
G01 X15.5893 Y-12.7653
G01 X15.5900 Y-12.7800
G00 X15.5900 Y-12.7800
G01 F80.00
G01 Z-0.3000
G01 F50.00
G01 X15.5893 Y-12.7947
G01 X15.5871 Y-12.8093
G01 X15.5835 Y-12.8235
G01 X15.5786 Y-12.8374
G01 X15.5723 Y-12.8507
G01 X15.5647 Y-12.8633
G01 X15.5560 Y-12.8752
G01 X15.5461 Y-12.8861
G01 X15.5352 Y-12.8960
G01 X15.5233 Y-12.9047
G01 X15.5107 Y-12.9123
G01 X15.4974 Y-12.9186
G01 X15.4835 Y-12.9235
G01 X15.4693 Y-12.9271
G01 X15.4547 Y-12.9293
G01 X15.4400 Y-12.9300
G01 X15.4253 Y-12.9293
G01 X15.4107 Y-12.9271
G01 X15.3965 Y-12.9235
G01 X15.3826 Y-12.9186
G01 X15.3693 Y-12.9123
G01 X15.3567 Y-12.9047
G01 X15.3448 Y-12.8960
G01 X15.3339 Y-12.8861
G01 X15.3240 Y-12.8752
G01 X15.3153 Y-12.8633
G01 X15.3077 Y-12.8507
G01 X15.3014 Y-12.8374
G01 X15.2965 Y-12.8235
G01 X15.2929 Y-12.8093
G01 X15.2907 Y-12.7947
G01 X15.2900 Y-12.7800
G01 X15.2907 Y-12.7653
G01 X15.2929 Y-12.7507
G01 X15.2965 Y-12.7365
G01 X15.3014 Y-12.7226
G01 X15.3077 Y-12.7093
G01 X15.3153 Y-12.6967
G01 X15.3240 Y-12.6848
G01 X15.3339 Y-12.6739
G01 X15.3448 Y-12.6640
G01 X15.3567 Y-12.6553
G01 X15.3693 Y-12.6477
G01 X15.3826 Y-12.6414
G01 X15.3965 Y-12.6365
G01 X15.4107 Y-12.6329
G01 X15.4253 Y-12.6307
G01 X15.4400 Y-12.6300
G01 X15.4547 Y-12.6307
G01 X15.4693 Y-12.6329
G01 X15.4835 Y-12.6365
G01 X15.4974 Y-12.6414
G01 X15.5107 Y-12.6477
G01 X15.5233 Y-12.6553
G01 X15.5352 Y-12.6640
G01 X15.5461 Y-12.6739
G01 X15.5560 Y-12.6848
G01 X15.5647 Y-12.6967
G01 X15.5723 Y-12.7093
G01 X15.5786 Y-12.7226
G01 X15.5835 Y-12.7365
G01 X15.5871 Y-12.7507
G01 X15.5893 Y-12.7653
G01 X15.5900 Y-12.7800
G00 X15.5900 Y-12.7800
G01 F80.00
G01 Z-0.3500
G01 F50.00
G01 X15.5893 Y-12.7947
G01 X15.5871 Y-12.8093
G01 X15.5835 Y-12.8235
G01 X15.5786 Y-12.8374
G01 X15.5723 Y-12.8507
G01 X15.5647 Y-12.8633
G01 X15.5560 Y-12.8752
G01 X15.5461 Y-12.8861
G01 X15.5352 Y-12.8960
G01 X15.5233 Y-12.9047
G01 X15.5107 Y-12.9123
G01 X15.4974 Y-12.9186
G01 X15.4835 Y-12.9235
G01 X15.4693 Y-12.9271
G01 X15.4547 Y-12.9293
G01 X15.4400 Y-12.9300
G01 X15.4253 Y-12.9293
G01 X15.4107 Y-12.9271
G01 X15.3965 Y-12.9235
G01 X15.3826 Y-12.9186
G01 X15.3693 Y-12.9123
G01 X15.3567 Y-12.9047
G01 X15.3448 Y-12.8960
G01 X15.3339 Y-12.8861
G01 X15.3240 Y-12.8752
G01 X15.3153 Y-12.8633
G01 X15.3077 Y-12.8507
G01 X15.3014 Y-12.8374
G01 X15.2965 Y-12.8235
G01 X15.2929 Y-12.8093
G01 X15.2907 Y-12.7947
G01 X15.2900 Y-12.7800
G01 X15.2907 Y-12.7653
G01 X15.2929 Y-12.7507
G01 X15.2965 Y-12.7365
G01 X15.3014 Y-12.7226
G01 X15.3077 Y-12.7093
G01 X15.3153 Y-12.6967
G01 X15.3240 Y-12.6848
G01 X15.3339 Y-12.6739
G01 X15.3448 Y-12.6640
G01 X15.3567 Y-12.6553
G01 X15.3693 Y-12.6477
G01 X15.3826 Y-12.6414
G01 X15.3965 Y-12.6365
G01 X15.4107 Y-12.6329
G01 X15.4253 Y-12.6307
G01 X15.4400 Y-12.6300
G01 X15.4547 Y-12.6307
G01 X15.4693 Y-12.6329
G01 X15.4835 Y-12.6365
G01 X15.4974 Y-12.6414
G01 X15.5107 Y-12.6477
G01 X15.5233 Y-12.6553
G01 X15.5352 Y-12.6640
G01 X15.5461 Y-12.6739
G01 X15.5560 Y-12.6848
G01 X15.5647 Y-12.6967
G01 X15.5723 Y-12.7093
G01 X15.5786 Y-12.7226
G01 X15.5835 Y-12.7365
G01 X15.5871 Y-12.7507
G01 X15.5893 Y-12.7653
G01 X15.5900 Y-12.7800
G00 X15.5900 Y-12.7800
G01 F80.00
G01 Z-0.4000
G01 F50.00
G01 X15.5893 Y-12.7947
G01 X15.5871 Y-12.8093
G01 X15.5835 Y-12.8235
G01 X15.5786 Y-12.8374
G01 X15.5723 Y-12.8507
G01 X15.5647 Y-12.8633
G01 X15.5560 Y-12.8752
G01 X15.5461 Y-12.8861
G01 X15.5352 Y-12.8960
G01 X15.5233 Y-12.9047
G01 X15.5107 Y-12.9123
G01 X15.4974 Y-12.9186
G01 X15.4835 Y-12.9235
G01 X15.4693 Y-12.9271
G01 X15.4547 Y-12.9293
G01 X15.4400 Y-12.9300
G01 X15.4253 Y-12.9293
G01 X15.4107 Y-12.9271
G01 X15.3965 Y-12.9235
G01 X15.3826 Y-12.9186
G01 X15.3693 Y-12.9123
G01 X15.3567 Y-12.9047
G01 X15.3448 Y-12.8960
G01 X15.3339 Y-12.8861
G01 X15.3240 Y-12.8752
G01 X15.3153 Y-12.8633
G01 X15.3077 Y-12.8507
G01 X15.3014 Y-12.8374
G01 X15.2965 Y-12.8235
G01 X15.2929 Y-12.8093
G01 X15.2907 Y-12.7947
G01 X15.2900 Y-12.7800
G01 X15.2907 Y-12.7653
G01 X15.2929 Y-12.7507
G01 X15.2965 Y-12.7365
G01 X15.3014 Y-12.7226
G01 X15.3077 Y-12.7093
G01 X15.3153 Y-12.6967
G01 X15.3240 Y-12.6848
G01 X15.3339 Y-12.6739
G01 X15.3448 Y-12.6640
G01 X15.3567 Y-12.6553
G01 X15.3693 Y-12.6477
G01 X15.3826 Y-12.6414
G01 X15.3965 Y-12.6365
G01 X15.4107 Y-12.6329
G01 X15.4253 Y-12.6307
G01 X15.4400 Y-12.6300
G01 X15.4547 Y-12.6307
G01 X15.4693 Y-12.6329
G01 X15.4835 Y-12.6365
G01 X15.4974 Y-12.6414
G01 X15.5107 Y-12.6477
G01 X15.5233 Y-12.6553
G01 X15.5352 Y-12.6640
G01 X15.5461 Y-12.6739
G01 X15.5560 Y-12.6848
G01 X15.5647 Y-12.6967
G01 X15.5723 Y-12.7093
G01 X15.5786 Y-12.7226
G01 X15.5835 Y-12.7365
G01 X15.5871 Y-12.7507
G01 X15.5893 Y-12.7653
G01 X15.5900 Y-12.7800
G00 X15.5900 Y-12.7800
G01 F80.00
G01 Z-0.4500
G01 F50.00
G01 X15.5893 Y-12.7947
G01 X15.5871 Y-12.8093
G01 X15.5835 Y-12.8235
G01 X15.5786 Y-12.8374
G01 X15.5723 Y-12.8507
G01 X15.5647 Y-12.8633
G01 X15.5560 Y-12.8752
G01 X15.5461 Y-12.8861
G01 X15.5352 Y-12.8960
G01 X15.5233 Y-12.9047
G01 X15.5107 Y-12.9123
G01 X15.4974 Y-12.9186
G01 X15.4835 Y-12.9235
G01 X15.4693 Y-12.9271
G01 X15.4547 Y-12.9293
G01 X15.4400 Y-12.9300
G01 X15.4253 Y-12.9293
G01 X15.4107 Y-12.9271
G01 X15.3965 Y-12.9235
G01 X15.3826 Y-12.9186
G01 X15.3693 Y-12.9123
G01 X15.3567 Y-12.9047
G01 X15.3448 Y-12.8960
G01 X15.3339 Y-12.8861
G01 X15.3240 Y-12.8752
G01 X15.3153 Y-12.8633
G01 X15.3077 Y-12.8507
G01 X15.3014 Y-12.8374
G01 X15.2965 Y-12.8235
G01 X15.2929 Y-12.8093
G01 X15.2907 Y-12.7947
G01 X15.2900 Y-12.7800
G01 X15.2907 Y-12.7653
G01 X15.2929 Y-12.7507
G01 X15.2965 Y-12.7365
G01 X15.3014 Y-12.7226
G01 X15.3077 Y-12.7093
G01 X15.3153 Y-12.6967
G01 X15.3240 Y-12.6848
G01 X15.3339 Y-12.6739
G01 X15.3448 Y-12.6640
G01 X15.3567 Y-12.6553
G01 X15.3693 Y-12.6477
G01 X15.3826 Y-12.6414
G01 X15.3965 Y-12.6365
G01 X15.4107 Y-12.6329
G01 X15.4253 Y-12.6307
G01 X15.4400 Y-12.6300
G01 X15.4547 Y-12.6307
G01 X15.4693 Y-12.6329
G01 X15.4835 Y-12.6365
G01 X15.4974 Y-12.6414
G01 X15.5107 Y-12.6477
G01 X15.5233 Y-12.6553
G01 X15.5352 Y-12.6640
G01 X15.5461 Y-12.6739
G01 X15.5560 Y-12.6848
G01 X15.5647 Y-12.6967
G01 X15.5723 Y-12.7093
G01 X15.5786 Y-12.7226
G01 X15.5835 Y-12.7365
G01 X15.5871 Y-12.7507
G01 X15.5893 Y-12.7653
G01 X15.5900 Y-12.7800
G00 X15.5900 Y-12.7800
G01 F80.00
G01 Z-0.5000
G01 F50.00
G01 X15.5893 Y-12.7947
G01 X15.5871 Y-12.8093
G01 X15.5835 Y-12.8235
G01 X15.5786 Y-12.8374
G01 X15.5723 Y-12.8507
G01 X15.5647 Y-12.8633
G01 X15.5560 Y-12.8752
G01 X15.5461 Y-12.8861
G01 X15.5352 Y-12.8960
G01 X15.5233 Y-12.9047
G01 X15.5107 Y-12.9123
G01 X15.4974 Y-12.9186
G01 X15.4835 Y-12.9235
G01 X15.4693 Y-12.9271
G01 X15.4547 Y-12.9293
G01 X15.4400 Y-12.9300
G01 X15.4253 Y-12.9293
G01 X15.4107 Y-12.9271
G01 X15.3965 Y-12.9235
G01 X15.3826 Y-12.9186
G01 X15.3693 Y-12.9123
G01 X15.3567 Y-12.9047
G01 X15.3448 Y-12.8960
G01 X15.3339 Y-12.8861
G01 X15.3240 Y-12.8752
G01 X15.3153 Y-12.8633
G01 X15.3077 Y-12.8507
G01 X15.3014 Y-12.8374
G01 X15.2965 Y-12.8235
G01 X15.2929 Y-12.8093
G01 X15.2907 Y-12.7947
G01 X15.2900 Y-12.7800
G01 X15.2907 Y-12.7653
G01 X15.2929 Y-12.7507
G01 X15.2965 Y-12.7365
G01 X15.3014 Y-12.7226
G01 X15.3077 Y-12.7093
G01 X15.3153 Y-12.6967
G01 X15.3240 Y-12.6848
G01 X15.3339 Y-12.6739
G01 X15.3448 Y-12.6640
G01 X15.3567 Y-12.6553
G01 X15.3693 Y-12.6477
G01 X15.3826 Y-12.6414
G01 X15.3965 Y-12.6365
G01 X15.4107 Y-12.6329
G01 X15.4253 Y-12.6307
G01 X15.4400 Y-12.6300
G01 X15.4547 Y-12.6307
G01 X15.4693 Y-12.6329
G01 X15.4835 Y-12.6365
G01 X15.4974 Y-12.6414
G01 X15.5107 Y-12.6477
G01 X15.5233 Y-12.6553
G01 X15.5352 Y-12.6640
G01 X15.5461 Y-12.6739
G01 X15.5560 Y-12.6848
G01 X15.5647 Y-12.6967
G01 X15.5723 Y-12.7093
G01 X15.5786 Y-12.7226
G01 X15.5835 Y-12.7365
G01 X15.5871 Y-12.7507
G01 X15.5893 Y-12.7653
G01 X15.5900 Y-12.7800
G00 X15.5900 Y-12.7800
G01 F80.00
G01 Z-0.5500
G01 F50.00
G01 X15.5893 Y-12.7947
G01 X15.5871 Y-12.8093
G01 X15.5835 Y-12.8235
G01 X15.5786 Y-12.8374
G01 X15.5723 Y-12.8507
G01 X15.5647 Y-12.8633
G01 X15.5560 Y-12.8752
G01 X15.5461 Y-12.8861
G01 X15.5352 Y-12.8960
G01 X15.5233 Y-12.9047
G01 X15.5107 Y-12.9123
G01 X15.4974 Y-12.9186
G01 X15.4835 Y-12.9235
G01 X15.4693 Y-12.9271
G01 X15.4547 Y-12.9293
G01 X15.4400 Y-12.9300
G01 X15.4253 Y-12.9293
G01 X15.4107 Y-12.9271
G01 X15.3965 Y-12.9235
G01 X15.3826 Y-12.9186
G01 X15.3693 Y-12.9123
G01 X15.3567 Y-12.9047
G01 X15.3448 Y-12.8960
G01 X15.3339 Y-12.8861
G01 X15.3240 Y-12.8752
G01 X15.3153 Y-12.8633
G01 X15.3077 Y-12.8507
G01 X15.3014 Y-12.8374
G01 X15.2965 Y-12.8235
G01 X15.2929 Y-12.8093
G01 X15.2907 Y-12.7947
G01 X15.2900 Y-12.7800
G01 X15.2907 Y-12.7653
G01 X15.2929 Y-12.7507
G01 X15.2965 Y-12.7365
G01 X15.3014 Y-12.7226
G01 X15.3077 Y-12.7093
G01 X15.3153 Y-12.6967
G01 X15.3240 Y-12.6848
G01 X15.3339 Y-12.6739
G01 X15.3448 Y-12.6640
G01 X15.3567 Y-12.6553
G01 X15.3693 Y-12.6477
G01 X15.3826 Y-12.6414
G01 X15.3965 Y-12.6365
G01 X15.4107 Y-12.6329
G01 X15.4253 Y-12.6307
G01 X15.4400 Y-12.6300
G01 X15.4547 Y-12.6307
G01 X15.4693 Y-12.6329
G01 X15.4835 Y-12.6365
G01 X15.4974 Y-12.6414
G01 X15.5107 Y-12.6477
G01 X15.5233 Y-12.6553
G01 X15.5352 Y-12.6640
G01 X15.5461 Y-12.6739
G01 X15.5560 Y-12.6848
G01 X15.5647 Y-12.6967
G01 X15.5723 Y-12.7093
G01 X15.5786 Y-12.7226
G01 X15.5835 Y-12.7365
G01 X15.5871 Y-12.7507
G01 X15.5893 Y-12.7653
G01 X15.5900 Y-12.7800
G00 X15.5900 Y-12.7800
G01 F80.00
G01 Z-0.6000
G01 F50.00
G01 X15.5893 Y-12.7947
G01 X15.5871 Y-12.8093
G01 X15.5835 Y-12.8235
G01 X15.5786 Y-12.8374
G01 X15.5723 Y-12.8507
G01 X15.5647 Y-12.8633
G01 X15.5560 Y-12.8752
G01 X15.5461 Y-12.8861
G01 X15.5352 Y-12.8960
G01 X15.5233 Y-12.9047
G01 X15.5107 Y-12.9123
G01 X15.4974 Y-12.9186
G01 X15.4835 Y-12.9235
G01 X15.4693 Y-12.9271
G01 X15.4547 Y-12.9293
G01 X15.4400 Y-12.9300
G01 X15.4253 Y-12.9293
G01 X15.4107 Y-12.9271
G01 X15.3965 Y-12.9235
G01 X15.3826 Y-12.9186
G01 X15.3693 Y-12.9123
G01 X15.3567 Y-12.9047
G01 X15.3448 Y-12.8960
G01 X15.3339 Y-12.8861
G01 X15.3240 Y-12.8752
G01 X15.3153 Y-12.8633
G01 X15.3077 Y-12.8507
G01 X15.3014 Y-12.8374
G01 X15.2965 Y-12.8235
G01 X15.2929 Y-12.8093
G01 X15.2907 Y-12.7947
G01 X15.2900 Y-12.7800
G01 X15.2907 Y-12.7653
G01 X15.2929 Y-12.7507
G01 X15.2965 Y-12.7365
G01 X15.3014 Y-12.7226
G01 X15.3077 Y-12.7093
G01 X15.3153 Y-12.6967
G01 X15.3240 Y-12.6848
G01 X15.3339 Y-12.6739
G01 X15.3448 Y-12.6640
G01 X15.3567 Y-12.6553
G01 X15.3693 Y-12.6477
G01 X15.3826 Y-12.6414
G01 X15.3965 Y-12.6365
G01 X15.4107 Y-12.6329
G01 X15.4253 Y-12.6307
G01 X15.4400 Y-12.6300
G01 X15.4547 Y-12.6307
G01 X15.4693 Y-12.6329
G01 X15.4835 Y-12.6365
G01 X15.4974 Y-12.6414
G01 X15.5107 Y-12.6477
G01 X15.5233 Y-12.6553
G01 X15.5352 Y-12.6640
G01 X15.5461 Y-12.6739
G01 X15.5560 Y-12.6848
G01 X15.5647 Y-12.6967
G01 X15.5723 Y-12.7093
G01 X15.5786 Y-12.7226
G01 X15.5835 Y-12.7365
G01 X15.5871 Y-12.7507
G01 X15.5893 Y-12.7653
G01 X15.5900 Y-12.7800
G00 X15.5900 Y-12.7800
G01 F80.00
G01 Z-0.6500
G01 F50.00
G01 X15.5893 Y-12.7947
G01 X15.5871 Y-12.8093
G01 X15.5835 Y-12.8235
G01 X15.5786 Y-12.8374
G01 X15.5723 Y-12.8507
G01 X15.5647 Y-12.8633
G01 X15.5560 Y-12.8752
G01 X15.5461 Y-12.8861
G01 X15.5352 Y-12.8960
G01 X15.5233 Y-12.9047
G01 X15.5107 Y-12.9123
G01 X15.4974 Y-12.9186
G01 X15.4835 Y-12.9235
G01 X15.4693 Y-12.9271
G01 X15.4547 Y-12.9293
G01 X15.4400 Y-12.9300
G01 X15.4253 Y-12.9293
G01 X15.4107 Y-12.9271
G01 X15.3965 Y-12.9235
G01 X15.3826 Y-12.9186
G01 X15.3693 Y-12.9123
G01 X15.3567 Y-12.9047
G01 X15.3448 Y-12.8960
G01 X15.3339 Y-12.8861
G01 X15.3240 Y-12.8752
G01 X15.3153 Y-12.8633
G01 X15.3077 Y-12.8507
G01 X15.3014 Y-12.8374
G01 X15.2965 Y-12.8235
G01 X15.2929 Y-12.8093
G01 X15.2907 Y-12.7947
G01 X15.2900 Y-12.7800
G01 X15.2907 Y-12.7653
G01 X15.2929 Y-12.7507
G01 X15.2965 Y-12.7365
G01 X15.3014 Y-12.7226
G01 X15.3077 Y-12.7093
G01 X15.3153 Y-12.6967
G01 X15.3240 Y-12.6848
G01 X15.3339 Y-12.6739
G01 X15.3448 Y-12.6640
G01 X15.3567 Y-12.6553
G01 X15.3693 Y-12.6477
G01 X15.3826 Y-12.6414
G01 X15.3965 Y-12.6365
G01 X15.4107 Y-12.6329
G01 X15.4253 Y-12.6307
G01 X15.4400 Y-12.6300
G01 X15.4547 Y-12.6307
G01 X15.4693 Y-12.6329
G01 X15.4835 Y-12.6365
G01 X15.4974 Y-12.6414
G01 X15.5107 Y-12.6477
G01 X15.5233 Y-12.6553
G01 X15.5352 Y-12.6640
G01 X15.5461 Y-12.6739
G01 X15.5560 Y-12.6848
G01 X15.5647 Y-12.6967
G01 X15.5723 Y-12.7093
G01 X15.5786 Y-12.7226
G01 X15.5835 Y-12.7365
G01 X15.5871 Y-12.7507
G01 X15.5893 Y-12.7653
G01 X15.5900 Y-12.7800
G00 X15.5900 Y-12.7800
G01 F80.00
G01 Z-0.7000
G01 F50.00
G01 X15.5893 Y-12.7947
G01 X15.5871 Y-12.8093
G01 X15.5835 Y-12.8235
G01 X15.5786 Y-12.8374
G01 X15.5723 Y-12.8507
G01 X15.5647 Y-12.8633
G01 X15.5560 Y-12.8752
G01 X15.5461 Y-12.8861
G01 X15.5352 Y-12.8960
G01 X15.5233 Y-12.9047
G01 X15.5107 Y-12.9123
G01 X15.4974 Y-12.9186
G01 X15.4835 Y-12.9235
G01 X15.4693 Y-12.9271
G01 X15.4547 Y-12.9293
G01 X15.4400 Y-12.9300
G01 X15.4253 Y-12.9293
G01 X15.4107 Y-12.9271
G01 X15.3965 Y-12.9235
G01 X15.3826 Y-12.9186
G01 X15.3693 Y-12.9123
G01 X15.3567 Y-12.9047
G01 X15.3448 Y-12.8960
G01 X15.3339 Y-12.8861
G01 X15.3240 Y-12.8752
G01 X15.3153 Y-12.8633
G01 X15.3077 Y-12.8507
G01 X15.3014 Y-12.8374
G01 X15.2965 Y-12.8235
G01 X15.2929 Y-12.8093
G01 X15.2907 Y-12.7947
G01 X15.2900 Y-12.7800
G01 X15.2907 Y-12.7653
G01 X15.2929 Y-12.7507
G01 X15.2965 Y-12.7365
G01 X15.3014 Y-12.7226
G01 X15.3077 Y-12.7093
G01 X15.3153 Y-12.6967
G01 X15.3240 Y-12.6848
G01 X15.3339 Y-12.6739
G01 X15.3448 Y-12.6640
G01 X15.3567 Y-12.6553
G01 X15.3693 Y-12.6477
G01 X15.3826 Y-12.6414
G01 X15.3965 Y-12.6365
G01 X15.4107 Y-12.6329
G01 X15.4253 Y-12.6307
G01 X15.4400 Y-12.6300
G01 X15.4547 Y-12.6307
G01 X15.4693 Y-12.6329
G01 X15.4835 Y-12.6365
G01 X15.4974 Y-12.6414
G01 X15.5107 Y-12.6477
G01 X15.5233 Y-12.6553
G01 X15.5352 Y-12.6640
G01 X15.5461 Y-12.6739
G01 X15.5560 Y-12.6848
G01 X15.5647 Y-12.6967
G01 X15.5723 Y-12.7093
G01 X15.5786 Y-12.7226
G01 X15.5835 Y-12.7365
G01 X15.5871 Y-12.7507
G01 X15.5893 Y-12.7653
G01 X15.5900 Y-12.7800
G00 X15.5900 Y-12.7800
G01 F80.00
G01 Z-0.7500
G01 F50.00
G01 X15.5893 Y-12.7947
G01 X15.5871 Y-12.8093
G01 X15.5835 Y-12.8235
G01 X15.5786 Y-12.8374
G01 X15.5723 Y-12.8507
G01 X15.5647 Y-12.8633
G01 X15.5560 Y-12.8752
G01 X15.5461 Y-12.8861
G01 X15.5352 Y-12.8960
G01 X15.5233 Y-12.9047
G01 X15.5107 Y-12.9123
G01 X15.4974 Y-12.9186
G01 X15.4835 Y-12.9235
G01 X15.4693 Y-12.9271
G01 X15.4547 Y-12.9293
G01 X15.4400 Y-12.9300
G01 X15.4253 Y-12.9293
G01 X15.4107 Y-12.9271
G01 X15.3965 Y-12.9235
G01 X15.3826 Y-12.9186
G01 X15.3693 Y-12.9123
G01 X15.3567 Y-12.9047
G01 X15.3448 Y-12.8960
G01 X15.3339 Y-12.8861
G01 X15.3240 Y-12.8752
G01 X15.3153 Y-12.8633
G01 X15.3077 Y-12.8507
G01 X15.3014 Y-12.8374
G01 X15.2965 Y-12.8235
G01 X15.2929 Y-12.8093
G01 X15.2907 Y-12.7947
G01 X15.2900 Y-12.7800
G01 X15.2907 Y-12.7653
G01 X15.2929 Y-12.7507
G01 X15.2965 Y-12.7365
G01 X15.3014 Y-12.7226
G01 X15.3077 Y-12.7093
G01 X15.3153 Y-12.6967
G01 X15.3240 Y-12.6848
G01 X15.3339 Y-12.6739
G01 X15.3448 Y-12.6640
G01 X15.3567 Y-12.6553
G01 X15.3693 Y-12.6477
G01 X15.3826 Y-12.6414
G01 X15.3965 Y-12.6365
G01 X15.4107 Y-12.6329
G01 X15.4253 Y-12.6307
G01 X15.4400 Y-12.6300
G01 X15.4547 Y-12.6307
G01 X15.4693 Y-12.6329
G01 X15.4835 Y-12.6365
G01 X15.4974 Y-12.6414
G01 X15.5107 Y-12.6477
G01 X15.5233 Y-12.6553
G01 X15.5352 Y-12.6640
G01 X15.5461 Y-12.6739
G01 X15.5560 Y-12.6848
G01 X15.5647 Y-12.6967
G01 X15.5723 Y-12.7093
G01 X15.5786 Y-12.7226
G01 X15.5835 Y-12.7365
G01 X15.5871 Y-12.7507
G01 X15.5893 Y-12.7653
G01 X15.5900 Y-12.7800
G00 X15.5900 Y-12.7800
G01 F80.00
G01 Z-0.8000
G01 F50.00
G01 X15.5893 Y-12.7947
G01 X15.5871 Y-12.8093
G01 X15.5835 Y-12.8235
G01 X15.5786 Y-12.8374
G01 X15.5723 Y-12.8507
G01 X15.5647 Y-12.8633
G01 X15.5560 Y-12.8752
G01 X15.5461 Y-12.8861
G01 X15.5352 Y-12.8960
G01 X15.5233 Y-12.9047
G01 X15.5107 Y-12.9123
G01 X15.4974 Y-12.9186
G01 X15.4835 Y-12.9235
G01 X15.4693 Y-12.9271
G01 X15.4547 Y-12.9293
G01 X15.4400 Y-12.9300
G01 X15.4253 Y-12.9293
G01 X15.4107 Y-12.9271
G01 X15.3965 Y-12.9235
G01 X15.3826 Y-12.9186
G01 X15.3693 Y-12.9123
G01 X15.3567 Y-12.9047
G01 X15.3448 Y-12.8960
G01 X15.3339 Y-12.8861
G01 X15.3240 Y-12.8752
G01 X15.3153 Y-12.8633
G01 X15.3077 Y-12.8507
G01 X15.3014 Y-12.8374
G01 X15.2965 Y-12.8235
G01 X15.2929 Y-12.8093
G01 X15.2907 Y-12.7947
G01 X15.2900 Y-12.7800
G01 X15.2907 Y-12.7653
G01 X15.2929 Y-12.7507
G01 X15.2965 Y-12.7365
G01 X15.3014 Y-12.7226
G01 X15.3077 Y-12.7093
G01 X15.3153 Y-12.6967
G01 X15.3240 Y-12.6848
G01 X15.3339 Y-12.6739
G01 X15.3448 Y-12.6640
G01 X15.3567 Y-12.6553
G01 X15.3693 Y-12.6477
G01 X15.3826 Y-12.6414
G01 X15.3965 Y-12.6365
G01 X15.4107 Y-12.6329
G01 X15.4253 Y-12.6307
G01 X15.4400 Y-12.6300
G01 X15.4547 Y-12.6307
G01 X15.4693 Y-12.6329
G01 X15.4835 Y-12.6365
G01 X15.4974 Y-12.6414
G01 X15.5107 Y-12.6477
G01 X15.5233 Y-12.6553
G01 X15.5352 Y-12.6640
G01 X15.5461 Y-12.6739
G01 X15.5560 Y-12.6848
G01 X15.5647 Y-12.6967
G01 X15.5723 Y-12.7093
G01 X15.5786 Y-12.7226
G01 X15.5835 Y-12.7365
G01 X15.5871 Y-12.7507
G01 X15.5893 Y-12.7653
G01 X15.5900 Y-12.7800
G00 X15.5900 Y-12.7800
G01 F80.00
G01 Z-0.8500
G01 F50.00
G01 X15.5893 Y-12.7947
G01 X15.5871 Y-12.8093
G01 X15.5835 Y-12.8235
G01 X15.5786 Y-12.8374
G01 X15.5723 Y-12.8507
G01 X15.5647 Y-12.8633
G01 X15.5560 Y-12.8752
G01 X15.5461 Y-12.8861
G01 X15.5352 Y-12.8960
G01 X15.5233 Y-12.9047
G01 X15.5107 Y-12.9123
G01 X15.4974 Y-12.9186
G01 X15.4835 Y-12.9235
G01 X15.4693 Y-12.9271
G01 X15.4547 Y-12.9293
G01 X15.4400 Y-12.9300
G01 X15.4253 Y-12.9293
G01 X15.4107 Y-12.9271
G01 X15.3965 Y-12.9235
G01 X15.3826 Y-12.9186
G01 X15.3693 Y-12.9123
G01 X15.3567 Y-12.9047
G01 X15.3448 Y-12.8960
G01 X15.3339 Y-12.8861
G01 X15.3240 Y-12.8752
G01 X15.3153 Y-12.8633
G01 X15.3077 Y-12.8507
G01 X15.3014 Y-12.8374
G01 X15.2965 Y-12.8235
G01 X15.2929 Y-12.8093
G01 X15.2907 Y-12.7947
G01 X15.2900 Y-12.7800
G01 X15.2907 Y-12.7653
G01 X15.2929 Y-12.7507
G01 X15.2965 Y-12.7365
G01 X15.3014 Y-12.7226
G01 X15.3077 Y-12.7093
G01 X15.3153 Y-12.6967
G01 X15.3240 Y-12.6848
G01 X15.3339 Y-12.6739
G01 X15.3448 Y-12.6640
G01 X15.3567 Y-12.6553
G01 X15.3693 Y-12.6477
G01 X15.3826 Y-12.6414
G01 X15.3965 Y-12.6365
G01 X15.4107 Y-12.6329
G01 X15.4253 Y-12.6307
G01 X15.4400 Y-12.6300
G01 X15.4547 Y-12.6307
G01 X15.4693 Y-12.6329
G01 X15.4835 Y-12.6365
G01 X15.4974 Y-12.6414
G01 X15.5107 Y-12.6477
G01 X15.5233 Y-12.6553
G01 X15.5352 Y-12.6640
G01 X15.5461 Y-12.6739
G01 X15.5560 Y-12.6848
G01 X15.5647 Y-12.6967
G01 X15.5723 Y-12.7093
G01 X15.5786 Y-12.7226
G01 X15.5835 Y-12.7365
G01 X15.5871 Y-12.7507
G01 X15.5893 Y-12.7653
G01 X15.5900 Y-12.7800
G00 X15.5900 Y-12.7800
G01 F80.00
G01 Z-0.9000
G01 F50.00
G01 X15.5893 Y-12.7947
G01 X15.5871 Y-12.8093
G01 X15.5835 Y-12.8235
G01 X15.5786 Y-12.8374
G01 X15.5723 Y-12.8507
G01 X15.5647 Y-12.8633
G01 X15.5560 Y-12.8752
G01 X15.5461 Y-12.8861
G01 X15.5352 Y-12.8960
G01 X15.5233 Y-12.9047
G01 X15.5107 Y-12.9123
G01 X15.4974 Y-12.9186
G01 X15.4835 Y-12.9235
G01 X15.4693 Y-12.9271
G01 X15.4547 Y-12.9293
G01 X15.4400 Y-12.9300
G01 X15.4253 Y-12.9293
G01 X15.4107 Y-12.9271
G01 X15.3965 Y-12.9235
G01 X15.3826 Y-12.9186
G01 X15.3693 Y-12.9123
G01 X15.3567 Y-12.9047
G01 X15.3448 Y-12.8960
G01 X15.3339 Y-12.8861
G01 X15.3240 Y-12.8752
G01 X15.3153 Y-12.8633
G01 X15.3077 Y-12.8507
G01 X15.3014 Y-12.8374
G01 X15.2965 Y-12.8235
G01 X15.2929 Y-12.8093
G01 X15.2907 Y-12.7947
G01 X15.2900 Y-12.7800
G01 X15.2907 Y-12.7653
G01 X15.2929 Y-12.7507
G01 X15.2965 Y-12.7365
G01 X15.3014 Y-12.7226
G01 X15.3077 Y-12.7093
G01 X15.3153 Y-12.6967
G01 X15.3240 Y-12.6848
G01 X15.3339 Y-12.6739
G01 X15.3448 Y-12.6640
G01 X15.3567 Y-12.6553
G01 X15.3693 Y-12.6477
G01 X15.3826 Y-12.6414
G01 X15.3965 Y-12.6365
G01 X15.4107 Y-12.6329
G01 X15.4253 Y-12.6307
G01 X15.4400 Y-12.6300
G01 X15.4547 Y-12.6307
G01 X15.4693 Y-12.6329
G01 X15.4835 Y-12.6365
G01 X15.4974 Y-12.6414
G01 X15.5107 Y-12.6477
G01 X15.5233 Y-12.6553
G01 X15.5352 Y-12.6640
G01 X15.5461 Y-12.6739
G01 X15.5560 Y-12.6848
G01 X15.5647 Y-12.6967
G01 X15.5723 Y-12.7093
G01 X15.5786 Y-12.7226
G01 X15.5835 Y-12.7365
G01 X15.5871 Y-12.7507
G01 X15.5893 Y-12.7653
G01 X15.5900 Y-12.7800
G00 X15.5900 Y-12.7800
G01 F80.00
G01 Z-0.9500
G01 F50.00
G01 X15.5893 Y-12.7947
G01 X15.5871 Y-12.8093
G01 X15.5835 Y-12.8235
G01 X15.5786 Y-12.8374
G01 X15.5723 Y-12.8507
G01 X15.5647 Y-12.8633
G01 X15.5560 Y-12.8752
G01 X15.5461 Y-12.8861
G01 X15.5352 Y-12.8960
G01 X15.5233 Y-12.9047
G01 X15.5107 Y-12.9123
G01 X15.4974 Y-12.9186
G01 X15.4835 Y-12.9235
G01 X15.4693 Y-12.9271
G01 X15.4547 Y-12.9293
G01 X15.4400 Y-12.9300
G01 X15.4253 Y-12.9293
G01 X15.4107 Y-12.9271
G01 X15.3965 Y-12.9235
G01 X15.3826 Y-12.9186
G01 X15.3693 Y-12.9123
G01 X15.3567 Y-12.9047
G01 X15.3448 Y-12.8960
G01 X15.3339 Y-12.8861
G01 X15.3240 Y-12.8752
G01 X15.3153 Y-12.8633
G01 X15.3077 Y-12.8507
G01 X15.3014 Y-12.8374
G01 X15.2965 Y-12.8235
G01 X15.2929 Y-12.8093
G01 X15.2907 Y-12.7947
G01 X15.2900 Y-12.7800
G01 X15.2907 Y-12.7653
G01 X15.2929 Y-12.7507
G01 X15.2965 Y-12.7365
G01 X15.3014 Y-12.7226
G01 X15.3077 Y-12.7093
G01 X15.3153 Y-12.6967
G01 X15.3240 Y-12.6848
G01 X15.3339 Y-12.6739
G01 X15.3448 Y-12.6640
G01 X15.3567 Y-12.6553
G01 X15.3693 Y-12.6477
G01 X15.3826 Y-12.6414
G01 X15.3965 Y-12.6365
G01 X15.4107 Y-12.6329
G01 X15.4253 Y-12.6307
G01 X15.4400 Y-12.6300
G01 X15.4547 Y-12.6307
G01 X15.4693 Y-12.6329
G01 X15.4835 Y-12.6365
G01 X15.4974 Y-12.6414
G01 X15.5107 Y-12.6477
G01 X15.5233 Y-12.6553
G01 X15.5352 Y-12.6640
G01 X15.5461 Y-12.6739
G01 X15.5560 Y-12.6848
G01 X15.5647 Y-12.6967
G01 X15.5723 Y-12.7093
G01 X15.5786 Y-12.7226
G01 X15.5835 Y-12.7365
G01 X15.5871 Y-12.7507
G01 X15.5893 Y-12.7653
G01 X15.5900 Y-12.7800
G00 X15.5900 Y-12.7800
G01 F80.00
G01 Z-1.0000
G01 F50.00
G01 X15.5893 Y-12.7947
G01 X15.5871 Y-12.8093
G01 X15.5835 Y-12.8235
G01 X15.5786 Y-12.8374
G01 X15.5723 Y-12.8507
G01 X15.5647 Y-12.8633
G01 X15.5560 Y-12.8752
G01 X15.5461 Y-12.8861
G01 X15.5352 Y-12.8960
G01 X15.5233 Y-12.9047
G01 X15.5107 Y-12.9123
G01 X15.4974 Y-12.9186
G01 X15.4835 Y-12.9235
G01 X15.4693 Y-12.9271
G01 X15.4547 Y-12.9293
G01 X15.4400 Y-12.9300
G01 X15.4253 Y-12.9293
G01 X15.4107 Y-12.9271
G01 X15.3965 Y-12.9235
G01 X15.3826 Y-12.9186
G01 X15.3693 Y-12.9123
G01 X15.3567 Y-12.9047
G01 X15.3448 Y-12.8960
G01 X15.3339 Y-12.8861
G01 X15.3240 Y-12.8752
G01 X15.3153 Y-12.8633
G01 X15.3077 Y-12.8507
G01 X15.3014 Y-12.8374
G01 X15.2965 Y-12.8235
G01 X15.2929 Y-12.8093
G01 X15.2907 Y-12.7947
G01 X15.2900 Y-12.7800
G01 X15.2907 Y-12.7653
G01 X15.2929 Y-12.7507
G01 X15.2965 Y-12.7365
G01 X15.3014 Y-12.7226
G01 X15.3077 Y-12.7093
G01 X15.3153 Y-12.6967
G01 X15.3240 Y-12.6848
G01 X15.3339 Y-12.6739
G01 X15.3448 Y-12.6640
G01 X15.3567 Y-12.6553
G01 X15.3693 Y-12.6477
G01 X15.3826 Y-12.6414
G01 X15.3965 Y-12.6365
G01 X15.4107 Y-12.6329
G01 X15.4253 Y-12.6307
G01 X15.4400 Y-12.6300
G01 X15.4547 Y-12.6307
G01 X15.4693 Y-12.6329
G01 X15.4835 Y-12.6365
G01 X15.4974 Y-12.6414
G01 X15.5107 Y-12.6477
G01 X15.5233 Y-12.6553
G01 X15.5352 Y-12.6640
G01 X15.5461 Y-12.6739
G01 X15.5560 Y-12.6848
G01 X15.5647 Y-12.6967
G01 X15.5723 Y-12.7093
G01 X15.5786 Y-12.7226
G01 X15.5835 Y-12.7365
G01 X15.5871 Y-12.7507
G01 X15.5893 Y-12.7653
G01 X15.5900 Y-12.7800
G00 X15.5900 Y-12.7800
G01 F80.00
G01 Z-1.0500
G01 F50.00
G01 X15.5893 Y-12.7947
G01 X15.5871 Y-12.8093
G01 X15.5835 Y-12.8235
G01 X15.5786 Y-12.8374
G01 X15.5723 Y-12.8507
G01 X15.5647 Y-12.8633
G01 X15.5560 Y-12.8752
G01 X15.5461 Y-12.8861
G01 X15.5352 Y-12.8960
G01 X15.5233 Y-12.9047
G01 X15.5107 Y-12.9123
G01 X15.4974 Y-12.9186
G01 X15.4835 Y-12.9235
G01 X15.4693 Y-12.9271
G01 X15.4547 Y-12.9293
G01 X15.4400 Y-12.9300
G01 X15.4253 Y-12.9293
G01 X15.4107 Y-12.9271
G01 X15.3965 Y-12.9235
G01 X15.3826 Y-12.9186
G01 X15.3693 Y-12.9123
G01 X15.3567 Y-12.9047
G01 X15.3448 Y-12.8960
G01 X15.3339 Y-12.8861
G01 X15.3240 Y-12.8752
G01 X15.3153 Y-12.8633
G01 X15.3077 Y-12.8507
G01 X15.3014 Y-12.8374
G01 X15.2965 Y-12.8235
G01 X15.2929 Y-12.8093
G01 X15.2907 Y-12.7947
G01 X15.2900 Y-12.7800
G01 X15.2907 Y-12.7653
G01 X15.2929 Y-12.7507
G01 X15.2965 Y-12.7365
G01 X15.3014 Y-12.7226
G01 X15.3077 Y-12.7093
G01 X15.3153 Y-12.6967
G01 X15.3240 Y-12.6848
G01 X15.3339 Y-12.6739
G01 X15.3448 Y-12.6640
G01 X15.3567 Y-12.6553
G01 X15.3693 Y-12.6477
G01 X15.3826 Y-12.6414
G01 X15.3965 Y-12.6365
G01 X15.4107 Y-12.6329
G01 X15.4253 Y-12.6307
G01 X15.4400 Y-12.6300
G01 X15.4547 Y-12.6307
G01 X15.4693 Y-12.6329
G01 X15.4835 Y-12.6365
G01 X15.4974 Y-12.6414
G01 X15.5107 Y-12.6477
G01 X15.5233 Y-12.6553
G01 X15.5352 Y-12.6640
G01 X15.5461 Y-12.6739
G01 X15.5560 Y-12.6848
G01 X15.5647 Y-12.6967
G01 X15.5723 Y-12.7093
G01 X15.5786 Y-12.7226
G01 X15.5835 Y-12.7365
G01 X15.5871 Y-12.7507
G01 X15.5893 Y-12.7653
G01 X15.5900 Y-12.7800
G00 X15.5900 Y-12.7800
G01 F80.00
G01 Z-1.1000
G01 F50.00
G01 X15.5893 Y-12.7947
G01 X15.5871 Y-12.8093
G01 X15.5835 Y-12.8235
G01 X15.5786 Y-12.8374
G01 X15.5723 Y-12.8507
G01 X15.5647 Y-12.8633
G01 X15.5560 Y-12.8752
G01 X15.5461 Y-12.8861
G01 X15.5352 Y-12.8960
G01 X15.5233 Y-12.9047
G01 X15.5107 Y-12.9123
G01 X15.4974 Y-12.9186
G01 X15.4835 Y-12.9235
G01 X15.4693 Y-12.9271
G01 X15.4547 Y-12.9293
G01 X15.4400 Y-12.9300
G01 X15.4253 Y-12.9293
G01 X15.4107 Y-12.9271
G01 X15.3965 Y-12.9235
G01 X15.3826 Y-12.9186
G01 X15.3693 Y-12.9123
G01 X15.3567 Y-12.9047
G01 X15.3448 Y-12.8960
G01 X15.3339 Y-12.8861
G01 X15.3240 Y-12.8752
G01 X15.3153 Y-12.8633
G01 X15.3077 Y-12.8507
G01 X15.3014 Y-12.8374
G01 X15.2965 Y-12.8235
G01 X15.2929 Y-12.8093
G01 X15.2907 Y-12.7947
G01 X15.2900 Y-12.7800
G01 X15.2907 Y-12.7653
G01 X15.2929 Y-12.7507
G01 X15.2965 Y-12.7365
G01 X15.3014 Y-12.7226
G01 X15.3077 Y-12.7093
G01 X15.3153 Y-12.6967
G01 X15.3240 Y-12.6848
G01 X15.3339 Y-12.6739
G01 X15.3448 Y-12.6640
G01 X15.3567 Y-12.6553
G01 X15.3693 Y-12.6477
G01 X15.3826 Y-12.6414
G01 X15.3965 Y-12.6365
G01 X15.4107 Y-12.6329
G01 X15.4253 Y-12.6307
G01 X15.4400 Y-12.6300
G01 X15.4547 Y-12.6307
G01 X15.4693 Y-12.6329
G01 X15.4835 Y-12.6365
G01 X15.4974 Y-12.6414
G01 X15.5107 Y-12.6477
G01 X15.5233 Y-12.6553
G01 X15.5352 Y-12.6640
G01 X15.5461 Y-12.6739
G01 X15.5560 Y-12.6848
G01 X15.5647 Y-12.6967
G01 X15.5723 Y-12.7093
G01 X15.5786 Y-12.7226
G01 X15.5835 Y-12.7365
G01 X15.5871 Y-12.7507
G01 X15.5893 Y-12.7653
G01 X15.5900 Y-12.7800
G00 X15.5900 Y-12.7800
G01 F80.00
G01 Z-1.1500
G01 F50.00
G01 X15.5893 Y-12.7947
G01 X15.5871 Y-12.8093
G01 X15.5835 Y-12.8235
G01 X15.5786 Y-12.8374
G01 X15.5723 Y-12.8507
G01 X15.5647 Y-12.8633
G01 X15.5560 Y-12.8752
G01 X15.5461 Y-12.8861
G01 X15.5352 Y-12.8960
G01 X15.5233 Y-12.9047
G01 X15.5107 Y-12.9123
G01 X15.4974 Y-12.9186
G01 X15.4835 Y-12.9235
G01 X15.4693 Y-12.9271
G01 X15.4547 Y-12.9293
G01 X15.4400 Y-12.9300
G01 X15.4253 Y-12.9293
G01 X15.4107 Y-12.9271
G01 X15.3965 Y-12.9235
G01 X15.3826 Y-12.9186
G01 X15.3693 Y-12.9123
G01 X15.3567 Y-12.9047
G01 X15.3448 Y-12.8960
G01 X15.3339 Y-12.8861
G01 X15.3240 Y-12.8752
G01 X15.3153 Y-12.8633
G01 X15.3077 Y-12.8507
G01 X15.3014 Y-12.8374
G01 X15.2965 Y-12.8235
G01 X15.2929 Y-12.8093
G01 X15.2907 Y-12.7947
G01 X15.2900 Y-12.7800
G01 X15.2907 Y-12.7653
G01 X15.2929 Y-12.7507
G01 X15.2965 Y-12.7365
G01 X15.3014 Y-12.7226
G01 X15.3077 Y-12.7093
G01 X15.3153 Y-12.6967
G01 X15.3240 Y-12.6848
G01 X15.3339 Y-12.6739
G01 X15.3448 Y-12.6640
G01 X15.3567 Y-12.6553
G01 X15.3693 Y-12.6477
G01 X15.3826 Y-12.6414
G01 X15.3965 Y-12.6365
G01 X15.4107 Y-12.6329
G01 X15.4253 Y-12.6307
G01 X15.4400 Y-12.6300
G01 X15.4547 Y-12.6307
G01 X15.4693 Y-12.6329
G01 X15.4835 Y-12.6365
G01 X15.4974 Y-12.6414
G01 X15.5107 Y-12.6477
G01 X15.5233 Y-12.6553
G01 X15.5352 Y-12.6640
G01 X15.5461 Y-12.6739
G01 X15.5560 Y-12.6848
G01 X15.5647 Y-12.6967
G01 X15.5723 Y-12.7093
G01 X15.5786 Y-12.7226
G01 X15.5835 Y-12.7365
G01 X15.5871 Y-12.7507
G01 X15.5893 Y-12.7653
G01 X15.5900 Y-12.7800
G00 X15.5900 Y-12.7800
G01 F80.00
G01 Z-1.2000
G01 F50.00
G01 X15.5893 Y-12.7947
G01 X15.5871 Y-12.8093
G01 X15.5835 Y-12.8235
G01 X15.5786 Y-12.8374
G01 X15.5723 Y-12.8507
G01 X15.5647 Y-12.8633
G01 X15.5560 Y-12.8752
G01 X15.5461 Y-12.8861
G01 X15.5352 Y-12.8960
G01 X15.5233 Y-12.9047
G01 X15.5107 Y-12.9123
G01 X15.4974 Y-12.9186
G01 X15.4835 Y-12.9235
G01 X15.4693 Y-12.9271
G01 X15.4547 Y-12.9293
G01 X15.4400 Y-12.9300
G01 X15.4253 Y-12.9293
G01 X15.4107 Y-12.9271
G01 X15.3965 Y-12.9235
G01 X15.3826 Y-12.9186
G01 X15.3693 Y-12.9123
G01 X15.3567 Y-12.9047
G01 X15.3448 Y-12.8960
G01 X15.3339 Y-12.8861
G01 X15.3240 Y-12.8752
G01 X15.3153 Y-12.8633
G01 X15.3077 Y-12.8507
G01 X15.3014 Y-12.8374
G01 X15.2965 Y-12.8235
G01 X15.2929 Y-12.8093
G01 X15.2907 Y-12.7947
G01 X15.2900 Y-12.7800
G01 X15.2907 Y-12.7653
G01 X15.2929 Y-12.7507
G01 X15.2965 Y-12.7365
G01 X15.3014 Y-12.7226
G01 X15.3077 Y-12.7093
G01 X15.3153 Y-12.6967
G01 X15.3240 Y-12.6848
G01 X15.3339 Y-12.6739
G01 X15.3448 Y-12.6640
G01 X15.3567 Y-12.6553
G01 X15.3693 Y-12.6477
G01 X15.3826 Y-12.6414
G01 X15.3965 Y-12.6365
G01 X15.4107 Y-12.6329
G01 X15.4253 Y-12.6307
G01 X15.4400 Y-12.6300
G01 X15.4547 Y-12.6307
G01 X15.4693 Y-12.6329
G01 X15.4835 Y-12.6365
G01 X15.4974 Y-12.6414
G01 X15.5107 Y-12.6477
G01 X15.5233 Y-12.6553
G01 X15.5352 Y-12.6640
G01 X15.5461 Y-12.6739
G01 X15.5560 Y-12.6848
G01 X15.5647 Y-12.6967
G01 X15.5723 Y-12.7093
G01 X15.5786 Y-12.7226
G01 X15.5835 Y-12.7365
G01 X15.5871 Y-12.7507
G01 X15.5893 Y-12.7653
G01 X15.5900 Y-12.7800
G00 X15.5900 Y-12.7800
G01 F80.00
G01 Z-1.2500
G01 F50.00
G01 X15.5893 Y-12.7947
G01 X15.5871 Y-12.8093
G01 X15.5835 Y-12.8235
G01 X15.5786 Y-12.8374
G01 X15.5723 Y-12.8507
G01 X15.5647 Y-12.8633
G01 X15.5560 Y-12.8752
G01 X15.5461 Y-12.8861
G01 X15.5352 Y-12.8960
G01 X15.5233 Y-12.9047
G01 X15.5107 Y-12.9123
G01 X15.4974 Y-12.9186
G01 X15.4835 Y-12.9235
G01 X15.4693 Y-12.9271
G01 X15.4547 Y-12.9293
G01 X15.4400 Y-12.9300
G01 X15.4253 Y-12.9293
G01 X15.4107 Y-12.9271
G01 X15.3965 Y-12.9235
G01 X15.3826 Y-12.9186
G01 X15.3693 Y-12.9123
G01 X15.3567 Y-12.9047
G01 X15.3448 Y-12.8960
G01 X15.3339 Y-12.8861
G01 X15.3240 Y-12.8752
G01 X15.3153 Y-12.8633
G01 X15.3077 Y-12.8507
G01 X15.3014 Y-12.8374
G01 X15.2965 Y-12.8235
G01 X15.2929 Y-12.8093
G01 X15.2907 Y-12.7947
G01 X15.2900 Y-12.7800
G01 X15.2907 Y-12.7653
G01 X15.2929 Y-12.7507
G01 X15.2965 Y-12.7365
G01 X15.3014 Y-12.7226
G01 X15.3077 Y-12.7093
G01 X15.3153 Y-12.6967
G01 X15.3240 Y-12.6848
G01 X15.3339 Y-12.6739
G01 X15.3448 Y-12.6640
G01 X15.3567 Y-12.6553
G01 X15.3693 Y-12.6477
G01 X15.3826 Y-12.6414
G01 X15.3965 Y-12.6365
G01 X15.4107 Y-12.6329
G01 X15.4253 Y-12.6307
G01 X15.4400 Y-12.6300
G01 X15.4547 Y-12.6307
G01 X15.4693 Y-12.6329
G01 X15.4835 Y-12.6365
G01 X15.4974 Y-12.6414
G01 X15.5107 Y-12.6477
G01 X15.5233 Y-12.6553
G01 X15.5352 Y-12.6640
G01 X15.5461 Y-12.6739
G01 X15.5560 Y-12.6848
G01 X15.5647 Y-12.6967
G01 X15.5723 Y-12.7093
G01 X15.5786 Y-12.7226
G01 X15.5835 Y-12.7365
G01 X15.5871 Y-12.7507
G01 X15.5893 Y-12.7653
G01 X15.5900 Y-12.7800
G00 X15.5900 Y-12.7800
G01 F80.00
G01 Z-1.3000
G01 F50.00
G01 X15.5893 Y-12.7947
G01 X15.5871 Y-12.8093
G01 X15.5835 Y-12.8235
G01 X15.5786 Y-12.8374
G01 X15.5723 Y-12.8507
G01 X15.5647 Y-12.8633
G01 X15.5560 Y-12.8752
G01 X15.5461 Y-12.8861
G01 X15.5352 Y-12.8960
G01 X15.5233 Y-12.9047
G01 X15.5107 Y-12.9123
G01 X15.4974 Y-12.9186
G01 X15.4835 Y-12.9235
G01 X15.4693 Y-12.9271
G01 X15.4547 Y-12.9293
G01 X15.4400 Y-12.9300
G01 X15.4253 Y-12.9293
G01 X15.4107 Y-12.9271
G01 X15.3965 Y-12.9235
G01 X15.3826 Y-12.9186
G01 X15.3693 Y-12.9123
G01 X15.3567 Y-12.9047
G01 X15.3448 Y-12.8960
G01 X15.3339 Y-12.8861
G01 X15.3240 Y-12.8752
G01 X15.3153 Y-12.8633
G01 X15.3077 Y-12.8507
G01 X15.3014 Y-12.8374
G01 X15.2965 Y-12.8235
G01 X15.2929 Y-12.8093
G01 X15.2907 Y-12.7947
G01 X15.2900 Y-12.7800
G01 X15.2907 Y-12.7653
G01 X15.2929 Y-12.7507
G01 X15.2965 Y-12.7365
G01 X15.3014 Y-12.7226
G01 X15.3077 Y-12.7093
G01 X15.3153 Y-12.6967
G01 X15.3240 Y-12.6848
G01 X15.3339 Y-12.6739
G01 X15.3448 Y-12.6640
G01 X15.3567 Y-12.6553
G01 X15.3693 Y-12.6477
G01 X15.3826 Y-12.6414
G01 X15.3965 Y-12.6365
G01 X15.4107 Y-12.6329
G01 X15.4253 Y-12.6307
G01 X15.4400 Y-12.6300
G01 X15.4547 Y-12.6307
G01 X15.4693 Y-12.6329
G01 X15.4835 Y-12.6365
G01 X15.4974 Y-12.6414
G01 X15.5107 Y-12.6477
G01 X15.5233 Y-12.6553
G01 X15.5352 Y-12.6640
G01 X15.5461 Y-12.6739
G01 X15.5560 Y-12.6848
G01 X15.5647 Y-12.6967
G01 X15.5723 Y-12.7093
G01 X15.5786 Y-12.7226
G01 X15.5835 Y-12.7365
G01 X15.5871 Y-12.7507
G01 X15.5893 Y-12.7653
G01 X15.5900 Y-12.7800
G00 X15.5900 Y-12.7800
G01 F80.00
G01 Z-1.3500
G01 F50.00
G01 X15.5893 Y-12.7947
G01 X15.5871 Y-12.8093
G01 X15.5835 Y-12.8235
G01 X15.5786 Y-12.8374
G01 X15.5723 Y-12.8507
G01 X15.5647 Y-12.8633
G01 X15.5560 Y-12.8752
G01 X15.5461 Y-12.8861
G01 X15.5352 Y-12.8960
G01 X15.5233 Y-12.9047
G01 X15.5107 Y-12.9123
G01 X15.4974 Y-12.9186
G01 X15.4835 Y-12.9235
G01 X15.4693 Y-12.9271
G01 X15.4547 Y-12.9293
G01 X15.4400 Y-12.9300
G01 X15.4253 Y-12.9293
G01 X15.4107 Y-12.9271
G01 X15.3965 Y-12.9235
G01 X15.3826 Y-12.9186
G01 X15.3693 Y-12.9123
G01 X15.3567 Y-12.9047
G01 X15.3448 Y-12.8960
G01 X15.3339 Y-12.8861
G01 X15.3240 Y-12.8752
G01 X15.3153 Y-12.8633
G01 X15.3077 Y-12.8507
G01 X15.3014 Y-12.8374
G01 X15.2965 Y-12.8235
G01 X15.2929 Y-12.8093
G01 X15.2907 Y-12.7947
G01 X15.2900 Y-12.7800
G01 X15.2907 Y-12.7653
G01 X15.2929 Y-12.7507
G01 X15.2965 Y-12.7365
G01 X15.3014 Y-12.7226
G01 X15.3077 Y-12.7093
G01 X15.3153 Y-12.6967
G01 X15.3240 Y-12.6848
G01 X15.3339 Y-12.6739
G01 X15.3448 Y-12.6640
G01 X15.3567 Y-12.6553
G01 X15.3693 Y-12.6477
G01 X15.3826 Y-12.6414
G01 X15.3965 Y-12.6365
G01 X15.4107 Y-12.6329
G01 X15.4253 Y-12.6307
G01 X15.4400 Y-12.6300
G01 X15.4547 Y-12.6307
G01 X15.4693 Y-12.6329
G01 X15.4835 Y-12.6365
G01 X15.4974 Y-12.6414
G01 X15.5107 Y-12.6477
G01 X15.5233 Y-12.6553
G01 X15.5352 Y-12.6640
G01 X15.5461 Y-12.6739
G01 X15.5560 Y-12.6848
G01 X15.5647 Y-12.6967
G01 X15.5723 Y-12.7093
G01 X15.5786 Y-12.7226
G01 X15.5835 Y-12.7365
G01 X15.5871 Y-12.7507
G01 X15.5893 Y-12.7653
G01 X15.5900 Y-12.7800
G00 X15.5900 Y-12.7800
G01 F80.00
G01 Z-1.4000
G01 F50.00
G01 X15.5893 Y-12.7947
G01 X15.5871 Y-12.8093
G01 X15.5835 Y-12.8235
G01 X15.5786 Y-12.8374
G01 X15.5723 Y-12.8507
G01 X15.5647 Y-12.8633
G01 X15.5560 Y-12.8752
G01 X15.5461 Y-12.8861
G01 X15.5352 Y-12.8960
G01 X15.5233 Y-12.9047
G01 X15.5107 Y-12.9123
G01 X15.4974 Y-12.9186
G01 X15.4835 Y-12.9235
G01 X15.4693 Y-12.9271
G01 X15.4547 Y-12.9293
G01 X15.4400 Y-12.9300
G01 X15.4253 Y-12.9293
G01 X15.4107 Y-12.9271
G01 X15.3965 Y-12.9235
G01 X15.3826 Y-12.9186
G01 X15.3693 Y-12.9123
G01 X15.3567 Y-12.9047
G01 X15.3448 Y-12.8960
G01 X15.3339 Y-12.8861
G01 X15.3240 Y-12.8752
G01 X15.3153 Y-12.8633
G01 X15.3077 Y-12.8507
G01 X15.3014 Y-12.8374
G01 X15.2965 Y-12.8235
G01 X15.2929 Y-12.8093
G01 X15.2907 Y-12.7947
G01 X15.2900 Y-12.7800
G01 X15.2907 Y-12.7653
G01 X15.2929 Y-12.7507
G01 X15.2965 Y-12.7365
G01 X15.3014 Y-12.7226
G01 X15.3077 Y-12.7093
G01 X15.3153 Y-12.6967
G01 X15.3240 Y-12.6848
G01 X15.3339 Y-12.6739
G01 X15.3448 Y-12.6640
G01 X15.3567 Y-12.6553
G01 X15.3693 Y-12.6477
G01 X15.3826 Y-12.6414
G01 X15.3965 Y-12.6365
G01 X15.4107 Y-12.6329
G01 X15.4253 Y-12.6307
G01 X15.4400 Y-12.6300
G01 X15.4547 Y-12.6307
G01 X15.4693 Y-12.6329
G01 X15.4835 Y-12.6365
G01 X15.4974 Y-12.6414
G01 X15.5107 Y-12.6477
G01 X15.5233 Y-12.6553
G01 X15.5352 Y-12.6640
G01 X15.5461 Y-12.6739
G01 X15.5560 Y-12.6848
G01 X15.5647 Y-12.6967
G01 X15.5723 Y-12.7093
G01 X15.5786 Y-12.7226
G01 X15.5835 Y-12.7365
G01 X15.5871 Y-12.7507
G01 X15.5893 Y-12.7653
G01 X15.5900 Y-12.7800
G00 X15.5900 Y-12.7800
G01 F80.00
G01 Z-1.4500
G01 F50.00
G01 X15.5893 Y-12.7947
G01 X15.5871 Y-12.8093
G01 X15.5835 Y-12.8235
G01 X15.5786 Y-12.8374
G01 X15.5723 Y-12.8507
G01 X15.5647 Y-12.8633
G01 X15.5560 Y-12.8752
G01 X15.5461 Y-12.8861
G01 X15.5352 Y-12.8960
G01 X15.5233 Y-12.9047
G01 X15.5107 Y-12.9123
G01 X15.4974 Y-12.9186
G01 X15.4835 Y-12.9235
G01 X15.4693 Y-12.9271
G01 X15.4547 Y-12.9293
G01 X15.4400 Y-12.9300
G01 X15.4253 Y-12.9293
G01 X15.4107 Y-12.9271
G01 X15.3965 Y-12.9235
G01 X15.3826 Y-12.9186
G01 X15.3693 Y-12.9123
G01 X15.3567 Y-12.9047
G01 X15.3448 Y-12.8960
G01 X15.3339 Y-12.8861
G01 X15.3240 Y-12.8752
G01 X15.3153 Y-12.8633
G01 X15.3077 Y-12.8507
G01 X15.3014 Y-12.8374
G01 X15.2965 Y-12.8235
G01 X15.2929 Y-12.8093
G01 X15.2907 Y-12.7947
G01 X15.2900 Y-12.7800
G01 X15.2907 Y-12.7653
G01 X15.2929 Y-12.7507
G01 X15.2965 Y-12.7365
G01 X15.3014 Y-12.7226
G01 X15.3077 Y-12.7093
G01 X15.3153 Y-12.6967
G01 X15.3240 Y-12.6848
G01 X15.3339 Y-12.6739
G01 X15.3448 Y-12.6640
G01 X15.3567 Y-12.6553
G01 X15.3693 Y-12.6477
G01 X15.3826 Y-12.6414
G01 X15.3965 Y-12.6365
G01 X15.4107 Y-12.6329
G01 X15.4253 Y-12.6307
G01 X15.4400 Y-12.6300
G01 X15.4547 Y-12.6307
G01 X15.4693 Y-12.6329
G01 X15.4835 Y-12.6365
G01 X15.4974 Y-12.6414
G01 X15.5107 Y-12.6477
G01 X15.5233 Y-12.6553
G01 X15.5352 Y-12.6640
G01 X15.5461 Y-12.6739
G01 X15.5560 Y-12.6848
G01 X15.5647 Y-12.6967
G01 X15.5723 Y-12.7093
G01 X15.5786 Y-12.7226
G01 X15.5835 Y-12.7365
G01 X15.5871 Y-12.7507
G01 X15.5893 Y-12.7653
G01 X15.5900 Y-12.7800
G00 X15.5900 Y-12.7800
G01 F80.00
G01 Z-1.5000
G01 F50.00
G01 X15.5893 Y-12.7947
G01 X15.5871 Y-12.8093
G01 X15.5835 Y-12.8235
G01 X15.5786 Y-12.8374
G01 X15.5723 Y-12.8507
G01 X15.5647 Y-12.8633
G01 X15.5560 Y-12.8752
G01 X15.5461 Y-12.8861
G01 X15.5352 Y-12.8960
G01 X15.5233 Y-12.9047
G01 X15.5107 Y-12.9123
G01 X15.4974 Y-12.9186
G01 X15.4835 Y-12.9235
G01 X15.4693 Y-12.9271
G01 X15.4547 Y-12.9293
G01 X15.4400 Y-12.9300
G01 X15.4253 Y-12.9293
G01 X15.4107 Y-12.9271
G01 X15.3965 Y-12.9235
G01 X15.3826 Y-12.9186
G01 X15.3693 Y-12.9123
G01 X15.3567 Y-12.9047
G01 X15.3448 Y-12.8960
G01 X15.3339 Y-12.8861
G01 X15.3240 Y-12.8752
G01 X15.3153 Y-12.8633
G01 X15.3077 Y-12.8507
G01 X15.3014 Y-12.8374
G01 X15.2965 Y-12.8235
G01 X15.2929 Y-12.8093
G01 X15.2907 Y-12.7947
G01 X15.2900 Y-12.7800
G01 X15.2907 Y-12.7653
G01 X15.2929 Y-12.7507
G01 X15.2965 Y-12.7365
G01 X15.3014 Y-12.7226
G01 X15.3077 Y-12.7093
G01 X15.3153 Y-12.6967
G01 X15.3240 Y-12.6848
G01 X15.3339 Y-12.6739
G01 X15.3448 Y-12.6640
G01 X15.3567 Y-12.6553
G01 X15.3693 Y-12.6477
G01 X15.3826 Y-12.6414
G01 X15.3965 Y-12.6365
G01 X15.4107 Y-12.6329
G01 X15.4253 Y-12.6307
G01 X15.4400 Y-12.6300
G01 X15.4547 Y-12.6307
G01 X15.4693 Y-12.6329
G01 X15.4835 Y-12.6365
G01 X15.4974 Y-12.6414
G01 X15.5107 Y-12.6477
G01 X15.5233 Y-12.6553
G01 X15.5352 Y-12.6640
G01 X15.5461 Y-12.6739
G01 X15.5560 Y-12.6848
G01 X15.5647 Y-12.6967
G01 X15.5723 Y-12.7093
G01 X15.5786 Y-12.7226
G01 X15.5835 Y-12.7365
G01 X15.5871 Y-12.7507
G01 X15.5893 Y-12.7653
G01 X15.5900 Y-12.7800
G00 X15.5900 Y-12.7800
G01 F80.00
G01 Z-1.5200
G01 F50.00
G01 X15.5893 Y-12.7947
G01 X15.5871 Y-12.8093
G01 X15.5835 Y-12.8235
G01 X15.5786 Y-12.8374
G01 X15.5723 Y-12.8507
G01 X15.5647 Y-12.8633
G01 X15.5560 Y-12.8752
G01 X15.5461 Y-12.8861
G01 X15.5352 Y-12.8960
G01 X15.5233 Y-12.9047
G01 X15.5107 Y-12.9123
G01 X15.4974 Y-12.9186
G01 X15.4835 Y-12.9235
G01 X15.4693 Y-12.9271
G01 X15.4547 Y-12.9293
G01 X15.4400 Y-12.9300
G01 X15.4253 Y-12.9293
G01 X15.4107 Y-12.9271
G01 X15.3965 Y-12.9235
G01 X15.3826 Y-12.9186
G01 X15.3693 Y-12.9123
G01 X15.3567 Y-12.9047
G01 X15.3448 Y-12.8960
G01 X15.3339 Y-12.8861
G01 X15.3240 Y-12.8752
G01 X15.3153 Y-12.8633
G01 X15.3077 Y-12.8507
G01 X15.3014 Y-12.8374
G01 X15.2965 Y-12.8235
G01 X15.2929 Y-12.8093
G01 X15.2907 Y-12.7947
G01 X15.2900 Y-12.7800
G01 X15.2907 Y-12.7653
G01 X15.2929 Y-12.7507
G01 X15.2965 Y-12.7365
G01 X15.3014 Y-12.7226
G01 X15.3077 Y-12.7093
G01 X15.3153 Y-12.6967
G01 X15.3240 Y-12.6848
G01 X15.3339 Y-12.6739
G01 X15.3448 Y-12.6640
G01 X15.3567 Y-12.6553
G01 X15.3693 Y-12.6477
G01 X15.3826 Y-12.6414
G01 X15.3965 Y-12.6365
G01 X15.4107 Y-12.6329
G01 X15.4253 Y-12.6307
G01 X15.4400 Y-12.6300
G01 X15.4547 Y-12.6307
G01 X15.4693 Y-12.6329
G01 X15.4835 Y-12.6365
G01 X15.4974 Y-12.6414
G01 X15.5107 Y-12.6477
G01 X15.5233 Y-12.6553
G01 X15.5352 Y-12.6640
G01 X15.5461 Y-12.6739
G01 X15.5560 Y-12.6848
G01 X15.5647 Y-12.6967
G01 X15.5723 Y-12.7093
G01 X15.5786 Y-12.7226
G01 X15.5835 Y-12.7365
G01 X15.5871 Y-12.7507
G01 X15.5893 Y-12.7653
G01 X15.5900 Y-12.7800
G00 Z3.0000
G00 X18.1300 Y-12.7800
G01 F80.00
G01 Z-0.0500
G01 F50.00
G01 X18.1293 Y-12.7947
G01 X18.1271 Y-12.8093
G01 X18.1235 Y-12.8235
G01 X18.1186 Y-12.8374
G01 X18.1123 Y-12.8507
G01 X18.1047 Y-12.8633
G01 X18.0960 Y-12.8752
G01 X18.0861 Y-12.8861
G01 X18.0752 Y-12.8960
G01 X18.0633 Y-12.9047
G01 X18.0507 Y-12.9123
G01 X18.0374 Y-12.9186
G01 X18.0235 Y-12.9235
G01 X18.0093 Y-12.9271
G01 X17.9947 Y-12.9293
G01 X17.9800 Y-12.9300
G01 X17.9653 Y-12.9293
G01 X17.9507 Y-12.9271
G01 X17.9365 Y-12.9235
G01 X17.9226 Y-12.9186
G01 X17.9093 Y-12.9123
G01 X17.8967 Y-12.9047
G01 X17.8848 Y-12.8960
G01 X17.8739 Y-12.8861
G01 X17.8640 Y-12.8752
G01 X17.8553 Y-12.8633
G01 X17.8477 Y-12.8507
G01 X17.8414 Y-12.8374
G01 X17.8365 Y-12.8235
G01 X17.8329 Y-12.8093
G01 X17.8307 Y-12.7947
G01 X17.8300 Y-12.7800
G01 X17.8307 Y-12.7653
G01 X17.8329 Y-12.7507
G01 X17.8365 Y-12.7365
G01 X17.8414 Y-12.7226
G01 X17.8477 Y-12.7093
G01 X17.8553 Y-12.6967
G01 X17.8640 Y-12.6848
G01 X17.8739 Y-12.6739
G01 X17.8848 Y-12.6640
G01 X17.8967 Y-12.6553
G01 X17.9093 Y-12.6477
G01 X17.9226 Y-12.6414
G01 X17.9365 Y-12.6365
G01 X17.9507 Y-12.6329
G01 X17.9653 Y-12.6307
G01 X17.9800 Y-12.6300
G01 X17.9947 Y-12.6307
G01 X18.0093 Y-12.6329
G01 X18.0235 Y-12.6365
G01 X18.0374 Y-12.6414
G01 X18.0507 Y-12.6477
G01 X18.0633 Y-12.6553
G01 X18.0752 Y-12.6640
G01 X18.0861 Y-12.6739
G01 X18.0960 Y-12.6848
G01 X18.1047 Y-12.6967
G01 X18.1123 Y-12.7093
G01 X18.1186 Y-12.7226
G01 X18.1235 Y-12.7365
G01 X18.1271 Y-12.7507
G01 X18.1293 Y-12.7653
G01 X18.1300 Y-12.7800
G00 X18.1300 Y-12.7800
G01 F80.00
G01 Z-0.1000
G01 F50.00
G01 X18.1293 Y-12.7947
G01 X18.1271 Y-12.8093
G01 X18.1235 Y-12.8235
G01 X18.1186 Y-12.8374
G01 X18.1123 Y-12.8507
G01 X18.1047 Y-12.8633
G01 X18.0960 Y-12.8752
G01 X18.0861 Y-12.8861
G01 X18.0752 Y-12.8960
G01 X18.0633 Y-12.9047
G01 X18.0507 Y-12.9123
G01 X18.0374 Y-12.9186
G01 X18.0235 Y-12.9235
G01 X18.0093 Y-12.9271
G01 X17.9947 Y-12.9293
G01 X17.9800 Y-12.9300
G01 X17.9653 Y-12.9293
G01 X17.9507 Y-12.9271
G01 X17.9365 Y-12.9235
G01 X17.9226 Y-12.9186
G01 X17.9093 Y-12.9123
G01 X17.8967 Y-12.9047
G01 X17.8848 Y-12.8960
G01 X17.8739 Y-12.8861
G01 X17.8640 Y-12.8752
G01 X17.8553 Y-12.8633
G01 X17.8477 Y-12.8507
G01 X17.8414 Y-12.8374
G01 X17.8365 Y-12.8235
G01 X17.8329 Y-12.8093
G01 X17.8307 Y-12.7947
G01 X17.8300 Y-12.7800
G01 X17.8307 Y-12.7653
G01 X17.8329 Y-12.7507
G01 X17.8365 Y-12.7365
G01 X17.8414 Y-12.7226
G01 X17.8477 Y-12.7093
G01 X17.8553 Y-12.6967
G01 X17.8640 Y-12.6848
G01 X17.8739 Y-12.6739
G01 X17.8848 Y-12.6640
G01 X17.8967 Y-12.6553
G01 X17.9093 Y-12.6477
G01 X17.9226 Y-12.6414
G01 X17.9365 Y-12.6365
G01 X17.9507 Y-12.6329
G01 X17.9653 Y-12.6307
G01 X17.9800 Y-12.6300
G01 X17.9947 Y-12.6307
G01 X18.0093 Y-12.6329
G01 X18.0235 Y-12.6365
G01 X18.0374 Y-12.6414
G01 X18.0507 Y-12.6477
G01 X18.0633 Y-12.6553
G01 X18.0752 Y-12.6640
G01 X18.0861 Y-12.6739
G01 X18.0960 Y-12.6848
G01 X18.1047 Y-12.6967
G01 X18.1123 Y-12.7093
G01 X18.1186 Y-12.7226
G01 X18.1235 Y-12.7365
G01 X18.1271 Y-12.7507
G01 X18.1293 Y-12.7653
G01 X18.1300 Y-12.7800
G00 X18.1300 Y-12.7800
G01 F80.00
G01 Z-0.1500
G01 F50.00
G01 X18.1293 Y-12.7947
G01 X18.1271 Y-12.8093
G01 X18.1235 Y-12.8235
G01 X18.1186 Y-12.8374
G01 X18.1123 Y-12.8507
G01 X18.1047 Y-12.8633
G01 X18.0960 Y-12.8752
G01 X18.0861 Y-12.8861
G01 X18.0752 Y-12.8960
G01 X18.0633 Y-12.9047
G01 X18.0507 Y-12.9123
G01 X18.0374 Y-12.9186
G01 X18.0235 Y-12.9235
G01 X18.0093 Y-12.9271
G01 X17.9947 Y-12.9293
G01 X17.9800 Y-12.9300
G01 X17.9653 Y-12.9293
G01 X17.9507 Y-12.9271
G01 X17.9365 Y-12.9235
G01 X17.9226 Y-12.9186
G01 X17.9093 Y-12.9123
G01 X17.8967 Y-12.9047
G01 X17.8848 Y-12.8960
G01 X17.8739 Y-12.8861
G01 X17.8640 Y-12.8752
G01 X17.8553 Y-12.8633
G01 X17.8477 Y-12.8507
G01 X17.8414 Y-12.8374
G01 X17.8365 Y-12.8235
G01 X17.8329 Y-12.8093
G01 X17.8307 Y-12.7947
G01 X17.8300 Y-12.7800
G01 X17.8307 Y-12.7653
G01 X17.8329 Y-12.7507
G01 X17.8365 Y-12.7365
G01 X17.8414 Y-12.7226
G01 X17.8477 Y-12.7093
G01 X17.8553 Y-12.6967
G01 X17.8640 Y-12.6848
G01 X17.8739 Y-12.6739
G01 X17.8848 Y-12.6640
G01 X17.8967 Y-12.6553
G01 X17.9093 Y-12.6477
G01 X17.9226 Y-12.6414
G01 X17.9365 Y-12.6365
G01 X17.9507 Y-12.6329
G01 X17.9653 Y-12.6307
G01 X17.9800 Y-12.6300
G01 X17.9947 Y-12.6307
G01 X18.0093 Y-12.6329
G01 X18.0235 Y-12.6365
G01 X18.0374 Y-12.6414
G01 X18.0507 Y-12.6477
G01 X18.0633 Y-12.6553
G01 X18.0752 Y-12.6640
G01 X18.0861 Y-12.6739
G01 X18.0960 Y-12.6848
G01 X18.1047 Y-12.6967
G01 X18.1123 Y-12.7093
G01 X18.1186 Y-12.7226
G01 X18.1235 Y-12.7365
G01 X18.1271 Y-12.7507
G01 X18.1293 Y-12.7653
G01 X18.1300 Y-12.7800
G00 X18.1300 Y-12.7800
G01 F80.00
G01 Z-0.2000
G01 F50.00
G01 X18.1293 Y-12.7947
G01 X18.1271 Y-12.8093
G01 X18.1235 Y-12.8235
G01 X18.1186 Y-12.8374
G01 X18.1123 Y-12.8507
G01 X18.1047 Y-12.8633
G01 X18.0960 Y-12.8752
G01 X18.0861 Y-12.8861
G01 X18.0752 Y-12.8960
G01 X18.0633 Y-12.9047
G01 X18.0507 Y-12.9123
G01 X18.0374 Y-12.9186
G01 X18.0235 Y-12.9235
G01 X18.0093 Y-12.9271
G01 X17.9947 Y-12.9293
G01 X17.9800 Y-12.9300
G01 X17.9653 Y-12.9293
G01 X17.9507 Y-12.9271
G01 X17.9365 Y-12.9235
G01 X17.9226 Y-12.9186
G01 X17.9093 Y-12.9123
G01 X17.8967 Y-12.9047
G01 X17.8848 Y-12.8960
G01 X17.8739 Y-12.8861
G01 X17.8640 Y-12.8752
G01 X17.8553 Y-12.8633
G01 X17.8477 Y-12.8507
G01 X17.8414 Y-12.8374
G01 X17.8365 Y-12.8235
G01 X17.8329 Y-12.8093
G01 X17.8307 Y-12.7947
G01 X17.8300 Y-12.7800
G01 X17.8307 Y-12.7653
G01 X17.8329 Y-12.7507
G01 X17.8365 Y-12.7365
G01 X17.8414 Y-12.7226
G01 X17.8477 Y-12.7093
G01 X17.8553 Y-12.6967
G01 X17.8640 Y-12.6848
G01 X17.8739 Y-12.6739
G01 X17.8848 Y-12.6640
G01 X17.8967 Y-12.6553
G01 X17.9093 Y-12.6477
G01 X17.9226 Y-12.6414
G01 X17.9365 Y-12.6365
G01 X17.9507 Y-12.6329
G01 X17.9653 Y-12.6307
G01 X17.9800 Y-12.6300
G01 X17.9947 Y-12.6307
G01 X18.0093 Y-12.6329
G01 X18.0235 Y-12.6365
G01 X18.0374 Y-12.6414
G01 X18.0507 Y-12.6477
G01 X18.0633 Y-12.6553
G01 X18.0752 Y-12.6640
G01 X18.0861 Y-12.6739
G01 X18.0960 Y-12.6848
G01 X18.1047 Y-12.6967
G01 X18.1123 Y-12.7093
G01 X18.1186 Y-12.7226
G01 X18.1235 Y-12.7365
G01 X18.1271 Y-12.7507
G01 X18.1293 Y-12.7653
G01 X18.1300 Y-12.7800
G00 X18.1300 Y-12.7800
G01 F80.00
G01 Z-0.2500
G01 F50.00
G01 X18.1293 Y-12.7947
G01 X18.1271 Y-12.8093
G01 X18.1235 Y-12.8235
G01 X18.1186 Y-12.8374
G01 X18.1123 Y-12.8507
G01 X18.1047 Y-12.8633
G01 X18.0960 Y-12.8752
G01 X18.0861 Y-12.8861
G01 X18.0752 Y-12.8960
G01 X18.0633 Y-12.9047
G01 X18.0507 Y-12.9123
G01 X18.0374 Y-12.9186
G01 X18.0235 Y-12.9235
G01 X18.0093 Y-12.9271
G01 X17.9947 Y-12.9293
G01 X17.9800 Y-12.9300
G01 X17.9653 Y-12.9293
G01 X17.9507 Y-12.9271
G01 X17.9365 Y-12.9235
G01 X17.9226 Y-12.9186
G01 X17.9093 Y-12.9123
G01 X17.8967 Y-12.9047
G01 X17.8848 Y-12.8960
G01 X17.8739 Y-12.8861
G01 X17.8640 Y-12.8752
G01 X17.8553 Y-12.8633
G01 X17.8477 Y-12.8507
G01 X17.8414 Y-12.8374
G01 X17.8365 Y-12.8235
G01 X17.8329 Y-12.8093
G01 X17.8307 Y-12.7947
G01 X17.8300 Y-12.7800
G01 X17.8307 Y-12.7653
G01 X17.8329 Y-12.7507
G01 X17.8365 Y-12.7365
G01 X17.8414 Y-12.7226
G01 X17.8477 Y-12.7093
G01 X17.8553 Y-12.6967
G01 X17.8640 Y-12.6848
G01 X17.8739 Y-12.6739
G01 X17.8848 Y-12.6640
G01 X17.8967 Y-12.6553
G01 X17.9093 Y-12.6477
G01 X17.9226 Y-12.6414
G01 X17.9365 Y-12.6365
G01 X17.9507 Y-12.6329
G01 X17.9653 Y-12.6307
G01 X17.9800 Y-12.6300
G01 X17.9947 Y-12.6307
G01 X18.0093 Y-12.6329
G01 X18.0235 Y-12.6365
G01 X18.0374 Y-12.6414
G01 X18.0507 Y-12.6477
G01 X18.0633 Y-12.6553
G01 X18.0752 Y-12.6640
G01 X18.0861 Y-12.6739
G01 X18.0960 Y-12.6848
G01 X18.1047 Y-12.6967
G01 X18.1123 Y-12.7093
G01 X18.1186 Y-12.7226
G01 X18.1235 Y-12.7365
G01 X18.1271 Y-12.7507
G01 X18.1293 Y-12.7653
G01 X18.1300 Y-12.7800
G00 X18.1300 Y-12.7800
G01 F80.00
G01 Z-0.3000
G01 F50.00
G01 X18.1293 Y-12.7947
G01 X18.1271 Y-12.8093
G01 X18.1235 Y-12.8235
G01 X18.1186 Y-12.8374
G01 X18.1123 Y-12.8507
G01 X18.1047 Y-12.8633
G01 X18.0960 Y-12.8752
G01 X18.0861 Y-12.8861
G01 X18.0752 Y-12.8960
G01 X18.0633 Y-12.9047
G01 X18.0507 Y-12.9123
G01 X18.0374 Y-12.9186
G01 X18.0235 Y-12.9235
G01 X18.0093 Y-12.9271
G01 X17.9947 Y-12.9293
G01 X17.9800 Y-12.9300
G01 X17.9653 Y-12.9293
G01 X17.9507 Y-12.9271
G01 X17.9365 Y-12.9235
G01 X17.9226 Y-12.9186
G01 X17.9093 Y-12.9123
G01 X17.8967 Y-12.9047
G01 X17.8848 Y-12.8960
G01 X17.8739 Y-12.8861
G01 X17.8640 Y-12.8752
G01 X17.8553 Y-12.8633
G01 X17.8477 Y-12.8507
G01 X17.8414 Y-12.8374
G01 X17.8365 Y-12.8235
G01 X17.8329 Y-12.8093
G01 X17.8307 Y-12.7947
G01 X17.8300 Y-12.7800
