(G-CODE GENERATED BY FLATCAM v8.95 - www.flatcam.org - Version Date: 2019/08/17)

(Name: Syntez2_Ф1_верх.gbr_cutoff_cnc)
(Type: G-code from Geometry)
(Units: MM)

(Created on Saturday, 12 September 2020 at 13:10)

(TOOL DIAMETER: 0.9 mm)
(Feedrate: 50.0 mm/min)
(Feedrate_Z: 79.9998 mm/min)
(Feedrate rapids 79.9998 mm/min)

(Z_Cut: -1.51 mm)
(DepthPerCut: 0.1 mm <=>16 passes)
(Z_Move: 3.0 mm)
(Z Toolchange: 12.7 mm)
(X,Y Toolchange: 0.0000, 0.0000 mm)
(Z Start: None mm)
(Z End: 12.7 mm)
(Steps per circle: 128)
(Postprocessor Geometry: default)

(X range:    0.8337 ...  101.8380  mm)
(Y range:  -34.7661 ...   -0.8679  mm)

(Spindle Speed: None RPM)

G21
G90
G94

G01 F50.00
G00 Z3.0000

M03
G00 X1.2837 Y-15.3986
G01 F80.00
G01 Z-0.1000
G01 F50.00
G01 X22.2658 Y-15.3986
G01 X22.2878 Y-15.3980
G01 X22.3099 Y-15.3964
G01 X22.3441 Y-15.3917
G01 X22.7667 Y-15.4023
G01 X23.1718 Y-15.4322
G01 X23.5859 Y-15.4830
G01 X23.9970 Y-15.5541
G01 X24.4270 Y-15.6504
G01 X24.4487 Y-15.6542
G01 X24.4707 Y-15.6569
G01 X24.4927 Y-15.6585
G01 X24.6346 Y-15.6590
G01 X25.3425 Y-15.9068
G01 X25.4286 Y-15.9653
G01 X25.4654 Y-15.9858
G01 X25.5039 Y-16.0028
G01 X25.6020 Y-16.0410
G01 X25.9834 Y-16.2103
G01 X26.3559 Y-16.3981
G01 X26.7093 Y-16.5983
G01 X27.0619 Y-16.8213
G01 X27.4032 Y-17.0613
G01 X27.7322 Y-17.3177
G01 X28.0483 Y-17.5900
G01 X28.3507 Y-17.8775
G01 X28.6385 Y-18.1795
G01 X28.9113 Y-18.4952
G01 X29.1681 Y-18.8240
G01 X29.4086 Y-19.1649
G01 X29.6377 Y-19.5267
G01 X29.8431 Y-19.8899
G01 X30.0305 Y-20.2626
G01 X30.1993 Y-20.6442
G01 X30.3492 Y-21.0335
G01 X30.4798 Y-21.4297
G01 X30.5908 Y-21.8319
G01 X30.6798 Y-22.2282
G01 X30.7514 Y-22.6392
G01 X30.8027 Y-23.0532
G01 X30.8337 Y-23.4693
G01 X30.8442 Y-23.8864
G01 X30.8443 Y-34.3161
G01 X30.8449 Y-34.3382
G01 X30.8465 Y-34.3602
G01 X30.8492 Y-34.3821
G01 X30.8530 Y-34.4039
G01 X30.8578 Y-34.4254
G01 X30.8637 Y-34.4467
G01 X30.8706 Y-34.4677
G01 X30.8786 Y-34.4883
G01 X30.8875 Y-34.5085
G01 X30.8975 Y-34.5282
G01 X30.9083 Y-34.5474
G01 X30.9202 Y-34.5661
G01 X30.9329 Y-34.5841
G01 X30.9465 Y-34.6016
G01 X30.9609 Y-34.6183
G01 X30.9761 Y-34.6343
G01 X30.9921 Y-34.6495
G01 X31.0088 Y-34.6639
G01 X31.0263 Y-34.6775
G01 X31.0443 Y-34.6902
G01 X31.0630 Y-34.7021
G01 X31.0822 Y-34.7129
G01 X31.1019 Y-34.7229
G01 X31.1221 Y-34.7318
G01 X31.1427 Y-34.7398
G01 X31.1637 Y-34.7467
G01 X31.1850 Y-34.7526
G01 X31.2065 Y-34.7574
G01 X31.2283 Y-34.7612
G01 X31.2502 Y-34.7639
G01 X31.2722 Y-34.7655
G01 X31.2943 Y-34.7661
G01 X65.4708 Y-34.7661
G01 X65.4929 Y-34.7655
G01 X65.5149 Y-34.7639
G01 X65.5368 Y-34.7612
G01 X65.5586 Y-34.7574
G01 X65.5801 Y-34.7526
G01 X65.6014 Y-34.7467
G01 X65.6224 Y-34.7398
G01 X65.6430 Y-34.7318
G01 X65.6632 Y-34.7229
G01 X65.6829 Y-34.7129
G01 X65.7021 Y-34.7021
G01 X65.7208 Y-34.6902
G01 X65.7388 Y-34.6775
G01 X65.7563 Y-34.6639
G01 X65.7730 Y-34.6495
G01 X65.7890 Y-34.6343
G01 X65.8042 Y-34.6183
G01 X65.8186 Y-34.6016
G01 X65.8322 Y-34.5841
G01 X65.8449 Y-34.5661
G01 X65.8568 Y-34.5474
G01 X65.8676 Y-34.5282
G01 X65.8776 Y-34.5085
G01 X65.8865 Y-34.4883
G01 X65.8945 Y-34.4677
G01 X65.9014 Y-34.4467
G01 X65.9073 Y-34.4254
G01 X65.9121 Y-34.4039
G01 X65.9159 Y-34.3821
G01 X65.9186 Y-34.3602
G01 X65.9202 Y-34.3382
G01 X65.9208 Y-34.3161
G01 X65.9208 Y-23.9702
G01 X65.9202 Y-23.9482
G01 X65.9186 Y-23.9261
G01 X65.9140 Y-23.8919
G01 X65.9140 Y-23.8864
G01 X65.9245 Y-23.4693
G01 X65.9544 Y-23.0642
G01 X66.0052 Y-22.6501
G01 X66.0763 Y-22.2390
G01 X66.1701 Y-21.8212
G01 X66.2816 Y-21.4192
G01 X66.4090 Y-21.0335
G01 X66.5632 Y-20.6340
G01 X66.7325 Y-20.2526
G01 X66.9203 Y-19.8801
G01 X67.1205 Y-19.5267
G01 X67.3435 Y-19.1741
G01 X67.5835 Y-18.8328
G01 X67.8399 Y-18.5038
G01 X68.1197 Y-18.1795
G01 X68.4075 Y-17.8775
G01 X68.7017 Y-17.5975
G01 X69.0174 Y-17.3247
G01 X69.3462 Y-17.0679
G01 X69.6963 Y-16.8213
G01 X70.0394 Y-16.6040
G01 X70.4023 Y-16.3981
G01 X70.7748 Y-16.2103
G01 X71.1562 Y-16.0410
G01 X71.5557 Y-15.8868
G01 X71.9519 Y-15.7562
G01 X72.3541 Y-15.6452
G01 X72.7504 Y-15.5562
G01 X73.1614 Y-15.4846
G01 X73.5754 Y-15.4333
G01 X73.9915 Y-15.4023
G01 X74.4196 Y-15.3917
G01 X94.3558 Y-15.3967
G01 X94.3776 Y-15.3962
G01 X94.3993 Y-15.3946
G01 X94.4209 Y-15.3920
G01 X94.4424 Y-15.3883
G01 X94.4636 Y-15.3836
G01 X94.4846 Y-15.3779
G01 X94.5053 Y-15.3712
G01 X94.5257 Y-15.3634
G01 X94.5456 Y-15.3547
G01 X94.5769 Y-15.3385
G01 X94.6012 Y-15.3500
G01 X94.6239 Y-15.3593
G01 X94.6470 Y-15.3676
G01 X94.6682 Y-15.3740
G01 X94.6919 Y-15.3800
G01 X94.7160 Y-15.3848
G01 X94.7427 Y-15.3888
G01 X94.7671 Y-15.3911
G01 X94.8027 Y-15.3924
G01 X101.3114 Y-15.3924
G01 X101.3470 Y-15.3911
G01 X101.3714 Y-15.3888
G01 X101.3981 Y-15.3848
G01 X101.4222 Y-15.3800
G01 X101.4459 Y-15.3740
G01 X101.4671 Y-15.3676
G01 X101.4902 Y-15.3593
G01 X101.5129 Y-15.3500
G01 X101.5351 Y-15.3396
G01 X101.5589 Y-15.3268
G01 X101.5779 Y-15.3155
G01 X101.5983 Y-15.3019
G01 X101.6200 Y-15.2858
G01 X101.6389 Y-15.2702
G01 X101.6553 Y-15.2554
G01 X101.6744 Y-15.2363
G01 X101.6908 Y-15.2181
G01 X101.7063 Y-15.1991
G01 X101.7195 Y-15.1813
G01 X101.7345 Y-15.1589
G01 X101.7458 Y-15.1399
G01 X101.7575 Y-15.1183
G01 X101.7690 Y-15.0939
G01 X101.7783 Y-15.0712
G01 X101.7858 Y-15.0504
G01 X101.7930 Y-15.0269
G01 X101.7995 Y-15.0008
G01 X101.8038 Y-14.9791
G01 X101.8075 Y-14.9548
G01 X101.8101 Y-14.9280
G01 X101.8113 Y-14.9034
G01 X101.8114 Y-9.0980
G01 X101.8101 Y-9.0624
G01 X101.8078 Y-9.0380
G01 X101.8043 Y-9.0137
G01 X101.7995 Y-8.9896
G01 X101.7936 Y-8.9658
G01 X101.7866 Y-8.9423
G01 X101.7783 Y-8.9192
G01 X101.7683 Y-8.8948
G01 X101.7833 Y-8.8694
G01 X101.7935 Y-8.8494
G01 X101.8027 Y-8.8290
G01 X101.8109 Y-8.8082
G01 X101.8180 Y-8.7869
G01 X101.8241 Y-8.7653
G01 X101.8291 Y-8.7435
G01 X101.8330 Y-8.7214
G01 X101.8357 Y-8.6992
G01 X101.8374 Y-8.6769
G01 X101.8380 Y-8.6545
G01 X101.8380 Y-1.3234
G01 X101.8374 Y-1.3013
G01 X101.8358 Y-1.2793
G01 X101.8331 Y-1.2574
G01 X101.8293 Y-1.2356
G01 X101.8245 Y-1.2141
G01 X101.8186 Y-1.1928
G01 X101.8117 Y-1.1718
G01 X101.8037 Y-1.1512
G01 X101.7948 Y-1.1310
G01 X101.7848 Y-1.1113
G01 X101.7740 Y-1.0921
G01 X101.7621 Y-1.0734
G01 X101.7494 Y-1.0554
G01 X101.7358 Y-1.0379
G01 X101.7214 Y-1.0212
G01 X101.7062 Y-1.0052
G01 X101.6902 Y-0.9900
G01 X101.6735 Y-0.9756
G01 X101.6560 Y-0.9620
G01 X101.6380 Y-0.9493
G01 X101.6193 Y-0.9374
G01 X101.6001 Y-0.9266
G01 X101.5804 Y-0.9166
G01 X101.5602 Y-0.9077
G01 X101.5396 Y-0.8997
G01 X101.5186 Y-0.8928
G01 X101.4973 Y-0.8869
G01 X101.4758 Y-0.8821
G01 X101.4540 Y-0.8783
G01 X101.4321 Y-0.8756
G01 X101.4101 Y-0.8740
G01 X101.3880 Y-0.8734
G01 X92.9589 Y-0.8734
G01 X92.9332 Y-0.8701
G01 X92.9112 Y-0.8684
G01 X92.8891 Y-0.8679
G01 X79.4544 Y-0.8683
G01 X79.4139 Y-0.8697
G01 X79.3846 Y-0.8724
G01 X79.3554 Y-0.8766
G01 X79.3193 Y-0.8838
G01 X79.2979 Y-0.8891
G01 X79.2697 Y-0.8975
G01 X79.2419 Y-0.9073
G01 X79.2146 Y-0.9184
G01 X79.1849 Y-0.9323
G01 X79.1551 Y-0.9166
G01 X79.1349 Y-0.9077
G01 X79.1143 Y-0.8997
G01 X79.0933 Y-0.8928
G01 X79.0720 Y-0.8869
G01 X79.0505 Y-0.8821
G01 X79.0287 Y-0.8783
G01 X79.0068 Y-0.8756
G01 X78.9848 Y-0.8740
G01 X78.9627 Y-0.8734
G01 X58.7042 Y-0.8734
G01 X58.6824 Y-0.8740
G01 X58.6607 Y-0.8755
G01 X58.6390 Y-0.8782
G01 X58.6175 Y-0.8819
G01 X58.5962 Y-0.8866
G01 X58.5751 Y-0.8924
G01 X58.5543 Y-0.8991
G01 X58.5339 Y-0.9069
G01 X58.5139 Y-0.9156
G01 X58.4944 Y-0.9254
G01 X58.4763 Y-0.9354
G01 X58.4470 Y-0.9247
G01 X58.4142 Y-0.9144
G01 X58.3810 Y-0.9058
G01 X58.3473 Y-0.8988
G01 X58.3161 Y-0.8938
G01 X58.2829 Y-0.8901
G01 X58.2504 Y-0.8880
G01 X58.2216 Y-0.8874
G01 X32.7026 Y-0.8874
G01 X32.6572 Y-0.8889
G01 X32.6230 Y-0.8920
G01 X32.5890 Y-0.8967
G01 X32.5552 Y-0.9031
G01 X32.5218 Y-0.9112
G01 X32.4888 Y-0.9209
G01 X32.4564 Y-0.9321
G01 X32.4289 Y-0.9432
G01 X32.4006 Y-0.9266
G01 X32.3809 Y-0.9166
G01 X32.3607 Y-0.9077
G01 X32.3401 Y-0.8997
G01 X32.3191 Y-0.8928
G01 X32.2978 Y-0.8869
G01 X32.2763 Y-0.8821
G01 X32.2545 Y-0.8783
G01 X32.2326 Y-0.8756
G01 X32.2105 Y-0.8740
G01 X32.1885 Y-0.8734
G01 X1.2837 Y-0.8734
G01 X1.2616 Y-0.8740
G01 X1.2396 Y-0.8756
G01 X1.2177 Y-0.8783
G01 X1.1959 Y-0.8821
G01 X1.1744 Y-0.8869
G01 X1.1531 Y-0.8928
G01 X1.1321 Y-0.8997
G01 X1.1115 Y-0.9077
G01 X1.0913 Y-0.9166
G01 X1.0716 Y-0.9266
G01 X1.0524 Y-0.9374
G01 X1.0337 Y-0.9493
G01 X1.0157 Y-0.9620
G01 X0.9982 Y-0.9756
G01 X0.9815 Y-0.9900
G01 X0.9655 Y-1.0052
G01 X0.9503 Y-1.0212
G01 X0.9359 Y-1.0379
G01 X0.9223 Y-1.0554
G01 X0.9096 Y-1.0734
G01 X0.8977 Y-1.0921
G01 X0.8869 Y-1.1113
G01 X0.8769 Y-1.1310
G01 X0.8680 Y-1.1512
G01 X0.8600 Y-1.1718
G01 X0.8531 Y-1.1928
G01 X0.8472 Y-1.2141
G01 X0.8424 Y-1.2356
G01 X0.8386 Y-1.2574
G01 X0.8359 Y-1.2793
G01 X0.8343 Y-1.3013
G01 X0.8337 Y-1.3234
G01 X0.8337 Y-14.9486
G01 X0.8343 Y-14.9707
G01 X0.8359 Y-14.9927
G01 X0.8386 Y-15.0146
G01 X0.8424 Y-15.0364
G01 X0.8472 Y-15.0579
G01 X0.8531 Y-15.0792
G01 X0.8600 Y-15.1002
G01 X0.8680 Y-15.1208
G01 X0.8769 Y-15.1410
G01 X0.8869 Y-15.1607
G01 X0.8977 Y-15.1799
G01 X0.9096 Y-15.1986
G01 X0.9223 Y-15.2166
G01 X0.9359 Y-15.2341
G01 X0.9503 Y-15.2508
G01 X0.9655 Y-15.2668
G01 X0.9815 Y-15.2820
G01 X0.9982 Y-15.2964
G01 X1.0157 Y-15.3100
G01 X1.0337 Y-15.3227
G01 X1.0524 Y-15.3346
G01 X1.0716 Y-15.3454
G01 X1.0913 Y-15.3554
G01 X1.1115 Y-15.3643
G01 X1.1321 Y-15.3723
G01 X1.1531 Y-15.3792
G01 X1.1744 Y-15.3851
G01 X1.1959 Y-15.3899
G01 X1.2177 Y-15.3937
G01 X1.2396 Y-15.3964
G01 X1.2616 Y-15.3980
G01 X1.2837 Y-15.3986
G00 X1.2837 Y-15.3986
G01 F80.00
G01 Z-0.2000
G01 F50.00
G01 X22.2658 Y-15.3986
G01 X22.2878 Y-15.3980
G01 X22.3099 Y-15.3964
G01 X22.3441 Y-15.3917
G01 X22.7667 Y-15.4023
G01 X23.1718 Y-15.4322
G01 X23.5859 Y-15.4830
G01 X23.9970 Y-15.5541
G01 X24.4270 Y-15.6504
G01 X24.4487 Y-15.6542
G01 X24.4707 Y-15.6569
G01 X24.4927 Y-15.6585
G01 X24.6346 Y-15.6590
G01 X25.3425 Y-15.9068
G01 X25.4286 Y-15.9653
G01 X25.4654 Y-15.9858
G01 X25.5039 Y-16.0028
G01 X25.6020 Y-16.0410
G01 X25.9834 Y-16.2103
G01 X26.3559 Y-16.3981
G01 X26.7093 Y-16.5983
G01 X27.0619 Y-16.8213
G01 X27.4032 Y-17.0613
G01 X27.7322 Y-17.3177
G01 X28.0483 Y-17.5900
G01 X28.3507 Y-17.8775
G01 X28.6385 Y-18.1795
G01 X28.9113 Y-18.4952
G01 X29.1681 Y-18.8240
G01 X29.4086 Y-19.1649
G01 X29.6377 Y-19.5267
G01 X29.8431 Y-19.8899
G01 X30.0305 Y-20.2626
G01 X30.1993 Y-20.6442
G01 X30.3492 Y-21.0335
G01 X30.4798 Y-21.4297
G01 X30.5908 Y-21.8319
G01 X30.6798 Y-22.2282
G01 X30.7514 Y-22.6392
G01 X30.8027 Y-23.0532
G01 X30.8337 Y-23.4693
G01 X30.8442 Y-23.8864
G01 X30.8443 Y-34.3161
G01 X30.8449 Y-34.3382
G01 X30.8465 Y-34.3602
G01 X30.8492 Y-34.3821
G01 X30.8530 Y-34.4039
G01 X30.8578 Y-34.4254
G01 X30.8637 Y-34.4467
G01 X30.8706 Y-34.4677
G01 X30.8786 Y-34.4883
G01 X30.8875 Y-34.5085
G01 X30.8975 Y-34.5282
G01 X30.9083 Y-34.5474
G01 X30.9202 Y-34.5661
G01 X30.9329 Y-34.5841
G01 X30.9465 Y-34.6016
G01 X30.9609 Y-34.6183
G01 X30.9761 Y-34.6343
G01 X30.9921 Y-34.6495
G01 X31.0088 Y-34.6639
G01 X31.0263 Y-34.6775
G01 X31.0443 Y-34.6902
G01 X31.0630 Y-34.7021
G01 X31.0822 Y-34.7129
G01 X31.1019 Y-34.7229
G01 X31.1221 Y-34.7318
G01 X31.1427 Y-34.7398
G01 X31.1637 Y-34.7467
G01 X31.1850 Y-34.7526
G01 X31.2065 Y-34.7574
G01 X31.2283 Y-34.7612
G01 X31.2502 Y-34.7639
G01 X31.2722 Y-34.7655
G01 X31.2943 Y-34.7661
G01 X65.4708 Y-34.7661
G01 X65.4929 Y-34.7655
G01 X65.5149 Y-34.7639
G01 X65.5368 Y-34.7612
G01 X65.5586 Y-34.7574
G01 X65.5801 Y-34.7526
G01 X65.6014 Y-34.7467
G01 X65.6224 Y-34.7398
G01 X65.6430 Y-34.7318
G01 X65.6632 Y-34.7229
G01 X65.6829 Y-34.7129
G01 X65.7021 Y-34.7021
G01 X65.7208 Y-34.6902
G01 X65.7388 Y-34.6775
G01 X65.7563 Y-34.6639
G01 X65.7730 Y-34.6495
G01 X65.7890 Y-34.6343
G01 X65.8042 Y-34.6183
G01 X65.8186 Y-34.6016
G01 X65.8322 Y-34.5841
G01 X65.8449 Y-34.5661
G01 X65.8568 Y-34.5474
G01 X65.8676 Y-34.5282
G01 X65.8776 Y-34.5085
G01 X65.8865 Y-34.4883
G01 X65.8945 Y-34.4677
G01 X65.9014 Y-34.4467
G01 X65.9073 Y-34.4254
G01 X65.9121 Y-34.4039
G01 X65.9159 Y-34.3821
G01 X65.9186 Y-34.3602
G01 X65.9202 Y-34.3382
G01 X65.9208 Y-34.3161
G01 X65.9208 Y-23.9702
G01 X65.9202 Y-23.9482
G01 X65.9186 Y-23.9261
G01 X65.9140 Y-23.8919
G01 X65.9140 Y-23.8864
G01 X65.9245 Y-23.4693
G01 X65.9544 Y-23.0642
G01 X66.0052 Y-22.6501
G01 X66.0763 Y-22.2390
G01 X66.1701 Y-21.8212
G01 X66.2816 Y-21.4192
G01 X66.4090 Y-21.0335
G01 X66.5632 Y-20.6340
G01 X66.7325 Y-20.2526
G01 X66.9203 Y-19.8801
G01 X67.1205 Y-19.5267
G01 X67.3435 Y-19.1741
G01 X67.5835 Y-18.8328
G01 X67.8399 Y-18.5038
G01 X68.1197 Y-18.1795
G01 X68.4075 Y-17.8775
G01 X68.7017 Y-17.5975
G01 X69.0174 Y-17.3247
G01 X69.3462 Y-17.0679
G01 X69.6963 Y-16.8213
G01 X70.0394 Y-16.6040
G01 X70.4023 Y-16.3981
G01 X70.7748 Y-16.2103
G01 X71.1562 Y-16.0410
G01 X71.5557 Y-15.8868
G01 X71.9519 Y-15.7562
G01 X72.3541 Y-15.6452
G01 X72.7504 Y-15.5562
G01 X73.1614 Y-15.4846
G01 X73.5754 Y-15.4333
G01 X73.9915 Y-15.4023
G01 X74.4196 Y-15.3917
G01 X94.3558 Y-15.3967
G01 X94.3776 Y-15.3962
G01 X94.3993 Y-15.3946
G01 X94.4209 Y-15.3920
G01 X94.4424 Y-15.3883
G01 X94.4636 Y-15.3836
G01 X94.4846 Y-15.3779
G01 X94.5053 Y-15.3712
G01 X94.5257 Y-15.3634
G01 X94.5456 Y-15.3547
G01 X94.5769 Y-15.3385
G01 X94.6012 Y-15.3500
G01 X94.6239 Y-15.3593
G01 X94.6470 Y-15.3676
G01 X94.6682 Y-15.3740
G01 X94.6919 Y-15.3800
G01 X94.7160 Y-15.3848
G01 X94.7427 Y-15.3888
G01 X94.7671 Y-15.3911
G01 X94.8027 Y-15.3924
G01 X101.3114 Y-15.3924
G01 X101.3470 Y-15.3911
G01 X101.3714 Y-15.3888
G01 X101.3981 Y-15.3848
G01 X101.4222 Y-15.3800
G01 X101.4459 Y-15.3740
G01 X101.4671 Y-15.3676
G01 X101.4902 Y-15.3593
G01 X101.5129 Y-15.3500
G01 X101.5351 Y-15.3396
G01 X101.5589 Y-15.3268
G01 X101.5779 Y-15.3155
G01 X101.5983 Y-15.3019
G01 X101.6200 Y-15.2858
G01 X101.6389 Y-15.2702
G01 X101.6553 Y-15.2554
G01 X101.6744 Y-15.2363
G01 X101.6908 Y-15.2181
G01 X101.7063 Y-15.1991
G01 X101.7195 Y-15.1813
G01 X101.7345 Y-15.1589
G01 X101.7458 Y-15.1399
G01 X101.7575 Y-15.1183
G01 X101.7690 Y-15.0939
G01 X101.7783 Y-15.0712
G01 X101.7858 Y-15.0504
G01 X101.7930 Y-15.0269
G01 X101.7995 Y-15.0008
G01 X101.8038 Y-14.9791
G01 X101.8075 Y-14.9548
G01 X101.8101 Y-14.9280
G01 X101.8113 Y-14.9034
G01 X101.8114 Y-9.0980
G01 X101.8101 Y-9.0624
G01 X101.8078 Y-9.0380
G01 X101.8043 Y-9.0137
G01 X101.7995 Y-8.9896
G01 X101.7936 Y-8.9658
G01 X101.7866 Y-8.9423
G01 X101.7783 Y-8.9192
G01 X101.7683 Y-8.8948
G01 X101.7833 Y-8.8694
G01 X101.7935 Y-8.8494
G01 X101.8027 Y-8.8290
G01 X101.8109 Y-8.8082
G01 X101.8180 Y-8.7869
G01 X101.8241 Y-8.7653
G01 X101.8291 Y-8.7435
G01 X101.8330 Y-8.7214
G01 X101.8357 Y-8.6992
G01 X101.8374 Y-8.6769
G01 X101.8380 Y-8.6545
G01 X101.8380 Y-1.3234
G01 X101.8374 Y-1.3013
G01 X101.8358 Y-1.2793
G01 X101.8331 Y-1.2574
G01 X101.8293 Y-1.2356
G01 X101.8245 Y-1.2141
G01 X101.8186 Y-1.1928
G01 X101.8117 Y-1.1718
G01 X101.8037 Y-1.1512
G01 X101.7948 Y-1.1310
G01 X101.7848 Y-1.1113
G01 X101.7740 Y-1.0921
G01 X101.7621 Y-1.0734
G01 X101.7494 Y-1.0554
G01 X101.7358 Y-1.0379
G01 X101.7214 Y-1.0212
G01 X101.7062 Y-1.0052
G01 X101.6902 Y-0.9900
G01 X101.6735 Y-0.9756
G01 X101.6560 Y-0.9620
G01 X101.6380 Y-0.9493
G01 X101.6193 Y-0.9374
G01 X101.6001 Y-0.9266
G01 X101.5804 Y-0.9166
G01 X101.5602 Y-0.9077
G01 X101.5396 Y-0.8997
G01 X101.5186 Y-0.8928
G01 X101.4973 Y-0.8869
G01 X101.4758 Y-0.8821
G01 X101.4540 Y-0.8783
G01 X101.4321 Y-0.8756
G01 X101.4101 Y-0.8740
G01 X101.3880 Y-0.8734
G01 X92.9589 Y-0.8734
G01 X92.9332 Y-0.8701
G01 X92.9112 Y-0.8684
G01 X92.8891 Y-0.8679
G01 X79.4544 Y-0.8683
G01 X79.4139 Y-0.8697
G01 X79.3846 Y-0.8724
G01 X79.3554 Y-0.8766
G01 X79.3193 Y-0.8838
G01 X79.2979 Y-0.8891
G01 X79.2697 Y-0.8975
G01 X79.2419 Y-0.9073
G01 X79.2146 Y-0.9184
G01 X79.1849 Y-0.9323
G01 X79.1551 Y-0.9166
G01 X79.1349 Y-0.9077
G01 X79.1143 Y-0.8997
G01 X79.0933 Y-0.8928
G01 X79.0720 Y-0.8869
G01 X79.0505 Y-0.8821
G01 X79.0287 Y-0.8783
G01 X79.0068 Y-0.8756
G01 X78.9848 Y-0.8740
G01 X78.9627 Y-0.8734
G01 X58.7042 Y-0.8734
G01 X58.6824 Y-0.8740
G01 X58.6607 Y-0.8755
G01 X58.6390 Y-0.8782
G01 X58.6175 Y-0.8819
G01 X58.5962 Y-0.8866
G01 X58.5751 Y-0.8924
G01 X58.5543 Y-0.8991
G01 X58.5339 Y-0.9069
G01 X58.5139 Y-0.9156
G01 X58.4944 Y-0.9254
G01 X58.4763 Y-0.9354
G01 X58.4470 Y-0.9247
G01 X58.4142 Y-0.9144
G01 X58.3810 Y-0.9058
G01 X58.3473 Y-0.8988
G01 X58.3161 Y-0.8938
G01 X58.2829 Y-0.8901
G01 X58.2504 Y-0.8880
G01 X58.2216 Y-0.8874
G01 X32.7026 Y-0.8874
G01 X32.6572 Y-0.8889
G01 X32.6230 Y-0.8920
G01 X32.5890 Y-0.8967
G01 X32.5552 Y-0.9031
G01 X32.5218 Y-0.9112
G01 X32.4888 Y-0.9209
G01 X32.4564 Y-0.9321
G01 X32.4289 Y-0.9432
G01 X32.4006 Y-0.9266
G01 X32.3809 Y-0.9166
G01 X32.3607 Y-0.9077
G01 X32.3401 Y-0.8997
G01 X32.3191 Y-0.8928
G01 X32.2978 Y-0.8869
G01 X32.2763 Y-0.8821
G01 X32.2545 Y-0.8783
G01 X32.2326 Y-0.8756
G01 X32.2105 Y-0.8740
G01 X32.1885 Y-0.8734
G01 X1.2837 Y-0.8734
G01 X1.2616 Y-0.8740
G01 X1.2396 Y-0.8756
G01 X1.2177 Y-0.8783
G01 X1.1959 Y-0.8821
G01 X1.1744 Y-0.8869
G01 X1.1531 Y-0.8928
G01 X1.1321 Y-0.8997
G01 X1.1115 Y-0.9077
G01 X1.0913 Y-0.9166
G01 X1.0716 Y-0.9266
G01 X1.0524 Y-0.9374
G01 X1.0337 Y-0.9493
G01 X1.0157 Y-0.9620
G01 X0.9982 Y-0.9756
G01 X0.9815 Y-0.9900
G01 X0.9655 Y-1.0052
G01 X0.9503 Y-1.0212
G01 X0.9359 Y-1.0379
G01 X0.9223 Y-1.0554
G01 X0.9096 Y-1.0734
G01 X0.8977 Y-1.0921
G01 X0.8869 Y-1.1113
G01 X0.8769 Y-1.1310
G01 X0.8680 Y-1.1512
G01 X0.8600 Y-1.1718
G01 X0.8531 Y-1.1928
G01 X0.8472 Y-1.2141
G01 X0.8424 Y-1.2356
G01 X0.8386 Y-1.2574
G01 X0.8359 Y-1.2793
G01 X0.8343 Y-1.3013
G01 X0.8337 Y-1.3234
G01 X0.8337 Y-14.9486
G01 X0.8343 Y-14.9707
G01 X0.8359 Y-14.9927
G01 X0.8386 Y-15.0146
G01 X0.8424 Y-15.0364
G01 X0.8472 Y-15.0579
G01 X0.8531 Y-15.0792
G01 X0.8600 Y-15.1002
G01 X0.8680 Y-15.1208
G01 X0.8769 Y-15.1410
G01 X0.8869 Y-15.1607
G01 X0.8977 Y-15.1799
G01 X0.9096 Y-15.1986
G01 X0.9223 Y-15.2166
G01 X0.9359 Y-15.2341
G01 X0.9503 Y-15.2508
G01 X0.9655 Y-15.2668
G01 X0.9815 Y-15.2820
G01 X0.9982 Y-15.2964
G01 X1.0157 Y-15.3100
G01 X1.0337 Y-15.3227
G01 X1.0524 Y-15.3346
G01 X1.0716 Y-15.3454
G01 X1.0913 Y-15.3554
G01 X1.1115 Y-15.3643
G01 X1.1321 Y-15.3723
G01 X1.1531 Y-15.3792
G01 X1.1744 Y-15.3851
G01 X1.1959 Y-15.3899
G01 X1.2177 Y-15.3937
G01 X1.2396 Y-15.3964
G01 X1.2616 Y-15.3980
G01 X1.2837 Y-15.3986
G00 X1.2837 Y-15.3986
G01 F80.00
G01 Z-0.3000
G01 F50.00
G01 X22.2658 Y-15.3986
G01 X22.2878 Y-15.3980
G01 X22.3099 Y-15.3964
G01 X22.3441 Y-15.3917
G01 X22.7667 Y-15.4023
G01 X23.1718 Y-15.4322
G01 X23.5859 Y-15.4830
G01 X23.9970 Y-15.5541
G01 X24.4270 Y-15.6504
G01 X24.4487 Y-15.6542
G01 X24.4707 Y-15.6569
G01 X24.4927 Y-15.6585
G01 X24.6346 Y-15.6590
G01 X25.3425 Y-15.9068
G01 X25.4286 Y-15.9653
G01 X25.4654 Y-15.9858
G01 X25.5039 Y-16.0028
G01 X25.6020 Y-16.0410
G01 X25.9834 Y-16.2103
G01 X26.3559 Y-16.3981
G01 X26.7093 Y-16.5983
G01 X27.0619 Y-16.8213
G01 X27.4032 Y-17.0613
G01 X27.7322 Y-17.3177
G01 X28.0483 Y-17.5900
G01 X28.3507 Y-17.8775
G01 X28.6385 Y-18.1795
G01 X28.9113 Y-18.4952
G01 X29.1681 Y-18.8240
G01 X29.4086 Y-19.1649
G01 X29.6377 Y-19.5267
G01 X29.8431 Y-19.8899
G01 X30.0305 Y-20.2626
G01 X30.1993 Y-20.6442
G01 X30.3492 Y-21.0335
G01 X30.4798 Y-21.4297
G01 X30.5908 Y-21.8319
G01 X30.6798 Y-22.2282
G01 X30.7514 Y-22.6392
G01 X30.8027 Y-23.0532
G01 X30.8337 Y-23.4693
G01 X30.8442 Y-23.8864
G01 X30.8443 Y-34.3161
G01 X30.8449 Y-34.3382
G01 X30.8465 Y-34.3602
G01 X30.8492 Y-34.3821
G01 X30.8530 Y-34.4039
G01 X30.8578 Y-34.4254
G01 X30.8637 Y-34.4467
G01 X30.8706 Y-34.4677
G01 X30.8786 Y-34.4883
G01 X30.8875 Y-34.5085
G01 X30.8975 Y-34.5282
G01 X30.9083 Y-34.5474
G01 X30.9202 Y-34.5661
G01 X30.9329 Y-34.5841
G01 X30.9465 Y-34.6016
G01 X30.9609 Y-34.6183
G01 X30.9761 Y-34.6343
G01 X30.9921 Y-34.6495
G01 X31.0088 Y-34.6639
G01 X31.0263 Y-34.6775
G01 X31.0443 Y-34.6902
G01 X31.0630 Y-34.7021
G01 X31.0822 Y-34.7129
G01 X31.1019 Y-34.7229
G01 X31.1221 Y-34.7318
G01 X31.1427 Y-34.7398
G01 X31.1637 Y-34.7467
G01 X31.1850 Y-34.7526
G01 X31.2065 Y-34.7574
G01 X31.2283 Y-34.7612
G01 X31.2502 Y-34.7639
G01 X31.2722 Y-34.7655
G01 X31.2943 Y-34.7661
G01 X65.4708 Y-34.7661
G01 X65.4929 Y-34.7655
G01 X65.5149 Y-34.7639
G01 X65.5368 Y-34.7612
G01 X65.5586 Y-34.7574
G01 X65.5801 Y-34.7526
G01 X65.6014 Y-34.7467
G01 X65.6224 Y-34.7398
G01 X65.6430 Y-34.7318
G01 X65.6632 Y-34.7229
G01 X65.6829 Y-34.7129
G01 X65.7021 Y-34.7021
G01 X65.7208 Y-34.6902
G01 X65.7388 Y-34.6775
G01 X65.7563 Y-34.6639
G01 X65.7730 Y-34.6495
G01 X65.7890 Y-34.6343
G01 X65.8042 Y-34.6183
G01 X65.8186 Y-34.6016
G01 X65.8322 Y-34.5841
G01 X65.8449 Y-34.5661
G01 X65.8568 Y-34.5474
G01 X65.8676 Y-34.5282
G01 X65.8776 Y-34.5085
G01 X65.8865 Y-34.4883
G01 X65.8945 Y-34.4677
G01 X65.9014 Y-34.4467
G01 X65.9073 Y-34.4254
G01 X65.9121 Y-34.4039
G01 X65.9159 Y-34.3821
G01 X65.9186 Y-34.3602
G01 X65.9202 Y-34.3382
G01 X65.9208 Y-34.3161
G01 X65.9208 Y-23.9702
G01 X65.9202 Y-23.9482
G01 X65.9186 Y-23.9261
G01 X65.9140 Y-23.8919
G01 X65.9140 Y-23.8864
G01 X65.9245 Y-23.4693
G01 X65.9544 Y-23.0642
G01 X66.0052 Y-22.6501
G01 X66.0763 Y-22.2390
G01 X66.1701 Y-21.8212
G01 X66.2816 Y-21.4192
G01 X66.4090 Y-21.0335
G01 X66.5632 Y-20.6340
G01 X66.7325 Y-20.2526
G01 X66.9203 Y-19.8801
G01 X67.1205 Y-19.5267
G01 X67.3435 Y-19.1741
G01 X67.5835 Y-18.8328
G01 X67.8399 Y-18.5038
G01 X68.1197 Y-18.1795
G01 X68.4075 Y-17.8775
G01 X68.7017 Y-17.5975
G01 X69.0174 Y-17.3247
G01 X69.3462 Y-17.0679
G01 X69.6963 Y-16.8213
G01 X70.0394 Y-16.6040
G01 X70.4023 Y-16.3981
G01 X70.7748 Y-16.2103
G01 X71.1562 Y-16.0410
G01 X71.5557 Y-15.8868
G01 X71.9519 Y-15.7562
G01 X72.3541 Y-15.6452
G01 X72.7504 Y-15.5562
G01 X73.1614 Y-15.4846
G01 X73.5754 Y-15.4333
G01 X73.9915 Y-15.4023
G01 X74.4196 Y-15.3917
G01 X94.3558 Y-15.3967
G01 X94.3776 Y-15.3962
G01 X94.3993 Y-15.3946
G01 X94.4209 Y-15.3920
G01 X94.4424 Y-15.3883
G01 X94.4636 Y-15.3836
G01 X94.4846 Y-15.3779
G01 X94.5053 Y-15.3712
G01 X94.5257 Y-15.3634
G01 X94.5456 Y-15.3547
G01 X94.5769 Y-15.3385
G01 X94.6012 Y-15.3500
G01 X94.6239 Y-15.3593
G01 X94.6470 Y-15.3676
G01 X94.6682 Y-15.3740
G01 X94.6919 Y-15.3800
G01 X94.7160 Y-15.3848
G01 X94.7427 Y-15.3888
G01 X94.7671 Y-15.3911
G01 X94.8027 Y-15.3924
G01 X101.3114 Y-15.3924
G01 X101.3470 Y-15.3911
G01 X101.3714 Y-15.3888
G01 X101.3981 Y-15.3848
G01 X101.4222 Y-15.3800
G01 X101.4459 Y-15.3740
G01 X101.4671 Y-15.3676
G01 X101.4902 Y-15.3593
G01 X101.5129 Y-15.3500
G01 X101.5351 Y-15.3396
G01 X101.5589 Y-15.3268
G01 X101.5779 Y-15.3155
G01 X101.5983 Y-15.3019
G01 X101.6200 Y-15.2858
G01 X101.6389 Y-15.2702
G01 X101.6553 Y-15.2554
G01 X101.6744 Y-15.2363
G01 X101.6908 Y-15.2181
G01 X101.7063 Y-15.1991
G01 X101.7195 Y-15.1813
G01 X101.7345 Y-15.1589
G01 X101.7458 Y-15.1399
G01 X101.7575 Y-15.1183
G01 X101.7690 Y-15.0939
G01 X101.7783 Y-15.0712
G01 X101.7858 Y-15.0504
G01 X101.7930 Y-15.0269
G01 X101.7995 Y-15.0008
G01 X101.8038 Y-14.9791
G01 X101.8075 Y-14.9548
G01 X101.8101 Y-14.9280
G01 X101.8113 Y-14.9034
G01 X101.8114 Y-9.0980
G01 X101.8101 Y-9.0624
G01 X101.8078 Y-9.0380
G01 X101.8043 Y-9.0137
G01 X101.7995 Y-8.9896
G01 X101.7936 Y-8.9658
G01 X101.7866 Y-8.9423
G01 X101.7783 Y-8.9192
G01 X101.7683 Y-8.8948
G01 X101.7833 Y-8.8694
G01 X101.7935 Y-8.8494
G01 X101.8027 Y-8.8290
G01 X101.8109 Y-8.8082
G01 X101.8180 Y-8.7869
G01 X101.8241 Y-8.7653
G01 X101.8291 Y-8.7435
G01 X101.8330 Y-8.7214
G01 X101.8357 Y-8.6992
G01 X101.8374 Y-8.6769
G01 X101.8380 Y-8.6545
G01 X101.8380 Y-1.3234
G01 X101.8374 Y-1.3013
G01 X101.8358 Y-1.2793
G01 X101.8331 Y-1.2574
G01 X101.8293 Y-1.2356
G01 X101.8245 Y-1.2141
G01 X101.8186 Y-1.1928
G01 X101.8117 Y-1.1718
G01 X101.8037 Y-1.1512
G01 X101.7948 Y-1.1310
G01 X101.7848 Y-1.1113
G01 X101.7740 Y-1.0921
G01 X101.7621 Y-1.0734
G01 X101.7494 Y-1.0554
G01 X101.7358 Y-1.0379
G01 X101.7214 Y-1.0212
G01 X101.7062 Y-1.0052
G01 X101.6902 Y-0.9900
G01 X101.6735 Y-0.9756
G01 X101.6560 Y-0.9620
G01 X101.6380 Y-0.9493
G01 X101.6193 Y-0.9374
G01 X101.6001 Y-0.9266
G01 X101.5804 Y-0.9166
G01 X101.5602 Y-0.9077
G01 X101.5396 Y-0.8997
G01 X101.5186 Y-0.8928
G01 X101.4973 Y-0.8869
G01 X101.4758 Y-0.8821
G01 X101.4540 Y-0.8783
G01 X101.4321 Y-0.8756
G01 X101.4101 Y-0.8740
G01 X101.3880 Y-0.8734
G01 X92.9589 Y-0.8734
G01 X92.9332 Y-0.8701
G01 X92.9112 Y-0.8684
G01 X92.8891 Y-0.8679
G01 X79.4544 Y-0.8683
G01 X79.4139 Y-0.8697
G01 X79.3846 Y-0.8724
G01 X79.3554 Y-0.8766
G01 X79.3193 Y-0.8838
G01 X79.2979 Y-0.8891
G01 X79.2697 Y-0.8975
G01 X79.2419 Y-0.9073
G01 X79.2146 Y-0.9184
G01 X79.1849 Y-0.9323
G01 X79.1551 Y-0.9166
G01 X79.1349 Y-0.9077
G01 X79.1143 Y-0.8997
G01 X79.0933 Y-0.8928
G01 X79.0720 Y-0.8869
G01 X79.0505 Y-0.8821
G01 X79.0287 Y-0.8783
G01 X79.0068 Y-0.8756
G01 X78.9848 Y-0.8740
G01 X78.9627 Y-0.8734
G01 X58.7042 Y-0.8734
G01 X58.6824 Y-0.8740
G01 X58.6607 Y-0.8755
G01 X58.6390 Y-0.8782
G01 X58.6175 Y-0.8819
G01 X58.5962 Y-0.8866
G01 X58.5751 Y-0.8924
G01 X58.5543 Y-0.8991
G01 X58.5339 Y-0.9069
G01 X58.5139 Y-0.9156
G01 X58.4944 Y-0.9254
G01 X58.4763 Y-0.9354
G01 X58.4470 Y-0.9247
G01 X58.4142 Y-0.9144
G01 X58.3810 Y-0.9058
G01 X58.3473 Y-0.8988
G01 X58.3161 Y-0.8938
G01 X58.2829 Y-0.8901
G01 X58.2504 Y-0.8880
G01 X58.2216 Y-0.8874
G01 X32.7026 Y-0.8874
G01 X32.6572 Y-0.8889
G01 X32.6230 Y-0.8920
G01 X32.5890 Y-0.8967
G01 X32.5552 Y-0.9031
G01 X32.5218 Y-0.9112
G01 X32.4888 Y-0.9209
G01 X32.4564 Y-0.9321
G01 X32.4289 Y-0.9432
G01 X32.4006 Y-0.9266
G01 X32.3809 Y-0.9166
G01 X32.3607 Y-0.9077
G01 X32.3401 Y-0.8997
G01 X32.3191 Y-0.8928
G01 X32.2978 Y-0.8869
G01 X32.2763 Y-0.8821
G01 X32.2545 Y-0.8783
G01 X32.2326 Y-0.8756
G01 X32.2105 Y-0.8740
G01 X32.1885 Y-0.8734
G01 X1.2837 Y-0.8734
G01 X1.2616 Y-0.8740
G01 X1.2396 Y-0.8756
G01 X1.2177 Y-0.8783
G01 X1.1959 Y-0.8821
G01 X1.1744 Y-0.8869
G01 X1.1531 Y-0.8928
G01 X1.1321 Y-0.8997
G01 X1.1115 Y-0.9077
G01 X1.0913 Y-0.9166
G01 X1.0716 Y-0.9266
G01 X1.0524 Y-0.9374
G01 X1.0337 Y-0.9493
G01 X1.0157 Y-0.9620
G01 X0.9982 Y-0.9756
G01 X0.9815 Y-0.9900
G01 X0.9655 Y-1.0052
G01 X0.9503 Y-1.0212
G01 X0.9359 Y-1.0379
G01 X0.9223 Y-1.0554
G01 X0.9096 Y-1.0734
G01 X0.8977 Y-1.0921
G01 X0.8869 Y-1.1113
G01 X0.8769 Y-1.1310
G01 X0.8680 Y-1.1512
G01 X0.8600 Y-1.1718
G01 X0.8531 Y-1.1928
G01 X0.8472 Y-1.2141
G01 X0.8424 Y-1.2356
G01 X0.8386 Y-1.2574
G01 X0.8359 Y-1.2793
G01 X0.8343 Y-1.3013
G01 X0.8337 Y-1.3234
G01 X0.8337 Y-14.9486
G01 X0.8343 Y-14.9707
G01 X0.8359 Y-14.9927
G01 X0.8386 Y-15.0146
G01 X0.8424 Y-15.0364
G01 X0.8472 Y-15.0579
G01 X0.8531 Y-15.0792
G01 X0.8600 Y-15.1002
G01 X0.8680 Y-15.1208
G01 X0.8769 Y-15.1410
G01 X0.8869 Y-15.1607
G01 X0.8977 Y-15.1799
G01 X0.9096 Y-15.1986
G01 X0.9223 Y-15.2166
G01 X0.9359 Y-15.2341
G01 X0.9503 Y-15.2508
G01 X0.9655 Y-15.2668
G01 X0.9815 Y-15.2820
G01 X0.9982 Y-15.2964
G01 X1.0157 Y-15.3100
G01 X1.0337 Y-15.3227
G01 X1.0524 Y-15.3346
G01 X1.0716 Y-15.3454
G01 X1.0913 Y-15.3554
G01 X1.1115 Y-15.3643
G01 X1.1321 Y-15.3723
G01 X1.1531 Y-15.3792
G01 X1.1744 Y-15.3851
G01 X1.1959 Y-15.3899
G01 X1.2177 Y-15.3937
G01 X1.2396 Y-15.3964
G01 X1.2616 Y-15.3980
G01 X1.2837 Y-15.3986
G00 X1.2837 Y-15.3986
G01 F80.00
G01 Z-0.4000
G01 F50.00
G01 X22.2658 Y-15.3986
G01 X22.2878 Y-15.3980
G01 X22.3099 Y-15.3964
G01 X22.3441 Y-15.3917
G01 X22.7667 Y-15.4023
G01 X23.1718 Y-15.4322
G01 X23.5859 Y-15.4830
G01 X23.9970 Y-15.5541
G01 X24.4270 Y-15.6504
G01 X24.4487 Y-15.6542
G01 X24.4707 Y-15.6569
G01 X24.4927 Y-15.6585
G01 X24.6346 Y-15.6590
G01 X25.3425 Y-15.9068
G01 X25.4286 Y-15.9653
G01 X25.4654 Y-15.9858
G01 X25.5039 Y-16.0028
G01 X25.6020 Y-16.0410
G01 X25.9834 Y-16.2103
G01 X26.3559 Y-16.3981
G01 X26.7093 Y-16.5983
G01 X27.0619 Y-16.8213
G01 X27.4032 Y-17.0613
G01 X27.7322 Y-17.3177
G01 X28.0483 Y-17.5900
G01 X28.3507 Y-17.8775
G01 X28.6385 Y-18.1795
G01 X28.9113 Y-18.4952
G01 X29.1681 Y-18.8240
G01 X29.4086 Y-19.1649
G01 X29.6377 Y-19.5267
G01 X29.8431 Y-19.8899
G01 X30.0305 Y-20.2626
G01 X30.1993 Y-20.6442
G01 X30.3492 Y-21.0335
G01 X30.4798 Y-21.4297
G01 X30.5908 Y-21.8319
G01 X30.6798 Y-22.2282
G01 X30.7514 Y-22.6392
G01 X30.8027 Y-23.0532
G01 X30.8337 Y-23.4693
G01 X30.8442 Y-23.8864
G01 X30.8443 Y-34.3161
G01 X30.8449 Y-34.3382
G01 X30.8465 Y-34.3602
G01 X30.8492 Y-34.3821
G01 X30.8530 Y-34.4039
G01 X30.8578 Y-34.4254
G01 X30.8637 Y-34.4467
G01 X30.8706 Y-34.4677
G01 X30.8786 Y-34.4883
G01 X30.8875 Y-34.5085
G01 X30.8975 Y-34.5282
G01 X30.9083 Y-34.5474
G01 X30.9202 Y-34.5661
G01 X30.9329 Y-34.5841
G01 X30.9465 Y-34.6016
G01 X30.9609 Y-34.6183
G01 X30.9761 Y-34.6343
G01 X30.9921 Y-34.6495
G01 X31.0088 Y-34.6639
G01 X31.0263 Y-34.6775
G01 X31.0443 Y-34.6902
G01 X31.0630 Y-34.7021
G01 X31.0822 Y-34.7129
G01 X31.1019 Y-34.7229
G01 X31.1221 Y-34.7318
G01 X31.1427 Y-34.7398
G01 X31.1637 Y-34.7467
G01 X31.1850 Y-34.7526
G01 X31.2065 Y-34.7574
G01 X31.2283 Y-34.7612
G01 X31.2502 Y-34.7639
G01 X31.2722 Y-34.7655
G01 X31.2943 Y-34.7661
G01 X65.4708 Y-34.7661
G01 X65.4929 Y-34.7655
G01 X65.5149 Y-34.7639
G01 X65.5368 Y-34.7612
G01 X65.5586 Y-34.7574
G01 X65.5801 Y-34.7526
G01 X65.6014 Y-34.7467
G01 X65.6224 Y-34.7398
G01 X65.6430 Y-34.7318
G01 X65.6632 Y-34.7229
G01 X65.6829 Y-34.7129
G01 X65.7021 Y-34.7021
G01 X65.7208 Y-34.6902
G01 X65.7388 Y-34.6775
G01 X65.7563 Y-34.6639
G01 X65.7730 Y-34.6495
G01 X65.7890 Y-34.6343
G01 X65.8042 Y-34.6183
G01 X65.8186 Y-34.6016
G01 X65.8322 Y-34.5841
G01 X65.8449 Y-34.5661
G01 X65.8568 Y-34.5474
G01 X65.8676 Y-34.5282
G01 X65.8776 Y-34.5085
G01 X65.8865 Y-34.4883
G01 X65.8945 Y-34.4677
G01 X65.9014 Y-34.4467
G01 X65.9073 Y-34.4254
G01 X65.9121 Y-34.4039
G01 X65.9159 Y-34.3821
G01 X65.9186 Y-34.3602
G01 X65.9202 Y-34.3382
G01 X65.9208 Y-34.3161
G01 X65.9208 Y-23.9702
G01 X65.9202 Y-23.9482
G01 X65.9186 Y-23.9261
G01 X65.9140 Y-23.8919
G01 X65.9140 Y-23.8864
G01 X65.9245 Y-23.4693
G01 X65.9544 Y-23.0642
G01 X66.0052 Y-22.6501
G01 X66.0763 Y-22.2390
G01 X66.1701 Y-21.8212
G01 X66.2816 Y-21.4192
G01 X66.4090 Y-21.0335
G01 X66.5632 Y-20.6340
G01 X66.7325 Y-20.2526
G01 X66.9203 Y-19.8801
G01 X67.1205 Y-19.5267
G01 X67.3435 Y-19.1741
G01 X67.5835 Y-18.8328
G01 X67.8399 Y-18.5038
G01 X68.1197 Y-18.1795
G01 X68.4075 Y-17.8775
G01 X68.7017 Y-17.5975
G01 X69.0174 Y-17.3247
G01 X69.3462 Y-17.0679
G01 X69.6963 Y-16.8213
G01 X70.0394 Y-16.6040
G01 X70.4023 Y-16.3981
G01 X70.7748 Y-16.2103
G01 X71.1562 Y-16.0410
G01 X71.5557 Y-15.8868
G01 X71.9519 Y-15.7562
G01 X72.3541 Y-15.6452
G01 X72.7504 Y-15.5562
G01 X73.1614 Y-15.4846
G01 X73.5754 Y-15.4333
G01 X73.9915 Y-15.4023
G01 X74.4196 Y-15.3917
G01 X94.3558 Y-15.3967
G01 X94.3776 Y-15.3962
G01 X94.3993 Y-15.3946
G01 X94.4209 Y-15.3920
G01 X94.4424 Y-15.3883
G01 X94.4636 Y-15.3836
G01 X94.4846 Y-15.3779
G01 X94.5053 Y-15.3712
G01 X94.5257 Y-15.3634
G01 X94.5456 Y-15.3547
G01 X94.5769 Y-15.3385
G01 X94.6012 Y-15.3500
G01 X94.6239 Y-15.3593
G01 X94.6470 Y-15.3676
G01 X94.6682 Y-15.3740
G01 X94.6919 Y-15.3800
G01 X94.7160 Y-15.3848
G01 X94.7427 Y-15.3888
G01 X94.7671 Y-15.3911
G01 X94.8027 Y-15.3924
G01 X101.3114 Y-15.3924
G01 X101.3470 Y-15.3911
G01 X101.3714 Y-15.3888
G01 X101.3981 Y-15.3848
G01 X101.4222 Y-15.3800
G01 X101.4459 Y-15.3740
G01 X101.4671 Y-15.3676
G01 X101.4902 Y-15.3593
G01 X101.5129 Y-15.3500
G01 X101.5351 Y-15.3396
G01 X101.5589 Y-15.3268
G01 X101.5779 Y-15.3155
G01 X101.5983 Y-15.3019
G01 X101.6200 Y-15.2858
G01 X101.6389 Y-15.2702
G01 X101.6553 Y-15.2554
G01 X101.6744 Y-15.2363
G01 X101.6908 Y-15.2181
G01 X101.7063 Y-15.1991
G01 X101.7195 Y-15.1813
G01 X101.7345 Y-15.1589
G01 X101.7458 Y-15.1399
G01 X101.7575 Y-15.1183
G01 X101.7690 Y-15.0939
G01 X101.7783 Y-15.0712
G01 X101.7858 Y-15.0504
G01 X101.7930 Y-15.0269
G01 X101.7995 Y-15.0008
G01 X101.8038 Y-14.9791
G01 X101.8075 Y-14.9548
G01 X101.8101 Y-14.9280
G01 X101.8113 Y-14.9034
G01 X101.8114 Y-9.0980
G01 X101.8101 Y-9.0624
G01 X101.8078 Y-9.0380
G01 X101.8043 Y-9.0137
G01 X101.7995 Y-8.9896
G01 X101.7936 Y-8.9658
G01 X101.7866 Y-8.9423
G01 X101.7783 Y-8.9192
G01 X101.7683 Y-8.8948
G01 X101.7833 Y-8.8694
G01 X101.7935 Y-8.8494
G01 X101.8027 Y-8.8290
G01 X101.8109 Y-8.8082
G01 X101.8180 Y-8.7869
G01 X101.8241 Y-8.7653
G01 X101.8291 Y-8.7435
G01 X101.8330 Y-8.7214
G01 X101.8357 Y-8.6992
G01 X101.8374 Y-8.6769
G01 X101.8380 Y-8.6545
G01 X101.8380 Y-1.3234
G01 X101.8374 Y-1.3013
G01 X101.8358 Y-1.2793
G01 X101.8331 Y-1.2574
G01 X101.8293 Y-1.2356
G01 X101.8245 Y-1.2141
G01 X101.8186 Y-1.1928
G01 X101.8117 Y-1.1718
G01 X101.8037 Y-1.1512
G01 X101.7948 Y-1.1310
G01 X101.7848 Y-1.1113
G01 X101.7740 Y-1.0921
G01 X101.7621 Y-1.0734
G01 X101.7494 Y-1.0554
G01 X101.7358 Y-1.0379
G01 X101.7214 Y-1.0212
G01 X101.7062 Y-1.0052
G01 X101.6902 Y-0.9900
G01 X101.6735 Y-0.9756
G01 X101.6560 Y-0.9620
G01 X101.6380 Y-0.9493
G01 X101.6193 Y-0.9374
G01 X101.6001 Y-0.9266
G01 X101.5804 Y-0.9166
G01 X101.5602 Y-0.9077
G01 X101.5396 Y-0.8997
G01 X101.5186 Y-0.8928
G01 X101.4973 Y-0.8869
G01 X101.4758 Y-0.8821
G01 X101.4540 Y-0.8783
G01 X101.4321 Y-0.8756
G01 X101.4101 Y-0.8740
G01 X101.3880 Y-0.8734
G01 X92.9589 Y-0.8734
G01 X92.9332 Y-0.8701
G01 X92.9112 Y-0.8684
G01 X92.8891 Y-0.8679
G01 X79.4544 Y-0.8683
G01 X79.4139 Y-0.8697
G01 X79.3846 Y-0.8724
G01 X79.3554 Y-0.8766
G01 X79.3193 Y-0.8838
G01 X79.2979 Y-0.8891
G01 X79.2697 Y-0.8975
G01 X79.2419 Y-0.9073
G01 X79.2146 Y-0.9184
G01 X79.1849 Y-0.9323
G01 X79.1551 Y-0.9166
G01 X79.1349 Y-0.9077
G01 X79.1143 Y-0.8997
G01 X79.0933 Y-0.8928
G01 X79.0720 Y-0.8869
G01 X79.0505 Y-0.8821
G01 X79.0287 Y-0.8783
G01 X79.0068 Y-0.8756
G01 X78.9848 Y-0.8740
G01 X78.9627 Y-0.8734
G01 X58.7042 Y-0.8734
G01 X58.6824 Y-0.8740
G01 X58.6607 Y-0.8755
G01 X58.6390 Y-0.8782
G01 X58.6175 Y-0.8819
G01 X58.5962 Y-0.8866
G01 X58.5751 Y-0.8924
G01 X58.5543 Y-0.8991
G01 X58.5339 Y-0.9069
G01 X58.5139 Y-0.9156
G01 X58.4944 Y-0.9254
G01 X58.4763 Y-0.9354
G01 X58.4470 Y-0.9247
G01 X58.4142 Y-0.9144
G01 X58.3810 Y-0.9058
G01 X58.3473 Y-0.8988
G01 X58.3161 Y-0.8938
G01 X58.2829 Y-0.8901
G01 X58.2504 Y-0.8880
G01 X58.2216 Y-0.8874
G01 X32.7026 Y-0.8874
G01 X32.6572 Y-0.8889
G01 X32.6230 Y-0.8920
G01 X32.5890 Y-0.8967
G01 X32.5552 Y-0.9031
G01 X32.5218 Y-0.9112
G01 X32.4888 Y-0.9209
G01 X32.4564 Y-0.9321
G01 X32.4289 Y-0.9432
G01 X32.4006 Y-0.9266
G01 X32.3809 Y-0.9166
G01 X32.3607 Y-0.9077
G01 X32.3401 Y-0.8997
G01 X32.3191 Y-0.8928
G01 X32.2978 Y-0.8869
G01 X32.2763 Y-0.8821
G01 X32.2545 Y-0.8783
G01 X32.2326 Y-0.8756
G01 X32.2105 Y-0.8740
G01 X32.1885 Y-0.8734
G01 X1.2837 Y-0.8734
G01 X1.2616 Y-0.8740
G01 X1.2396 Y-0.8756
G01 X1.2177 Y-0.8783
G01 X1.1959 Y-0.8821
G01 X1.1744 Y-0.8869
G01 X1.1531 Y-0.8928
G01 X1.1321 Y-0.8997
G01 X1.1115 Y-0.9077
G01 X1.0913 Y-0.9166
G01 X1.0716 Y-0.9266
G01 X1.0524 Y-0.9374
G01 X1.0337 Y-0.9493
G01 X1.0157 Y-0.9620
G01 X0.9982 Y-0.9756
G01 X0.9815 Y-0.9900
G01 X0.9655 Y-1.0052
G01 X0.9503 Y-1.0212
G01 X0.9359 Y-1.0379
G01 X0.9223 Y-1.0554
G01 X0.9096 Y-1.0734
G01 X0.8977 Y-1.0921
G01 X0.8869 Y-1.1113
G01 X0.8769 Y-1.1310
G01 X0.8680 Y-1.1512
G01 X0.8600 Y-1.1718
G01 X0.8531 Y-1.1928
G01 X0.8472 Y-1.2141
G01 X0.8424 Y-1.2356
G01 X0.8386 Y-1.2574
G01 X0.8359 Y-1.2793
G01 X0.8343 Y-1.3013
G01 X0.8337 Y-1.3234
G01 X0.8337 Y-14.9486
G01 X0.8343 Y-14.9707
G01 X0.8359 Y-14.9927
G01 X0.8386 Y-15.0146
G01 X0.8424 Y-15.0364
G01 X0.8472 Y-15.0579
G01 X0.8531 Y-15.0792
G01 X0.8600 Y-15.1002
G01 X0.8680 Y-15.1208
G01 X0.8769 Y-15.1410
G01 X0.8869 Y-15.1607
G01 X0.8977 Y-15.1799
G01 X0.9096 Y-15.1986
G01 X0.9223 Y-15.2166
G01 X0.9359 Y-15.2341
G01 X0.9503 Y-15.2508
G01 X0.9655 Y-15.2668
G01 X0.9815 Y-15.2820
G01 X0.9982 Y-15.2964
G01 X1.0157 Y-15.3100
G01 X1.0337 Y-15.3227
G01 X1.0524 Y-15.3346
G01 X1.0716 Y-15.3454
G01 X1.0913 Y-15.3554
G01 X1.1115 Y-15.3643
G01 X1.1321 Y-15.3723
G01 X1.1531 Y-15.3792
G01 X1.1744 Y-15.3851
G01 X1.1959 Y-15.3899
G01 X1.2177 Y-15.3937
G01 X1.2396 Y-15.3964
G01 X1.2616 Y-15.3980
G01 X1.2837 Y-15.3986
G00 X1.2837 Y-15.3986
G01 F80.00
G01 Z-0.5000
G01 F50.00
G01 X22.2658 Y-15.3986
G01 X22.2878 Y-15.3980
G01 X22.3099 Y-15.3964
G01 X22.3441 Y-15.3917
G01 X22.7667 Y-15.4023
G01 X23.1718 Y-15.4322
G01 X23.5859 Y-15.4830
G01 X23.9970 Y-15.5541
G01 X24.4270 Y-15.6504
G01 X24.4487 Y-15.6542
G01 X24.4707 Y-15.6569
G01 X24.4927 Y-15.6585
G01 X24.6346 Y-15.6590
G01 X25.3425 Y-15.9068
G01 X25.4286 Y-15.9653
G01 X25.4654 Y-15.9858
G01 X25.5039 Y-16.0028
G01 X25.6020 Y-16.0410
G01 X25.9834 Y-16.2103
G01 X26.3559 Y-16.3981
G01 X26.7093 Y-16.5983
G01 X27.0619 Y-16.8213
G01 X27.4032 Y-17.0613
G01 X27.7322 Y-17.3177
G01 X28.0483 Y-17.5900
G01 X28.3507 Y-17.8775
G01 X28.6385 Y-18.1795
G01 X28.9113 Y-18.4952
G01 X29.1681 Y-18.8240
G01 X29.4086 Y-19.1649
G01 X29.6377 Y-19.5267
G01 X29.8431 Y-19.8899
G01 X30.0305 Y-20.2626
G01 X30.1993 Y-20.6442
G01 X30.3492 Y-21.0335
G01 X30.4798 Y-21.4297
G01 X30.5908 Y-21.8319
G01 X30.6798 Y-22.2282
G01 X30.7514 Y-22.6392
G01 X30.8027 Y-23.0532
G01 X30.8337 Y-23.4693
G01 X30.8442 Y-23.8864
G01 X30.8443 Y-34.3161
G01 X30.8449 Y-34.3382
G01 X30.8465 Y-34.3602
G01 X30.8492 Y-34.3821
G01 X30.8530 Y-34.4039
G01 X30.8578 Y-34.4254
G01 X30.8637 Y-34.4467
G01 X30.8706 Y-34.4677
G01 X30.8786 Y-34.4883
G01 X30.8875 Y-34.5085
G01 X30.8975 Y-34.5282
G01 X30.9083 Y-34.5474
G01 X30.9202 Y-34.5661
G01 X30.9329 Y-34.5841
G01 X30.9465 Y-34.6016
G01 X30.9609 Y-34.6183
G01 X30.9761 Y-34.6343
G01 X30.9921 Y-34.6495
G01 X31.0088 Y-34.6639
G01 X31.0263 Y-34.6775
G01 X31.0443 Y-34.6902
G01 X31.0630 Y-34.7021
G01 X31.0822 Y-34.7129
G01 X31.1019 Y-34.7229
G01 X31.1221 Y-34.7318
G01 X31.1427 Y-34.7398
G01 X31.1637 Y-34.7467
G01 X31.1850 Y-34.7526
G01 X31.2065 Y-34.7574
G01 X31.2283 Y-34.7612
G01 X31.2502 Y-34.7639
G01 X31.2722 Y-34.7655
G01 X31.2943 Y-34.7661
G01 X65.4708 Y-34.7661
G01 X65.4929 Y-34.7655
G01 X65.5149 Y-34.7639
G01 X65.5368 Y-34.7612
G01 X65.5586 Y-34.7574
G01 X65.5801 Y-34.7526
G01 X65.6014 Y-34.7467
G01 X65.6224 Y-34.7398
G01 X65.6430 Y-34.7318
G01 X65.6632 Y-34.7229
G01 X65.6829 Y-34.7129
G01 X65.7021 Y-34.7021
G01 X65.7208 Y-34.6902
G01 X65.7388 Y-34.6775
G01 X65.7563 Y-34.6639
G01 X65.7730 Y-34.6495
G01 X65.7890 Y-34.6343
G01 X65.8042 Y-34.6183
G01 X65.8186 Y-34.6016
G01 X65.8322 Y-34.5841
G01 X65.8449 Y-34.5661
G01 X65.8568 Y-34.5474
G01 X65.8676 Y-34.5282
G01 X65.8776 Y-34.5085
G01 X65.8865 Y-34.4883
G01 X65.8945 Y-34.4677
G01 X65.9014 Y-34.4467
G01 X65.9073 Y-34.4254
G01 X65.9121 Y-34.4039
G01 X65.9159 Y-34.3821
G01 X65.9186 Y-34.3602
G01 X65.9202 Y-34.3382
G01 X65.9208 Y-34.3161
G01 X65.9208 Y-23.9702
G01 X65.9202 Y-23.9482
G01 X65.9186 Y-23.9261
G01 X65.9140 Y-23.8919
G01 X65.9140 Y-23.8864
G01 X65.9245 Y-23.4693
G01 X65.9544 Y-23.0642
G01 X66.0052 Y-22.6501
G01 X66.0763 Y-22.2390
G01 X66.1701 Y-21.8212
G01 X66.2816 Y-21.4192
G01 X66.4090 Y-21.0335
G01 X66.5632 Y-20.6340
G01 X66.7325 Y-20.2526
G01 X66.9203 Y-19.8801
G01 X67.1205 Y-19.5267
G01 X67.3435 Y-19.1741
G01 X67.5835 Y-18.8328
G01 X67.8399 Y-18.5038
G01 X68.1197 Y-18.1795
G01 X68.4075 Y-17.8775
G01 X68.7017 Y-17.5975
G01 X69.0174 Y-17.3247
G01 X69.3462 Y-17.0679
G01 X69.6963 Y-16.8213
G01 X70.0394 Y-16.6040
G01 X70.4023 Y-16.3981
G01 X70.7748 Y-16.2103
G01 X71.1562 Y-16.0410
G01 X71.5557 Y-15.8868
G01 X71.9519 Y-15.7562
G01 X72.3541 Y-15.6452
G01 X72.7504 Y-15.5562
G01 X73.1614 Y-15.4846
G01 X73.5754 Y-15.4333
G01 X73.9915 Y-15.4023
G01 X74.4196 Y-15.3917
G01 X94.3558 Y-15.3967
G01 X94.3776 Y-15.3962
G01 X94.3993 Y-15.3946
G01 X94.4209 Y-15.3920
G01 X94.4424 Y-15.3883
G01 X94.4636 Y-15.3836
G01 X94.4846 Y-15.3779
G01 X94.5053 Y-15.3712
G01 X94.5257 Y-15.3634
G01 X94.5456 Y-15.3547
G01 X94.5769 Y-15.3385
G01 X94.6012 Y-15.3500
G01 X94.6239 Y-15.3593
G01 X94.6470 Y-15.3676
G01 X94.6682 Y-15.3740
G01 X94.6919 Y-15.3800
G01 X94.7160 Y-15.3848
G01 X94.7427 Y-15.3888
G01 X94.7671 Y-15.3911
G01 X94.8027 Y-15.3924
G01 X101.3114 Y-15.3924
G01 X101.3470 Y-15.3911
G01 X101.3714 Y-15.3888
G01 X101.3981 Y-15.3848
G01 X101.4222 Y-15.3800
G01 X101.4459 Y-15.3740
G01 X101.4671 Y-15.3676
G01 X101.4902 Y-15.3593
G01 X101.5129 Y-15.3500
G01 X101.5351 Y-15.3396
G01 X101.5589 Y-15.3268
G01 X101.5779 Y-15.3155
G01 X101.5983 Y-15.3019
G01 X101.6200 Y-15.2858
G01 X101.6389 Y-15.2702
G01 X101.6553 Y-15.2554
G01 X101.6744 Y-15.2363
G01 X101.6908 Y-15.2181
G01 X101.7063 Y-15.1991
G01 X101.7195 Y-15.1813
G01 X101.7345 Y-15.1589
G01 X101.7458 Y-15.1399
G01 X101.7575 Y-15.1183
G01 X101.7690 Y-15.0939
G01 X101.7783 Y-15.0712
G01 X101.7858 Y-15.0504
G01 X101.7930 Y-15.0269
G01 X101.7995 Y-15.0008
G01 X101.8038 Y-14.9791
G01 X101.8075 Y-14.9548
G01 X101.8101 Y-14.9280
G01 X101.8113 Y-14.9034
G01 X101.8114 Y-9.0980
G01 X101.8101 Y-9.0624
G01 X101.8078 Y-9.0380
G01 X101.8043 Y-9.0137
G01 X101.7995 Y-8.9896
G01 X101.7936 Y-8.9658
G01 X101.7866 Y-8.9423
G01 X101.7783 Y-8.9192
G01 X101.7683 Y-8.8948
G01 X101.7833 Y-8.8694
G01 X101.7935 Y-8.8494
G01 X101.8027 Y-8.8290
G01 X101.8109 Y-8.8082
G01 X101.8180 Y-8.7869
G01 X101.8241 Y-8.7653
G01 X101.8291 Y-8.7435
G01 X101.8330 Y-8.7214
G01 X101.8357 Y-8.6992
G01 X101.8374 Y-8.6769
G01 X101.8380 Y-8.6545
G01 X101.8380 Y-1.3234
G01 X101.8374 Y-1.3013
G01 X101.8358 Y-1.2793
G01 X101.8331 Y-1.2574
G01 X101.8293 Y-1.2356
G01 X101.8245 Y-1.2141
G01 X101.8186 Y-1.1928
G01 X101.8117 Y-1.1718
G01 X101.8037 Y-1.1512
G01 X101.7948 Y-1.1310
G01 X101.7848 Y-1.1113
G01 X101.7740 Y-1.0921
G01 X101.7621 Y-1.0734
G01 X101.7494 Y-1.0554
G01 X101.7358 Y-1.0379
G01 X101.7214 Y-1.0212
G01 X101.7062 Y-1.0052
G01 X101.6902 Y-0.9900
G01 X101.6735 Y-0.9756
G01 X101.6560 Y-0.9620
G01 X101.6380 Y-0.9493
G01 X101.6193 Y-0.9374
G01 X101.6001 Y-0.9266
G01 X101.5804 Y-0.9166
G01 X101.5602 Y-0.9077
G01 X101.5396 Y-0.8997
G01 X101.5186 Y-0.8928
G01 X101.4973 Y-0.8869
G01 X101.4758 Y-0.8821
G01 X101.4540 Y-0.8783
G01 X101.4321 Y-0.8756
G01 X101.4101 Y-0.8740
G01 X101.3880 Y-0.8734
G01 X92.9589 Y-0.8734
G01 X92.9332 Y-0.8701
G01 X92.9112 Y-0.8684
G01 X92.8891 Y-0.8679
G01 X79.4544 Y-0.8683
G01 X79.4139 Y-0.8697
G01 X79.3846 Y-0.8724
G01 X79.3554 Y-0.8766
G01 X79.3193 Y-0.8838
G01 X79.2979 Y-0.8891
G01 X79.2697 Y-0.8975
G01 X79.2419 Y-0.9073
G01 X79.2146 Y-0.9184
G01 X79.1849 Y-0.9323
G01 X79.1551 Y-0.9166
G01 X79.1349 Y-0.9077
G01 X79.1143 Y-0.8997
G01 X79.0933 Y-0.8928
G01 X79.0720 Y-0.8869
G01 X79.0505 Y-0.8821
G01 X79.0287 Y-0.8783
G01 X79.0068 Y-0.8756
G01 X78.9848 Y-0.8740
G01 X78.9627 Y-0.8734
G01 X58.7042 Y-0.8734
G01 X58.6824 Y-0.8740
G01 X58.6607 Y-0.8755
G01 X58.6390 Y-0.8782
G01 X58.6175 Y-0.8819
G01 X58.5962 Y-0.8866
G01 X58.5751 Y-0.8924
G01 X58.5543 Y-0.8991
G01 X58.5339 Y-0.9069
G01 X58.5139 Y-0.9156
G01 X58.4944 Y-0.9254
G01 X58.4763 Y-0.9354
G01 X58.4470 Y-0.9247
G01 X58.4142 Y-0.9144
G01 X58.3810 Y-0.9058
G01 X58.3473 Y-0.8988
G01 X58.3161 Y-0.8938
G01 X58.2829 Y-0.8901
G01 X58.2504 Y-0.8880
G01 X58.2216 Y-0.8874
G01 X32.7026 Y-0.8874
G01 X32.6572 Y-0.8889
G01 X32.6230 Y-0.8920
G01 X32.5890 Y-0.8967
G01 X32.5552 Y-0.9031
G01 X32.5218 Y-0.9112
G01 X32.4888 Y-0.9209
G01 X32.4564 Y-0.9321
G01 X32.4289 Y-0.9432
G01 X32.4006 Y-0.9266
G01 X32.3809 Y-0.9166
G01 X32.3607 Y-0.9077
G01 X32.3401 Y-0.8997
G01 X32.3191 Y-0.8928
G01 X32.2978 Y-0.8869
G01 X32.2763 Y-0.8821
G01 X32.2545 Y-0.8783
G01 X32.2326 Y-0.8756
G01 X32.2105 Y-0.8740
G01 X32.1885 Y-0.8734
G01 X1.2837 Y-0.8734
G01 X1.2616 Y-0.8740
G01 X1.2396 Y-0.8756
G01 X1.2177 Y-0.8783
G01 X1.1959 Y-0.8821
G01 X1.1744 Y-0.8869
G01 X1.1531 Y-0.8928
G01 X1.1321 Y-0.8997
G01 X1.1115 Y-0.9077
G01 X1.0913 Y-0.9166
G01 X1.0716 Y-0.9266
G01 X1.0524 Y-0.9374
G01 X1.0337 Y-0.9493
G01 X1.0157 Y-0.9620
G01 X0.9982 Y-0.9756
G01 X0.9815 Y-0.9900
G01 X0.9655 Y-1.0052
G01 X0.9503 Y-1.0212
G01 X0.9359 Y-1.0379
G01 X0.9223 Y-1.0554
G01 X0.9096 Y-1.0734
G01 X0.8977 Y-1.0921
G01 X0.8869 Y-1.1113
G01 X0.8769 Y-1.1310
G01 X0.8680 Y-1.1512
G01 X0.8600 Y-1.1718
G01 X0.8531 Y-1.1928
G01 X0.8472 Y-1.2141
G01 X0.8424 Y-1.2356
G01 X0.8386 Y-1.2574
G01 X0.8359 Y-1.2793
G01 X0.8343 Y-1.3013
G01 X0.8337 Y-1.3234
G01 X0.8337 Y-14.9486
G01 X0.8343 Y-14.9707
G01 X0.8359 Y-14.9927
G01 X0.8386 Y-15.0146
G01 X0.8424 Y-15.0364
G01 X0.8472 Y-15.0579
G01 X0.8531 Y-15.0792
G01 X0.8600 Y-15.1002
G01 X0.8680 Y-15.1208
G01 X0.8769 Y-15.1410
G01 X0.8869 Y-15.1607
G01 X0.8977 Y-15.1799
G01 X0.9096 Y-15.1986
G01 X0.9223 Y-15.2166
G01 X0.9359 Y-15.2341
G01 X0.9503 Y-15.2508
G01 X0.9655 Y-15.2668
G01 X0.9815 Y-15.2820
G01 X0.9982 Y-15.2964
G01 X1.0157 Y-15.3100
G01 X1.0337 Y-15.3227
G01 X1.0524 Y-15.3346
G01 X1.0716 Y-15.3454
G01 X1.0913 Y-15.3554
G01 X1.1115 Y-15.3643
G01 X1.1321 Y-15.3723
G01 X1.1531 Y-15.3792
G01 X1.1744 Y-15.3851
G01 X1.1959 Y-15.3899
G01 X1.2177 Y-15.3937
G01 X1.2396 Y-15.3964
G01 X1.2616 Y-15.3980
G01 X1.2837 Y-15.3986
G00 X1.2837 Y-15.3986
G01 F80.00
G01 Z-0.6000
G01 F50.00
G01 X22.2658 Y-15.3986
G01 X22.2878 Y-15.3980
G01 X22.3099 Y-15.3964
G01 X22.3441 Y-15.3917
G01 X22.7667 Y-15.4023
G01 X23.1718 Y-15.4322
G01 X23.5859 Y-15.4830
G01 X23.9970 Y-15.5541
G01 X24.4270 Y-15.6504
G01 X24.4487 Y-15.6542
G01 X24.4707 Y-15.6569
G01 X24.4927 Y-15.6585
G01 X24.6346 Y-15.6590
G01 X25.3425 Y-15.9068
G01 X25.4286 Y-15.9653
G01 X25.4654 Y-15.9858
G01 X25.5039 Y-16.0028
G01 X25.6020 Y-16.0410
G01 X25.9834 Y-16.2103
G01 X26.3559 Y-16.3981
G01 X26.7093 Y-16.5983
G01 X27.0619 Y-16.8213
G01 X27.4032 Y-17.0613
G01 X27.7322 Y-17.3177
G01 X28.0483 Y-17.5900
G01 X28.3507 Y-17.8775
G01 X28.6385 Y-18.1795
G01 X28.9113 Y-18.4952
G01 X29.1681 Y-18.8240
G01 X29.4086 Y-19.1649
G01 X29.6377 Y-19.5267
G01 X29.8431 Y-19.8899
G01 X30.0305 Y-20.2626
G01 X30.1993 Y-20.6442
G01 X30.3492 Y-21.0335
G01 X30.4798 Y-21.4297
G01 X30.5908 Y-21.8319
G01 X30.6798 Y-22.2282
G01 X30.7514 Y-22.6392
G01 X30.8027 Y-23.0532
G01 X30.8337 Y-23.4693
G01 X30.8442 Y-23.8864
G01 X30.8443 Y-34.3161
G01 X30.8449 Y-34.3382
G01 X30.8465 Y-34.3602
G01 X30.8492 Y-34.3821
G01 X30.8530 Y-34.4039
G01 X30.8578 Y-34.4254
G01 X30.8637 Y-34.4467
G01 X30.8706 Y-34.4677
G01 X30.8786 Y-34.4883
G01 X30.8875 Y-34.5085
G01 X30.8975 Y-34.5282
G01 X30.9083 Y-34.5474
G01 X30.9202 Y-34.5661
G01 X30.9329 Y-34.5841
G01 X30.9465 Y-34.6016
G01 X30.9609 Y-34.6183
G01 X30.9761 Y-34.6343
G01 X30.9921 Y-34.6495
G01 X31.0088 Y-34.6639
G01 X31.0263 Y-34.6775
G01 X31.0443 Y-34.6902
G01 X31.0630 Y-34.7021
G01 X31.0822 Y-34.7129
G01 X31.1019 Y-34.7229
G01 X31.1221 Y-34.7318
G01 X31.1427 Y-34.7398
G01 X31.1637 Y-34.7467
G01 X31.1850 Y-34.7526
G01 X31.2065 Y-34.7574
G01 X31.2283 Y-34.7612
G01 X31.2502 Y-34.7639
G01 X31.2722 Y-34.7655
G01 X31.2943 Y-34.7661
G01 X65.4708 Y-34.7661
G01 X65.4929 Y-34.7655
G01 X65.5149 Y-34.7639
G01 X65.5368 Y-34.7612
G01 X65.5586 Y-34.7574
G01 X65.5801 Y-34.7526
G01 X65.6014 Y-34.7467
G01 X65.6224 Y-34.7398
G01 X65.6430 Y-34.7318
G01 X65.6632 Y-34.7229
G01 X65.6829 Y-34.7129
G01 X65.7021 Y-34.7021
G01 X65.7208 Y-34.6902
G01 X65.7388 Y-34.6775
G01 X65.7563 Y-34.6639
G01 X65.7730 Y-34.6495
G01 X65.7890 Y-34.6343
G01 X65.8042 Y-34.6183
G01 X65.8186 Y-34.6016
G01 X65.8322 Y-34.5841
G01 X65.8449 Y-34.5661
G01 X65.8568 Y-34.5474
G01 X65.8676 Y-34.5282
G01 X65.8776 Y-34.5085
G01 X65.8865 Y-34.4883
G01 X65.8945 Y-34.4677
G01 X65.9014 Y-34.4467
G01 X65.9073 Y-34.4254
G01 X65.9121 Y-34.4039
G01 X65.9159 Y-34.3821
G01 X65.9186 Y-34.3602
G01 X65.9202 Y-34.3382
G01 X65.9208 Y-34.3161
G01 X65.9208 Y-23.9702
G01 X65.9202 Y-23.9482
G01 X65.9186 Y-23.9261
G01 X65.9140 Y-23.8919
G01 X65.9140 Y-23.8864
G01 X65.9245 Y-23.4693
G01 X65.9544 Y-23.0642
G01 X66.0052 Y-22.6501
G01 X66.0763 Y-22.2390
G01 X66.1701 Y-21.8212
G01 X66.2816 Y-21.4192
G01 X66.4090 Y-21.0335
G01 X66.5632 Y-20.6340
G01 X66.7325 Y-20.2526
G01 X66.9203 Y-19.8801
G01 X67.1205 Y-19.5267
G01 X67.3435 Y-19.1741
G01 X67.5835 Y-18.8328
G01 X67.8399 Y-18.5038
G01 X68.1197 Y-18.1795
G01 X68.4075 Y-17.8775
G01 X68.7017 Y-17.5975
G01 X69.0174 Y-17.3247
G01 X69.3462 Y-17.0679
G01 X69.6963 Y-16.8213
G01 X70.0394 Y-16.6040
G01 X70.4023 Y-16.3981
G01 X70.7748 Y-16.2103
G01 X71.1562 Y-16.0410
G01 X71.5557 Y-15.8868
G01 X71.9519 Y-15.7562
G01 X72.3541 Y-15.6452
G01 X72.7504 Y-15.5562
G01 X73.1614 Y-15.4846
G01 X73.5754 Y-15.4333
G01 X73.9915 Y-15.4023
G01 X74.4196 Y-15.3917
G01 X94.3558 Y-15.3967
G01 X94.3776 Y-15.3962
G01 X94.3993 Y-15.3946
G01 X94.4209 Y-15.3920
G01 X94.4424 Y-15.3883
G01 X94.4636 Y-15.3836
G01 X94.4846 Y-15.3779
G01 X94.5053 Y-15.3712
G01 X94.5257 Y-15.3634
G01 X94.5456 Y-15.3547
G01 X94.5769 Y-15.3385
G01 X94.6012 Y-15.3500
G01 X94.6239 Y-15.3593
G01 X94.6470 Y-15.3676
G01 X94.6682 Y-15.3740
G01 X94.6919 Y-15.3800
G01 X94.7160 Y-15.3848
G01 X94.7427 Y-15.3888
G01 X94.7671 Y-15.3911
G01 X94.8027 Y-15.3924
G01 X101.3114 Y-15.3924
G01 X101.3470 Y-15.3911
G01 X101.3714 Y-15.3888
G01 X101.3981 Y-15.3848
G01 X101.4222 Y-15.3800
G01 X101.4459 Y-15.3740
G01 X101.4671 Y-15.3676
G01 X101.4902 Y-15.3593
G01 X101.5129 Y-15.3500
G01 X101.5351 Y-15.3396
G01 X101.5589 Y-15.3268
G01 X101.5779 Y-15.3155
G01 X101.5983 Y-15.3019
G01 X101.6200 Y-15.2858
G01 X101.6389 Y-15.2702
G01 X101.6553 Y-15.2554
G01 X101.6744 Y-15.2363
G01 X101.6908 Y-15.2181
G01 X101.7063 Y-15.1991
G01 X101.7195 Y-15.1813
G01 X101.7345 Y-15.1589
G01 X101.7458 Y-15.1399
G01 X101.7575 Y-15.1183
G01 X101.7690 Y-15.0939
G01 X101.7783 Y-15.0712
G01 X101.7858 Y-15.0504
G01 X101.7930 Y-15.0269
G01 X101.7995 Y-15.0008
G01 X101.8038 Y-14.9791
G01 X101.8075 Y-14.9548
G01 X101.8101 Y-14.9280
G01 X101.8113 Y-14.9034
G01 X101.8114 Y-9.0980
G01 X101.8101 Y-9.0624
G01 X101.8078 Y-9.0380
G01 X101.8043 Y-9.0137
G01 X101.7995 Y-8.9896
G01 X101.7936 Y-8.9658
G01 X101.7866 Y-8.9423
G01 X101.7783 Y-8.9192
G01 X101.7683 Y-8.8948
G01 X101.7833 Y-8.8694
G01 X101.7935 Y-8.8494
G01 X101.8027 Y-8.8290
G01 X101.8109 Y-8.8082
G01 X101.8180 Y-8.7869
G01 X101.8241 Y-8.7653
G01 X101.8291 Y-8.7435
G01 X101.8330 Y-8.7214
G01 X101.8357 Y-8.6992
G01 X101.8374 Y-8.6769
G01 X101.8380 Y-8.6545
G01 X101.8380 Y-1.3234
G01 X101.8374 Y-1.3013
G01 X101.8358 Y-1.2793
G01 X101.8331 Y-1.2574
G01 X101.8293 Y-1.2356
G01 X101.8245 Y-1.2141
G01 X101.8186 Y-1.1928
G01 X101.8117 Y-1.1718
G01 X101.8037 Y-1.1512
G01 X101.7948 Y-1.1310
G01 X101.7848 Y-1.1113
G01 X101.7740 Y-1.0921
G01 X101.7621 Y-1.0734
G01 X101.7494 Y-1.0554
G01 X101.7358 Y-1.0379
G01 X101.7214 Y-1.0212
G01 X101.7062 Y-1.0052
G01 X101.6902 Y-0.9900
G01 X101.6735 Y-0.9756
G01 X101.6560 Y-0.9620
G01 X101.6380 Y-0.9493
G01 X101.6193 Y-0.9374
G01 X101.6001 Y-0.9266
G01 X101.5804 Y-0.9166
G01 X101.5602 Y-0.9077
G01 X101.5396 Y-0.8997
G01 X101.5186 Y-0.8928
G01 X101.4973 Y-0.8869
G01 X101.4758 Y-0.8821
G01 X101.4540 Y-0.8783
G01 X101.4321 Y-0.8756
G01 X101.4101 Y-0.8740
G01 X101.3880 Y-0.8734
G01 X92.9589 Y-0.8734
G01 X92.9332 Y-0.8701
G01 X92.9112 Y-0.8684
G01 X92.8891 Y-0.8679
G01 X79.4544 Y-0.8683
G01 X79.4139 Y-0.8697
G01 X79.3846 Y-0.8724
G01 X79.3554 Y-0.8766
G01 X79.3193 Y-0.8838
G01 X79.2979 Y-0.8891
G01 X79.2697 Y-0.8975
G01 X79.2419 Y-0.9073
G01 X79.2146 Y-0.9184
G01 X79.1849 Y-0.9323
G01 X79.1551 Y-0.9166
G01 X79.1349 Y-0.9077
G01 X79.1143 Y-0.8997
G01 X79.0933 Y-0.8928
G01 X79.0720 Y-0.8869
G01 X79.0505 Y-0.8821
G01 X79.0287 Y-0.8783
G01 X79.0068 Y-0.8756
G01 X78.9848 Y-0.8740
G01 X78.9627 Y-0.8734
G01 X58.7042 Y-0.8734
G01 X58.6824 Y-0.8740
G01 X58.6607 Y-0.8755
G01 X58.6390 Y-0.8782
G01 X58.6175 Y-0.8819
G01 X58.5962 Y-0.8866
G01 X58.5751 Y-0.8924
G01 X58.5543 Y-0.8991
G01 X58.5339 Y-0.9069
G01 X58.5139 Y-0.9156
G01 X58.4944 Y-0.9254
G01 X58.4763 Y-0.9354
G01 X58.4470 Y-0.9247
G01 X58.4142 Y-0.9144
G01 X58.3810 Y-0.9058
G01 X58.3473 Y-0.8988
G01 X58.3161 Y-0.8938
G01 X58.2829 Y-0.8901
G01 X58.2504 Y-0.8880
G01 X58.2216 Y-0.8874
G01 X32.7026 Y-0.8874
G01 X32.6572 Y-0.8889
G01 X32.6230 Y-0.8920
G01 X32.5890 Y-0.8967
G01 X32.5552 Y-0.9031
G01 X32.5218 Y-0.9112
G01 X32.4888 Y-0.9209
G01 X32.4564 Y-0.9321
G01 X32.4289 Y-0.9432
G01 X32.4006 Y-0.9266
G01 X32.3809 Y-0.9166
G01 X32.3607 Y-0.9077
G01 X32.3401 Y-0.8997
G01 X32.3191 Y-0.8928
G01 X32.2978 Y-0.8869
G01 X32.2763 Y-0.8821
G01 X32.2545 Y-0.8783
G01 X32.2326 Y-0.8756
G01 X32.2105 Y-0.8740
G01 X32.1885 Y-0.8734
G01 X1.2837 Y-0.8734
G01 X1.2616 Y-0.8740
G01 X1.2396 Y-0.8756
G01 X1.2177 Y-0.8783
G01 X1.1959 Y-0.8821
G01 X1.1744 Y-0.8869
G01 X1.1531 Y-0.8928
G01 X1.1321 Y-0.8997
G01 X1.1115 Y-0.9077
G01 X1.0913 Y-0.9166
G01 X1.0716 Y-0.9266
G01 X1.0524 Y-0.9374
G01 X1.0337 Y-0.9493
G01 X1.0157 Y-0.9620
G01 X0.9982 Y-0.9756
G01 X0.9815 Y-0.9900
G01 X0.9655 Y-1.0052
G01 X0.9503 Y-1.0212
G01 X0.9359 Y-1.0379
G01 X0.9223 Y-1.0554
G01 X0.9096 Y-1.0734
G01 X0.8977 Y-1.0921
G01 X0.8869 Y-1.1113
G01 X0.8769 Y-1.1310
G01 X0.8680 Y-1.1512
G01 X0.8600 Y-1.1718
G01 X0.8531 Y-1.1928
G01 X0.8472 Y-1.2141
G01 X0.8424 Y-1.2356
G01 X0.8386 Y-1.2574
G01 X0.8359 Y-1.2793
G01 X0.8343 Y-1.3013
G01 X0.8337 Y-1.3234
G01 X0.8337 Y-14.9486
G01 X0.8343 Y-14.9707
G01 X0.8359 Y-14.9927
G01 X0.8386 Y-15.0146
G01 X0.8424 Y-15.0364
G01 X0.8472 Y-15.0579
G01 X0.8531 Y-15.0792
G01 X0.8600 Y-15.1002
G01 X0.8680 Y-15.1208
G01 X0.8769 Y-15.1410
G01 X0.8869 Y-15.1607
G01 X0.8977 Y-15.1799
G01 X0.9096 Y-15.1986
G01 X0.9223 Y-15.2166
G01 X0.9359 Y-15.2341
G01 X0.9503 Y-15.2508
G01 X0.9655 Y-15.2668
G01 X0.9815 Y-15.2820
G01 X0.9982 Y-15.2964
G01 X1.0157 Y-15.3100
G01 X1.0337 Y-15.3227
G01 X1.0524 Y-15.3346
G01 X1.0716 Y-15.3454
G01 X1.0913 Y-15.3554
G01 X1.1115 Y-15.3643
G01 X1.1321 Y-15.3723
G01 X1.1531 Y-15.3792
G01 X1.1744 Y-15.3851
G01 X1.1959 Y-15.3899
G01 X1.2177 Y-15.3937
G01 X1.2396 Y-15.3964
G01 X1.2616 Y-15.3980
G01 X1.2837 Y-15.3986
G00 X1.2837 Y-15.3986
G01 F80.00
G01 Z-0.7000
G01 F50.00
G01 X22.2658 Y-15.3986
G01 X22.2878 Y-15.3980
G01 X22.3099 Y-15.3964
G01 X22.3441 Y-15.3917
G01 X22.7667 Y-15.4023
G01 X23.1718 Y-15.4322
G01 X23.5859 Y-15.4830
G01 X23.9970 Y-15.5541
G01 X24.4270 Y-15.6504
G01 X24.4487 Y-15.6542
G01 X24.4707 Y-15.6569
G01 X24.4927 Y-15.6585
G01 X24.6346 Y-15.6590
G01 X25.3425 Y-15.9068
G01 X25.4286 Y-15.9653
G01 X25.4654 Y-15.9858
G01 X25.5039 Y-16.0028
G01 X25.6020 Y-16.0410
G01 X25.9834 Y-16.2103
G01 X26.3559 Y-16.3981
G01 X26.7093 Y-16.5983
G01 X27.0619 Y-16.8213
G01 X27.4032 Y-17.0613
G01 X27.7322 Y-17.3177
G01 X28.0483 Y-17.5900
G01 X28.3507 Y-17.8775
G01 X28.6385 Y-18.1795
G01 X28.9113 Y-18.4952
G01 X29.1681 Y-18.8240
G01 X29.4086 Y-19.1649
G01 X29.6377 Y-19.5267
G01 X29.8431 Y-19.8899
G01 X30.0305 Y-20.2626
G01 X30.1993 Y-20.6442
G01 X30.3492 Y-21.0335
G01 X30.4798 Y-21.4297
G01 X30.5908 Y-21.8319
G01 X30.6798 Y-22.2282
G01 X30.7514 Y-22.6392
G01 X30.8027 Y-23.0532
G01 X30.8337 Y-23.4693
G01 X30.8442 Y-23.8864
G01 X30.8443 Y-34.3161
G01 X30.8449 Y-34.3382
G01 X30.8465 Y-34.3602
G01 X30.8492 Y-34.3821
G01 X30.8530 Y-34.4039
G01 X30.8578 Y-34.4254
G01 X30.8637 Y-34.4467
G01 X30.8706 Y-34.4677
G01 X30.8786 Y-34.4883
G01 X30.8875 Y-34.5085
G01 X30.8975 Y-34.5282
G01 X30.9083 Y-34.5474
G01 X30.9202 Y-34.5661
G01 X30.9329 Y-34.5841
G01 X30.9465 Y-34.6016
G01 X30.9609 Y-34.6183
G01 X30.9761 Y-34.6343
G01 X30.9921 Y-34.6495
G01 X31.0088 Y-34.6639
G01 X31.0263 Y-34.6775
G01 X31.0443 Y-34.6902
G01 X31.0630 Y-34.7021
G01 X31.0822 Y-34.7129
G01 X31.1019 Y-34.7229
G01 X31.1221 Y-34.7318
G01 X31.1427 Y-34.7398
G01 X31.1637 Y-34.7467
G01 X31.1850 Y-34.7526
G01 X31.2065 Y-34.7574
G01 X31.2283 Y-34.7612
G01 X31.2502 Y-34.7639
G01 X31.2722 Y-34.7655
G01 X31.2943 Y-34.7661
G01 X65.4708 Y-34.7661
G01 X65.4929 Y-34.7655
G01 X65.5149 Y-34.7639
G01 X65.5368 Y-34.7612
G01 X65.5586 Y-34.7574
G01 X65.5801 Y-34.7526
G01 X65.6014 Y-34.7467
G01 X65.6224 Y-34.7398
G01 X65.6430 Y-34.7318
G01 X65.6632 Y-34.7229
G01 X65.6829 Y-34.7129
G01 X65.7021 Y-34.7021
G01 X65.7208 Y-34.6902
G01 X65.7388 Y-34.6775
G01 X65.7563 Y-34.6639
G01 X65.7730 Y-34.6495
G01 X65.7890 Y-34.6343
G01 X65.8042 Y-34.6183
G01 X65.8186 Y-34.6016
G01 X65.8322 Y-34.5841
G01 X65.8449 Y-34.5661
G01 X65.8568 Y-34.5474
G01 X65.8676 Y-34.5282
G01 X65.8776 Y-34.5085
G01 X65.8865 Y-34.4883
G01 X65.8945 Y-34.4677
G01 X65.9014 Y-34.4467
G01 X65.9073 Y-34.4254
G01 X65.9121 Y-34.4039
G01 X65.9159 Y-34.3821
G01 X65.9186 Y-34.3602
G01 X65.9202 Y-34.3382
G01 X65.9208 Y-34.3161
G01 X65.9208 Y-23.9702
G01 X65.9202 Y-23.9482
G01 X65.9186 Y-23.9261
G01 X65.9140 Y-23.8919
G01 X65.9140 Y-23.8864
G01 X65.9245 Y-23.4693
G01 X65.9544 Y-23.0642
G01 X66.0052 Y-22.6501
G01 X66.0763 Y-22.2390
G01 X66.1701 Y-21.8212
G01 X66.2816 Y-21.4192
G01 X66.4090 Y-21.0335
G01 X66.5632 Y-20.6340
G01 X66.7325 Y-20.2526
G01 X66.9203 Y-19.8801
G01 X67.1205 Y-19.5267
G01 X67.3435 Y-19.1741
G01 X67.5835 Y-18.8328
G01 X67.8399 Y-18.5038
G01 X68.1197 Y-18.1795
G01 X68.4075 Y-17.8775
G01 X68.7017 Y-17.5975
G01 X69.0174 Y-17.3247
G01 X69.3462 Y-17.0679
G01 X69.6963 Y-16.8213
G01 X70.0394 Y-16.6040
G01 X70.4023 Y-16.3981
G01 X70.7748 Y-16.2103
G01 X71.1562 Y-16.0410
G01 X71.5557 Y-15.8868
G01 X71.9519 Y-15.7562
G01 X72.3541 Y-15.6452
G01 X72.7504 Y-15.5562
G01 X73.1614 Y-15.4846
G01 X73.5754 Y-15.4333
G01 X73.9915 Y-15.4023
G01 X74.4196 Y-15.3917
G01 X94.3558 Y-15.3967
G01 X94.3776 Y-15.3962
G01 X94.3993 Y-15.3946
G01 X94.4209 Y-15.3920
G01 X94.4424 Y-15.3883
G01 X94.4636 Y-15.3836
G01 X94.4846 Y-15.3779
G01 X94.5053 Y-15.3712
G01 X94.5257 Y-15.3634
G01 X94.5456 Y-15.3547
G01 X94.5769 Y-15.3385
G01 X94.6012 Y-15.3500
G01 X94.6239 Y-15.3593
G01 X94.6470 Y-15.3676
G01 X94.6682 Y-15.3740
G01 X94.6919 Y-15.3800
G01 X94.7160 Y-15.3848
G01 X94.7427 Y-15.3888
G01 X94.7671 Y-15.3911
G01 X94.8027 Y-15.3924
G01 X101.3114 Y-15.3924
G01 X101.3470 Y-15.3911
G01 X101.3714 Y-15.3888
G01 X101.3981 Y-15.3848
G01 X101.4222 Y-15.3800
G01 X101.4459 Y-15.3740
G01 X101.4671 Y-15.3676
G01 X101.4902 Y-15.3593
G01 X101.5129 Y-15.3500
G01 X101.5351 Y-15.3396
G01 X101.5589 Y-15.3268
G01 X101.5779 Y-15.3155
G01 X101.5983 Y-15.3019
G01 X101.6200 Y-15.2858
G01 X101.6389 Y-15.2702
G01 X101.6553 Y-15.2554
G01 X101.6744 Y-15.2363
G01 X101.6908 Y-15.2181
G01 X101.7063 Y-15.1991
G01 X101.7195 Y-15.1813
G01 X101.7345 Y-15.1589
G01 X101.7458 Y-15.1399
G01 X101.7575 Y-15.1183
G01 X101.7690 Y-15.0939
G01 X101.7783 Y-15.0712
G01 X101.7858 Y-15.0504
G01 X101.7930 Y-15.0269
G01 X101.7995 Y-15.0008
G01 X101.8038 Y-14.9791
G01 X101.8075 Y-14.9548
G01 X101.8101 Y-14.9280
G01 X101.8113 Y-14.9034
G01 X101.8114 Y-9.0980
G01 X101.8101 Y-9.0624
G01 X101.8078 Y-9.0380
G01 X101.8043 Y-9.0137
G01 X101.7995 Y-8.9896
G01 X101.7936 Y-8.9658
G01 X101.7866 Y-8.9423
G01 X101.7783 Y-8.9192
G01 X101.7683 Y-8.8948
G01 X101.7833 Y-8.8694
G01 X101.7935 Y-8.8494
G01 X101.8027 Y-8.8290
G01 X101.8109 Y-8.8082
G01 X101.8180 Y-8.7869
G01 X101.8241 Y-8.7653
G01 X101.8291 Y-8.7435
G01 X101.8330 Y-8.7214
G01 X101.8357 Y-8.6992
G01 X101.8374 Y-8.6769
G01 X101.8380 Y-8.6545
G01 X101.8380 Y-1.3234
G01 X101.8374 Y-1.3013
G01 X101.8358 Y-1.2793
G01 X101.8331 Y-1.2574
G01 X101.8293 Y-1.2356
G01 X101.8245 Y-1.2141
G01 X101.8186 Y-1.1928
G01 X101.8117 Y-1.1718
G01 X101.8037 Y-1.1512
G01 X101.7948 Y-1.1310
G01 X101.7848 Y-1.1113
G01 X101.7740 Y-1.0921
G01 X101.7621 Y-1.0734
G01 X101.7494 Y-1.0554
G01 X101.7358 Y-1.0379
G01 X101.7214 Y-1.0212
G01 X101.7062 Y-1.0052
G01 X101.6902 Y-0.9900
G01 X101.6735 Y-0.9756
G01 X101.6560 Y-0.9620
G01 X101.6380 Y-0.9493
G01 X101.6193 Y-0.9374
G01 X101.6001 Y-0.9266
G01 X101.5804 Y-0.9166
G01 X101.5602 Y-0.9077
G01 X101.5396 Y-0.8997
G01 X101.5186 Y-0.8928
G01 X101.4973 Y-0.8869
G01 X101.4758 Y-0.8821
G01 X101.4540 Y-0.8783
G01 X101.4321 Y-0.8756
G01 X101.4101 Y-0.8740
G01 X101.3880 Y-0.8734
G01 X92.9589 Y-0.8734
G01 X92.9332 Y-0.8701
G01 X92.9112 Y-0.8684
G01 X92.8891 Y-0.8679
G01 X79.4544 Y-0.8683
G01 X79.4139 Y-0.8697
G01 X79.3846 Y-0.8724
G01 X79.3554 Y-0.8766
G01 X79.3193 Y-0.8838
G01 X79.2979 Y-0.8891
G01 X79.2697 Y-0.8975
G01 X79.2419 Y-0.9073
G01 X79.2146 Y-0.9184
G01 X79.1849 Y-0.9323
G01 X79.1551 Y-0.9166
G01 X79.1349 Y-0.9077
G01 X79.1143 Y-0.8997
G01 X79.0933 Y-0.8928
G01 X79.0720 Y-0.8869
G01 X79.0505 Y-0.8821
G01 X79.0287 Y-0.8783
G01 X79.0068 Y-0.8756
G01 X78.9848 Y-0.8740
G01 X78.9627 Y-0.8734
G01 X58.7042 Y-0.8734
G01 X58.6824 Y-0.8740
G01 X58.6607 Y-0.8755
G01 X58.6390 Y-0.8782
G01 X58.6175 Y-0.8819
G01 X58.5962 Y-0.8866
G01 X58.5751 Y-0.8924
G01 X58.5543 Y-0.8991
G01 X58.5339 Y-0.9069
G01 X58.5139 Y-0.9156
G01 X58.4944 Y-0.9254
G01 X58.4763 Y-0.9354
G01 X58.4470 Y-0.9247
G01 X58.4142 Y-0.9144
G01 X58.3810 Y-0.9058
G01 X58.3473 Y-0.8988
G01 X58.3161 Y-0.8938
G01 X58.2829 Y-0.8901
G01 X58.2504 Y-0.8880
G01 X58.2216 Y-0.8874
G01 X32.7026 Y-0.8874
G01 X32.6572 Y-0.8889
G01 X32.6230 Y-0.8920
G01 X32.5890 Y-0.8967
G01 X32.5552 Y-0.9031
G01 X32.5218 Y-0.9112
G01 X32.4888 Y-0.9209
G01 X32.4564 Y-0.9321
G01 X32.4289 Y-0.9432
G01 X32.4006 Y-0.9266
G01 X32.3809 Y-0.9166
G01 X32.3607 Y-0.9077
G01 X32.3401 Y-0.8997
G01 X32.3191 Y-0.8928
G01 X32.2978 Y-0.8869
G01 X32.2763 Y-0.8821
G01 X32.2545 Y-0.8783
G01 X32.2326 Y-0.8756
G01 X32.2105 Y-0.8740
G01 X32.1885 Y-0.8734
G01 X1.2837 Y-0.8734
G01 X1.2616 Y-0.8740
G01 X1.2396 Y-0.8756
G01 X1.2177 Y-0.8783
G01 X1.1959 Y-0.8821
G01 X1.1744 Y-0.8869
G01 X1.1531 Y-0.8928
G01 X1.1321 Y-0.8997
G01 X1.1115 Y-0.9077
G01 X1.0913 Y-0.9166
G01 X1.0716 Y-0.9266
G01 X1.0524 Y-0.9374
G01 X1.0337 Y-0.9493
G01 X1.0157 Y-0.9620
G01 X0.9982 Y-0.9756
G01 X0.9815 Y-0.9900
G01 X0.9655 Y-1.0052
G01 X0.9503 Y-1.0212
G01 X0.9359 Y-1.0379
G01 X0.9223 Y-1.0554
G01 X0.9096 Y-1.0734
G01 X0.8977 Y-1.0921
G01 X0.8869 Y-1.1113
G01 X0.8769 Y-1.1310
G01 X0.8680 Y-1.1512
G01 X0.8600 Y-1.1718
G01 X0.8531 Y-1.1928
G01 X0.8472 Y-1.2141
G01 X0.8424 Y-1.2356
G01 X0.8386 Y-1.2574
G01 X0.8359 Y-1.2793
G01 X0.8343 Y-1.3013
G01 X0.8337 Y-1.3234
G01 X0.8337 Y-14.9486
G01 X0.8343 Y-14.9707
G01 X0.8359 Y-14.9927
G01 X0.8386 Y-15.0146
G01 X0.8424 Y-15.0364
G01 X0.8472 Y-15.0579
G01 X0.8531 Y-15.0792
G01 X0.8600 Y-15.1002
G01 X0.8680 Y-15.1208
G01 X0.8769 Y-15.1410
G01 X0.8869 Y-15.1607
G01 X0.8977 Y-15.1799
G01 X0.9096 Y-15.1986
G01 X0.9223 Y-15.2166
G01 X0.9359 Y-15.2341
G01 X0.9503 Y-15.2508
G01 X0.9655 Y-15.2668
G01 X0.9815 Y-15.2820
G01 X0.9982 Y-15.2964
G01 X1.0157 Y-15.3100
G01 X1.0337 Y-15.3227
G01 X1.0524 Y-15.3346
G01 X1.0716 Y-15.3454
G01 X1.0913 Y-15.3554
G01 X1.1115 Y-15.3643
G01 X1.1321 Y-15.3723
G01 X1.1531 Y-15.3792
G01 X1.1744 Y-15.3851
G01 X1.1959 Y-15.3899
G01 X1.2177 Y-15.3937
G01 X1.2396 Y-15.3964
G01 X1.2616 Y-15.3980
G01 X1.2837 Y-15.3986
G00 X1.2837 Y-15.3986
G01 F80.00
G01 Z-0.8000
G01 F50.00
G01 X22.2658 Y-15.3986
G01 X22.2878 Y-15.3980
G01 X22.3099 Y-15.3964
G01 X22.3441 Y-15.3917
G01 X22.7667 Y-15.4023
G01 X23.1718 Y-15.4322
G01 X23.5859 Y-15.4830
G01 X23.9970 Y-15.5541
G01 X24.4270 Y-15.6504
G01 X24.4487 Y-15.6542
G01 X24.4707 Y-15.6569
G01 X24.4927 Y-15.6585
G01 X24.6346 Y-15.6590
G01 X25.3425 Y-15.9068
G01 X25.4286 Y-15.9653
G01 X25.4654 Y-15.9858
G01 X25.5039 Y-16.0028
G01 X25.6020 Y-16.0410
G01 X25.9834 Y-16.2103
G01 X26.3559 Y-16.3981
G01 X26.7093 Y-16.5983
G01 X27.0619 Y-16.8213
G01 X27.4032 Y-17.0613
G01 X27.7322 Y-17.3177
G01 X28.0483 Y-17.5900
G01 X28.3507 Y-17.8775
G01 X28.6385 Y-18.1795
G01 X28.9113 Y-18.4952
G01 X29.1681 Y-18.8240
G01 X29.4086 Y-19.1649
G01 X29.6377 Y-19.5267
G01 X29.8431 Y-19.8899
G01 X30.0305 Y-20.2626
G01 X30.1993 Y-20.6442
G01 X30.3492 Y-21.0335
G01 X30.4798 Y-21.4297
G01 X30.5908 Y-21.8319
G01 X30.6798 Y-22.2282
G01 X30.7514 Y-22.6392
G01 X30.8027 Y-23.0532
G01 X30.8337 Y-23.4693
G01 X30.8442 Y-23.8864
G01 X30.8443 Y-34.3161
G01 X30.8449 Y-34.3382
G01 X30.8465 Y-34.3602
G01 X30.8492 Y-34.3821
G01 X30.8530 Y-34.4039
G01 X30.8578 Y-34.4254
G01 X30.8637 Y-34.4467
G01 X30.8706 Y-34.4677
G01 X30.8786 Y-34.4883
G01 X30.8875 Y-34.5085
G01 X30.8975 Y-34.5282
G01 X30.9083 Y-34.5474
G01 X30.9202 Y-34.5661
G01 X30.9329 Y-34.5841
G01 X30.9465 Y-34.6016
G01 X30.9609 Y-34.6183
G01 X30.9761 Y-34.6343
G01 X30.9921 Y-34.6495
G01 X31.0088 Y-34.6639
G01 X31.0263 Y-34.6775
G01 X31.0443 Y-34.6902
G01 X31.0630 Y-34.7021
G01 X31.0822 Y-34.7129
G01 X31.1019 Y-34.7229
G01 X31.1221 Y-34.7318
G01 X31.1427 Y-34.7398
G01 X31.1637 Y-34.7467
G01 X31.1850 Y-34.7526
G01 X31.2065 Y-34.7574
G01 X31.2283 Y-34.7612
G01 X31.2502 Y-34.7639
G01 X31.2722 Y-34.7655
G01 X31.2943 Y-34.7661
G01 X65.4708 Y-34.7661
G01 X65.4929 Y-34.7655
G01 X65.5149 Y-34.7639
G01 X65.5368 Y-34.7612
G01 X65.5586 Y-34.7574
G01 X65.5801 Y-34.7526
G01 X65.6014 Y-34.7467
G01 X65.6224 Y-34.7398
G01 X65.6430 Y-34.7318
G01 X65.6632 Y-34.7229
G01 X65.6829 Y-34.7129
G01 X65.7021 Y-34.7021
G01 X65.7208 Y-34.6902
G01 X65.7388 Y-34.6775
G01 X65.7563 Y-34.6639
G01 X65.7730 Y-34.6495
G01 X65.7890 Y-34.6343
G01 X65.8042 Y-34.6183
G01 X65.8186 Y-34.6016
G01 X65.8322 Y-34.5841
G01 X65.8449 Y-34.5661
G01 X65.8568 Y-34.5474
G01 X65.8676 Y-34.5282
G01 X65.8776 Y-34.5085
G01 X65.8865 Y-34.4883
G01 X65.8945 Y-34.4677
G01 X65.9014 Y-34.4467
G01 X65.9073 Y-34.4254
G01 X65.9121 Y-34.4039
G01 X65.9159 Y-34.3821
G01 X65.9186 Y-34.3602
G01 X65.9202 Y-34.3382
G01 X65.9208 Y-34.3161
G01 X65.9208 Y-23.9702
G01 X65.9202 Y-23.9482
G01 X65.9186 Y-23.9261
G01 X65.9140 Y-23.8919
G01 X65.9140 Y-23.8864
G01 X65.9245 Y-23.4693
G01 X65.9544 Y-23.0642
G01 X66.0052 Y-22.6501
G01 X66.0763 Y-22.2390
G01 X66.1701 Y-21.8212
G01 X66.2816 Y-21.4192
G01 X66.4090 Y-21.0335
G01 X66.5632 Y-20.6340
G01 X66.7325 Y-20.2526
G01 X66.9203 Y-19.8801
G01 X67.1205 Y-19.5267
G01 X67.3435 Y-19.1741
G01 X67.5835 Y-18.8328
G01 X67.8399 Y-18.5038
G01 X68.1197 Y-18.1795
G01 X68.4075 Y-17.8775
G01 X68.7017 Y-17.5975
G01 X69.0174 Y-17.3247
G01 X69.3462 Y-17.0679
G01 X69.6963 Y-16.8213
G01 X70.0394 Y-16.6040
G01 X70.4023 Y-16.3981
G01 X70.7748 Y-16.2103
G01 X71.1562 Y-16.0410
G01 X71.5557 Y-15.8868
G01 X71.9519 Y-15.7562
G01 X72.3541 Y-15.6452
G01 X72.7504 Y-15.5562
G01 X73.1614 Y-15.4846
G01 X73.5754 Y-15.4333
G01 X73.9915 Y-15.4023
G01 X74.4196 Y-15.3917
G01 X94.3558 Y-15.3967
G01 X94.3776 Y-15.3962
G01 X94.3993 Y-15.3946
G01 X94.4209 Y-15.3920
G01 X94.4424 Y-15.3883
G01 X94.4636 Y-15.3836
G01 X94.4846 Y-15.3779
G01 X94.5053 Y-15.3712
G01 X94.5257 Y-15.3634
G01 X94.5456 Y-15.3547
G01 X94.5769 Y-15.3385
G01 X94.6012 Y-15.3500
G01 X94.6239 Y-15.3593
G01 X94.6470 Y-15.3676
G01 X94.6682 Y-15.3740
G01 X94.6919 Y-15.3800
G01 X94.7160 Y-15.3848
G01 X94.7427 Y-15.3888
G01 X94.7671 Y-15.3911
G01 X94.8027 Y-15.3924
G01 X101.3114 Y-15.3924
G01 X101.3470 Y-15.3911
G01 X101.3714 Y-15.3888
G01 X101.3981 Y-15.3848
G01 X101.4222 Y-15.3800
G01 X101.4459 Y-15.3740
G01 X101.4671 Y-15.3676
G01 X101.4902 Y-15.3593
G01 X101.5129 Y-15.3500
G01 X101.5351 Y-15.3396
G01 X101.5589 Y-15.3268
G01 X101.5779 Y-15.3155
G01 X101.5983 Y-15.3019
G01 X101.6200 Y-15.2858
G01 X101.6389 Y-15.2702
G01 X101.6553 Y-15.2554
G01 X101.6744 Y-15.2363
G01 X101.6908 Y-15.2181
G01 X101.7063 Y-15.1991
G01 X101.7195 Y-15.1813
G01 X101.7345 Y-15.1589
G01 X101.7458 Y-15.1399
G01 X101.7575 Y-15.1183
G01 X101.7690 Y-15.0939
G01 X101.7783 Y-15.0712
G01 X101.7858 Y-15.0504
G01 X101.7930 Y-15.0269
G01 X101.7995 Y-15.0008
G01 X101.8038 Y-14.9791
G01 X101.8075 Y-14.9548
G01 X101.8101 Y-14.9280
G01 X101.8113 Y-14.9034
G01 X101.8114 Y-9.0980
G01 X101.8101 Y-9.0624
G01 X101.8078 Y-9.0380
G01 X101.8043 Y-9.0137
G01 X101.7995 Y-8.9896
G01 X101.7936 Y-8.9658
G01 X101.7866 Y-8.9423
G01 X101.7783 Y-8.9192
G01 X101.7683 Y-8.8948
G01 X101.7833 Y-8.8694
G01 X101.7935 Y-8.8494
G01 X101.8027 Y-8.8290
G01 X101.8109 Y-8.8082
G01 X101.8180 Y-8.7869
G01 X101.8241 Y-8.7653
G01 X101.8291 Y-8.7435
G01 X101.8330 Y-8.7214
G01 X101.8357 Y-8.6992
G01 X101.8374 Y-8.6769
G01 X101.8380 Y-8.6545
G01 X101.8380 Y-1.3234
G01 X101.8374 Y-1.3013
G01 X101.8358 Y-1.2793
G01 X101.8331 Y-1.2574
G01 X101.8293 Y-1.2356
G01 X101.8245 Y-1.2141
G01 X101.8186 Y-1.1928
G01 X101.8117 Y-1.1718
G01 X101.8037 Y-1.1512
G01 X101.7948 Y-1.1310
G01 X101.7848 Y-1.1113
G01 X101.7740 Y-1.0921
G01 X101.7621 Y-1.0734
G01 X101.7494 Y-1.0554
G01 X101.7358 Y-1.0379
G01 X101.7214 Y-1.0212
G01 X101.7062 Y-1.0052
G01 X101.6902 Y-0.9900
G01 X101.6735 Y-0.9756
G01 X101.6560 Y-0.9620
G01 X101.6380 Y-0.9493
G01 X101.6193 Y-0.9374
G01 X101.6001 Y-0.9266
G01 X101.5804 Y-0.9166
G01 X101.5602 Y-0.9077
G01 X101.5396 Y-0.8997
G01 X101.5186 Y-0.8928
G01 X101.4973 Y-0.8869
G01 X101.4758 Y-0.8821
G01 X101.4540 Y-0.8783
G01 X101.4321 Y-0.8756
G01 X101.4101 Y-0.8740
G01 X101.3880 Y-0.8734
G01 X92.9589 Y-0.8734
G01 X92.9332 Y-0.8701
G01 X92.9112 Y-0.8684
G01 X92.8891 Y-0.8679
G01 X79.4544 Y-0.8683
G01 X79.4139 Y-0.8697
G01 X79.3846 Y-0.8724
G01 X79.3554 Y-0.8766
G01 X79.3193 Y-0.8838
G01 X79.2979 Y-0.8891
G01 X79.2697 Y-0.8975
G01 X79.2419 Y-0.9073
G01 X79.2146 Y-0.9184
G01 X79.1849 Y-0.9323
G01 X79.1551 Y-0.9166
G01 X79.1349 Y-0.9077
G01 X79.1143 Y-0.8997
G01 X79.0933 Y-0.8928
G01 X79.0720 Y-0.8869
G01 X79.0505 Y-0.8821
G01 X79.0287 Y-0.8783
G01 X79.0068 Y-0.8756
G01 X78.9848 Y-0.8740
G01 X78.9627 Y-0.8734
G01 X58.7042 Y-0.8734
G01 X58.6824 Y-0.8740
G01 X58.6607 Y-0.8755
G01 X58.6390 Y-0.8782
G01 X58.6175 Y-0.8819
G01 X58.5962 Y-0.8866
G01 X58.5751 Y-0.8924
G01 X58.5543 Y-0.8991
G01 X58.5339 Y-0.9069
G01 X58.5139 Y-0.9156
G01 X58.4944 Y-0.9254
G01 X58.4763 Y-0.9354
G01 X58.4470 Y-0.9247
G01 X58.4142 Y-0.9144
G01 X58.3810 Y-0.9058
G01 X58.3473 Y-0.8988
G01 X58.3161 Y-0.8938
G01 X58.2829 Y-0.8901
G01 X58.2504 Y-0.8880
G01 X58.2216 Y-0.8874
G01 X32.7026 Y-0.8874
G01 X32.6572 Y-0.8889
G01 X32.6230 Y-0.8920
G01 X32.5890 Y-0.8967
G01 X32.5552 Y-0.9031
G01 X32.5218 Y-0.9112
G01 X32.4888 Y-0.9209
G01 X32.4564 Y-0.9321
G01 X32.4289 Y-0.9432
G01 X32.4006 Y-0.9266
G01 X32.3809 Y-0.9166
G01 X32.3607 Y-0.9077
G01 X32.3401 Y-0.8997
G01 X32.3191 Y-0.8928
G01 X32.2978 Y-0.8869
G01 X32.2763 Y-0.8821
G01 X32.2545 Y-0.8783
G01 X32.2326 Y-0.8756
G01 X32.2105 Y-0.8740
G01 X32.1885 Y-0.8734
G01 X1.2837 Y-0.8734
G01 X1.2616 Y-0.8740
G01 X1.2396 Y-0.8756
G01 X1.2177 Y-0.8783
G01 X1.1959 Y-0.8821
G01 X1.1744 Y-0.8869
G01 X1.1531 Y-0.8928
G01 X1.1321 Y-0.8997
G01 X1.1115 Y-0.9077
G01 X1.0913 Y-0.9166
G01 X1.0716 Y-0.9266
G01 X1.0524 Y-0.9374
G01 X1.0337 Y-0.9493
G01 X1.0157 Y-0.9620
G01 X0.9982 Y-0.9756
G01 X0.9815 Y-0.9900
G01 X0.9655 Y-1.0052
G01 X0.9503 Y-1.0212
G01 X0.9359 Y-1.0379
G01 X0.9223 Y-1.0554
G01 X0.9096 Y-1.0734
G01 X0.8977 Y-1.0921
G01 X0.8869 Y-1.1113
G01 X0.8769 Y-1.1310
G01 X0.8680 Y-1.1512
G01 X0.8600 Y-1.1718
G01 X0.8531 Y-1.1928
G01 X0.8472 Y-1.2141
G01 X0.8424 Y-1.2356
G01 X0.8386 Y-1.2574
G01 X0.8359 Y-1.2793
G01 X0.8343 Y-1.3013
G01 X0.8337 Y-1.3234
G01 X0.8337 Y-14.9486
G01 X0.8343 Y-14.9707
G01 X0.8359 Y-14.9927
G01 X0.8386 Y-15.0146
G01 X0.8424 Y-15.0364
G01 X0.8472 Y-15.0579
G01 X0.8531 Y-15.0792
G01 X0.8600 Y-15.1002
G01 X0.8680 Y-15.1208
G01 X0.8769 Y-15.1410
G01 X0.8869 Y-15.1607
G01 X0.8977 Y-15.1799
G01 X0.9096 Y-15.1986
G01 X0.9223 Y-15.2166
G01 X0.9359 Y-15.2341
G01 X0.9503 Y-15.2508
G01 X0.9655 Y-15.2668
G01 X0.9815 Y-15.2820
G01 X0.9982 Y-15.2964
G01 X1.0157 Y-15.3100
G01 X1.0337 Y-15.3227
G01 X1.0524 Y-15.3346
G01 X1.0716 Y-15.3454
G01 X1.0913 Y-15.3554
G01 X1.1115 Y-15.3643
G01 X1.1321 Y-15.3723
G01 X1.1531 Y-15.3792
G01 X1.1744 Y-15.3851
G01 X1.1959 Y-15.3899
G01 X1.2177 Y-15.3937
G01 X1.2396 Y-15.3964
G01 X1.2616 Y-15.3980
G01 X1.2837 Y-15.3986
G00 X1.2837 Y-15.3986
G01 F80.00
G01 Z-0.9000
G01 F50.00
G01 X22.2658 Y-15.3986
G01 X22.2878 Y-15.3980
G01 X22.3099 Y-15.3964
G01 X22.3441 Y-15.3917
G01 X22.7667 Y-15.4023
G01 X23.1718 Y-15.4322
G01 X23.5859 Y-15.4830
G01 X23.9970 Y-15.5541
G01 X24.4270 Y-15.6504
G01 X24.4487 Y-15.6542
G01 X24.4707 Y-15.6569
G01 X24.4927 Y-15.6585
G01 X24.6346 Y-15.6590
G01 X25.3425 Y-15.9068
G01 X25.4286 Y-15.9653
G01 X25.4654 Y-15.9858
G01 X25.5039 Y-16.0028
G01 X25.6020 Y-16.0410
G01 X25.9834 Y-16.2103
G01 X26.3559 Y-16.3981
G01 X26.7093 Y-16.5983
G01 X27.0619 Y-16.8213
G01 X27.4032 Y-17.0613
G01 X27.7322 Y-17.3177
G01 X28.0483 Y-17.5900
G01 X28.3507 Y-17.8775
G01 X28.6385 Y-18.1795
G01 X28.9113 Y-18.4952
G01 X29.1681 Y-18.8240
G01 X29.4086 Y-19.1649
G01 X29.6377 Y-19.5267
G01 X29.8431 Y-19.8899
G01 X30.0305 Y-20.2626
G01 X30.1993 Y-20.6442
G01 X30.3492 Y-21.0335
G01 X30.4798 Y-21.4297
G01 X30.5908 Y-21.8319
G01 X30.6798 Y-22.2282
G01 X30.7514 Y-22.6392
G01 X30.8027 Y-23.0532
G01 X30.8337 Y-23.4693
G01 X30.8442 Y-23.8864
G01 X30.8443 Y-34.3161
G01 X30.8449 Y-34.3382
G01 X30.8465 Y-34.3602
G01 X30.8492 Y-34.3821
G01 X30.8530 Y-34.4039
G01 X30.8578 Y-34.4254
G01 X30.8637 Y-34.4467
G01 X30.8706 Y-34.4677
G01 X30.8786 Y-34.4883
G01 X30.8875 Y-34.5085
G01 X30.8975 Y-34.5282
G01 X30.9083 Y-34.5474
G01 X30.9202 Y-34.5661
G01 X30.9329 Y-34.5841
G01 X30.9465 Y-34.6016
G01 X30.9609 Y-34.6183
G01 X30.9761 Y-34.6343
G01 X30.9921 Y-34.6495
G01 X31.0088 Y-34.6639
G01 X31.0263 Y-34.6775
G01 X31.0443 Y-34.6902
G01 X31.0630 Y-34.7021
G01 X31.0822 Y-34.7129
G01 X31.1019 Y-34.7229
G01 X31.1221 Y-34.7318
G01 X31.1427 Y-34.7398
G01 X31.1637 Y-34.7467
G01 X31.1850 Y-34.7526
G01 X31.2065 Y-34.7574
G01 X31.2283 Y-34.7612
G01 X31.2502 Y-34.7639
G01 X31.2722 Y-34.7655
G01 X31.2943 Y-34.7661
G01 X65.4708 Y-34.7661
G01 X65.4929 Y-34.7655
G01 X65.5149 Y-34.7639
G01 X65.5368 Y-34.7612
G01 X65.5586 Y-34.7574
G01 X65.5801 Y-34.7526
G01 X65.6014 Y-34.7467
G01 X65.6224 Y-34.7398
G01 X65.6430 Y-34.7318
G01 X65.6632 Y-34.7229
G01 X65.6829 Y-34.7129
G01 X65.7021 Y-34.7021
G01 X65.7208 Y-34.6902
G01 X65.7388 Y-34.6775
G01 X65.7563 Y-34.6639
G01 X65.7730 Y-34.6495
G01 X65.7890 Y-34.6343
G01 X65.8042 Y-34.6183
G01 X65.8186 Y-34.6016
G01 X65.8322 Y-34.5841
G01 X65.8449 Y-34.5661
G01 X65.8568 Y-34.5474
G01 X65.8676 Y-34.5282
G01 X65.8776 Y-34.5085
G01 X65.8865 Y-34.4883
G01 X65.8945 Y-34.4677
G01 X65.9014 Y-34.4467
G01 X65.9073 Y-34.4254
G01 X65.9121 Y-34.4039
G01 X65.9159 Y-34.3821
G01 X65.9186 Y-34.3602
G01 X65.9202 Y-34.3382
G01 X65.9208 Y-34.3161
G01 X65.9208 Y-23.9702
G01 X65.9202 Y-23.9482
G01 X65.9186 Y-23.9261
G01 X65.9140 Y-23.8919
G01 X65.9140 Y-23.8864
G01 X65.9245 Y-23.4693
G01 X65.9544 Y-23.0642
G01 X66.0052 Y-22.6501
G01 X66.0763 Y-22.2390
G01 X66.1701 Y-21.8212
G01 X66.2816 Y-21.4192
G01 X66.4090 Y-21.0335
G01 X66.5632 Y-20.6340
G01 X66.7325 Y-20.2526
G01 X66.9203 Y-19.8801
G01 X67.1205 Y-19.5267
G01 X67.3435 Y-19.1741
G01 X67.5835 Y-18.8328
G01 X67.8399 Y-18.5038
G01 X68.1197 Y-18.1795
G01 X68.4075 Y-17.8775
G01 X68.7017 Y-17.5975
G01 X69.0174 Y-17.3247
G01 X69.3462 Y-17.0679
G01 X69.6963 Y-16.8213
G01 X70.0394 Y-16.6040
G01 X70.4023 Y-16.3981
G01 X70.7748 Y-16.2103
G01 X71.1562 Y-16.0410
G01 X71.5557 Y-15.8868
G01 X71.9519 Y-15.7562
G01 X72.3541 Y-15.6452
G01 X72.7504 Y-15.5562
G01 X73.1614 Y-15.4846
G01 X73.5754 Y-15.4333
G01 X73.9915 Y-15.4023
G01 X74.4196 Y-15.3917
G01 X94.3558 Y-15.3967
G01 X94.3776 Y-15.3962
G01 X94.3993 Y-15.3946
G01 X94.4209 Y-15.3920
G01 X94.4424 Y-15.3883
G01 X94.4636 Y-15.3836
G01 X94.4846 Y-15.3779
G01 X94.5053 Y-15.3712
G01 X94.5257 Y-15.3634
G01 X94.5456 Y-15.3547
G01 X94.5769 Y-15.3385
G01 X94.6012 Y-15.3500
G01 X94.6239 Y-15.3593
G01 X94.6470 Y-15.3676
G01 X94.6682 Y-15.3740
G01 X94.6919 Y-15.3800
G01 X94.7160 Y-15.3848
G01 X94.7427 Y-15.3888
G01 X94.7671 Y-15.3911
G01 X94.8027 Y-15.3924
G01 X101.3114 Y-15.3924
G01 X101.3470 Y-15.3911
G01 X101.3714 Y-15.3888
G01 X101.3981 Y-15.3848
G01 X101.4222 Y-15.3800
G01 X101.4459 Y-15.3740
G01 X101.4671 Y-15.3676
G01 X101.4902 Y-15.3593
G01 X101.5129 Y-15.3500
G01 X101.5351 Y-15.3396
G01 X101.5589 Y-15.3268
G01 X101.5779 Y-15.3155
G01 X101.5983 Y-15.3019
G01 X101.6200 Y-15.2858
G01 X101.6389 Y-15.2702
G01 X101.6553 Y-15.2554
G01 X101.6744 Y-15.2363
G01 X101.6908 Y-15.2181
G01 X101.7063 Y-15.1991
G01 X101.7195 Y-15.1813
G01 X101.7345 Y-15.1589
G01 X101.7458 Y-15.1399
G01 X101.7575 Y-15.1183
G01 X101.7690 Y-15.0939
G01 X101.7783 Y-15.0712
G01 X101.7858 Y-15.0504
G01 X101.7930 Y-15.0269
G01 X101.7995 Y-15.0008
G01 X101.8038 Y-14.9791
G01 X101.8075 Y-14.9548
G01 X101.8101 Y-14.9280
G01 X101.8113 Y-14.9034
G01 X101.8114 Y-9.0980
G01 X101.8101 Y-9.0624
G01 X101.8078 Y-9.0380
G01 X101.8043 Y-9.0137
G01 X101.7995 Y-8.9896
G01 X101.7936 Y-8.9658
G01 X101.7866 Y-8.9423
G01 X101.7783 Y-8.9192
G01 X101.7683 Y-8.8948
G01 X101.7833 Y-8.8694
G01 X101.7935 Y-8.8494
G01 X101.8027 Y-8.8290
G01 X101.8109 Y-8.8082
G01 X101.8180 Y-8.7869
G01 X101.8241 Y-8.7653
G01 X101.8291 Y-8.7435
G01 X101.8330 Y-8.7214
G01 X101.8357 Y-8.6992
G01 X101.8374 Y-8.6769
G01 X101.8380 Y-8.6545
G01 X101.8380 Y-1.3234
G01 X101.8374 Y-1.3013
G01 X101.8358 Y-1.2793
G01 X101.8331 Y-1.2574
G01 X101.8293 Y-1.2356
G01 X101.8245 Y-1.2141
G01 X101.8186 Y-1.1928
G01 X101.8117 Y-1.1718
G01 X101.8037 Y-1.1512
G01 X101.7948 Y-1.1310
G01 X101.7848 Y-1.1113
G01 X101.7740 Y-1.0921
G01 X101.7621 Y-1.0734
G01 X101.7494 Y-1.0554
G01 X101.7358 Y-1.0379
G01 X101.7214 Y-1.0212
G01 X101.7062 Y-1.0052
G01 X101.6902 Y-0.9900
G01 X101.6735 Y-0.9756
G01 X101.6560 Y-0.9620
G01 X101.6380 Y-0.9493
G01 X101.6193 Y-0.9374
G01 X101.6001 Y-0.9266
G01 X101.5804 Y-0.9166
G01 X101.5602 Y-0.9077
G01 X101.5396 Y-0.8997
G01 X101.5186 Y-0.8928
G01 X101.4973 Y-0.8869
G01 X101.4758 Y-0.8821
G01 X101.4540 Y-0.8783
G01 X101.4321 Y-0.8756
G01 X101.4101 Y-0.8740
G01 X101.3880 Y-0.8734
G01 X92.9589 Y-0.8734
G01 X92.9332 Y-0.8701
G01 X92.9112 Y-0.8684
G01 X92.8891 Y-0.8679
G01 X79.4544 Y-0.8683
G01 X79.4139 Y-0.8697
G01 X79.3846 Y-0.8724
G01 X79.3554 Y-0.8766
G01 X79.3193 Y-0.8838
G01 X79.2979 Y-0.8891
G01 X79.2697 Y-0.8975
G01 X79.2419 Y-0.9073
G01 X79.2146 Y-0.9184
G01 X79.1849 Y-0.9323
G01 X79.1551 Y-0.9166
G01 X79.1349 Y-0.9077
G01 X79.1143 Y-0.8997
G01 X79.0933 Y-0.8928
G01 X79.0720 Y-0.8869
G01 X79.0505 Y-0.8821
G01 X79.0287 Y-0.8783
G01 X79.0068 Y-0.8756
G01 X78.9848 Y-0.8740
G01 X78.9627 Y-0.8734
G01 X58.7042 Y-0.8734
G01 X58.6824 Y-0.8740
G01 X58.6607 Y-0.8755
G01 X58.6390 Y-0.8782
G01 X58.6175 Y-0.8819
G01 X58.5962 Y-0.8866
G01 X58.5751 Y-0.8924
G01 X58.5543 Y-0.8991
G01 X58.5339 Y-0.9069
G01 X58.5139 Y-0.9156
G01 X58.4944 Y-0.9254
G01 X58.4763 Y-0.9354
G01 X58.4470 Y-0.9247
G01 X58.4142 Y-0.9144
G01 X58.3810 Y-0.9058
G01 X58.3473 Y-0.8988
G01 X58.3161 Y-0.8938
G01 X58.2829 Y-0.8901
G01 X58.2504 Y-0.8880
G01 X58.2216 Y-0.8874
G01 X32.7026 Y-0.8874
G01 X32.6572 Y-0.8889
G01 X32.6230 Y-0.8920
G01 X32.5890 Y-0.8967
G01 X32.5552 Y-0.9031
G01 X32.5218 Y-0.9112
G01 X32.4888 Y-0.9209
G01 X32.4564 Y-0.9321
G01 X32.4289 Y-0.9432
G01 X32.4006 Y-0.9266
G01 X32.3809 Y-0.9166
G01 X32.3607 Y-0.9077
G01 X32.3401 Y-0.8997
G01 X32.3191 Y-0.8928
G01 X32.2978 Y-0.8869
G01 X32.2763 Y-0.8821
G01 X32.2545 Y-0.8783
G01 X32.2326 Y-0.8756
G01 X32.2105 Y-0.8740
G01 X32.1885 Y-0.8734
G01 X1.2837 Y-0.8734
G01 X1.2616 Y-0.8740
G01 X1.2396 Y-0.8756
G01 X1.2177 Y-0.8783
G01 X1.1959 Y-0.8821
G01 X1.1744 Y-0.8869
G01 X1.1531 Y-0.8928
G01 X1.1321 Y-0.8997
G01 X1.1115 Y-0.9077
G01 X1.0913 Y-0.9166
G01 X1.0716 Y-0.9266
G01 X1.0524 Y-0.9374
G01 X1.0337 Y-0.9493
G01 X1.0157 Y-0.9620
G01 X0.9982 Y-0.9756
G01 X0.9815 Y-0.9900
G01 X0.9655 Y-1.0052
G01 X0.9503 Y-1.0212
G01 X0.9359 Y-1.0379
G01 X0.9223 Y-1.0554
G01 X0.9096 Y-1.0734
G01 X0.8977 Y-1.0921
G01 X0.8869 Y-1.1113
G01 X0.8769 Y-1.1310
G01 X0.8680 Y-1.1512
G01 X0.8600 Y-1.1718
G01 X0.8531 Y-1.1928
G01 X0.8472 Y-1.2141
G01 X0.8424 Y-1.2356
G01 X0.8386 Y-1.2574
G01 X0.8359 Y-1.2793
G01 X0.8343 Y-1.3013
G01 X0.8337 Y-1.3234
G01 X0.8337 Y-14.9486
G01 X0.8343 Y-14.9707
G01 X0.8359 Y-14.9927
G01 X0.8386 Y-15.0146
G01 X0.8424 Y-15.0364
G01 X0.8472 Y-15.0579
G01 X0.8531 Y-15.0792
G01 X0.8600 Y-15.1002
G01 X0.8680 Y-15.1208
G01 X0.8769 Y-15.1410
G01 X0.8869 Y-15.1607
G01 X0.8977 Y-15.1799
G01 X0.9096 Y-15.1986
G01 X0.9223 Y-15.2166
G01 X0.9359 Y-15.2341
G01 X0.9503 Y-15.2508
G01 X0.9655 Y-15.2668
G01 X0.9815 Y-15.2820
G01 X0.9982 Y-15.2964
G01 X1.0157 Y-15.3100
G01 X1.0337 Y-15.3227
G01 X1.0524 Y-15.3346
G01 X1.0716 Y-15.3454
G01 X1.0913 Y-15.3554
G01 X1.1115 Y-15.3643
G01 X1.1321 Y-15.3723
G01 X1.1531 Y-15.3792
G01 X1.1744 Y-15.3851
G01 X1.1959 Y-15.3899
G01 X1.2177 Y-15.3937
G01 X1.2396 Y-15.3964
G01 X1.2616 Y-15.3980
G01 X1.2837 Y-15.3986
G00 X1.2837 Y-15.3986
G01 F80.00
G01 Z-1.0000
G01 F50.00
G01 X22.2658 Y-15.3986
G01 X22.2878 Y-15.3980
G01 X22.3099 Y-15.3964
G01 X22.3441 Y-15.3917
G01 X22.7667 Y-15.4023
G01 X23.1718 Y-15.4322
G01 X23.5859 Y-15.4830
G01 X23.9970 Y-15.5541
G01 X24.4270 Y-15.6504
G01 X24.4487 Y-15.6542
G01 X24.4707 Y-15.6569
G01 X24.4927 Y-15.6585
G01 X24.6346 Y-15.6590
G01 X25.3425 Y-15.9068
G01 X25.4286 Y-15.9653
G01 X25.4654 Y-15.9858
G01 X25.5039 Y-16.0028
G01 X25.6020 Y-16.0410
G01 X25.9834 Y-16.2103
G01 X26.3559 Y-16.3981
G01 X26.7093 Y-16.5983
G01 X27.0619 Y-16.8213
G01 X27.4032 Y-17.0613
G01 X27.7322 Y-17.3177
G01 X28.0483 Y-17.5900
G01 X28.3507 Y-17.8775
G01 X28.6385 Y-18.1795
G01 X28.9113 Y-18.4952
G01 X29.1681 Y-18.8240
G01 X29.4086 Y-19.1649
G01 X29.6377 Y-19.5267
G01 X29.8431 Y-19.8899
G01 X30.0305 Y-20.2626
G01 X30.1993 Y-20.6442
G01 X30.3492 Y-21.0335
G01 X30.4798 Y-21.4297
G01 X30.5908 Y-21.8319
G01 X30.6798 Y-22.2282
G01 X30.7514 Y-22.6392
G01 X30.8027 Y-23.0532
G01 X30.8337 Y-23.4693
G01 X30.8442 Y-23.8864
G01 X30.8443 Y-34.3161
G01 X30.8449 Y-34.3382
G01 X30.8465 Y-34.3602
G01 X30.8492 Y-34.3821
G01 X30.8530 Y-34.4039
G01 X30.8578 Y-34.4254
G01 X30.8637 Y-34.4467
G01 X30.8706 Y-34.4677
G01 X30.8786 Y-34.4883
G01 X30.8875 Y-34.5085
G01 X30.8975 Y-34.5282
G01 X30.9083 Y-34.5474
G01 X30.9202 Y-34.5661
G01 X30.9329 Y-34.5841
G01 X30.9465 Y-34.6016
G01 X30.9609 Y-34.6183
G01 X30.9761 Y-34.6343
G01 X30.9921 Y-34.6495
G01 X31.0088 Y-34.6639
G01 X31.0263 Y-34.6775
G01 X31.0443 Y-34.6902
G01 X31.0630 Y-34.7021
G01 X31.0822 Y-34.7129
G01 X31.1019 Y-34.7229
G01 X31.1221 Y-34.7318
G01 X31.1427 Y-34.7398
G01 X31.1637 Y-34.7467
G01 X31.1850 Y-34.7526
G01 X31.2065 Y-34.7574
G01 X31.2283 Y-34.7612
G01 X31.2502 Y-34.7639
G01 X31.2722 Y-34.7655
G01 X31.2943 Y-34.7661
G01 X65.4708 Y-34.7661
G01 X65.4929 Y-34.7655
G01 X65.5149 Y-34.7639
G01 X65.5368 Y-34.7612
G01 X65.5586 Y-34.7574
G01 X65.5801 Y-34.7526
G01 X65.6014 Y-34.7467
G01 X65.6224 Y-34.7398
G01 X65.6430 Y-34.7318
G01 X65.6632 Y-34.7229
G01 X65.6829 Y-34.7129
G01 X65.7021 Y-34.7021
G01 X65.7208 Y-34.6902
G01 X65.7388 Y-34.6775
G01 X65.7563 Y-34.6639
G01 X65.7730 Y-34.6495
G01 X65.7890 Y-34.6343
G01 X65.8042 Y-34.6183
G01 X65.8186 Y-34.6016
G01 X65.8322 Y-34.5841
G01 X65.8449 Y-34.5661
G01 X65.8568 Y-34.5474
G01 X65.8676 Y-34.5282
G01 X65.8776 Y-34.5085
G01 X65.8865 Y-34.4883
G01 X65.8945 Y-34.4677
G01 X65.9014 Y-34.4467
G01 X65.9073 Y-34.4254
G01 X65.9121 Y-34.4039
G01 X65.9159 Y-34.3821
G01 X65.9186 Y-34.3602
G01 X65.9202 Y-34.3382
G01 X65.9208 Y-34.3161
G01 X65.9208 Y-23.9702
G01 X65.9202 Y-23.9482
G01 X65.9186 Y-23.9261
G01 X65.9140 Y-23.8919
G01 X65.9140 Y-23.8864
G01 X65.9245 Y-23.4693
G01 X65.9544 Y-23.0642
G01 X66.0052 Y-22.6501
G01 X66.0763 Y-22.2390
G01 X66.1701 Y-21.8212
G01 X66.2816 Y-21.4192
G01 X66.4090 Y-21.0335
G01 X66.5632 Y-20.6340
G01 X66.7325 Y-20.2526
G01 X66.9203 Y-19.8801
G01 X67.1205 Y-19.5267
G01 X67.3435 Y-19.1741
G01 X67.5835 Y-18.8328
G01 X67.8399 Y-18.5038
G01 X68.1197 Y-18.1795
G01 X68.4075 Y-17.8775
G01 X68.7017 Y-17.5975
G01 X69.0174 Y-17.3247
G01 X69.3462 Y-17.0679
G01 X69.6963 Y-16.8213
G01 X70.0394 Y-16.6040
G01 X70.4023 Y-16.3981
G01 X70.7748 Y-16.2103
G01 X71.1562 Y-16.0410
G01 X71.5557 Y-15.8868
G01 X71.9519 Y-15.7562
G01 X72.3541 Y-15.6452
G01 X72.7504 Y-15.5562
G01 X73.1614 Y-15.4846
G01 X73.5754 Y-15.4333
G01 X73.9915 Y-15.4023
G01 X74.4196 Y-15.3917
G01 X94.3558 Y-15.3967
G01 X94.3776 Y-15.3962
G01 X94.3993 Y-15.3946
G01 X94.4209 Y-15.3920
G01 X94.4424 Y-15.3883
G01 X94.4636 Y-15.3836
G01 X94.4846 Y-15.3779
G01 X94.5053 Y-15.3712
G01 X94.5257 Y-15.3634
G01 X94.5456 Y-15.3547
G01 X94.5769 Y-15.3385
G01 X94.6012 Y-15.3500
G01 X94.6239 Y-15.3593
G01 X94.6470 Y-15.3676
G01 X94.6682 Y-15.3740
G01 X94.6919 Y-15.3800
G01 X94.7160 Y-15.3848
G01 X94.7427 Y-15.3888
G01 X94.7671 Y-15.3911
G01 X94.8027 Y-15.3924
G01 X101.3114 Y-15.3924
G01 X101.3470 Y-15.3911
G01 X101.3714 Y-15.3888
G01 X101.3981 Y-15.3848
G01 X101.4222 Y-15.3800
G01 X101.4459 Y-15.3740
G01 X101.4671 Y-15.3676
G01 X101.4902 Y-15.3593
G01 X101.5129 Y-15.3500
G01 X101.5351 Y-15.3396
G01 X101.5589 Y-15.3268
G01 X101.5779 Y-15.3155
G01 X101.5983 Y-15.3019
G01 X101.6200 Y-15.2858
G01 X101.6389 Y-15.2702
G01 X101.6553 Y-15.2554
G01 X101.6744 Y-15.2363
G01 X101.6908 Y-15.2181
G01 X101.7063 Y-15.1991
G01 X101.7195 Y-15.1813
G01 X101.7345 Y-15.1589
G01 X101.7458 Y-15.1399
G01 X101.7575 Y-15.1183
G01 X101.7690 Y-15.0939
G01 X101.7783 Y-15.0712
G01 X101.7858 Y-15.0504
G01 X101.7930 Y-15.0269
G01 X101.7995 Y-15.0008
G01 X101.8038 Y-14.9791
G01 X101.8075 Y-14.9548
G01 X101.8101 Y-14.9280
G01 X101.8113 Y-14.9034
G01 X101.8114 Y-9.0980
G01 X101.8101 Y-9.0624
G01 X101.8078 Y-9.0380
G01 X101.8043 Y-9.0137
G01 X101.7995 Y-8.9896
G01 X101.7936 Y-8.9658
G01 X101.7866 Y-8.9423
G01 X101.7783 Y-8.9192
G01 X101.7683 Y-8.8948
G01 X101.7833 Y-8.8694
G01 X101.7935 Y-8.8494
G01 X101.8027 Y-8.8290
G01 X101.8109 Y-8.8082
G01 X101.8180 Y-8.7869
G01 X101.8241 Y-8.7653
G01 X101.8291 Y-8.7435
G01 X101.8330 Y-8.7214
G01 X101.8357 Y-8.6992
G01 X101.8374 Y-8.6769
G01 X101.8380 Y-8.6545
G01 X101.8380 Y-1.3234
G01 X101.8374 Y-1.3013
G01 X101.8358 Y-1.2793
G01 X101.8331 Y-1.2574
G01 X101.8293 Y-1.2356
G01 X101.8245 Y-1.2141
G01 X101.8186 Y-1.1928
G01 X101.8117 Y-1.1718
G01 X101.8037 Y-1.1512
G01 X101.7948 Y-1.1310
G01 X101.7848 Y-1.1113
G01 X101.7740 Y-1.0921
G01 X101.7621 Y-1.0734
G01 X101.7494 Y-1.0554
G01 X101.7358 Y-1.0379
G01 X101.7214 Y-1.0212
G01 X101.7062 Y-1.0052
G01 X101.6902 Y-0.9900
G01 X101.6735 Y-0.9756
G01 X101.6560 Y-0.9620
G01 X101.6380 Y-0.9493
G01 X101.6193 Y-0.9374
G01 X101.6001 Y-0.9266
G01 X101.5804 Y-0.9166
G01 X101.5602 Y-0.9077
G01 X101.5396 Y-0.8997
G01 X101.5186 Y-0.8928
G01 X101.4973 Y-0.8869
G01 X101.4758 Y-0.8821
G01 X101.4540 Y-0.8783
G01 X101.4321 Y-0.8756
G01 X101.4101 Y-0.8740
G01 X101.3880 Y-0.8734
G01 X92.9589 Y-0.8734
G01 X92.9332 Y-0.8701
G01 X92.9112 Y-0.8684
G01 X92.8891 Y-0.8679
G01 X79.4544 Y-0.8683
G01 X79.4139 Y-0.8697
G01 X79.3846 Y-0.8724
G01 X79.3554 Y-0.8766
G01 X79.3193 Y-0.8838
G01 X79.2979 Y-0.8891
G01 X79.2697 Y-0.8975
G01 X79.2419 Y-0.9073
G01 X79.2146 Y-0.9184
G01 X79.1849 Y-0.9323
G01 X79.1551 Y-0.9166
G01 X79.1349 Y-0.9077
G01 X79.1143 Y-0.8997
G01 X79.0933 Y-0.8928
G01 X79.0720 Y-0.8869
G01 X79.0505 Y-0.8821
G01 X79.0287 Y-0.8783
G01 X79.0068 Y-0.8756
G01 X78.9848 Y-0.8740
G01 X78.9627 Y-0.8734
G01 X58.7042 Y-0.8734
G01 X58.6824 Y-0.8740
G01 X58.6607 Y-0.8755
G01 X58.6390 Y-0.8782
G01 X58.6175 Y-0.8819
G01 X58.5962 Y-0.8866
G01 X58.5751 Y-0.8924
G01 X58.5543 Y-0.8991
G01 X58.5339 Y-0.9069
G01 X58.5139 Y-0.9156
G01 X58.4944 Y-0.9254
G01 X58.4763 Y-0.9354
G01 X58.4470 Y-0.9247
G01 X58.4142 Y-0.9144
G01 X58.3810 Y-0.9058
G01 X58.3473 Y-0.8988
G01 X58.3161 Y-0.8938
G01 X58.2829 Y-0.8901
G01 X58.2504 Y-0.8880
G01 X58.2216 Y-0.8874
G01 X32.7026 Y-0.8874
G01 X32.6572 Y-0.8889
G01 X32.6230 Y-0.8920
G01 X32.5890 Y-0.8967
G01 X32.5552 Y-0.9031
G01 X32.5218 Y-0.9112
G01 X32.4888 Y-0.9209
G01 X32.4564 Y-0.9321
G01 X32.4289 Y-0.9432
G01 X32.4006 Y-0.9266
G01 X32.3809 Y-0.9166
G01 X32.3607 Y-0.9077
G01 X32.3401 Y-0.8997
G01 X32.3191 Y-0.8928
G01 X32.2978 Y-0.8869
G01 X32.2763 Y-0.8821
G01 X32.2545 Y-0.8783
G01 X32.2326 Y-0.8756
G01 X32.2105 Y-0.8740
G01 X32.1885 Y-0.8734
G01 X1.2837 Y-0.8734
G01 X1.2616 Y-0.8740
G01 X1.2396 Y-0.8756
G01 X1.2177 Y-0.8783
G01 X1.1959 Y-0.8821
G01 X1.1744 Y-0.8869
G01 X1.1531 Y-0.8928
G01 X1.1321 Y-0.8997
G01 X1.1115 Y-0.9077
G01 X1.0913 Y-0.9166
G01 X1.0716 Y-0.9266
G01 X1.0524 Y-0.9374
G01 X1.0337 Y-0.9493
G01 X1.0157 Y-0.9620
G01 X0.9982 Y-0.9756
G01 X0.9815 Y-0.9900
G01 X0.9655 Y-1.0052
G01 X0.9503 Y-1.0212
G01 X0.9359 Y-1.0379
G01 X0.9223 Y-1.0554
G01 X0.9096 Y-1.0734
G01 X0.8977 Y-1.0921
G01 X0.8869 Y-1.1113
G01 X0.8769 Y-1.1310
G01 X0.8680 Y-1.1512
G01 X0.8600 Y-1.1718
G01 X0.8531 Y-1.1928
G01 X0.8472 Y-1.2141
G01 X0.8424 Y-1.2356
G01 X0.8386 Y-1.2574
G01 X0.8359 Y-1.2793
G01 X0.8343 Y-1.3013
G01 X0.8337 Y-1.3234
G01 X0.8337 Y-14.9486
G01 X0.8343 Y-14.9707
G01 X0.8359 Y-14.9927
G01 X0.8386 Y-15.0146
G01 X0.8424 Y-15.0364
G01 X0.8472 Y-15.0579
G01 X0.8531 Y-15.0792
G01 X0.8600 Y-15.1002
G01 X0.8680 Y-15.1208
G01 X0.8769 Y-15.1410
G01 X0.8869 Y-15.1607
G01 X0.8977 Y-15.1799
G01 X0.9096 Y-15.1986
G01 X0.9223 Y-15.2166
G01 X0.9359 Y-15.2341
G01 X0.9503 Y-15.2508
G01 X0.9655 Y-15.2668
G01 X0.9815 Y-15.2820
G01 X0.9982 Y-15.2964
G01 X1.0157 Y-15.3100
G01 X1.0337 Y-15.3227
G01 X1.0524 Y-15.3346
G01 X1.0716 Y-15.3454
G01 X1.0913 Y-15.3554
G01 X1.1115 Y-15.3643
G01 X1.1321 Y-15.3723
G01 X1.1531 Y-15.3792
G01 X1.1744 Y-15.3851
G01 X1.1959 Y-15.3899
G01 X1.2177 Y-15.3937
G01 X1.2396 Y-15.3964
G01 X1.2616 Y-15.3980
G01 X1.2837 Y-15.3986
G00 X1.2837 Y-15.3986
G01 F80.00
G01 Z-1.1000
G01 F50.00
G01 X22.2658 Y-15.3986
G01 X22.2878 Y-15.3980
G01 X22.3099 Y-15.3964
G01 X22.3441 Y-15.3917
G01 X22.7667 Y-15.4023
G01 X23.1718 Y-15.4322
G01 X23.5859 Y-15.4830
G01 X23.9970 Y-15.5541
G01 X24.4270 Y-15.6504
G01 X24.4487 Y-15.6542
G01 X24.4707 Y-15.6569
G01 X24.4927 Y-15.6585
G01 X24.6346 Y-15.6590
G01 X25.3425 Y-15.9068
G01 X25.4286 Y-15.9653
G01 X25.4654 Y-15.9858
G01 X25.5039 Y-16.0028
G01 X25.6020 Y-16.0410
G01 X25.9834 Y-16.2103
G01 X26.3559 Y-16.3981
G01 X26.7093 Y-16.5983
G01 X27.0619 Y-16.8213
G01 X27.4032 Y-17.0613
G01 X27.7322 Y-17.3177
G01 X28.0483 Y-17.5900
G01 X28.3507 Y-17.8775
G01 X28.6385 Y-18.1795
G01 X28.9113 Y-18.4952
G01 X29.1681 Y-18.8240
G01 X29.4086 Y-19.1649
G01 X29.6377 Y-19.5267
G01 X29.8431 Y-19.8899
G01 X30.0305 Y-20.2626
G01 X30.1993 Y-20.6442
G01 X30.3492 Y-21.0335
G01 X30.4798 Y-21.4297
G01 X30.5908 Y-21.8319
G01 X30.6798 Y-22.2282
G01 X30.7514 Y-22.6392
G01 X30.8027 Y-23.0532
G01 X30.8337 Y-23.4693
G01 X30.8442 Y-23.8864
G01 X30.8443 Y-34.3161
G01 X30.8449 Y-34.3382
G01 X30.8465 Y-34.3602
G01 X30.8492 Y-34.3821
G01 X30.8530 Y-34.4039
G01 X30.8578 Y-34.4254
G01 X30.8637 Y-34.4467
G01 X30.8706 Y-34.4677
G01 X30.8786 Y-34.4883
G01 X30.8875 Y-34.5085
G01 X30.8975 Y-34.5282
G01 X30.9083 Y-34.5474
G01 X30.9202 Y-34.5661
G01 X30.9329 Y-34.5841
G01 X30.9465 Y-34.6016
G01 X30.9609 Y-34.6183
G01 X30.9761 Y-34.6343
G01 X30.9921 Y-34.6495
G01 X31.0088 Y-34.6639
G01 X31.0263 Y-34.6775
G01 X31.0443 Y-34.6902
G01 X31.0630 Y-34.7021
G01 X31.0822 Y-34.7129
G01 X31.1019 Y-34.7229
G01 X31.1221 Y-34.7318
G01 X31.1427 Y-34.7398
G01 X31.1637 Y-34.7467
G01 X31.1850 Y-34.7526
G01 X31.2065 Y-34.7574
G01 X31.2283 Y-34.7612
G01 X31.2502 Y-34.7639
G01 X31.2722 Y-34.7655
G01 X31.2943 Y-34.7661
G01 X65.4708 Y-34.7661
G01 X65.4929 Y-34.7655
G01 X65.5149 Y-34.7639
G01 X65.5368 Y-34.7612
G01 X65.5586 Y-34.7574
G01 X65.5801 Y-34.7526
G01 X65.6014 Y-34.7467
G01 X65.6224 Y-34.7398
G01 X65.6430 Y-34.7318
G01 X65.6632 Y-34.7229
G01 X65.6829 Y-34.7129
G01 X65.7021 Y-34.7021
G01 X65.7208 Y-34.6902
G01 X65.7388 Y-34.6775
G01 X65.7563 Y-34.6639
G01 X65.7730 Y-34.6495
G01 X65.7890 Y-34.6343
G01 X65.8042 Y-34.6183
G01 X65.8186 Y-34.6016
G01 X65.8322 Y-34.5841
G01 X65.8449 Y-34.5661
G01 X65.8568 Y-34.5474
G01 X65.8676 Y-34.5282
G01 X65.8776 Y-34.5085
G01 X65.8865 Y-34.4883
G01 X65.8945 Y-34.4677
G01 X65.9014 Y-34.4467
G01 X65.9073 Y-34.4254
G01 X65.9121 Y-34.4039
G01 X65.9159 Y-34.3821
G01 X65.9186 Y-34.3602
G01 X65.9202 Y-34.3382
G01 X65.9208 Y-34.3161
G01 X65.9208 Y-23.9702
G01 X65.9202 Y-23.9482
G01 X65.9186 Y-23.9261
G01 X65.9140 Y-23.8919
G01 X65.9140 Y-23.8864
G01 X65.9245 Y-23.4693
G01 X65.9544 Y-23.0642
G01 X66.0052 Y-22.6501
G01 X66.0763 Y-22.2390
G01 X66.1701 Y-21.8212
G01 X66.2816 Y-21.4192
G01 X66.4090 Y-21.0335
G01 X66.5632 Y-20.6340
G01 X66.7325 Y-20.2526
G01 X66.9203 Y-19.8801
G01 X67.1205 Y-19.5267
G01 X67.3435 Y-19.1741
G01 X67.5835 Y-18.8328
G01 X67.8399 Y-18.5038
G01 X68.1197 Y-18.1795
G01 X68.4075 Y-17.8775
G01 X68.7017 Y-17.5975
G01 X69.0174 Y-17.3247
G01 X69.3462 Y-17.0679
G01 X69.6963 Y-16.8213
G01 X70.0394 Y-16.6040
G01 X70.4023 Y-16.3981
G01 X70.7748 Y-16.2103
G01 X71.1562 Y-16.0410
G01 X71.5557 Y-15.8868
G01 X71.9519 Y-15.7562
G01 X72.3541 Y-15.6452
G01 X72.7504 Y-15.5562
G01 X73.1614 Y-15.4846
G01 X73.5754 Y-15.4333
G01 X73.9915 Y-15.4023
G01 X74.4196 Y-15.3917
G01 X94.3558 Y-15.3967
G01 X94.3776 Y-15.3962
G01 X94.3993 Y-15.3946
G01 X94.4209 Y-15.3920
G01 X94.4424 Y-15.3883
G01 X94.4636 Y-15.3836
G01 X94.4846 Y-15.3779
G01 X94.5053 Y-15.3712
G01 X94.5257 Y-15.3634
G01 X94.5456 Y-15.3547
G01 X94.5769 Y-15.3385
G01 X94.6012 Y-15.3500
G01 X94.6239 Y-15.3593
G01 X94.6470 Y-15.3676
G01 X94.6682 Y-15.3740
G01 X94.6919 Y-15.3800
G01 X94.7160 Y-15.3848
G01 X94.7427 Y-15.3888
G01 X94.7671 Y-15.3911
G01 X94.8027 Y-15.3924
G01 X101.3114 Y-15.3924
G01 X101.3470 Y-15.3911
G01 X101.3714 Y-15.3888
G01 X101.3981 Y-15.3848
G01 X101.4222 Y-15.3800
G01 X101.4459 Y-15.3740
G01 X101.4671 Y-15.3676
G01 X101.4902 Y-15.3593
G01 X101.5129 Y-15.3500
G01 X101.5351 Y-15.3396
G01 X101.5589 Y-15.3268
G01 X101.5779 Y-15.3155
G01 X101.5983 Y-15.3019
G01 X101.6200 Y-15.2858
G01 X101.6389 Y-15.2702
G01 X101.6553 Y-15.2554
G01 X101.6744 Y-15.2363
G01 X101.6908 Y-15.2181
G01 X101.7063 Y-15.1991
G01 X101.7195 Y-15.1813
G01 X101.7345 Y-15.1589
G01 X101.7458 Y-15.1399
G01 X101.7575 Y-15.1183
G01 X101.7690 Y-15.0939
G01 X101.7783 Y-15.0712
G01 X101.7858 Y-15.0504
G01 X101.7930 Y-15.0269
G01 X101.7995 Y-15.0008
G01 X101.8038 Y-14.9791
G01 X101.8075 Y-14.9548
G01 X101.8101 Y-14.9280
G01 X101.8113 Y-14.9034
G01 X101.8114 Y-9.0980
G01 X101.8101 Y-9.0624
G01 X101.8078 Y-9.0380
G01 X101.8043 Y-9.0137
G01 X101.7995 Y-8.9896
G01 X101.7936 Y-8.9658
G01 X101.7866 Y-8.9423
G01 X101.7783 Y-8.9192
G01 X101.7683 Y-8.8948
G01 X101.7833 Y-8.8694
G01 X101.7935 Y-8.8494
G01 X101.8027 Y-8.8290
G01 X101.8109 Y-8.8082
G01 X101.8180 Y-8.7869
G01 X101.8241 Y-8.7653
G01 X101.8291 Y-8.7435
G01 X101.8330 Y-8.7214
G01 X101.8357 Y-8.6992
G01 X101.8374 Y-8.6769
G01 X101.8380 Y-8.6545
G01 X101.8380 Y-1.3234
G01 X101.8374 Y-1.3013
G01 X101.8358 Y-1.2793
G01 X101.8331 Y-1.2574
G01 X101.8293 Y-1.2356
G01 X101.8245 Y-1.2141
G01 X101.8186 Y-1.1928
G01 X101.8117 Y-1.1718
G01 X101.8037 Y-1.1512
G01 X101.7948 Y-1.1310
G01 X101.7848 Y-1.1113
G01 X101.7740 Y-1.0921
G01 X101.7621 Y-1.0734
G01 X101.7494 Y-1.0554
G01 X101.7358 Y-1.0379
G01 X101.7214 Y-1.0212
G01 X101.7062 Y-1.0052
G01 X101.6902 Y-0.9900
G01 X101.6735 Y-0.9756
G01 X101.6560 Y-0.9620
G01 X101.6380 Y-0.9493
G01 X101.6193 Y-0.9374
G01 X101.6001 Y-0.9266
G01 X101.5804 Y-0.9166
G01 X101.5602 Y-0.9077
G01 X101.5396 Y-0.8997
G01 X101.5186 Y-0.8928
G01 X101.4973 Y-0.8869
G01 X101.4758 Y-0.8821
G01 X101.4540 Y-0.8783
G01 X101.4321 Y-0.8756
G01 X101.4101 Y-0.8740
G01 X101.3880 Y-0.8734
G01 X92.9589 Y-0.8734
G01 X92.9332 Y-0.8701
G01 X92.9112 Y-0.8684
G01 X92.8891 Y-0.8679
G01 X79.4544 Y-0.8683
G01 X79.4139 Y-0.8697
G01 X79.3846 Y-0.8724
G01 X79.3554 Y-0.8766
G01 X79.3193 Y-0.8838
G01 X79.2979 Y-0.8891
G01 X79.2697 Y-0.8975
G01 X79.2419 Y-0.9073
G01 X79.2146 Y-0.9184
G01 X79.1849 Y-0.9323
G01 X79.1551 Y-0.9166
G01 X79.1349 Y-0.9077
G01 X79.1143 Y-0.8997
G01 X79.0933 Y-0.8928
G01 X79.0720 Y-0.8869
G01 X79.0505 Y-0.8821
G01 X79.0287 Y-0.8783
G01 X79.0068 Y-0.8756
G01 X78.9848 Y-0.8740
G01 X78.9627 Y-0.8734
G01 X58.7042 Y-0.8734
G01 X58.6824 Y-0.8740
G01 X58.6607 Y-0.8755
G01 X58.6390 Y-0.8782
G01 X58.6175 Y-0.8819
G01 X58.5962 Y-0.8866
G01 X58.5751 Y-0.8924
G01 X58.5543 Y-0.8991
G01 X58.5339 Y-0.9069
G01 X58.5139 Y-0.9156
G01 X58.4944 Y-0.9254
G01 X58.4763 Y-0.9354
G01 X58.4470 Y-0.9247
G01 X58.4142 Y-0.9144
G01 X58.3810 Y-0.9058
G01 X58.3473 Y-0.8988
G01 X58.3161 Y-0.8938
G01 X58.2829 Y-0.8901
G01 X58.2504 Y-0.8880
G01 X58.2216 Y-0.8874
G01 X32.7026 Y-0.8874
G01 X32.6572 Y-0.8889
G01 X32.6230 Y-0.8920
G01 X32.5890 Y-0.8967
G01 X32.5552 Y-0.9031
G01 X32.5218 Y-0.9112
G01 X32.4888 Y-0.9209
G01 X32.4564 Y-0.9321
G01 X32.4289 Y-0.9432
G01 X32.4006 Y-0.9266
G01 X32.3809 Y-0.9166
G01 X32.3607 Y-0.9077
G01 X32.3401 Y-0.8997
G01 X32.3191 Y-0.8928
G01 X32.2978 Y-0.8869
G01 X32.2763 Y-0.8821
G01 X32.2545 Y-0.8783
G01 X32.2326 Y-0.8756
G01 X32.2105 Y-0.8740
G01 X32.1885 Y-0.8734
G01 X1.2837 Y-0.8734
G01 X1.2616 Y-0.8740
G01 X1.2396 Y-0.8756
G01 X1.2177 Y-0.8783
G01 X1.1959 Y-0.8821
G01 X1.1744 Y-0.8869
G01 X1.1531 Y-0.8928
G01 X1.1321 Y-0.8997
G01 X1.1115 Y-0.9077
G01 X1.0913 Y-0.9166
G01 X1.0716 Y-0.9266
G01 X1.0524 Y-0.9374
G01 X1.0337 Y-0.9493
G01 X1.0157 Y-0.9620
G01 X0.9982 Y-0.9756
G01 X0.9815 Y-0.9900
G01 X0.9655 Y-1.0052
G01 X0.9503 Y-1.0212
G01 X0.9359 Y-1.0379
G01 X0.9223 Y-1.0554
G01 X0.9096 Y-1.0734
G01 X0.8977 Y-1.0921
G01 X0.8869 Y-1.1113
G01 X0.8769 Y-1.1310
G01 X0.8680 Y-1.1512
G01 X0.8600 Y-1.1718
G01 X0.8531 Y-1.1928
G01 X0.8472 Y-1.2141
G01 X0.8424 Y-1.2356
G01 X0.8386 Y-1.2574
G01 X0.8359 Y-1.2793
G01 X0.8343 Y-1.3013
G01 X0.8337 Y-1.3234
G01 X0.8337 Y-14.9486
G01 X0.8343 Y-14.9707
G01 X0.8359 Y-14.9927
G01 X0.8386 Y-15.0146
G01 X0.8424 Y-15.0364
G01 X0.8472 Y-15.0579
G01 X0.8531 Y-15.0792
G01 X0.8600 Y-15.1002
G01 X0.8680 Y-15.1208
G01 X0.8769 Y-15.1410
G01 X0.8869 Y-15.1607
G01 X0.8977 Y-15.1799
G01 X0.9096 Y-15.1986
G01 X0.9223 Y-15.2166
G01 X0.9359 Y-15.2341
G01 X0.9503 Y-15.2508
G01 X0.9655 Y-15.2668
G01 X0.9815 Y-15.2820
G01 X0.9982 Y-15.2964
G01 X1.0157 Y-15.3100
G01 X1.0337 Y-15.3227
G01 X1.0524 Y-15.3346
G01 X1.0716 Y-15.3454
G01 X1.0913 Y-15.3554
G01 X1.1115 Y-15.3643
G01 X1.1321 Y-15.3723
G01 X1.1531 Y-15.3792
G01 X1.1744 Y-15.3851
G01 X1.1959 Y-15.3899
G01 X1.2177 Y-15.3937
G01 X1.2396 Y-15.3964
G01 X1.2616 Y-15.3980
G01 X1.2837 Y-15.3986
G00 X1.2837 Y-15.3986
G01 F80.00
G01 Z-1.2000
G01 F50.00
G01 X22.2658 Y-15.3986
G01 X22.2878 Y-15.3980
G01 X22.3099 Y-15.3964
G01 X22.3441 Y-15.3917
G01 X22.7667 Y-15.4023
G01 X23.1718 Y-15.4322
G01 X23.5859 Y-15.4830
G01 X23.9970 Y-15.5541
G01 X24.4270 Y-15.6504
G01 X24.4487 Y-15.6542
G01 X24.4707 Y-15.6569
G01 X24.4927 Y-15.6585
G01 X24.6346 Y-15.6590
G01 X25.3425 Y-15.9068
G01 X25.4286 Y-15.9653
G01 X25.4654 Y-15.9858
G01 X25.5039 Y-16.0028
G01 X25.6020 Y-16.0410
G01 X25.9834 Y-16.2103
G01 X26.3559 Y-16.3981
G01 X26.7093 Y-16.5983
G01 X27.0619 Y-16.8213
G01 X27.4032 Y-17.0613
G01 X27.7322 Y-17.3177
G01 X28.0483 Y-17.5900
G01 X28.3507 Y-17.8775
G01 X28.6385 Y-18.1795
G01 X28.9113 Y-18.4952
G01 X29.1681 Y-18.8240
G01 X29.4086 Y-19.1649
G01 X29.6377 Y-19.5267
G01 X29.8431 Y-19.8899
G01 X30.0305 Y-20.2626
G01 X30.1993 Y-20.6442
G01 X30.3492 Y-21.0335
G01 X30.4798 Y-21.4297
G01 X30.5908 Y-21.8319
G01 X30.6798 Y-22.2282
G01 X30.7514 Y-22.6392
G01 X30.8027 Y-23.0532
G01 X30.8337 Y-23.4693
G01 X30.8442 Y-23.8864
G01 X30.8443 Y-34.3161
G01 X30.8449 Y-34.3382
G01 X30.8465 Y-34.3602
G01 X30.8492 Y-34.3821
G01 X30.8530 Y-34.4039
G01 X30.8578 Y-34.4254
G01 X30.8637 Y-34.4467
G01 X30.8706 Y-34.4677
G01 X30.8786 Y-34.4883
G01 X30.8875 Y-34.5085
G01 X30.8975 Y-34.5282
G01 X30.9083 Y-34.5474
G01 X30.9202 Y-34.5661
G01 X30.9329 Y-34.5841
G01 X30.9465 Y-34.6016
G01 X30.9609 Y-34.6183
G01 X30.9761 Y-34.6343
G01 X30.9921 Y-34.6495
G01 X31.0088 Y-34.6639
G01 X31.0263 Y-34.6775
G01 X31.0443 Y-34.6902
G01 X31.0630 Y-34.7021
G01 X31.0822 Y-34.7129
G01 X31.1019 Y-34.7229
G01 X31.1221 Y-34.7318
G01 X31.1427 Y-34.7398
G01 X31.1637 Y-34.7467
G01 X31.1850 Y-34.7526
G01 X31.2065 Y-34.7574
G01 X31.2283 Y-34.7612
G01 X31.2502 Y-34.7639
G01 X31.2722 Y-34.7655
G01 X31.2943 Y-34.7661
G01 X65.4708 Y-34.7661
G01 X65.4929 Y-34.7655
G01 X65.5149 Y-34.7639
G01 X65.5368 Y-34.7612
G01 X65.5586 Y-34.7574
G01 X65.5801 Y-34.7526
G01 X65.6014 Y-34.7467
G01 X65.6224 Y-34.7398
G01 X65.6430 Y-34.7318
G01 X65.6632 Y-34.7229
G01 X65.6829 Y-34.7129
G01 X65.7021 Y-34.7021
G01 X65.7208 Y-34.6902
G01 X65.7388 Y-34.6775
G01 X65.7563 Y-34.6639
G01 X65.7730 Y-34.6495
G01 X65.7890 Y-34.6343
G01 X65.8042 Y-34.6183
G01 X65.8186 Y-34.6016
G01 X65.8322 Y-34.5841
G01 X65.8449 Y-34.5661
G01 X65.8568 Y-34.5474
G01 X65.8676 Y-34.5282
G01 X65.8776 Y-34.5085
G01 X65.8865 Y-34.4883
G01 X65.8945 Y-34.4677
G01 X65.9014 Y-34.4467
G01 X65.9073 Y-34.4254
G01 X65.9121 Y-34.4039
G01 X65.9159 Y-34.3821
G01 X65.9186 Y-34.3602
G01 X65.9202 Y-34.3382
G01 X65.9208 Y-34.3161
G01 X65.9208 Y-23.9702
G01 X65.9202 Y-23.9482
G01 X65.9186 Y-23.9261
G01 X65.9140 Y-23.8919
G01 X65.9140 Y-23.8864
G01 X65.9245 Y-23.4693
G01 X65.9544 Y-23.0642
G01 X66.0052 Y-22.6501
G01 X66.0763 Y-22.2390
G01 X66.1701 Y-21.8212
G01 X66.2816 Y-21.4192
G01 X66.4090 Y-21.0335
G01 X66.5632 Y-20.6340
G01 X66.7325 Y-20.2526
G01 X66.9203 Y-19.8801
G01 X67.1205 Y-19.5267
G01 X67.3435 Y-19.1741
G01 X67.5835 Y-18.8328
G01 X67.8399 Y-18.5038
G01 X68.1197 Y-18.1795
G01 X68.4075 Y-17.8775
G01 X68.7017 Y-17.5975
G01 X69.0174 Y-17.3247
G01 X69.3462 Y-17.0679
G01 X69.6963 Y-16.8213
G01 X70.0394 Y-16.6040
G01 X70.4023 Y-16.3981
G01 X70.7748 Y-16.2103
G01 X71.1562 Y-16.0410
G01 X71.5557 Y-15.8868
G01 X71.9519 Y-15.7562
G01 X72.3541 Y-15.6452
G01 X72.7504 Y-15.5562
G01 X73.1614 Y-15.4846
G01 X73.5754 Y-15.4333
G01 X73.9915 Y-15.4023
G01 X74.4196 Y-15.3917
G01 X94.3558 Y-15.3967
G01 X94.3776 Y-15.3962
G01 X94.3993 Y-15.3946
G01 X94.4209 Y-15.3920
G01 X94.4424 Y-15.3883
G01 X94.4636 Y-15.3836
G01 X94.4846 Y-15.3779
G01 X94.5053 Y-15.3712
G01 X94.5257 Y-15.3634
G01 X94.5456 Y-15.3547
G01 X94.5769 Y-15.3385
G01 X94.6012 Y-15.3500
G01 X94.6239 Y-15.3593
G01 X94.6470 Y-15.3676
G01 X94.6682 Y-15.3740
G01 X94.6919 Y-15.3800
G01 X94.7160 Y-15.3848
G01 X94.7427 Y-15.3888
G01 X94.7671 Y-15.3911
G01 X94.8027 Y-15.3924
G01 X101.3114 Y-15.3924
G01 X101.3470 Y-15.3911
G01 X101.3714 Y-15.3888
G01 X101.3981 Y-15.3848
G01 X101.4222 Y-15.3800
