(G-CODE GENERATED BY FLATCAM v8.95 - www.flatcam.org - Version Date: 2019/08/17)

(Name: Syntez2_Ф1_верх.gbr_iso_cnc)
(Type: G-code from Geometry)
(Units: MM)

(Created on Monday, 21 September 2020 at 16:30)

(TOOL DIAMETER: 0.13 mm)
(Feedrate: 50.0 mm/min)
(Feedrate_Z: 79.9998 mm/min)
(Feedrate rapids 79.9998 mm/min)

(Z_Cut: -0.056 mm)
(DepthPerCut: 0.028 mm <=>2 passes)
(Z_Move: 1.0 mm)
(Z Toolchange: 25.0 mm)
(X,Y Toolchange: 0.0000, 0.0000 mm)
(Z Start: None mm)
(Z End: 25.0 mm)
(Steps per circle: 128)
(Postprocessor Geometry: default)

(X range:   -0.1588 ...   99.3172  mm)
(Y range:  -34.8776 ...    0.1984  mm)

(Spindle Speed: None RPM)

G21
G90
G94

G01 F50.00
G00 Z1.0000

M03
G00 X0.0092 Y-0.0396
G01 F80.00
G01 Z-0.0280
G01 F50.00
G01 X0.0092 Y-34.6396
G01 X0.0100 Y-34.6499
G01 X0.0122 Y-34.6599
G01 X0.0175 Y-34.6726
G01 X0.0230 Y-34.6813
G01 X0.0297 Y-34.6891
G01 X0.0375 Y-34.6958
G01 X0.0462 Y-34.7013
G01 X0.0556 Y-34.7055
G01 X0.0655 Y-34.7083
G01 X0.0792 Y-34.7096
G01 X99.0792 Y-34.7096
G01 X99.0895 Y-34.7088
G01 X99.0995 Y-34.7066
G01 X99.1091 Y-34.7029
G01 X99.1181 Y-34.6978
G01 X99.1262 Y-34.6915
G01 X99.1333 Y-34.6840
G01 X99.1392 Y-34.6756
G01 X99.1451 Y-34.6632
G01 X99.1484 Y-34.6499
G01 X99.1492 Y-34.6396
G01 X99.1492 Y-0.0396
G01 X99.1484 Y-0.0293
G01 X99.1462 Y-0.0193
G01 X99.1425 Y-0.0097
G01 X99.1374 Y-0.0007
G01 X99.1311 Y0.0074
G01 X99.1236 Y0.0145
G01 X99.1122 Y0.0221
G01 X99.1028 Y0.0263
G01 X99.0895 Y0.0296
G01 X99.0792 Y0.0304
G01 X0.0792 Y0.0304
G01 X0.0655 Y0.0291
G01 X0.0524 Y0.0251
G01 X0.0403 Y0.0186
G01 X0.0297 Y0.0099
G01 X0.0210 Y-0.0007
G01 X0.0145 Y-0.0128
G01 X0.0105 Y-0.0259
G01 X0.0092 Y-0.0396
G00 X0.0092 Y-0.0396
G01 F80.00
G01 Z-0.0560
G01 F50.00
G01 X0.0092 Y-34.6396
G01 X0.0100 Y-34.6499
G01 X0.0122 Y-34.6599
G01 X0.0175 Y-34.6726
G01 X0.0230 Y-34.6813
G01 X0.0297 Y-34.6891
G01 X0.0375 Y-34.6958
G01 X0.0462 Y-34.7013
G01 X0.0556 Y-34.7055
G01 X0.0655 Y-34.7083
G01 X0.0792 Y-34.7096
G01 X99.0792 Y-34.7096
G01 X99.0895 Y-34.7088
G01 X99.0995 Y-34.7066
G01 X99.1091 Y-34.7029
G01 X99.1181 Y-34.6978
G01 X99.1262 Y-34.6915
G01 X99.1333 Y-34.6840
G01 X99.1392 Y-34.6756
G01 X99.1451 Y-34.6632
G01 X99.1484 Y-34.6499
G01 X99.1492 Y-34.6396
G01 X99.1492 Y-0.0396
G01 X99.1484 Y-0.0293
G01 X99.1462 Y-0.0193
G01 X99.1425 Y-0.0097
G01 X99.1374 Y-0.0007
G01 X99.1311 Y0.0074
G01 X99.1236 Y0.0145
G01 X99.1122 Y0.0221
G01 X99.1028 Y0.0263
G01 X99.0895 Y0.0296
G01 X99.0792 Y0.0304
G01 X0.0792 Y0.0304
G01 X0.0655 Y0.0291
G01 X0.0524 Y0.0251
G01 X0.0403 Y0.0186
G01 X0.0297 Y0.0099
G01 X0.0210 Y-0.0007
G01 X0.0145 Y-0.0128
G01 X0.0105 Y-0.0259
G01 X0.0092 Y-0.0396
G00 Z1.0000
G00 X-0.0328 Y-0.0396
G01 F80.00
G01 Z-0.0280
G01 F50.00
G01 X-0.0328 Y-34.6396
G01 X-0.0316 Y-34.6560
G01 X-0.0280 Y-34.6721
G01 X-0.0220 Y-34.6875
G01 X-0.0139 Y-34.7018
G01 X-0.0038 Y-34.7148
G01 X0.0081 Y-34.7262
G01 X0.0170 Y-34.7327
G01 X0.0264 Y-34.7384
G01 X0.0415 Y-34.7451
G01 X0.0573 Y-34.7494
G01 X0.0682 Y-34.7511
G01 X0.0792 Y-34.7516
G01 X99.0792 Y-34.7516
G01 X99.0902 Y-34.7511
G01 X99.1011 Y-34.7494
G01 X99.1169 Y-34.7451
G01 X99.1320 Y-34.7384
G01 X99.1459 Y-34.7296
G01 X99.1584 Y-34.7188
G01 X99.1692 Y-34.7063
G01 X99.1780 Y-34.6924
G01 X99.1847 Y-34.6773
G01 X99.1878 Y-34.6668
G01 X99.1900 Y-34.6560
G01 X99.1912 Y-34.6396
G01 X99.1912 Y-0.0396
G01 X99.1900 Y-0.0232
G01 X99.1864 Y-0.0071
G01 X99.1804 Y0.0083
G01 X99.1723 Y0.0226
G01 X99.1622 Y0.0356
G01 X99.1544 Y0.0434
G01 X99.1459 Y0.0504
G01 X99.1320 Y0.0592
G01 X99.1169 Y0.0659
G01 X99.1064 Y0.0690
G01 X99.0956 Y0.0712
G01 X99.0792 Y0.0724
G01 X0.0792 Y0.0724
G01 X0.0682 Y0.0719
G01 X0.0573 Y0.0702
G01 X0.0467 Y0.0676
G01 X0.0363 Y0.0639
G01 X0.0264 Y0.0592
G01 X0.0170 Y0.0535
G01 X0.0081 Y0.0470
G01 X0.0000 Y0.0396
G01 X-0.0074 Y0.0315
G01 X-0.0139 Y0.0226
G01 X-0.0196 Y0.0132
G01 X-0.0243 Y0.0033
G01 X-0.0280 Y-0.0071
G01 X-0.0306 Y-0.0177
G01 X-0.0323 Y-0.0286
G01 X-0.0328 Y-0.0396
G00 X-0.0328 Y-0.0396
G01 F80.00
G01 Z-0.0560
G01 F50.00
G01 X-0.0328 Y-34.6396
G01 X-0.0316 Y-34.6560
G01 X-0.0280 Y-34.6721
G01 X-0.0220 Y-34.6875
G01 X-0.0139 Y-34.7018
G01 X-0.0038 Y-34.7148
G01 X0.0081 Y-34.7262
G01 X0.0170 Y-34.7327
G01 X0.0264 Y-34.7384
G01 X0.0415 Y-34.7451
G01 X0.0573 Y-34.7494
G01 X0.0682 Y-34.7511
G01 X0.0792 Y-34.7516
G01 X99.0792 Y-34.7516
G01 X99.0902 Y-34.7511
G01 X99.1011 Y-34.7494
G01 X99.1169 Y-34.7451
G01 X99.1320 Y-34.7384
G01 X99.1459 Y-34.7296
G01 X99.1584 Y-34.7188
G01 X99.1692 Y-34.7063
G01 X99.1780 Y-34.6924
G01 X99.1847 Y-34.6773
G01 X99.1878 Y-34.6668
G01 X99.1900 Y-34.6560
G01 X99.1912 Y-34.6396
G01 X99.1912 Y-0.0396
G01 X99.1900 Y-0.0232
G01 X99.1864 Y-0.0071
G01 X99.1804 Y0.0083
G01 X99.1723 Y0.0226
G01 X99.1622 Y0.0356
G01 X99.1544 Y0.0434
G01 X99.1459 Y0.0504
G01 X99.1320 Y0.0592
G01 X99.1169 Y0.0659
G01 X99.1064 Y0.0690
G01 X99.0956 Y0.0712
G01 X99.0792 Y0.0724
G01 X0.0792 Y0.0724
G01 X0.0682 Y0.0719
G01 X0.0573 Y0.0702
G01 X0.0467 Y0.0676
G01 X0.0363 Y0.0639
G01 X0.0264 Y0.0592
G01 X0.0170 Y0.0535
G01 X0.0081 Y0.0470
G01 X0.0000 Y0.0396
G01 X-0.0074 Y0.0315
G01 X-0.0139 Y0.0226
G01 X-0.0196 Y0.0132
G01 X-0.0243 Y0.0033
G01 X-0.0280 Y-0.0071
G01 X-0.0306 Y-0.0177
G01 X-0.0323 Y-0.0286
G01 X-0.0328 Y-0.0396
G00 Z1.0000
G00 X-0.0748 Y-0.0396
G01 F80.00
G01 Z-0.0280
G01 F50.00
G01 X-0.0748 Y-34.6396
G01 X-0.0731 Y-34.6622
G01 X-0.0682 Y-34.6843
G01 X-0.0600 Y-34.7054
G01 X-0.0488 Y-34.7252
G01 X-0.0349 Y-34.7430
G01 X-0.0242 Y-34.7537
G01 X-0.0125 Y-34.7633
G01 X0.0066 Y-34.7754
G01 X0.0273 Y-34.7846
G01 X0.0418 Y-34.7890
G01 X0.0566 Y-34.7919
G01 X0.0792 Y-34.7936
G01 X99.0792 Y-34.7936
G01 X99.1018 Y-34.7919
G01 X99.1239 Y-34.7870
G01 X99.1450 Y-34.7788
G01 X99.1648 Y-34.7676
G01 X99.1826 Y-34.7537
G01 X99.1982 Y-34.7373
G01 X99.2113 Y-34.7188
G01 X99.2184 Y-34.7054
G01 X99.2242 Y-34.6915
G01 X99.2302 Y-34.6696
G01 X99.2325 Y-34.6547
G01 X99.2332 Y-34.6396
G01 X99.2332 Y-0.0396
G01 X99.2325 Y-0.0245
G01 X99.2302 Y-0.0096
G01 X99.2242 Y0.0123
G01 X99.2150 Y0.0330
G01 X99.2029 Y0.0521
G01 X99.1881 Y0.0693
G01 X99.1709 Y0.0841
G01 X99.1518 Y0.0962
G01 X99.1311 Y0.1054
G01 X99.1166 Y0.1098
G01 X99.1018 Y0.1127
G01 X99.0792 Y0.1144
G01 X0.0792 Y0.1144
G01 X0.0641 Y0.1137
G01 X0.0492 Y0.1114
G01 X0.0345 Y0.1078
G01 X0.0203 Y0.1027
G01 X0.0066 Y0.0962
G01 X-0.0064 Y0.0884
G01 X-0.0185 Y0.0794
G01 X-0.0297 Y0.0693
G01 X-0.0398 Y0.0581
G01 X-0.0488 Y0.0460
G01 X-0.0566 Y0.0330
G01 X-0.0631 Y0.0193
G01 X-0.0682 Y0.0051
G01 X-0.0718 Y-0.0096
G01 X-0.0741 Y-0.0245
G01 X-0.0748 Y-0.0396
G00 X-0.0748 Y-0.0396
G01 F80.00
G01 Z-0.0560
G01 F50.00
G01 X-0.0748 Y-34.6396
G01 X-0.0731 Y-34.6622
G01 X-0.0682 Y-34.6843
G01 X-0.0600 Y-34.7054
G01 X-0.0488 Y-34.7252
G01 X-0.0349 Y-34.7430
G01 X-0.0242 Y-34.7537
G01 X-0.0125 Y-34.7633
G01 X0.0066 Y-34.7754
G01 X0.0273 Y-34.7846
G01 X0.0418 Y-34.7890
G01 X0.0566 Y-34.7919
G01 X0.0792 Y-34.7936
G01 X99.0792 Y-34.7936
G01 X99.1018 Y-34.7919
G01 X99.1239 Y-34.7870
G01 X99.1450 Y-34.7788
G01 X99.1648 Y-34.7676
G01 X99.1826 Y-34.7537
G01 X99.1982 Y-34.7373
G01 X99.2113 Y-34.7188
G01 X99.2184 Y-34.7054
G01 X99.2242 Y-34.6915
G01 X99.2302 Y-34.6696
G01 X99.2325 Y-34.6547
G01 X99.2332 Y-34.6396
G01 X99.2332 Y-0.0396
G01 X99.2325 Y-0.0245
G01 X99.2302 Y-0.0096
G01 X99.2242 Y0.0123
G01 X99.2150 Y0.0330
G01 X99.2029 Y0.0521
G01 X99.1881 Y0.0693
G01 X99.1709 Y0.0841
G01 X99.1518 Y0.0962
G01 X99.1311 Y0.1054
G01 X99.1166 Y0.1098
G01 X99.1018 Y0.1127
G01 X99.0792 Y0.1144
G01 X0.0792 Y0.1144
G01 X0.0641 Y0.1137
G01 X0.0492 Y0.1114
G01 X0.0345 Y0.1078
G01 X0.0203 Y0.1027
G01 X0.0066 Y0.0962
G01 X-0.0064 Y0.0884
G01 X-0.0185 Y0.0794
G01 X-0.0297 Y0.0693
G01 X-0.0398 Y0.0581
G01 X-0.0488 Y0.0460
G01 X-0.0566 Y0.0330
G01 X-0.0631 Y0.0193
G01 X-0.0682 Y0.0051
G01 X-0.0718 Y-0.0096
G01 X-0.0741 Y-0.0245
G01 X-0.0748 Y-0.0396
G00 Z1.0000
G00 X-0.1168 Y-0.0396
G01 F80.00
G01 Z-0.0280
G01 F50.00
G01 X-0.1168 Y-34.6396
G01 X-0.1147 Y-34.6684
G01 X-0.1084 Y-34.6965
G01 X-0.0980 Y-34.7234
G01 X-0.0838 Y-34.7485
G01 X-0.0660 Y-34.7712
G01 X-0.0524 Y-34.7848
G01 X-0.0376 Y-34.7970
G01 X-0.0132 Y-34.8125
G01 X0.0132 Y-34.8241
G01 X0.0410 Y-34.8318
G01 X0.0600 Y-34.8347
G01 X0.0792 Y-34.8356
G01 X99.0792 Y-34.8356
G01 X99.0984 Y-34.8347
G01 X99.1174 Y-34.8318
G01 X99.1452 Y-34.8241
G01 X99.1716 Y-34.8125
G01 X99.1960 Y-34.7970
G01 X99.2178 Y-34.7782
G01 X99.2366 Y-34.7564
G01 X99.2521 Y-34.7320
G01 X99.2637 Y-34.7056
G01 X99.2714 Y-34.6778
G01 X99.2743 Y-34.6588
G01 X99.2752 Y-34.6396
G01 X99.2752 Y-0.0396
G01 X99.2731 Y-0.0108
G01 X99.2668 Y0.0173
G01 X99.2564 Y0.0442
G01 X99.2473 Y0.0612
G01 X99.2366 Y0.0772
G01 X99.2178 Y0.0990
G01 X99.1960 Y0.1178
G01 X99.1716 Y0.1333
G01 X99.1452 Y0.1449
G01 X99.1174 Y0.1526
G01 X99.0984 Y0.1555
G01 X99.0792 Y0.1564
G01 X0.0792 Y0.1564
G01 X0.0600 Y0.1555
G01 X0.0410 Y0.1526
G01 X0.0223 Y0.1480
G01 X0.0042 Y0.1415
G01 X-0.0132 Y0.1333
G01 X-0.0297 Y0.1234
G01 X-0.0451 Y0.1119
G01 X-0.0594 Y0.0990
G01 X-0.0723 Y0.0847
G01 X-0.0838 Y0.0693
G01 X-0.0937 Y0.0528
G01 X-0.1019 Y0.0354
G01 X-0.1084 Y0.0173
G01 X-0.1130 Y-0.0014
G01 X-0.1159 Y-0.0204
G01 X-0.1168 Y-0.0396
G00 X-0.1168 Y-0.0396
G01 F80.00
G01 Z-0.0560
G01 F50.00
G01 X-0.1168 Y-34.6396
G01 X-0.1147 Y-34.6684
G01 X-0.1084 Y-34.6965
G01 X-0.0980 Y-34.7234
G01 X-0.0838 Y-34.7485
G01 X-0.0660 Y-34.7712
G01 X-0.0524 Y-34.7848
G01 X-0.0376 Y-34.7970
G01 X-0.0132 Y-34.8125
G01 X0.0132 Y-34.8241
G01 X0.0410 Y-34.8318
G01 X0.0600 Y-34.8347
G01 X0.0792 Y-34.8356
G01 X99.0792 Y-34.8356
G01 X99.0984 Y-34.8347
G01 X99.1174 Y-34.8318
G01 X99.1452 Y-34.8241
G01 X99.1716 Y-34.8125
G01 X99.1960 Y-34.7970
G01 X99.2178 Y-34.7782
G01 X99.2366 Y-34.7564
G01 X99.2521 Y-34.7320
G01 X99.2637 Y-34.7056
G01 X99.2714 Y-34.6778
G01 X99.2743 Y-34.6588
G01 X99.2752 Y-34.6396
G01 X99.2752 Y-0.0396
G01 X99.2731 Y-0.0108
G01 X99.2668 Y0.0173
G01 X99.2564 Y0.0442
G01 X99.2473 Y0.0612
G01 X99.2366 Y0.0772
G01 X99.2178 Y0.0990
G01 X99.1960 Y0.1178
G01 X99.1716 Y0.1333
G01 X99.1452 Y0.1449
G01 X99.1174 Y0.1526
G01 X99.0984 Y0.1555
G01 X99.0792 Y0.1564
G01 X0.0792 Y0.1564
G01 X0.0600 Y0.1555
G01 X0.0410 Y0.1526
G01 X0.0223 Y0.1480
G01 X0.0042 Y0.1415
G01 X-0.0132 Y0.1333
G01 X-0.0297 Y0.1234
G01 X-0.0451 Y0.1119
G01 X-0.0594 Y0.0990
G01 X-0.0723 Y0.0847
G01 X-0.0838 Y0.0693
G01 X-0.0937 Y0.0528
G01 X-0.1019 Y0.0354
G01 X-0.1084 Y0.0173
G01 X-0.1130 Y-0.0014
G01 X-0.1159 Y-0.0204
G01 X-0.1168 Y-0.0396
G00 Z1.0000
G00 X-0.1588 Y-0.0396
G01 F80.00
G01 Z-0.0280
G01 F50.00
G01 X-0.1588 Y-34.6396
G01 X-0.1577 Y-34.6629
G01 X-0.1542 Y-34.6860
G01 X-0.1517 Y-34.6974
G01 X-0.1449 Y-34.7198
G01 X-0.1407 Y-34.7307
G01 X-0.1307 Y-34.7518
G01 X-0.1187 Y-34.7718
G01 X-0.1120 Y-34.7814
G01 X-0.1048 Y-34.7906
G01 X-0.0891 Y-34.8079
G01 X-0.0718 Y-34.8236
G01 X-0.0626 Y-34.8308
G01 X-0.0530 Y-34.8375
G01 X-0.0330 Y-34.8495
G01 X-0.0226 Y-34.8547
G01 X-0.0010 Y-34.8637
G01 X0.0214 Y-34.8705
G01 X0.0443 Y-34.8750
G01 X0.0559 Y-34.8765
G01 X0.0792 Y-34.8776
G01 X99.0792 Y-34.8776
G01 X99.1025 Y-34.8765
G01 X99.1141 Y-34.8750
G01 X99.1370 Y-34.8705
G01 X99.1483 Y-34.8674
G01 X99.1703 Y-34.8595
G01 X99.1810 Y-34.8547
G01 X99.2016 Y-34.8437
G01 X99.2114 Y-34.8375
G01 X99.2302 Y-34.8236
G01 X99.2390 Y-34.8159
G01 X99.2475 Y-34.8079
G01 X99.2632 Y-34.7906
G01 X99.2771 Y-34.7718
G01 X99.2891 Y-34.7518
G01 X99.2943 Y-34.7414
G01 X99.3033 Y-34.7198
G01 X99.3101 Y-34.6974
G01 X99.3146 Y-34.6745
G01 X99.3169 Y-34.6513
G01 X99.3172 Y-34.6396
G01 X99.3172 Y-0.0396
G01 X99.3169 Y-0.0279
G01 X99.3146 Y-0.0047
G01 X99.3101 Y0.0182
G01 X99.3070 Y0.0295
G01 X99.2991 Y0.0515
G01 X99.2891 Y0.0726
G01 X99.2771 Y0.0926
G01 X99.2704 Y0.1022
G01 X99.2632 Y0.1114
G01 X99.2475 Y0.1287
G01 X99.2302 Y0.1444
G01 X99.2210 Y0.1516
G01 X99.2016 Y0.1645
G01 X99.1914 Y0.1703
G01 X99.1703 Y0.1803
G01 X99.1594 Y0.1845
G01 X99.1370 Y0.1913
G01 X99.1256 Y0.1938
G01 X99.1025 Y0.1973
G01 X99.0792 Y0.1984
G01 X0.0792 Y0.1984
G01 X0.0559 Y0.1973
G01 X0.0328 Y0.1938
G01 X0.0101 Y0.1882
G01 X-0.0119 Y0.1803
G01 X-0.0330 Y0.1703
G01 X-0.0530 Y0.1583
G01 X-0.0718 Y0.1444
G01 X-0.0891 Y0.1287
G01 X-0.1048 Y0.1114
G01 X-0.1187 Y0.0926
G01 X-0.1307 Y0.0726
G01 X-0.1407 Y0.0515
G01 X-0.1486 Y0.0295
G01 X-0.1542 Y0.0068
G01 X-0.1577 Y-0.0163
G01 X-0.1588 Y-0.0396
G00 X-0.1588 Y-0.0396
G01 F80.00
G01 Z-0.0560
G01 F50.00
G01 X-0.1588 Y-34.6396
G01 X-0.1577 Y-34.6629
G01 X-0.1542 Y-34.6860
G01 X-0.1517 Y-34.6974
G01 X-0.1449 Y-34.7198
G01 X-0.1407 Y-34.7307
G01 X-0.1307 Y-34.7518
G01 X-0.1187 Y-34.7718
G01 X-0.1120 Y-34.7814
G01 X-0.1048 Y-34.7906
G01 X-0.0891 Y-34.8079
G01 X-0.0718 Y-34.8236
G01 X-0.0626 Y-34.8308
G01 X-0.0530 Y-34.8375
G01 X-0.0330 Y-34.8495
G01 X-0.0226 Y-34.8547
G01 X-0.0010 Y-34.8637
G01 X0.0214 Y-34.8705
G01 X0.0443 Y-34.8750
G01 X0.0559 Y-34.8765
G01 X0.0792 Y-34.8776
G01 X99.0792 Y-34.8776
G01 X99.1025 Y-34.8765
G01 X99.1141 Y-34.8750
G01 X99.1370 Y-34.8705
G01 X99.1483 Y-34.8674
G01 X99.1703 Y-34.8595
G01 X99.1810 Y-34.8547
G01 X99.2016 Y-34.8437
G01 X99.2114 Y-34.8375
G01 X99.2302 Y-34.8236
G01 X99.2390 Y-34.8159
G01 X99.2475 Y-34.8079
G01 X99.2632 Y-34.7906
G01 X99.2771 Y-34.7718
G01 X99.2891 Y-34.7518
G01 X99.2943 Y-34.7414
G01 X99.3033 Y-34.7198
G01 X99.3101 Y-34.6974
G01 X99.3146 Y-34.6745
G01 X99.3169 Y-34.6513
G01 X99.3172 Y-34.6396
G01 X99.3172 Y-0.0396
G01 X99.3169 Y-0.0279
G01 X99.3146 Y-0.0047
G01 X99.3101 Y0.0182
G01 X99.3070 Y0.0295
G01 X99.2991 Y0.0515
G01 X99.2891 Y0.0726
G01 X99.2771 Y0.0926
G01 X99.2704 Y0.1022
G01 X99.2632 Y0.1114
G01 X99.2475 Y0.1287
G01 X99.2302 Y0.1444
G01 X99.2210 Y0.1516
G01 X99.2016 Y0.1645
G01 X99.1914 Y0.1703
G01 X99.1703 Y0.1803
G01 X99.1594 Y0.1845
G01 X99.1370 Y0.1913
G01 X99.1256 Y0.1938
G01 X99.1025 Y0.1973
G01 X99.0792 Y0.1984
G01 X0.0792 Y0.1984
G01 X0.0559 Y0.1973
G01 X0.0328 Y0.1938
G01 X0.0101 Y0.1882
G01 X-0.0119 Y0.1803
G01 X-0.0330 Y0.1703
G01 X-0.0530 Y0.1583
G01 X-0.0718 Y0.1444
G01 X-0.0891 Y0.1287
G01 X-0.1048 Y0.1114
G01 X-0.1187 Y0.0926
G01 X-0.1307 Y0.0726
G01 X-0.1407 Y0.0515
G01 X-0.1486 Y0.0295
G01 X-0.1542 Y0.0068
G01 X-0.1577 Y-0.0163
G01 X-0.1588 Y-0.0396
G00 Z1.0000
G00 X1.1989 Y-1.0892
G01 F80.00
G01 Z-0.0280
G01 F50.00
G01 X0.8669 Y-1.4213
G01 X0.8644 Y-1.4246
G01 X0.8635 Y-1.4287
G01 X0.8651 Y-1.4340
G01 X0.8694 Y-1.4375
G01 X0.8749 Y-1.4380
G01 X0.8794 Y-1.4358
G01 X1.0773 Y-1.2379
G01 X1.0851 Y-1.2311
G01 X1.0938 Y-1.2256
G01 X1.1064 Y-1.2204
G01 X1.1199 Y-1.2177
G01 X1.1336 Y-1.2177
G01 X1.1471 Y-1.2204
G01 X1.1598 Y-1.2256
G01 X1.1712 Y-1.2333
G01 X1.1809 Y-1.2430
G01 X1.1868 Y-1.2514
G01 X1.1900 Y-1.2574
G01 X1.1937 Y-1.2670
G01 X1.1960 Y-1.2771
G01 X1.1968 Y-1.2874
G01 X1.1968 Y-1.9847
G01 X1.1977 Y-1.9883
G01 X1.1996 Y-1.9909
G01 X1.2027 Y-1.9930
G01 X1.2063 Y-1.9937
G01 X1.2099 Y-1.9930
G01 X1.2134 Y-1.9906
G01 X1.2153 Y-1.9874
G01 X1.2158 Y-1.9833
G01 X1.2158 Y-1.0962
G01 X1.2145 Y-1.0904
G01 X1.2099 Y-1.0865
G01 X1.2040 Y-1.0861
G01 X1.1989 Y-1.0892
G00 X1.1989 Y-1.0892
G01 F80.00
G01 Z-0.0560
G01 F50.00
G01 X0.8669 Y-1.4213
G01 X0.8644 Y-1.4246
G01 X0.8635 Y-1.4287
G01 X0.8651 Y-1.4340
G01 X0.8694 Y-1.4375
G01 X0.8749 Y-1.4380
G01 X0.8794 Y-1.4358
G01 X1.0773 Y-1.2379
G01 X1.0851 Y-1.2311
G01 X1.0938 Y-1.2256
G01 X1.1064 Y-1.2204
G01 X1.1199 Y-1.2177
G01 X1.1336 Y-1.2177
G01 X1.1471 Y-1.2204
G01 X1.1598 Y-1.2256
G01 X1.1712 Y-1.2333
G01 X1.1809 Y-1.2430
G01 X1.1868 Y-1.2514
G01 X1.1900 Y-1.2574
G01 X1.1937 Y-1.2670
G01 X1.1960 Y-1.2771
G01 X1.1968 Y-1.2874
G01 X1.1968 Y-1.9847
G01 X1.1977 Y-1.9883
G01 X1.1996 Y-1.9909
G01 X1.2027 Y-1.9930
G01 X1.2063 Y-1.9937
G01 X1.2099 Y-1.9930
G01 X1.2134 Y-1.9906
G01 X1.2153 Y-1.9874
G01 X1.2158 Y-1.9833
G01 X1.2158 Y-1.0962
G01 X1.2145 Y-1.0904
G01 X1.2099 Y-1.0865
G01 X1.2040 Y-1.0861
G01 X1.1989 Y-1.0892
G00 Z1.0000
G00 X1.1653 Y-1.1822
G01 F80.00
G01 Z-0.0280
G01 F50.00
G01 X1.1738 Y-1.1858
G01 X1.1738 Y-1.1737
G01 X1.1653 Y-1.1822
G00 X1.1653 Y-1.1822
G01 F80.00
G01 Z-0.0560
G01 F50.00
G01 X1.1738 Y-1.1858
G01 X1.1738 Y-1.1737
G01 X1.1653 Y-1.1822
G00 Z1.0000
G00 X1.5754 Y-1.1467
G01 F80.00
G01 Z-0.0280
G01 F50.00
G01 X1.5088 Y-1.2579
G01 X1.5079 Y-1.2615
G01 X1.5084 Y-1.2652
G01 X1.5103 Y-1.2684
G01 X1.5133 Y-1.2706
G01 X1.5165 Y-1.2715
G01 X1.5197 Y-1.2712
G01 X1.5227 Y-1.2699
G01 X1.5250 Y-1.2677
G01 X1.5806 Y-1.1754
G01 X1.5869 Y-1.1673
G01 X1.5943 Y-1.1602
G01 X1.6027 Y-1.1543
G01 X1.6118 Y-1.1496
G01 X1.7064 Y-1.1102
G01 X1.7196 Y-1.1062
G01 X1.7333 Y-1.1048
G01 X1.8348 Y-1.1048
G01 X1.8417 Y-1.1052
G01 X1.8519 Y-1.1070
G01 X1.8617 Y-1.1102
G01 X1.9593 Y-1.1510
G01 X1.9682 Y-1.1561
G01 X1.9737 Y-1.1602
G01 X1.9788 Y-1.1648
G01 X1.9855 Y-1.1725
G01 X2.0329 Y-1.2510
G01 X2.0371 Y-1.2604
G01 X2.0391 Y-1.2670
G01 X2.0404 Y-1.2738
G01 X2.0412 Y-1.2840
G01 X2.0411 Y-1.3545
G01 X2.0398 Y-1.3647
G01 X2.0358 Y-1.3779
G01 X2.0312 Y-1.3871
G01 X1.9874 Y-1.4598
G01 X1.9811 Y-1.4678
G01 X1.9737 Y-1.4749
G01 X1.9653 Y-1.4808
G01 X1.9562 Y-1.4855
G01 X1.8466 Y-1.5312
G01 X1.8425 Y-1.5349
G01 X1.8412 Y-1.5407
G01 X1.8428 Y-1.5451
G01 X1.8466 Y-1.5484
G01 X1.9624 Y-1.5970
G01 X1.9682 Y-1.6005
G01 X1.9763 Y-1.6068
G01 X1.9855 Y-1.6170
G01 X2.0312 Y-1.6924
G01 X2.0358 Y-1.7016
G01 X2.0381 Y-1.7081
G01 X2.0404 Y-1.7182
G01 X2.0411 Y-1.7250
G01 X2.0408 Y-1.8023
G01 X2.0391 Y-1.8125
G01 X2.0371 Y-1.8191
G01 X2.0312 Y-1.8315
G01 X1.9875 Y-1.9042
G01 X1.9811 Y-1.9123
G01 X1.9737 Y-1.9194
G01 X1.9653 Y-1.9253
G01 X1.9562 Y-1.9300
G01 X1.8617 Y-1.9693
G01 X1.8485 Y-1.9733
G01 X1.8383 Y-1.9746
G01 X1.7333 Y-1.9747
G01 X1.7196 Y-1.9733
G01 X1.7064 Y-1.9693
G01 X1.6087 Y-1.9286
G01 X1.6027 Y-1.9253
G01 X1.5943 Y-1.9194
G01 X1.5892 Y-1.9148
G01 X1.5825 Y-1.9070
G01 X1.5245 Y-1.8111
G01 X1.5215 Y-1.8089
G01 X1.5183 Y-1.8080
G01 X1.5146 Y-1.8084
G01 X1.5117 Y-1.8099
G01 X1.5095 Y-1.8122
G01 X1.5082 Y-1.8152
G01 X1.5080 Y-1.8189
G01 X1.5090 Y-1.8220
G01 X1.5754 Y-1.9329
G01 X1.5780 Y-1.9361
G01 X1.7151 Y-1.9934
G01 X1.8526 Y-1.9935
G01 X1.9885 Y-1.9371
G01 X1.9926 Y-1.9329
G01 X2.0584 Y-1.8231
G01 X2.0602 Y-1.8184
G01 X2.0598 Y-1.7036
G01 X1.9926 Y-1.5911
G01 X1.9857 Y-1.5828
G01 X1.9800 Y-1.5742
G01 X1.9769 Y-1.5681
G01 X1.9734 Y-1.5584
G01 X1.9714 Y-1.5483
G01 X1.9709 Y-1.5415
G01 X1.9711 Y-1.5346
G01 X1.9726 Y-1.5244
G01 X1.9756 Y-1.5146
G01 X1.9800 Y-1.5053
G01 X1.9857 Y-1.4967
G01 X1.9926 Y-1.4884
G01 X2.0598 Y-1.3759
G01 X2.0602 Y-1.2629
G01 X2.0591 Y-1.2575
G01 X1.9926 Y-1.1467
G01 X1.9900 Y-1.1435
G01 X1.8530 Y-1.0861
G01 X1.7155 Y-1.0860
G01 X1.5811 Y-1.1418
G01 X1.5780 Y-1.1435
G01 X1.5754 Y-1.1467
G00 X1.5754 Y-1.1467
G01 F80.00
G01 Z-0.0560
G01 F50.00
G01 X1.5088 Y-1.2579
G01 X1.5079 Y-1.2615
G01 X1.5084 Y-1.2652
G01 X1.5103 Y-1.2684
G01 X1.5133 Y-1.2706
G01 X1.5165 Y-1.2715
G01 X1.5197 Y-1.2712
G01 X1.5227 Y-1.2699
G01 X1.5250 Y-1.2677
G01 X1.5806 Y-1.1754
G01 X1.5869 Y-1.1673
G01 X1.5943 Y-1.1602
G01 X1.6027 Y-1.1543
G01 X1.6118 Y-1.1496
G01 X1.7064 Y-1.1102
G01 X1.7196 Y-1.1062
G01 X1.7333 Y-1.1048
G01 X1.8348 Y-1.1048
G01 X1.8417 Y-1.1052
G01 X1.8519 Y-1.1070
G01 X1.8617 Y-1.1102
G01 X1.9593 Y-1.1510
G01 X1.9682 Y-1.1561
G01 X1.9737 Y-1.1602
G01 X1.9788 Y-1.1648
G01 X1.9855 Y-1.1725
G01 X2.0329 Y-1.2510
G01 X2.0371 Y-1.2604
G01 X2.0391 Y-1.2670
G01 X2.0404 Y-1.2738
G01 X2.0412 Y-1.2840
G01 X2.0411 Y-1.3545
G01 X2.0398 Y-1.3647
G01 X2.0358 Y-1.3779
G01 X2.0312 Y-1.3871
G01 X1.9874 Y-1.4598
G01 X1.9811 Y-1.4678
G01 X1.9737 Y-1.4749
G01 X1.9653 Y-1.4808
G01 X1.9562 Y-1.4855
G01 X1.8466 Y-1.5312
G01 X1.8425 Y-1.5349
G01 X1.8412 Y-1.5407
G01 X1.8428 Y-1.5451
G01 X1.8466 Y-1.5484
G01 X1.9624 Y-1.5970
G01 X1.9682 Y-1.6005
G01 X1.9763 Y-1.6068
G01 X1.9855 Y-1.6170
G01 X2.0312 Y-1.6924
G01 X2.0358 Y-1.7016
G01 X2.0381 Y-1.7081
G01 X2.0404 Y-1.7182
G01 X2.0411 Y-1.7250
G01 X2.0408 Y-1.8023
G01 X2.0391 Y-1.8125
G01 X2.0371 Y-1.8191
G01 X2.0312 Y-1.8315
G01 X1.9875 Y-1.9042
G01 X1.9811 Y-1.9123
G01 X1.9737 Y-1.9194
G01 X1.9653 Y-1.9253
G01 X1.9562 Y-1.9300
G01 X1.8617 Y-1.9693
G01 X1.8485 Y-1.9733
G01 X1.8383 Y-1.9746
G01 X1.7333 Y-1.9747
G01 X1.7196 Y-1.9733
G01 X1.7064 Y-1.9693
G01 X1.6087 Y-1.9286
G01 X1.6027 Y-1.9253
G01 X1.5943 Y-1.9194
G01 X1.5892 Y-1.9148
G01 X1.5825 Y-1.9070
G01 X1.5245 Y-1.8111
G01 X1.5215 Y-1.8089
G01 X1.5183 Y-1.8080
G01 X1.5146 Y-1.8084
G01 X1.5117 Y-1.8099
G01 X1.5095 Y-1.8122
G01 X1.5082 Y-1.8152
G01 X1.5080 Y-1.8189
G01 X1.5090 Y-1.8220
G01 X1.5754 Y-1.9329
G01 X1.5780 Y-1.9361
G01 X1.7151 Y-1.9934
G01 X1.8526 Y-1.9935
G01 X1.9885 Y-1.9371
G01 X1.9926 Y-1.9329
G01 X2.0584 Y-1.8231
G01 X2.0602 Y-1.8184
G01 X2.0598 Y-1.7036
G01 X1.9926 Y-1.5911
G01 X1.9857 Y-1.5828
G01 X1.9800 Y-1.5742
G01 X1.9769 Y-1.5681
G01 X1.9734 Y-1.5584
G01 X1.9714 Y-1.5483
G01 X1.9709 Y-1.5415
G01 X1.9711 Y-1.5346
G01 X1.9726 Y-1.5244
G01 X1.9756 Y-1.5146
G01 X1.9800 Y-1.5053
G01 X1.9857 Y-1.4967
G01 X1.9926 Y-1.4884
G01 X2.0598 Y-1.3759
G01 X2.0602 Y-1.2629
G01 X2.0591 Y-1.2575
G01 X1.9926 Y-1.1467
G01 X1.9900 Y-1.1435
G01 X1.8530 Y-1.0861
G01 X1.7155 Y-1.0860
G01 X1.5811 Y-1.1418
G01 X1.5780 Y-1.1435
G01 X1.5754 Y-1.1467
G00 Z1.0000
G00 X2.8756 Y-1.2480
G01 F80.00
G01 Z-0.0280
G01 F50.00
G01 X2.8318 Y-1.1753
G01 X2.8255 Y-1.1673
G01 X2.8154 Y-1.1581
G01 X2.8068 Y-1.1526
G01 X2.8006 Y-1.1496
G01 X2.7061 Y-1.1102
G01 X2.6996 Y-1.1079
G01 X2.6895 Y-1.1056
G01 X2.6792 Y-1.1048
G01 X2.5777 Y-1.1048
G01 X2.5708 Y-1.1052
G01 X2.5606 Y-1.1070
G01 X2.5508 Y-1.1102
G01 X2.4531 Y-1.1510
G01 X2.4442 Y-1.1561
G01 X2.4387 Y-1.1602
G01 X2.4313 Y-1.1673
G01 X2.4250 Y-1.1754
G01 X2.3796 Y-1.2510
G01 X2.3744 Y-1.2637
G01 X2.3717 Y-1.2772
G01 X2.3714 Y-1.7989
G01 X2.3727 Y-1.8092
G01 X2.3744 Y-1.8158
G01 X2.3767 Y-1.8223
G01 X2.3813 Y-1.8315
G01 X2.4249 Y-1.9042
G01 X2.4336 Y-1.9148
G01 X2.4442 Y-1.9235
G01 X2.4563 Y-1.9300
G01 X2.5508 Y-1.9693
G01 X2.5640 Y-1.9733
G01 X2.5777 Y-1.9747
G01 X2.6827 Y-1.9746
G01 X2.6929 Y-1.9733
G01 X2.7029 Y-1.9705
G01 X2.8037 Y-1.9286
G01 X2.8126 Y-1.9235
G01 X2.8207 Y-1.9172
G01 X2.8255 Y-1.9123
G01 X2.8319 Y-1.9042
G01 X2.8773 Y-1.8285
G01 X2.8825 Y-1.8158
G01 X2.8842 Y-1.8091
G01 X2.8855 Y-1.7989
G01 X2.8856 Y-1.2840
G01 X2.8852 Y-1.2772
G01 X2.8835 Y-1.2670
G01 X2.8802 Y-1.2572
G01 X2.8756 Y-1.2480
G00 X2.8756 Y-1.2480
G01 F80.00
G01 Z-0.0560
G01 F50.00
G01 X2.8318 Y-1.1753
G01 X2.8255 Y-1.1673
G01 X2.8154 Y-1.1581
G01 X2.8068 Y-1.1526
G01 X2.8006 Y-1.1496
G01 X2.7061 Y-1.1102
G01 X2.6996 Y-1.1079
G01 X2.6895 Y-1.1056
G01 X2.6792 Y-1.1048
G01 X2.5777 Y-1.1048
G01 X2.5708 Y-1.1052
G01 X2.5606 Y-1.1070
G01 X2.5508 Y-1.1102
G01 X2.4531 Y-1.1510
G01 X2.4442 Y-1.1561
G01 X2.4387 Y-1.1602
G01 X2.4313 Y-1.1673
G01 X2.4250 Y-1.1754
G01 X2.3796 Y-1.2510
G01 X2.3744 Y-1.2637
G01 X2.3717 Y-1.2772
G01 X2.3714 Y-1.7989
G01 X2.3727 Y-1.8092
G01 X2.3744 Y-1.8158
G01 X2.3767 Y-1.8223
G01 X2.3813 Y-1.8315
G01 X2.4249 Y-1.9042
G01 X2.4336 Y-1.9148
G01 X2.4442 Y-1.9235
G01 X2.4563 Y-1.9300
G01 X2.5508 Y-1.9693
G01 X2.5640 Y-1.9733
G01 X2.5777 Y-1.9747
G01 X2.6827 Y-1.9746
G01 X2.6929 Y-1.9733
G01 X2.7029 Y-1.9705
G01 X2.8037 Y-1.9286
G01 X2.8126 Y-1.9235
G01 X2.8207 Y-1.9172
G01 X2.8255 Y-1.9123
G01 X2.8319 Y-1.9042
G01 X2.8773 Y-1.8285
G01 X2.8825 Y-1.8158
G01 X2.8842 Y-1.8091
G01 X2.8855 Y-1.7989
G01 X2.8856 Y-1.2840
G01 X2.8852 Y-1.2772
G01 X2.8835 Y-1.2670
G01 X2.8802 Y-1.2572
G01 X2.8756 Y-1.2480
G00 Z1.0000
G00 X2.9029 Y-1.2564
G01 F80.00
G01 Z-0.0280
G01 F50.00
G01 X2.8370 Y-1.1467
G01 X2.8344 Y-1.1435
G01 X2.6974 Y-1.0861
G01 X2.5599 Y-1.0860
G01 X2.4255 Y-1.1418
G01 X2.4208 Y-1.1452
G01 X2.3541 Y-1.2564
G01 X2.3523 Y-1.2611
G01 X2.3523 Y-1.8166
G01 X2.3527 Y-1.8203
G01 X2.3541 Y-1.8231
G01 X2.4198 Y-1.9329
G01 X2.4231 Y-1.9366
G01 X2.5599 Y-1.9935
G01 X2.6942 Y-1.9937
G01 X2.6996 Y-1.9927
G01 X2.8313 Y-1.9378
G01 X2.8360 Y-1.9344
G01 X2.9028 Y-1.8231
G01 X2.9046 Y-1.8184
G01 X2.9046 Y-1.2628
G01 X2.9043 Y-1.2597
G01 X2.9029 Y-1.2564
G00 X2.9029 Y-1.2564
G01 F80.00
G01 Z-0.0560
G01 F50.00
G01 X2.8370 Y-1.1467
G01 X2.8344 Y-1.1435
G01 X2.6974 Y-1.0861
G01 X2.5599 Y-1.0860
G01 X2.4255 Y-1.1418
G01 X2.4208 Y-1.1452
G01 X2.3541 Y-1.2564
G01 X2.3523 Y-1.2611
G01 X2.3523 Y-1.8166
G01 X2.3527 Y-1.8203
G01 X2.3541 Y-1.8231
G01 X2.4198 Y-1.9329
G01 X2.4231 Y-1.9366
G01 X2.5599 Y-1.9935
G01 X2.6942 Y-1.9937
G01 X2.6996 Y-1.9927
G01 X2.8313 Y-1.9378
G01 X2.8360 Y-1.9344
G01 X2.9028 Y-1.8231
G01 X2.9046 Y-1.8184
G01 X2.9046 Y-1.2628
G01 X2.9043 Y-1.2597
G01 X2.9029 Y-1.2564
G00 Z1.0000
G00 X3.6157 Y-1.9833
G01 F80.00
G01 Z-0.0280
G01 F50.00
G01 X3.6157 Y-1.4851
G01 X3.6153 Y-1.4814
G01 X3.6136 Y-1.4782
G01 X3.6090 Y-1.4751
G01 X3.6034 Y-1.4751
G01 X3.5988 Y-1.4782
G01 X3.5967 Y-1.4837
G01 X3.5967 Y-1.8466
G01 X3.5953 Y-1.8604
G01 X3.5912 Y-1.8736
G01 X3.5847 Y-1.8858
G01 X3.5489 Y-1.9334
G01 X3.5395 Y-1.9428
G01 X3.5285 Y-1.9503
G01 X3.5162 Y-1.9555
G01 X3.5065 Y-1.9578
G01 X3.4177 Y-1.9726
G01 X3.4045 Y-1.9735
G01 X3.3947 Y-1.9726
G01 X3.3026 Y-1.9572
G01 X3.2930 Y-1.9544
G01 X3.2838 Y-1.9503
G01 X3.2728 Y-1.9428
G01 X3.2634 Y-1.9334
G01 X3.2277 Y-1.8858
G01 X3.2211 Y-1.8736
G01 X3.2171 Y-1.8604
G01 X3.2157 Y-1.8466
G01 X3.2157 Y-1.4837
G01 X3.2141 Y-1.4789
G01 X3.2103 Y-1.4756
G01 X3.2053 Y-1.4747
G01 X3.2002 Y-1.4768
G01 X3.1974 Y-1.4806
G01 X3.1967 Y-1.4851
G01 X3.1968 Y-1.8745
G01 X3.1991 Y-1.8795
G01 X3.2655 Y-1.9681
G01 X3.2682 Y-1.9704
G01 X3.2721 Y-1.9715
G01 X3.4060 Y-1.9937
G01 X3.5456 Y-1.9710
G01 X3.5626 Y-1.9719
G01 X3.5757 Y-1.9756
G01 X3.5879 Y-1.9817
G01 X3.6005 Y-1.9918
G01 X3.6043 Y-1.9935
G01 X3.6090 Y-1.9933
G01 X3.6126 Y-1.9913
G01 X3.6150 Y-1.9878
G01 X3.6157 Y-1.9833
G00 X3.6157 Y-1.9833
G01 F80.00
G01 Z-0.0560
G01 F50.00
G01 X3.6157 Y-1.4851
G01 X3.6153 Y-1.4814
G01 X3.6136 Y-1.4782
G01 X3.6090 Y-1.4751
G01 X3.6034 Y-1.4751
G01 X3.5988 Y-1.4782
G01 X3.5967 Y-1.4837
G01 X3.5967 Y-1.8466
G01 X3.5953 Y-1.8604
G01 X3.5912 Y-1.8736
G01 X3.5847 Y-1.8858
G01 X3.5489 Y-1.9334
G01 X3.5395 Y-1.9428
G01 X3.5285 Y-1.9503
G01 X3.5162 Y-1.9555
G01 X3.5065 Y-1.9578
G01 X3.4177 Y-1.9726
G01 X3.4045 Y-1.9735
G01 X3.3947 Y-1.9726
G01 X3.3026 Y-1.9572
G01 X3.2930 Y-1.9544
G01 X3.2838 Y-1.9503
G01 X3.2728 Y-1.9428
G01 X3.2634 Y-1.9334
G01 X3.2277 Y-1.8858
G01 X3.2211 Y-1.8736
G01 X3.2171 Y-1.8604
G01 X3.2157 Y-1.8466
G01 X3.2157 Y-1.4837
G01 X3.2141 Y-1.4789
G01 X3.2103 Y-1.4756
G01 X3.2053 Y-1.4747
G01 X3.2002 Y-1.4768
G01 X3.1974 Y-1.4806
G01 X3.1967 Y-1.4851
G01 X3.1968 Y-1.8745
G01 X3.1991 Y-1.8795
G01 X3.2655 Y-1.9681
G01 X3.2682 Y-1.9704
G01 X3.2721 Y-1.9715
G01 X3.4060 Y-1.9937
G01 X3.5456 Y-1.9710
G01 X3.5626 Y-1.9719
G01 X3.5757 Y-1.9756
G01 X3.5879 Y-1.9817
G01 X3.6005 Y-1.9918
G01 X3.6043 Y-1.9935
G01 X3.6090 Y-1.9933
G01 X3.6126 Y-1.9913
G01 X3.6150 Y-1.9878
G01 X3.6157 Y-1.9833
G00 Z1.0000
G00 X4.4311 Y-1.2480
G01 F80.00
G01 Z-0.0280
G01 F50.00
G01 X4.3873 Y-1.1753
G01 X4.3787 Y-1.1648
G01 X4.3709 Y-1.1581
G01 X4.3623 Y-1.1526
G01 X4.3561 Y-1.1496
G01 X4.2616 Y-1.1102
G01 X4.2518 Y-1.1070
G01 X4.2450 Y-1.1056
G01 X4.2347 Y-1.1048
G01 X4.1332 Y-1.1048
G01 X4.1229 Y-1.1056
G01 X4.1161 Y-1.1070
G01 X4.1063 Y-1.1102
G01 X4.0086 Y-1.1510
G01 X4.0026 Y-1.1543
G01 X3.9942 Y-1.1602
G01 X3.9868 Y-1.1673
G01 X3.9805 Y-1.1754
G01 X3.9351 Y-1.2510
G01 X3.9299 Y-1.2637
G01 X3.9272 Y-1.2772
G01 X3.9269 Y-1.7989
G01 X3.9282 Y-1.8092
G01 X3.9299 Y-1.8158
G01 X3.9322 Y-1.8223
G01 X3.9368 Y-1.8315
G01 X3.9804 Y-1.9042
G01 X3.9891 Y-1.9148
G01 X3.9997 Y-1.9235
G01 X4.0118 Y-1.9300
G01 X4.1063 Y-1.9693
G01 X4.1195 Y-1.9733
G01 X4.1332 Y-1.9747
G01 X4.2382 Y-1.9746
G01 X4.2484 Y-1.9733
G01 X4.2584 Y-1.9705
G01 X4.3592 Y-1.9286
G01 X4.3681 Y-1.9235
G01 X4.3762 Y-1.9172
G01 X4.3810 Y-1.9123
G01 X4.3874 Y-1.9042
G01 X4.4328 Y-1.8285
G01 X4.4380 Y-1.8158
G01 X4.4403 Y-1.8058
G01 X4.4410 Y-1.7989
G01 X4.4411 Y-1.2840
G01 X4.4403 Y-1.2738
G01 X4.4380 Y-1.2637
G01 X4.4343 Y-1.2541
G01 X4.4311 Y-1.2480
G00 X4.4311 Y-1.2480
G01 F80.00
G01 Z-0.0560
G01 F50.00
G01 X4.3873 Y-1.1753
G01 X4.3787 Y-1.1648
G01 X4.3709 Y-1.1581
G01 X4.3623 Y-1.1526
G01 X4.3561 Y-1.1496
G01 X4.2616 Y-1.1102
G01 X4.2518 Y-1.1070
G01 X4.2450 Y-1.1056
G01 X4.2347 Y-1.1048
G01 X4.1332 Y-1.1048
G01 X4.1229 Y-1.1056
G01 X4.1161 Y-1.1070
G01 X4.1063 Y-1.1102
G01 X4.0086 Y-1.1510
G01 X4.0026 Y-1.1543
G01 X3.9942 Y-1.1602
G01 X3.9868 Y-1.1673
G01 X3.9805 Y-1.1754
G01 X3.9351 Y-1.2510
G01 X3.9299 Y-1.2637
G01 X3.9272 Y-1.2772
G01 X3.9269 Y-1.7989
G01 X3.9282 Y-1.8092
G01 X3.9299 Y-1.8158
G01 X3.9322 Y-1.8223
G01 X3.9368 Y-1.8315
G01 X3.9804 Y-1.9042
G01 X3.9891 Y-1.9148
G01 X3.9997 Y-1.9235
G01 X4.0118 Y-1.9300
G01 X4.1063 Y-1.9693
G01 X4.1195 Y-1.9733
G01 X4.1332 Y-1.9747
G01 X4.2382 Y-1.9746
G01 X4.2484 Y-1.9733
G01 X4.2584 Y-1.9705
G01 X4.3592 Y-1.9286
G01 X4.3681 Y-1.9235
G01 X4.3762 Y-1.9172
G01 X4.3810 Y-1.9123
G01 X4.3874 Y-1.9042
G01 X4.4328 Y-1.8285
G01 X4.4380 Y-1.8158
G01 X4.4403 Y-1.8058
G01 X4.4410 Y-1.7989
G01 X4.4411 Y-1.2840
G01 X4.4403 Y-1.2738
G01 X4.4380 Y-1.2637
G01 X4.4343 Y-1.2541
G01 X4.4311 Y-1.2480
G00 Z1.0000
G00 X4.4584 Y-1.2564
G01 F80.00
G01 Z-0.0280
G01 F50.00
G01 X4.3925 Y-1.1467
G01 X4.3899 Y-1.1435
G01 X4.2529 Y-1.0861
G01 X4.1154 Y-1.0860
G01 X3.9810 Y-1.1418
G01 X3.9763 Y-1.1452
G01 X3.9096 Y-1.2564
G01 X3.9078 Y-1.2611
G01 X3.9078 Y-1.8166
G01 X3.9082 Y-1.8203
G01 X3.9096 Y-1.8231
G01 X3.9753 Y-1.9329
G01 X3.9786 Y-1.9366
G01 X4.1154 Y-1.9935
G01 X4.2497 Y-1.9937
G01 X4.2551 Y-1.9927
G01 X4.3868 Y-1.9378
G01 X4.3915 Y-1.9344
G01 X4.4583 Y-1.8231
G01 X4.4601 Y-1.8184
G01 X4.4601 Y-1.2628
G01 X4.4598 Y-1.2597
G01 X4.4584 Y-1.2564
G00 X4.4584 Y-1.2564
G01 F80.00
G01 Z-0.0560
G01 F50.00
G01 X4.3925 Y-1.1467
G01 X4.3899 Y-1.1435
G01 X4.2529 Y-1.0861
G01 X4.1154 Y-1.0860
G01 X3.9810 Y-1.1418
G01 X3.9763 Y-1.1452
G01 X3.9096 Y-1.2564
G01 X3.9078 Y-1.2611
G01 X3.9078 Y-1.8166
G01 X3.9082 Y-1.8203
G01 X3.9096 Y-1.8231
G01 X3.9753 Y-1.9329
G01 X3.9786 Y-1.9366
G01 X4.1154 Y-1.9935
G01 X4.2497 Y-1.9937
G01 X4.2551 Y-1.9927
G01 X4.3868 Y-1.9378
G01 X4.3915 Y-1.9344
G01 X4.4583 Y-1.8231
G01 X4.4601 Y-1.8184
G01 X4.4601 Y-1.2628
G01 X4.4598 Y-1.2597
G01 X4.4584 Y-1.2564
G00 Z1.0000
G00 X4.7626 Y-1.9937
G01 F80.00
G01 Z-0.0280
G01 F50.00
G01 X5.2941 Y-1.9937
G01 X5.2995 Y-1.9926
G01 X5.3034 Y-1.9887
G01 X5.3045 Y-1.9842
G01 X5.3034 Y-1.9797
G01 X5.2999 Y-1.9760
G01 X5.2955 Y-1.9747
G01 X4.8688 Y-1.9747
G01 X4.8585 Y-1.9739
G01 X4.8485 Y-1.9716
G01 X4.8358 Y-1.9664
G01 X4.8271 Y-1.9609
G01 X4.8170 Y-1.9517
G01 X4.8106 Y-1.9436
G01 X4.8041 Y-1.9315
G01 X4.8009 Y-1.9217
G01 X4.7992 Y-1.9115
G01 X4.7989 Y-1.9012
G01 X4.7996 Y-1.8944
G01 X4.8018 Y-1.8844
G01 X4.8055 Y-1.8748
G01 X4.8313 Y-1.8311
G01 X4.8398 Y-1.8207
G01 X5.2347 Y-1.4912
G01 X5.3034 Y-1.3776
G01 X5.3045 Y-1.3722
G01 X5.3041 Y-1.2592
G01 X5.2369 Y-1.1467
G01 X5.2328 Y-1.1425
G01 X5.0969 Y-1.0860
G01 X4.9594 Y-1.0861
G01 X4.8223 Y-1.1435
G01 X4.8197 Y-1.1467
G01 X4.7533 Y-1.2575
G01 X4.7522 Y-1.2611
G01 X4.7525 Y-1.2643
G01 X4.7538 Y-1.2673
G01 X4.7560 Y-1.2696
G01 X4.7594 Y-1.2712
G01 X4.7626 Y-1.2715
G01 X4.7662 Y-1.2704
G01 X4.7688 Y-1.2684
G01 X4.8268 Y-1.1726
G01 X4.8335 Y-1.1648
G01 X4.8386 Y-1.1602
G01 X4.8470 Y-1.1543
G01 X4.8530 Y-1.1510
G01 X4.9507 Y-1.1102
G01 X4.9639 Y-1.1062
G01 X4.9776 Y-1.1048
G01 X5.0825 Y-1.1049
G01 X5.0962 Y-1.1070
G01 X5.1060 Y-1.1102
G01 X5.2036 Y-1.1510
G01 X5.2125 Y-1.1561
G01 X5.2206 Y-1.1624
G01 X5.2277 Y-1.1698
G01 X5.2317 Y-1.1753
G01 X5.2772 Y-1.2510
G01 X5.2814 Y-1.2604
G01 X5.2834 Y-1.2670
G01 X5.2851 Y-1.2772
G01 X5.2855 Y-1.2840
G01 X5.2854 Y-1.3545
G01 X5.2841 Y-1.3647
G01 X5.2824 Y-1.3714
G01 X5.2787 Y-1.3810
G01 X5.2755 Y-1.3871
G01 X5.2233 Y-1.4733
G01 X5.2118 Y-1.4855
G01 X4.8212 Y-1.8111
G01 X4.7526 Y-1.9259
G01 X4.7523 Y-1.9856
G01 X4.7533 Y-1.9887
G01 X4.7557 Y-1.9916
G01 X4.7589 Y-1.9933
G01 X4.7626 Y-1.9937
G00 X4.7626 Y-1.9937
G01 F80.00
G01 Z-0.0560
G01 F50.00
G01 X5.2941 Y-1.9937
G01 X5.2995 Y-1.9926
G01 X5.3034 Y-1.9887
G01 X5.3045 Y-1.9842
G01 X5.3034 Y-1.9797
G01 X5.2999 Y-1.9760
G01 X5.2955 Y-1.9747
G01 X4.8688 Y-1.9747
G01 X4.8585 Y-1.9739
G01 X4.8485 Y-1.9716
G01 X4.8358 Y-1.9664
G01 X4.8271 Y-1.9609
G01 X4.8170 Y-1.9517
G01 X4.8106 Y-1.9436
G01 X4.8041 Y-1.9315
G01 X4.8009 Y-1.9217
G01 X4.7992 Y-1.9115
G01 X4.7989 Y-1.9012
G01 X4.7996 Y-1.8944
G01 X4.8018 Y-1.8844
G01 X4.8055 Y-1.8748
G01 X4.8313 Y-1.8311
G01 X4.8398 Y-1.8207
G01 X5.2347 Y-1.4912
G01 X5.3034 Y-1.3776
G01 X5.3045 Y-1.3722
G01 X5.3041 Y-1.2592
G01 X5.2369 Y-1.1467
G01 X5.2328 Y-1.1425
G01 X5.0969 Y-1.0860
G01 X4.9594 Y-1.0861
G01 X4.8223 Y-1.1435
G01 X4.8197 Y-1.1467
G01 X4.7533 Y-1.2575
G01 X4.7522 Y-1.2611
G01 X4.7525 Y-1.2643
G01 X4.7538 Y-1.2673
G01 X4.7560 Y-1.2696
G01 X4.7594 Y-1.2712
G01 X4.7626 Y-1.2715
G01 X4.7662 Y-1.2704
G01 X4.7688 Y-1.2684
G01 X4.8268 Y-1.1726
G01 X4.8335 Y-1.1648
G01 X4.8386 Y-1.1602
G01 X4.8470 Y-1.1543
G01 X4.8530 Y-1.1510
G01 X4.9507 Y-1.1102
G01 X4.9639 Y-1.1062
G01 X4.9776 Y-1.1048
G01 X5.0825 Y-1.1049
G01 X5.0962 Y-1.1070
G01 X5.1060 Y-1.1102
G01 X5.2036 Y-1.1510
G01 X5.2125 Y-1.1561
G01 X5.2206 Y-1.1624
G01 X5.2277 Y-1.1698
G01 X5.2317 Y-1.1753
G01 X5.2772 Y-1.2510
G01 X5.2814 Y-1.2604
G01 X5.2834 Y-1.2670
G01 X5.2851 Y-1.2772
G01 X5.2855 Y-1.2840
G01 X5.2854 Y-1.3545
G01 X5.2841 Y-1.3647
G01 X5.2824 Y-1.3714
G01 X5.2787 Y-1.3810
G01 X5.2755 Y-1.3871
G01 X5.2233 Y-1.4733
G01 X5.2118 Y-1.4855
G01 X4.8212 Y-1.8111
G01 X4.7526 Y-1.9259
G01 X4.7523 Y-1.9856
G01 X4.7533 Y-1.9887
G01 X4.7557 Y-1.9916
G01 X4.7589 Y-1.9933
G01 X4.7626 Y-1.9937
G00 Z1.0000
G00 X5.9435 Y-3.0318
G01 F80.00
G01 Z-0.0280
G01 F50.00
G01 X6.0253 Y-3.0634
G01 X6.1375 Y-3.1131
G01 X6.2502 Y-3.1698
G01 X6.3600 Y-3.2319
G01 X6.4666 Y-3.2993
G01 X6.5698 Y-3.3719
G01 X6.6692 Y-3.4494
G01 X6.7648 Y-3.5317
G01 X6.8562 Y-3.6186
G01 X6.9439 Y-3.7106
G01 X7.0261 Y-3.8058
G01 X7.1037 Y-3.9051
G01 X7.1780 Y-4.0107
G01 X7.2438 Y-4.1146
G01 X7.3075 Y-4.2271
G01 X7.3642 Y-4.3398
G01 X7.4139 Y-4.4521
G01 X7.4455 Y-4.5337
G01 X7.5097 Y-4.5337
G01 X7.4700 Y-4.4307
G01 X7.4177 Y-4.3126
G01 X7.3596 Y-4.1973
G01 X7.2960 Y-4.0850
G01 X7.2269 Y-3.9760
G01 X7.1526 Y-3.8704
G01 X7.0732 Y-3.7687
G01 X6.9889 Y-3.6709
G01 X6.8999 Y-3.5774
G01 X6.8064 Y-3.4884
G01 X6.7086 Y-3.4041
G01 X6.6069 Y-3.3247
G01 X6.5013 Y-3.2504
G01 X6.3923 Y-3.1813
G01 X6.2800 Y-3.1177
G01 X6.1647 Y-3.0596
G01 X6.0466 Y-3.0073
G01 X5.9435 Y-2.9675
G01 X5.9435 Y-3.0318
G00 X5.9435 Y-3.0318
G01 F80.00
G01 Z-0.0560
G01 F50.00
G01 X6.0253 Y-3.0634
G01 X6.1375 Y-3.1131
G01 X6.2502 Y-3.1698
G01 X6.3600 Y-3.2319
G01 X6.4666 Y-3.2993
G01 X6.5698 Y-3.3719
G01 X6.6692 Y-3.4494
G01 X6.7648 Y-3.5317
G01 X6.8562 Y-3.6186
G01 X6.9439 Y-3.7106
G01 X7.0261 Y-3.8058
G01 X7.1037 Y-3.9051
G01 X7.1780 Y-4.0107
G01 X7.2438 Y-4.1146
G01 X7.3075 Y-4.2271
G01 X7.3642 Y-4.3398
G01 X7.4139 Y-4.4521
G01 X7.4455 Y-4.5337
G01 X7.5097 Y-4.5337
G01 X7.4700 Y-4.4307
G01 X7.4177 Y-4.3126
G01 X7.3596 Y-4.1973
G01 X7.2960 Y-4.0850
G01 X7.2269 Y-3.9760
G01 X7.1526 Y-3.8704
G01 X7.0732 Y-3.7687
G01 X6.9889 Y-3.6709
G01 X6.8999 Y-3.5774
G01 X6.8064 Y-3.4884
G01 X6.7086 Y-3.4041
G01 X6.6069 Y-3.3247
G01 X6.5013 Y-3.2504
G01 X6.3923 Y-3.1813
G01 X6.2800 Y-3.1177
G01 X6.1647 Y-3.0596
G01 X6.0466 Y-3.0073
G01 X5.9435 Y-2.9675
G01 X5.9435 Y-3.0318
G00 Z1.0000
G00 X8.7918 Y-1.0749
G01 F80.00
G01 Z-0.0280
G01 F50.00
G01 X8.7439 Y-0.9953
G01 X8.7353 Y-0.9847
G01 X8.7275 Y-0.9780
G01 X8.7218 Y-0.9741
G01 X8.7126 Y-0.9695
G01 X8.6087 Y-0.9262
G01 X8.6022 Y-0.9239
G01 X8.5921 Y-0.9216
G01 X8.5818 Y-0.9208
G01 X8.4701 Y-0.9208
G01 X8.4598 Y-0.9216
G01 X8.4530 Y-0.9230
G01 X8.4432 Y-0.9262
G01 X8.3331 Y-0.9725
G01 X8.3273 Y-0.9760
G01 X8.3192 Y-0.9823
G01 X8.3121 Y-0.9897
G01 X8.3062 Y-0.9981
G01 X8.2584 Y-1.0779
G01 X8.2532 Y-1.0906
G01 X8.2505 Y-1.1041
G01 X8.2502 Y-1.6770
G01 X8.2509 Y-1.6838
G01 X8.2532 Y-1.6939
G01 X8.2555 Y-1.7004
G01 X8.2601 Y-1.7096
G01 X8.3081 Y-1.7892
G01 X8.3121 Y-1.7947
G01 X8.3192 Y-1.8021
G01 X8.3302 Y-1.8102
G01 X8.3393 Y-1.8149
G01 X8.4432 Y-1.8582
G01 X8.4564 Y-1.8622
G01 X8.4701 Y-1.8636
G01 X8.5852 Y-1.8635
G01 X8.5955 Y-1.8622
G01 X8.6055 Y-1.8594
G01 X8.7158 Y-1.8135
G01 X8.7247 Y-1.8084
G01 X8.7328 Y-1.8021
G01 X8.7399 Y-1.7947
G01 X8.7458 Y-1.7863
G01 X8.7935 Y-1.7066
G01 X8.7977 Y-1.6972
G01 X8.7997 Y-1.6906
G01 X8.8017 Y-1.6770
G01 X8.8018 Y-1.1109
G01 X8.8010 Y-1.1007
G01 X8.7987 Y-1.0906
G01 X8.7964 Y-1.0841
G01 X8.7918 Y-1.0749
G00 X8.7918 Y-1.0749
G01 F80.00
G01 Z-0.0560
G01 F50.00
G01 X8.7439 Y-0.9953
G01 X8.7353 Y-0.9847
G01 X8.7275 Y-0.9780
G01 X8.7218 Y-0.9741
G01 X8.7126 Y-0.9695
G01 X8.6087 Y-0.9262
G01 X8.6022 Y-0.9239
G01 X8.5921 Y-0.9216
G01 X8.5818 Y-0.9208
G01 X8.4701 Y-0.9208
G01 X8.4598 Y-0.9216
G01 X8.4530 Y-0.9230
G01 X8.4432 Y-0.9262
G01 X8.3331 Y-0.9725
G01 X8.3273 Y-0.9760
G01 X8.3192 Y-0.9823
G01 X8.3121 Y-0.9897
G01 X8.3062 Y-0.9981
G01 X8.2584 Y-1.0779
G01 X8.2532 Y-1.0906
G01 X8.2505 Y-1.1041
G01 X8.2502 Y-1.6770
G01 X8.2509 Y-1.6838
G01 X8.2532 Y-1.6939
G01 X8.2555 Y-1.7004
G01 X8.2601 Y-1.7096
G01 X8.3081 Y-1.7892
G01 X8.3121 Y-1.7947
G01 X8.3192 Y-1.8021
G01 X8.3302 Y-1.8102
G01 X8.3393 Y-1.8149
G01 X8.4432 Y-1.8582
G01 X8.4564 Y-1.8622
G01 X8.4701 Y-1.8636
G01 X8.5852 Y-1.8635
G01 X8.5955 Y-1.8622
G01 X8.6055 Y-1.8594
G01 X8.7158 Y-1.8135
G01 X8.7247 Y-1.8084
G01 X8.7328 Y-1.8021
G01 X8.7399 Y-1.7947
G01 X8.7458 Y-1.7863
G01 X8.7935 Y-1.7066
G01 X8.7977 Y-1.6972
G01 X8.7997 Y-1.6906
G01 X8.8017 Y-1.6770
G01 X8.8018 Y-1.1109
G01 X8.8010 Y-1.1007
G01 X8.7987 Y-1.0906
G01 X8.7964 Y-1.0841
G01 X8.7918 Y-1.0749
G00 Z1.0000
G00 X8.8348 Y-1.0784
G01 F80.00
G01 Z-0.0280
G01 F50.00
G01 X8.7615 Y-0.9561
G01 X8.7571 Y-0.9509
G01 X8.7520 Y-0.9479
G01 X8.6036 Y-0.8863
G01 X8.5984 Y-0.8858
G01 X8.4492 Y-0.8861
G01 X8.3000 Y-0.9479
G01 X8.2955 Y-0.9503
G01 X8.2919 Y-0.9540
G01 X8.2180 Y-1.0769
G01 X8.2161 Y-1.0808
G01 X8.2152 Y-1.0850
G01 X8.2151 Y-1.6969
G01 X8.2158 Y-1.7029
G01 X8.2180 Y-1.7076
G01 X8.2905 Y-1.8283
G01 X8.2955 Y-1.8341
G01 X8.3000 Y-1.8365
G01 X8.4492 Y-1.8983
G01 X8.5984 Y-1.8986
G01 X8.6068 Y-1.8970
G01 X8.7520 Y-1.8365
G01 X8.7565 Y-1.8341
G01 X8.7601 Y-1.8304
G01 X8.8339 Y-1.7076
G01 X8.8358 Y-1.7037
G01 X8.8367 Y-1.6995
G01 X8.8368 Y-1.0876
G01 X8.8363 Y-1.0824
G01 X8.8348 Y-1.0784
G00 X8.8348 Y-1.0784
G01 F80.00
G01 Z-0.0560
G01 F50.00
G01 X8.7615 Y-0.9561
G01 X8.7571 Y-0.9509
G01 X8.7520 Y-0.9479
G01 X8.6036 Y-0.8863
G01 X8.5984 Y-0.8858
G01 X8.4492 Y-0.8861
G01 X8.3000 Y-0.9479
G01 X8.2955 Y-0.9503
G01 X8.2919 Y-0.9540
G01 X8.2180 Y-1.0769
G01 X8.2161 Y-1.0808
G01 X8.2152 Y-1.0850
G01 X8.2151 Y-1.6969
G01 X8.2158 Y-1.7029
G01 X8.2180 Y-1.7076
G01 X8.2905 Y-1.8283
G01 X8.2955 Y-1.8341
G01 X8.3000 Y-1.8365
G01 X8.4492 Y-1.8983
G01 X8.5984 Y-1.8986
G01 X8.6068 Y-1.8970
G01 X8.7520 Y-1.8365
G01 X8.7565 Y-1.8341
G01 X8.7601 Y-1.8304
G01 X8.8339 Y-1.7076
G01 X8.8358 Y-1.7037
G01 X8.8367 Y-1.6995
G01 X8.8368 Y-1.0876
G01 X8.8363 Y-1.0824
G01 X8.8348 Y-1.0784
G00 Z1.0000
G00 X9.5738 Y-1.8367
G01 F80.00
G01 Z-0.0280
G01 F50.00
G01 X9.5770 Y-1.8378
G01 X9.5770 Y-1.8323
G01 X9.5738 Y-1.8367
G00 X9.5738 Y-1.8367
G01 F80.00
G01 Z-0.0560
G01 F50.00
G01 X9.5770 Y-1.8378
G01 X9.5770 Y-1.8323
G01 X9.5738 Y-1.8367
G00 Z1.0000
G00 X9.6190 Y-1.8802
G01 F80.00
G01 Z-0.0280
G01 F50.00
G01 X9.6190 Y-1.3320
G01 X9.6180 Y-1.3252
G01 X9.6150 Y-1.3200
G01 X9.6112 Y-1.3165
G01 X9.6066 Y-1.3143
G01 X9.6015 Y-1.3136
G01 X9.5964 Y-1.3143
G01 X9.5918 Y-1.3165
G01 X9.5880 Y-1.3200
G01 X9.5853 Y-1.3244
G01 X9.5841 Y-1.3294
G01 X9.5840 Y-1.7297
G01 X9.5826 Y-1.7435
G01 X9.5785 Y-1.7567
G01 X9.5720 Y-1.7689
G01 X9.5332 Y-1.8207
G01 X9.5237 Y-1.8301
G01 X9.5127 Y-1.8376
G01 X9.5036 Y-1.8417
G01 X9.4907 Y-1.8452
G01 X9.3930 Y-1.8614
G01 X9.3799 Y-1.8623
G01 X9.3700 Y-1.8614
G01 X9.2691 Y-1.8445
G01 X9.2595 Y-1.8417
G01 X9.2504 Y-1.8376
G01 X9.2394 Y-1.8301
G01 X9.2299 Y-1.8207
G01 X9.1910 Y-1.7689
G01 X9.1845 Y-1.7567
G01 X9.1804 Y-1.7435
G01 X9.1790 Y-1.7297
G01 X9.1789 Y-1.3294
G01 X9.1780 Y-1.3252
G01 X9.1756 Y-1.3207
G01 X9.1726 Y-1.3176
G01 X9.1682 Y-1.3149
G01 X9.1632 Y-1.3137
G01 X9.1589 Y-1.3138
G01 X9.1540 Y-1.3153
G01 X9.1504 Y-1.3176
G01 X9.1457 Y-1.3236
G01 X9.1443 Y-1.3277
G01 X9.1440 Y-1.3320
G01 X9.1442 Y-1.7615
G01 X9.1453 Y-1.7657
G01 X9.1480 Y-1.7701
G01 X9.2214 Y-1.8679
G01 X9.2258 Y-1.8717
G01 X9.2312 Y-1.8738
G01 X9.3811 Y-1.8986
G01 X9.5286 Y-1.8744
G01 X9.5388 Y-1.8735
G01 X9.5524 Y-1.8746
G01 X9.5655 Y-1.8782
G01 X9.5776 Y-1.8844
G01 X9.5932 Y-1.8966
G01 X9.5981 Y-1.8983
G01 X9.6032 Y-1.8985
G01 X9.6090 Y-1.8969
G01 X9.6145 Y-1.8929
G01 X9.6180 Y-1.8870
G01 X9.6190 Y-1.8802
G00 X9.6190 Y-1.8802
G01 F80.00
G01 Z-0.0560
G01 F50.00
G01 X9.6190 Y-1.3320
G01 X9.6180 Y-1.3252
G01 X9.6150 Y-1.3200
G01 X9.6112 Y-1.3165
G01 X9.6066 Y-1.3143
G01 X9.6015 Y-1.3136
G01 X9.5964 Y-1.3143
G01 X9.5918 Y-1.3165
G01 X9.5880 Y-1.3200
G01 X9.5853 Y-1.3244
G01 X9.5841 Y-1.3294
G01 X9.5840 Y-1.7297
G01 X9.5826 Y-1.7435
G01 X9.5785 Y-1.7567
G01 X9.5720 Y-1.7689
G01 X9.5332 Y-1.8207
G01 X9.5237 Y-1.8301
G01 X9.5127 Y-1.8376
G01 X9.5036 Y-1.8417
G01 X9.4907 Y-1.8452
G01 X9.3930 Y-1.8614
G01 X9.3799 Y-1.8623
G01 X9.3700 Y-1.8614
G01 X9.2691 Y-1.8445
G01 X9.2595 Y-1.8417
G01 X9.2504 Y-1.8376
G01 X9.2394 Y-1.8301
G01 X9.2299 Y-1.8207
G01 X9.1910 Y-1.7689
G01 X9.1845 Y-1.7567
G01 X9.1804 Y-1.7435
G01 X9.1790 Y-1.7297
G01 X9.1789 Y-1.3294
G01 X9.1780 Y-1.3252
G01 X9.1756 Y-1.3207
G01 X9.1726 Y-1.3176
G01 X9.1682 Y-1.3149
G01 X9.1632 Y-1.3137
G01 X9.1589 Y-1.3138
G01 X9.1540 Y-1.3153
G01 X9.1504 Y-1.3176
G01 X9.1457 Y-1.3236
G01 X9.1443 Y-1.3277
G01 X9.1440 Y-1.3320
G01 X9.1442 Y-1.7615
G01 X9.1453 Y-1.7657
G01 X9.1480 Y-1.7701
G01 X9.2214 Y-1.8679
G01 X9.2258 Y-1.8717
G01 X9.2312 Y-1.8738
G01 X9.3811 Y-1.8986
G01 X9.5286 Y-1.8744
G01 X9.5388 Y-1.8735
G01 X9.5524 Y-1.8746
G01 X9.5655 Y-1.8782
G01 X9.5776 Y-1.8844
G01 X9.5932 Y-1.8966
G01 X9.5981 Y-1.8983
G01 X9.6032 Y-1.8985
G01 X9.6090 Y-1.8969
G01 X9.6145 Y-1.8929
G01 X9.6180 Y-1.8870
G01 X9.6190 Y-1.8802
G00 Z1.0000
G00 X10.1331 Y-1.8328
G01 F80.00
G01 Z-0.0280
G01 F50.00
G01 X10.1236 Y-1.8231
G01 X10.1161 Y-1.8117
G01 X10.1109 Y-1.7992
G01 X10.1080 Y-1.7824
G01 X10.1079 Y-1.4186
G01 X10.1083 Y-1.4118
G01 X10.1100 Y-1.4016
G01 X10.1147 Y-1.3887
G01 X10.1179 Y-1.3827
G01 X10.1238 Y-1.3742
G01 X10.1309 Y-1.3668
G01 X10.1362 Y-1.3624
G01 X10.1480 Y-1.3554
G01 X10.1609 Y-1.3507
G01 X10.1711 Y-1.3490
G01 X10.2414 Y-1.3481
G01 X10.2468 Y-1.3457
G01 X10.2512 Y-1.3415
G01 X10.2539 Y-1.3362
G01 X10.2546 Y-1.3302
G01 X10.2536 Y-1.3252
G01 X10.2506 Y-1.3200
G01 X10.2461 Y-1.3161
G01 X10.2405 Y-1.3139
G01 X10.1745 Y-1.3135
G01 X10.1643 Y-1.3122
G01 X10.1512 Y-1.3082
G01 X10.1449 Y-1.3053
G01 X10.1362 Y-1.2998
G01 X10.1261 Y-1.2906
G01 X10.1179 Y-1.2795
G01 X10.1120 Y-1.2671
G01 X10.1093 Y-1.2572
G01 X10.1079 Y-1.2436
G01 X10.1079 Y-0.9024
G01 X10.1062 Y-0.8958
G01 X10.1022 Y-0.8903
G01 X10.0963 Y-0.8868
G01 X10.0895 Y-0.8858
G01 X10.0829 Y-0.8875
G01 X10.0780 Y-0.8909
G01 X10.0746 Y-0.8958
G01 X10.0729 Y-0.9024
G01 X10.0729 Y-1.2436
G01 X10.0721 Y-1.2538
G01 X10.0688 Y-1.2671
G01 X10.0629 Y-1.2795
G01 X10.0547 Y-1.2906
G01 X10.0446 Y-1.2998
G01 X10.0328 Y-1.3068
G01 X10.0199 Y-1.3115
G01 X10.0097 Y-1.3132
G01 X9.9394 Y-1.3141
G01 X9.9340 Y-1.3165
G01 X9.9296 Y-1.3207
G01 X9.9269 Y-1.3260
G01 X9.9262 Y-1.3320
G01 X9.9272 Y-1.3370
G01 X9.9302 Y-1.3422
G01 X9.9347 Y-1.3461
G01 X9.9403 Y-1.3483
G01 X10.0097 Y-1.3490
G01 X10.0199 Y-1.3507
G01 X10.0328 Y-1.3554
G01 X10.0446 Y-1.3624
G01 X10.0499 Y-1.3668
G01 X10.0570 Y-1.3742
G01 X10.0646 Y-1.3856
G01 X10.0698 Y-1.3983
G01 X10.0721 Y-1.4084
G01 X10.0729 Y-1.4186
G01 X10.0729 Y-1.8191
G01 X10.0734 Y-1.8242
G01 X10.0753 Y-1.8289
G01 X10.0798 Y-1.8340
G01 X10.1518 Y-1.8940
G01 X10.1560 Y-1.8969
G01 X10.1609 Y-1.8984
G01 X10.1651 Y-1.8986
G01 X10.1700 Y-1.8975
G01 X10.2434 Y-1.8730
G01 X10.2472 Y-1.8710
G01 X10.2504 Y-1.8681
G01 X10.2528 Y-1.8645
G01 X10.2542 Y-1.8605
G01 X10.2544 Y-1.8537
G01 X10.2519 Y-1.8473
G01 X10.2472 Y-1.8424
G01 X10.2409 Y-1.8396
G01 X10.2366 Y-1.8392
G01 X10.2324 Y-1.8398
G01 X10.1979 Y-1.8509
G01 X10.1879 Y-1.8524
G01 X10.1777 Y-1.8525
G01 X10.1644 Y-1.8503
G01 X10.1548 Y-1.8470
G01 X10.1429 Y-1.8405
G01 X10.1331 Y-1.8328
G00 X10.1331 Y-1.8328
G01 F80.00
G01 Z-0.0560
G01 F50.00
G01 X10.1236 Y-1.8231
G01 X10.1161 Y-1.8117
G01 X10.1109 Y-1.7992
G01 X10.1080 Y-1.7824
G01 X10.1079 Y-1.4186
G01 X10.1083 Y-1.4118
G01 X10.1100 Y-1.4016
G01 X10.1147 Y-1.3887
G01 X10.1179 Y-1.3827
G01 X10.1238 Y-1.3742
G01 X10.1309 Y-1.3668
G01 X10.1362 Y-1.3624
G01 X10.1480 Y-1.3554
G01 X10.1609 Y-1.3507
G01 X10.1711 Y-1.3490
G01 X10.2414 Y-1.3481
G01 X10.2468 Y-1.3457
G01 X10.2512 Y-1.3415
G01 X10.2539 Y-1.3362
G01 X10.2546 Y-1.3302
G01 X10.2536 Y-1.3252
G01 X10.2506 Y-1.3200
G01 X10.2461 Y-1.3161
G01 X10.2405 Y-1.3139
G01 X10.1745 Y-1.3135
G01 X10.1643 Y-1.3122
G01 X10.1512 Y-1.3082
G01 X10.1449 Y-1.3053
G01 X10.1362 Y-1.2998
G01 X10.1261 Y-1.2906
G01 X10.1179 Y-1.2795
G01 X10.1120 Y-1.2671
G01 X10.1093 Y-1.2572
G01 X10.1079 Y-1.2436
G01 X10.1079 Y-0.9024
G01 X10.1062 Y-0.8958
G01 X10.1022 Y-0.8903
G01 X10.0963 Y-0.8868
G01 X10.0895 Y-0.8858
G01 X10.0829 Y-0.8875
G01 X10.0780 Y-0.8909
G01 X10.0746 Y-0.8958
G01 X10.0729 Y-0.9024
G01 X10.0729 Y-1.2436
G01 X10.0721 Y-1.2538
G01 X10.0688 Y-1.2671
G01 X10.0629 Y-1.2795
G01 X10.0547 Y-1.2906
G01 X10.0446 Y-1.2998
G01 X10.0328 Y-1.3068
G01 X10.0199 Y-1.3115
G01 X10.0097 Y-1.3132
G01 X9.9394 Y-1.3141
G01 X9.9340 Y-1.3165
G01 X9.9296 Y-1.3207
G01 X9.9269 Y-1.3260
G01 X9.9262 Y-1.3320
G01 X9.9272 Y-1.3370
G01 X9.9302 Y-1.3422
G01 X9.9347 Y-1.3461
G01 X9.9403 Y-1.3483
G01 X10.0097 Y-1.3490
G01 X10.0199 Y-1.3507
G01 X10.0328 Y-1.3554
G01 X10.0446 Y-1.3624
G01 X10.0499 Y-1.3668
G01 X10.0570 Y-1.3742
G01 X10.0646 Y-1.3856
G01 X10.0698 Y-1.3983
G01 X10.0721 Y-1.4084
G01 X10.0729 Y-1.4186
G01 X10.0729 Y-1.8191
G01 X10.0734 Y-1.8242
G01 X10.0753 Y-1.8289
G01 X10.0798 Y-1.8340
G01 X10.1518 Y-1.8940
G01 X10.1560 Y-1.8969
G01 X10.1609 Y-1.8984
G01 X10.1651 Y-1.8986
G01 X10.1700 Y-1.8975
G01 X10.2434 Y-1.8730
G01 X10.2472 Y-1.8710
G01 X10.2504 Y-1.8681
G01 X10.2528 Y-1.8645
G01 X10.2542 Y-1.8605
G01 X10.2544 Y-1.8537
G01 X10.2519 Y-1.8473
G01 X10.2472 Y-1.8424
G01 X10.2409 Y-1.8396
G01 X10.2366 Y-1.8392
G01 X10.2324 Y-1.8398
G01 X10.1979 Y-1.8509
G01 X10.1879 Y-1.8524
G01 X10.1777 Y-1.8525
G01 X10.1644 Y-1.8503
G01 X10.1548 Y-1.8470
G01 X10.1429 Y-1.8405
G01 X10.1331 Y-1.8328
G00 Z1.0000
G00 X10.0727 Y-1.3311
G01 F80.00
G01 Z-0.0280
G01 F50.00
G01 X10.0821 Y-1.3394
G01 X10.0904 Y-1.3488
G01 X10.0987 Y-1.3394
G01 X10.1081 Y-1.3311
G01 X10.0987 Y-1.3228
G01 X10.0904 Y-1.3134
G01 X10.0821 Y-1.3228
G01 X10.0727 Y-1.3311
G00 X10.0727 Y-1.3311
G01 F80.00
G01 Z-0.0560
G01 F50.00
G01 X10.0821 Y-1.3394
G01 X10.0904 Y-1.3488
G01 X10.0987 Y-1.3394
G01 X10.1081 Y-1.3311
G01 X10.0987 Y-1.3228
G01 X10.0904 Y-1.3134
G01 X10.0821 Y-1.3228
G01 X10.0727 Y-1.3311
G00 Z1.0000
G00 X11.0236 Y-1.3747
G01 F80.00
G01 Z-0.0280
G01 F50.00
G01 X11.2853 Y-1.3747
G01 X11.2956 Y-1.3739
G01 X11.3024 Y-1.3725
G01 X11.3122 Y-1.3693
G01 X11.4162 Y-1.3260
G01 X11.4253 Y-1.3214
G01 X11.4363 Y-1.3132
G01 X11.4434 Y-1.3058
G01 X11.4474 Y-1.3003
G01 X11.4970 Y-1.2177
G01 X11.5012 Y-1.2083
G01 X11.5032 Y-1.2017
G01 X11.5049 Y-1.1915
G01 X11.5053 Y-1.1847
G01 X11.5052 Y-1.1075
G01 X11.5045 Y-1.1007
G01 X11.5022 Y-1.0906
G01 X11.4999 Y-1.0841
G01 X11.4953 Y-1.0749
G01 X11.4493 Y-0.9981
G01 X11.4411 Y-0.9872
G01 X11.4310 Y-0.9780
G01 X11.4223 Y-0.9725
G01 X11.4161 Y-0.9695
G01 X11.3122 Y-0.9262
G01 X11.3024 Y-0.9230
G01 X11.2922 Y-0.9212
G01 X11.0202 Y-0.9209
G01 X11.0100 Y-0.9222
G01 X10.9969 Y-0.9262
G01 X10.9848 Y-0.9326
G01 X10.9766 Y-0.9390
G01 X10.9674 Y-0.9491
G01 X10.9604 Y-0.9609
G01 X10.9557 Y-0.9738
G01 X10.9537 Y-0.9874
G01 X10.9540 Y-1.3115
G01 X10.9567 Y-1.3250
G01 X10.9604 Y-1.3346
G01 X10.9674 Y-1.3464
G01 X10.9766 Y-1.3565
G01 X10.9848 Y-1.3629
G01 X10.9969 Y-1.3693
G01 X11.0100 Y-1.3733
G01 X11.0236 Y-1.3747
G00 X11.0236 Y-1.3747
G01 F80.00
G01 Z-0.0560
G01 F50.00
G01 X11.2853 Y-1.3747
G01 X11.2956 Y-1.3739
G01 X11.3024 Y-1.3725
G01 X11.3122 Y-1.3693
G01 X11.4162 Y-1.3260
G01 X11.4253 Y-1.3214
G01 X11.4363 Y-1.3132
G01 X11.4434 Y-1.3058
G01 X11.4474 Y-1.3003
G01 X11.4970 Y-1.2177
G01 X11.5012 Y-1.2083
G01 X11.5032 Y-1.2017
G01 X11.5049 Y-1.1915
G01 X11.5053 Y-1.1847
G01 X11.5052 Y-1.1075
G01 X11.5045 Y-1.1007
G01 X11.5022 Y-1.0906
G01 X11.4999 Y-1.0841
G01 X11.4953 Y-1.0749
G01 X11.4493 Y-0.9981
G01 X11.4411 Y-0.9872
G01 X11.4310 Y-0.9780
G01 X11.4223 Y-0.9725
G01 X11.4161 Y-0.9695
G01 X11.3122 Y-0.9262
G01 X11.3024 Y-0.9230
G01 X11.2922 Y-0.9212
G01 X11.0202 Y-0.9209
G01 X11.0100 Y-0.9222
G01 X10.9969 Y-0.9262
G01 X10.9848 Y-0.9326
G01 X10.9766 Y-0.9390
G01 X10.9674 Y-0.9491
G01 X10.9604 Y-0.9609
G01 X10.9557 Y-0.9738
G01 X10.9537 Y-0.9874
G01 X10.9540 Y-1.3115
G01 X10.9567 Y-1.3250
G01 X10.9604 Y-1.3346
G01 X10.9674 Y-1.3464
G01 X10.9766 Y-1.3565
G01 X10.9848 Y-1.3629
G01 X10.9969 Y-1.3693
G01 X11.0100 Y-1.3733
G01 X11.0236 Y-1.3747
G00 Z1.0000
G00 X10.9186 Y-1.8802
G01 F80.00
G01 Z-0.0280
G01 F50.00
G01 X10.9196 Y-1.8870
G01 X10.9231 Y-1.8929
G01 X10.9286 Y-1.8969
G01 X10.9352 Y-1.8986
G01 X10.9420 Y-1.8976
G01 X10.9479 Y-1.8941
G01 X10.9519 Y-1.8886
G01 X10.9535 Y-1.8828
G01 X10.9537 Y-1.4763
G01 X10.9557 Y-1.4627
G01 X10.9590 Y-1.4530
G01 X10.9636 Y-1.4438
G01 X10.9718 Y-1.4327
G01 X10.9819 Y-1.4235
G01 X10.9937 Y-1.4165
G01 X11.0066 Y-1.4118
G01 X11.0202 Y-1.4098
G01 X11.3019 Y-1.4097
G01 X11.3087 Y-1.4087
G01 X11.4555 Y-1.3476
G01 X11.4606 Y-1.3446
G01 X11.4650 Y-1.3394
G01 X11.5374 Y-1.2187
G01 X11.5396 Y-1.2140
G01 X11.5403 Y-1.2080
G01 X11.5403 Y-1.0876
G01 X11.5396 Y-1.0816
G01 X11.5374 Y-1.0769
G01 X11.4650 Y-0.9561
G01 X11.4619 Y-0.9520
G01 X11.4585 Y-0.9494
G01 X11.3103 Y-0.8874
G01 X11.3045 Y-0.8859
G01 X10.9370 Y-0.8858
G01 X10.9318 Y-0.8863
G01 X10.9278 Y-0.8878
G01 X10.9237 Y-0.8909
G01 X10.9211 Y-0.8943
G01 X10.9191 Y-0.8990
G01 X10.9186 Y-0.9042
G01 X10.9186 Y-1.8802
G00 X10.9186 Y-1.8802
G01 F80.00
G01 Z-0.0560
G01 F50.00
G01 X10.9196 Y-1.8870
G01 X10.9231 Y-1.8929
G01 X10.9286 Y-1.8969
G01 X10.9352 Y-1.8986
G01 X10.9420 Y-1.8976
G01 X10.9479 Y-1.8941
G01 X10.9519 Y-1.8886
G01 X10.9535 Y-1.8828
G01 X10.9537 Y-1.4763
G01 X10.9557 Y-1.4627
G01 X10.9590 Y-1.4530
G01 X10.9636 Y-1.4438
G01 X10.9718 Y-1.4327
G01 X10.9819 Y-1.4235
G01 X10.9937 Y-1.4165
G01 X11.0066 Y-1.4118
G01 X11.0202 Y-1.4098
G01 X11.3019 Y-1.4097
G01 X11.3087 Y-1.4087
G01 X11.4555 Y-1.3476
G01 X11.4606 Y-1.3446
G01 X11.4650 Y-1.3394
G01 X11.5374 Y-1.2187
G01 X11.5396 Y-1.2140
G01 X11.5403 Y-1.2080
G01 X11.5403 Y-1.0876
G01 X11.5396 Y-1.0816
G01 X11.5374 Y-1.0769
G01 X11.4650 Y-0.9561
G01 X11.4619 Y-0.9520
G01 X11.4585 Y-0.9494
G01 X11.3103 Y-0.8874
G01 X11.3045 Y-0.8859
G01 X10.9370 Y-0.8858
G01 X10.9318 Y-0.8863
G01 X10.9278 Y-0.8878
G01 X10.9237 Y-0.8909
G01 X10.9211 Y-0.8943
G01 X10.9191 Y-0.8990
G01 X10.9186 Y-0.9042
G01 X10.9186 Y-1.8802
G00 Z1.0000
G00 X12.2875 Y-1.7102
G01 F80.00
G01 Z-0.0280
G01 F50.00
G01 X12.2875 Y-1.5142
G01 X12.2861 Y-1.5006
G01 X12.2834 Y-1.4906
G01 X12.2775 Y-1.4782
G01 X12.2335 Y-1.4050
G01 X12.2294 Y-1.3995
G01 X12.2223 Y-1.3920
G01 X12.2112 Y-1.3839
G01 X12.2020 Y-1.3792
G01 X12.1956 Y-1.3769
G01 X12.1020 Y-1.3534
G01 X12.0919 Y-1.3517
G01 X12.0850 Y-1.3513
G01 X12.0781 Y-1.3517
G01 X12.0680 Y-1.3534
G01 X11.9745 Y-1.3769
G01 X11.9649 Y-1.3806
G01 X11.9559 Y-1.3857
G01 X11.9504 Y-1.3898
G01 X11.9430 Y-1.3969
G01 X11.9348 Y-1.4079
G01 X11.8925 Y-1.4782
G01 X11.8866 Y-1.4906
G01 X11.8839 Y-1.5006
G01 X11.8825 Y-1.5143
G01 X11.8825 Y-1.7101
G01 X11.8829 Y-1.7170
G01 X11.8846 Y-1.7272
G01 X11.8879 Y-1.7370
G01 X11.8908 Y-1.7432
G01 X11.9344 Y-1.8158
G01 X11.9454 Y-1.8286
G01 X11.9590 Y-1.8384
G01 X11.9746 Y-1.8446
G01 X12.0801 Y-1.8622
G01 X12.0965 Y-1.8614
G01 X12.1889 Y-1.8460
G01 X12.2019 Y-1.8426
G01 X12.2111 Y-1.8384
G01 X12.2196 Y-1.8329
G01 X12.2272 Y-1.8262
G01 X12.2357 Y-1.8158
G01 X12.2807 Y-1.7401
G01 X12.2844 Y-1.7305
G01 X12.2861 Y-1.7238
G01 X12.2875 Y-1.7102
G00 X12.2875 Y-1.7102
G01 F80.00
G01 Z-0.0560
G01 F50.00
G01 X12.2875 Y-1.5142
G01 X12.2861 Y-1.5006
G01 X12.2834 Y-1.4906
G01 X12.2775 Y-1.4782
G01 X12.2335 Y-1.4050
G01 X12.2294 Y-1.3995
G01 X12.2223 Y-1.3920
G01 X12.2112 Y-1.3839
G01 X12.2020 Y-1.3792
G01 X12.1956 Y-1.3769
G01 X12.1020 Y-1.3534
G01 X12.0919 Y-1.3517
G01 X12.0850 Y-1.3513
G01 X12.0781 Y-1.3517
G01 X12.0680 Y-1.3534
G01 X11.9745 Y-1.3769
G01 X11.9649 Y-1.3806
G01 X11.9559 Y-1.3857
G01 X11.9504 Y-1.3898
G01 X11.9430 Y-1.3969
G01 X11.9348 Y-1.4079
G01 X11.8925 Y-1.4782
G01 X11.8866 Y-1.4906
G01 X11.8839 Y-1.5006
G01 X11.8825 Y-1.5143
G01 X11.8825 Y-1.7101
G01 X11.8829 Y-1.7170
G01 X11.8846 Y-1.7272
G01 X11.8879 Y-1.7370
G01 X11.8908 Y-1.7432
G01 X11.9344 Y-1.8158
G01 X11.9454 Y-1.8286
G01 X11.9590 Y-1.8384
G01 X11.9746 Y-1.8446
G01 X12.0801 Y-1.8622
G01 X12.0965 Y-1.8614
G01 X12.1889 Y-1.8460
G01 X12.2019 Y-1.8426
G01 X12.2111 Y-1.8384
G01 X12.2196 Y-1.8329
G01 X12.2272 Y-1.8262
G01 X12.2357 Y-1.8158
G01 X12.2807 Y-1.7401
G01 X12.2844 Y-1.7305
G01 X12.2861 Y-1.7238
G01 X12.2875 Y-1.7102
G00 Z1.0000
G00 X12.3202 Y-1.7430
G01 F80.00
G01 Z-0.0280
G01 F50.00
G01 X12.3220 Y-1.7387
G01 X12.3225 Y-1.7335
G01 X12.3222 Y-1.4866
G01 X12.3196 Y-1.4802
G01 X12.2472 Y-1.3595
G01 X12.2441 Y-1.3554
G01 X12.2400 Y-1.3523
G01 X12.2351 Y-1.3506
G01 X12.0901 Y-1.3143
G01 X12.0850 Y-1.3136
G01 X12.0799 Y-1.3143
G01 X11.9350 Y-1.3506
G01 X11.9301 Y-1.3523
G01 X11.9260 Y-1.3554
G01 X11.9229 Y-1.3595
G01 X11.8504 Y-1.4802
G01 X11.8482 Y-1.4849
G01 X11.8475 Y-1.4909
G01 X11.8478 Y-1.7378
G01 X11.8504 Y-1.7442
G01 X11.9229 Y-1.8650
G01 X11.9260 Y-1.8690
G01 X11.9307 Y-1.8725
G01 X11.9363 Y-1.8741
G01 X12.0846 Y-1.8986
G01 X12.2370 Y-1.8734
G01 X12.2422 Y-1.8707
G01 X12.2463 Y-1.8664
G01 X12.3202 Y-1.7430
G00 X12.3202 Y-1.7430
G01 F80.00
G01 Z-0.0560
G01 F50.00
G01 X12.3220 Y-1.7387
G01 X12.3225 Y-1.7335
G01 X12.3222 Y-1.4866
G01 X12.3196 Y-1.4802
G01 X12.2472 Y-1.3595
G01 X12.2441 Y-1.3554
G01 X12.2400 Y-1.3523
G01 X12.2351 Y-1.3506
G01 X12.0901 Y-1.3143
G01 X12.0850 Y-1.3136
G01 X12.0799 Y-1.3143
G01 X11.9350 Y-1.3506
G01 X11.9301 Y-1.3523
G01 X11.9260 Y-1.3554
G01 X11.9229 Y-1.3595
G01 X11.8504 Y-1.4802
G01 X11.8482 Y-1.4849
G01 X11.8475 Y-1.4909
G01 X11.8478 Y-1.7378
G01 X11.8504 Y-1.7442
G01 X11.9229 Y-1.8650
G01 X11.9260 Y-1.8690
G01 X11.9307 Y-1.8725
G01 X11.9363 Y-1.8741
G01 X12.0846 Y-1.8986
G01 X12.2370 Y-1.8734
G01 X12.2422 Y-1.8707
G01 X12.2463 Y-1.8664
G01 X12.3202 Y-1.7430
G00 Z1.0000
G00 X12.8430 Y-1.7547
G01 F80.00
G01 Z-0.0280
G01 F50.00
G01 X12.8672 Y-1.8152
G01 X12.8914 Y-1.7547
G01 X12.8783 Y-1.7568
G01 X12.8672 Y-1.7574
G01 X12.8561 Y-1.7568
G01 X12.8430 Y-1.7547
G00 X12.8430 Y-1.7547
G01 F80.00
G01 Z-0.0560
G01 F50.00
G01 X12.8672 Y-1.8152
G01 X12.8914 Y-1.7547
G01 X12.8783 Y-1.7568
G01 X12.8672 Y-1.7574
G01 X12.8561 Y-1.7568
G01 X12.8430 Y-1.7547
G00 Z1.0000
G00 X12.9322 Y-1.6714
G01 F80.00
G01 Z-0.0280
G01 F50.00
G01 X12.9276 Y-1.6807
G01 X12.9217 Y-1.6893
G01 X12.9146 Y-1.6969
G01 X12.9093 Y-1.7013
G01 X12.9005 Y-1.7069
G01 X12.8943 Y-1.7099
G01 X12.8844 Y-1.7132
G01 X12.8776 Y-1.7146
G01 X12.8672 Y-1.7154
G01 X12.8603 Y-1.7150
G01 X12.8500 Y-1.7132
G01 X12.8434 Y-1.7112
G01 X12.8339 Y-1.7069
G01 X12.8280 Y-1.7033
G01 X12.8198 Y-1.6969
G01 X12.8127 Y-1.6893
G01 X12.8068 Y-1.6807
G01 X12.8022 Y-1.6714
G01 X12.6631 Y-1.3238
G01 X12.6609 Y-1.3201
G01 X12.6578 Y-1.3172
G01 X12.6508 Y-1.3140
G01 X12.6431 Y-1.3141
G01 X12.6362 Y-1.3174
G01 X12.6328 Y-1.3212
G01 X12.6303 Y-1.3266
G01 X12.6297 Y-1.3326
G01 X12.6312 Y-1.3384
G01 X12.8506 Y-1.8868
G01 X12.8536 Y-1.8921
G01 X12.8574 Y-1.8956
G01 X12.8621 Y-1.8979
G01 X12.8672 Y-1.8986
G01 X12.8715 Y-1.8981
G01 X12.8763 Y-1.8961
G01 X12.8803 Y-1.8928
G01 X12.8831 Y-1.8884
G01 X13.0251 Y-1.5345
G01 X13.0286 Y-1.5285
G01 X13.0349 Y-1.5203
G01 X13.0424 Y-1.5130
G01 X13.0509 Y-1.5070
G01 X13.0601 Y-1.5023
G01 X13.0700 Y-1.4990
G01 X13.0803 Y-1.4972
G01 X13.0872 Y-1.4968
G01 X13.0941 Y-1.4972
G01 X13.1044 Y-1.4990
G01 X13.1110 Y-1.5010
G01 X13.1205 Y-1.5053
G01 X13.1264 Y-1.5089
G01 X13.1346 Y-1.5153
G01 X13.1417 Y-1.5229
G01 X13.1476 Y-1.5315
G01 X13.1522 Y-1.5408
G01 X13.2913 Y-1.8884
G01 X13.2935 Y-1.8920
G01 X13.2966 Y-1.8950
G01 X13.3003 Y-1.8972
G01 X13.3044 Y-1.8984
G01 X13.3121 Y-1.8979
G01 X13.3160 Y-1.8963
G01 X13.3194 Y-1.8937
G01 X13.3225 Y-1.8896
G01 X13.3244 Y-1.8848
G01 X13.4706 Y-1.3365
G01 X13.4713 Y-1.3288
G01 X13.4686 Y-1.3216
G01 X13.4659 Y-1.3183
G01 X13.4616 Y-1.3154
G01 X13.4576 Y-1.3140
G01 X13.4524 Y-1.3136
G01 X13.4474 Y-1.3148
G01 X13.4430 Y-1.3174
G01 X13.4400 Y-1.3204
G01 X13.4375 Y-1.3249
G01 X13.3582 Y-1.6218
G01 X13.3534 Y-1.6347
G01 X13.3482 Y-1.6435
G01 X13.3417 Y-1.6516
G01 X13.3342 Y-1.6585
G01 X13.3257 Y-1.6643
G01 X13.3164 Y-1.6688
G01 X13.3066 Y-1.6719
G01 X13.2965 Y-1.6735
G01 X13.2896 Y-1.6738
G01 X13.2794 Y-1.6729
G01 X13.2727 Y-1.6715
G01 X13.2629 Y-1.6681
G01 X13.2568 Y-1.6651
G01 X13.2481 Y-1.6595
G01 X13.2404 Y-1.6527
G01 X13.2338 Y-1.6448
G01 X13.2301 Y-1.6390
G01 X13.2256 Y-1.6298
G01 X13.1031 Y-1.3238
G01 X13.0984 Y-1.3176
G01 X13.0923 Y-1.3143
G01 X13.0846 Y-1.3138
G01 X13.0774 Y-1.3166
G01 X13.0736 Y-1.3201
G01 X13.0706 Y-1.3254
G01 X12.9322 Y-1.6714
G00 X12.9322 Y-1.6714
G01 F80.00
G01 Z-0.0560
G01 F50.00
G01 X12.9276 Y-1.6807
G01 X12.9217 Y-1.6893
G01 X12.9146 Y-1.6969
G01 X12.9093 Y-1.7013
G01 X12.9005 Y-1.7069
G01 X12.8943 Y-1.7099
G01 X12.8844 Y-1.7132
G01 X12.8776 Y-1.7146
G01 X12.8672 Y-1.7154
G01 X12.8603 Y-1.7150
G01 X12.8500 Y-1.7132
G01 X12.8434 Y-1.7112
G01 X12.8339 Y-1.7069
G01 X12.8280 Y-1.7033
G01 X12.8198 Y-1.6969
G01 X12.8127 Y-1.6893
G01 X12.8068 Y-1.6807
G01 X12.8022 Y-1.6714
G01 X12.6631 Y-1.3238
G01 X12.6609 Y-1.3201
G01 X12.6578 Y-1.3172
G01 X12.6508 Y-1.3140
G01 X12.6431 Y-1.3141
G01 X12.6362 Y-1.3174
G01 X12.6328 Y-1.3212
G01 X12.6303 Y-1.3266
G01 X12.6297 Y-1.3326
G01 X12.6312 Y-1.3384
G01 X12.8506 Y-1.8868
G01 X12.8536 Y-1.8921
G01 X12.8574 Y-1.8956
G01 X12.8621 Y-1.8979
G01 X12.8672 Y-1.8986
G01 X12.8715 Y-1.8981
G01 X12.8763 Y-1.8961
G01 X12.8803 Y-1.8928
G01 X12.8831 Y-1.8884
G01 X13.0251 Y-1.5345
G01 X13.0286 Y-1.5285
G01 X13.0349 Y-1.5203
G01 X13.0424 Y-1.5130
G01 X13.0509 Y-1.5070
G01 X13.0601 Y-1.5023
G01 X13.0700 Y-1.4990
G01 X13.0803 Y-1.4972
G01 X13.0872 Y-1.4968
G01 X13.0941 Y-1.4972
G01 X13.1044 Y-1.4990
G01 X13.1110 Y-1.5010
G01 X13.1205 Y-1.5053
G01 X13.1264 Y-1.5089
G01 X13.1346 Y-1.5153
G01 X13.1417 Y-1.5229
G01 X13.1476 Y-1.5315
G01 X13.1522 Y-1.5408
G01 X13.2913 Y-1.8884
G01 X13.2935 Y-1.8920
G01 X13.2966 Y-1.8950
G01 X13.3003 Y-1.8972
G01 X13.3044 Y-1.8984
G01 X13.3121 Y-1.8979
G01 X13.3160 Y-1.8963
G01 X13.3194 Y-1.8937
G01 X13.3225 Y-1.8896
G01 X13.3244 Y-1.8848
G01 X13.4706 Y-1.3365
G01 X13.4713 Y-1.3288
G01 X13.4686 Y-1.3216
G01 X13.4659 Y-1.3183
G01 X13.4616 Y-1.3154
G01 X13.4576 Y-1.3140
G01 X13.4524 Y-1.3136
G01 X13.4474 Y-1.3148
G01 X13.4430 Y-1.3174
G01 X13.4400 Y-1.3204
G01 X13.4375 Y-1.3249
G01 X13.3582 Y-1.6218
G01 X13.3534 Y-1.6347
G01 X13.3482 Y-1.6435
G01 X13.3417 Y-1.6516
G01 X13.3342 Y-1.6585
G01 X13.3257 Y-1.6643
G01 X13.3164 Y-1.6688
G01 X13.3066 Y-1.6719
G01 X13.2965 Y-1.6735
G01 X13.2896 Y-1.6738
G01 X13.2794 Y-1.6729
G01 X13.2727 Y-1.6715
G01 X13.2629 Y-1.6681
G01 X13.2568 Y-1.6651
G01 X13.2481 Y-1.6595
G01 X13.2404 Y-1.6527
G01 X13.2338 Y-1.6448
G01 X13.2301 Y-1.6390
G01 X13.2256 Y-1.6298
G01 X13.1031 Y-1.3238
G01 X13.0984 Y-1.3176
G01 X13.0923 Y-1.3143
G01 X13.0846 Y-1.3138
G01 X13.0774 Y-1.3166
G01 X13.0736 Y-1.3201
G01 X13.0706 Y-1.3254
G01 X12.9322 Y-1.6714
G00 Z1.0000
G00 X13.0630 Y-1.4575
G01 F80.00
G01 Z-0.0280
G01 F50.00
G01 X13.0761 Y-1.4554
G01 X13.0872 Y-1.4548
G01 X13.0983 Y-1.4554
G01 X13.1114 Y-1.4575
G01 X13.0872 Y-1.3970
G01 X13.0630 Y-1.4575
G00 X13.0630 Y-1.4575
G01 F80.00
G01 Z-0.0560
G01 F50.00
G01 X13.0761 Y-1.4554
G01 X13.0872 Y-1.4548
G01 X13.0983 Y-1.4554
G01 X13.1114 Y-1.4575
G01 X13.0872 Y-1.3970
G01 X13.0630 Y-1.4575
G00 Z1.0000
G00 X13.2663 Y-1.7131
G01 F80.00
G01 Z-0.0280
G01 F50.00
G01 X13.3026 Y-1.8036
G01 X13.3277 Y-1.7094
G01 X13.3109 Y-1.7139
G01 X13.2945 Y-1.7157
G01 X13.2781 Y-1.7151
G01 X13.2663 Y-1.7131
G00 X13.2663 Y-1.7131
G01 F80.00
G01 Z-0.0560
G01 F50.00
G01 X13.3026 Y-1.8036
G01 X13.3277 Y-1.7094
G01 X13.3109 Y-1.7139
G01 X13.2945 Y-1.7157
G01 X13.2781 Y-1.7151
G01 X13.2663 Y-1.7131
G00 Z1.0000
G00 X13.7786 Y-1.6970
G01 F80.00
G01 Z-0.0280
G01 F50.00
G01 X13.7792 Y-1.7027
G01 X13.8082 Y-1.8233
G01 X13.8100 Y-1.8281
G01 X13.8125 Y-1.8317
G01 X13.8157 Y-1.8345
G01 X13.8195 Y-1.8365
G01 X13.9670 Y-1.8979
G01 X13.9730 Y-1.8986
G01 X14.1180 Y-1.8986
G01 X14.1230 Y-1.8981
G01 X14.1277 Y-1.8963
G01 X14.2434 Y-1.8360
G01 X14.2490 Y-1.8319
G01 X14.2522 Y-1.8269
G01 X14.2536 Y-1.8210
G01 X14.2529 Y-1.8151
G01 X14.2503 Y-1.8097
G01 X14.2460 Y-1.8055
G01 X14.2405 Y-1.8030
G01 X14.2346 Y-1.8025
G01 X14.2272 Y-1.8048
G01 X14.1267 Y-1.8571
G01 X14.1107 Y-1.8623
G01 X14.0974 Y-1.8636
G01 X13.9862 Y-1.8635
G01 X13.9725 Y-1.8614
G01 X13.9627 Y-1.8582
G01 X13.8670 Y-1.8179
G01 X13.8611 Y-1.8144
G01 X13.8530 Y-1.8079
G01 X13.8437 Y-1.7976
G01 X13.8382 Y-1.7888
G01 X13.8331 Y-1.7760
G01 X13.8156 Y-1.7038
G01 X13.8137 Y-1.6907
G01 X13.8136 Y-1.6630
G01 X13.8144 Y-1.6528
G01 X13.8177 Y-1.6395
G01 X13.8236 Y-1.6271
G01 X13.8295 Y-1.6186
G01 X13.8392 Y-1.6089
G01 X13.8506 Y-1.6013
G01 X13.8601 Y-1.5971
G01 X13.8734 Y-1.5938
G01 X13.8836 Y-1.5930
G01 X14.2352 Y-1.5930
G01 X14.2395 Y-1.5927
G01 X14.2436 Y-1.5913
G01 X14.2479 Y-1.5885
G01 X14.2507 Y-1.5852
G01 X14.2529 Y-1.5806
G01 X14.2536 Y-1.5764
G01 X14.2536 Y-1.4542
G01 X14.2531 Y-1.4489
G01 X14.2514 Y-1.4448
G01 X14.1767 Y-1.3570
G01 X14.1717 Y-1.3527
G01 X14.1663 Y-1.3506
G01 X14.0212 Y-1.3143
G01 X14.0161 Y-1.3136
G01 X14.0110 Y-1.3143
G01 X13.8661 Y-1.3506
G01 X13.8612 Y-1.3523
G01 X13.8571 Y-1.3554
G01 X13.8540 Y-1.3595
G01 X13.7815 Y-1.4802
G01 X13.7791 Y-1.4857
G01 X13.7786 Y-1.4909
G01 X13.7786 Y-1.6970
G00 X13.7786 Y-1.6970
G01 F80.00
G01 Z-0.0560
G01 F50.00
G01 X13.7792 Y-1.7027
G01 X13.8082 Y-1.8233
G01 X13.8100 Y-1.8281
G01 X13.8125 Y-1.8317
G01 X13.8157 Y-1.8345
G01 X13.8195 Y-1.8365
G01 X13.9670 Y-1.8979
G01 X13.9730 Y-1.8986
G01 X14.1180 Y-1.8986
G01 X14.1230 Y-1.8981
G01 X14.1277 Y-1.8963
G01 X14.2434 Y-1.8360
G01 X14.2490 Y-1.8319
G01 X14.2522 Y-1.8269
G01 X14.2536 Y-1.8210
G01 X14.2529 Y-1.8151
G01 X14.2503 Y-1.8097
G01 X14.2460 Y-1.8055
G01 X14.2405 Y-1.8030
G01 X14.2346 Y-1.8025
G01 X14.2272 Y-1.8048
G01 X14.1267 Y-1.8571
G01 X14.1107 Y-1.8623
G01 X14.0974 Y-1.8636
G01 X13.9862 Y-1.8635
G01 X13.9725 Y-1.8614
G01 X13.9627 Y-1.8582
G01 X13.8670 Y-1.8179
G01 X13.8611 Y-1.8144
G01 X13.8530 Y-1.8079
G01 X13.8437 Y-1.7976
G01 X13.8382 Y-1.7888
G01 X13.8331 Y-1.7760
G01 X13.8156 Y-1.7038
G01 X13.8137 Y-1.6907
G01 X13.8136 Y-1.6630
G01 X13.8144 Y-1.6528
G01 X13.8177 Y-1.6395
G01 X13.8236 Y-1.6271
G01 X13.8295 Y-1.6186
G01 X13.8392 Y-1.6089
G01 X13.8506 Y-1.6013
G01 X13.8601 Y-1.5971
G01 X13.8734 Y-1.5938
G01 X13.8836 Y-1.5930
G01 X14.2352 Y-1.5930
G01 X14.2395 Y-1.5927
G01 X14.2436 Y-1.5913
G01 X14.2479 Y-1.5885
G01 X14.2507 Y-1.5852
G01 X14.2529 Y-1.5806
G01 X14.2536 Y-1.5764
G01 X14.2536 Y-1.4542
G01 X14.2531 Y-1.4489
G01 X14.2514 Y-1.4448
G01 X14.1767 Y-1.3570
G01 X14.1717 Y-1.3527
G01 X14.1663 Y-1.3506
G01 X14.0212 Y-1.3143
G01 X14.0161 Y-1.3136
G01 X14.0110 Y-1.3143
G01 X13.8661 Y-1.3506
G01 X13.8612 Y-1.3523
G01 X13.8571 Y-1.3554
G01 X13.8540 Y-1.3595
G01 X13.7815 Y-1.4802
G01 X13.7791 Y-1.4857
G01 X13.7786 Y-1.4909
G01 X13.7786 Y-1.6970
G00 Z1.0000
G00 X13.8206 Y-1.5705
G01 F80.00
G01 Z-0.0280
G01 F50.00
G01 X13.8225 Y-1.5693
G01 X13.8206 Y-1.5674
G01 X13.8206 Y-1.5705
G00 X13.8206 Y-1.5705
G01 F80.00
G01 Z-0.0560
G01 F50.00
G01 X13.8225 Y-1.5693
G01 X13.8206 Y-1.5674
G01 X13.8206 Y-1.5705
G00 Z1.0000
G00 X13.8994 Y-1.5580
G01 F80.00
G01 Z-0.0280
G01 F50.00
G01 X14.1486 Y-1.5580
G01 X14.1588 Y-1.5572
G01 X14.1689 Y-1.5549
G01 X14.1816 Y-1.5497
G01 X14.1930 Y-1.5421
G01 X14.2027 Y-1.5324
G01 X14.2103 Y-1.5210
G01 X14.2155 Y-1.5083
G01 X14.2182 Y-1.4948
G01 X14.2182 Y-1.4786
G01 X14.2154 Y-1.4648
G01 X14.2114 Y-1.4549
G01 X14.2039 Y-1.4429
G01 X14.1654 Y-1.3979
G01 X14.1527 Y-1.3873
G01 X14.1440 Y-1.3825
G01 X14.1347 Y-1.3789
G01 X14.0331 Y-1.3534
G01 X14.0264 Y-1.3521
G01 X14.0161 Y-1.3513
G01 X14.0058 Y-1.3521
G01 X13.9991 Y-1.3534
G01 X13.9056 Y-1.3769
G01 X13.8960 Y-1.3806
G01 X13.8870 Y-1.3857
G01 X13.8789 Y-1.3920
G01 X13.8697 Y-1.4022
G01 X13.8362 Y-1.4580
G01 X13.8316 Y-1.4709
G01 X13.8295 Y-1.4845
G01 X13.8298 Y-1.4948
G01 X13.8308 Y-1.5016
G01 X13.8348 Y-1.5147
G01 X13.8412 Y-1.5268
G01 X13.8499 Y-1.5374
G01 X13.8605 Y-1.5461
G01 X13.8727 Y-1.5526
G01 X13.8858 Y-1.5566
G01 X13.8994 Y-1.5580
G00 X13.8994 Y-1.5580
G01 F80.00
G01 Z-0.0560
G01 F50.00
G01 X14.1486 Y-1.5580
G01 X14.1588 Y-1.5572
G01 X14.1689 Y-1.5549
G01 X14.1816 Y-1.5497
G01 X14.1930 Y-1.5421
G01 X14.2027 Y-1.5324
G01 X14.2103 Y-1.5210
G01 X14.2155 Y-1.5083
G01 X14.2182 Y-1.4948
G01 X14.2182 Y-1.4786
G01 X14.2154 Y-1.4648
G01 X14.2114 Y-1.4549
G01 X14.2039 Y-1.4429
G01 X14.1654 Y-1.3979
G01 X14.1527 Y-1.3873
G01 X14.1440 Y-1.3825
G01 X14.1347 Y-1.3789
G01 X14.0331 Y-1.3534
G01 X14.0264 Y-1.3521
G01 X14.0161 Y-1.3513
G01 X14.0058 Y-1.3521
G01 X13.9991 Y-1.3534
G01 X13.9056 Y-1.3769
G01 X13.8960 Y-1.3806
G01 X13.8870 Y-1.3857
G01 X13.8789 Y-1.3920
G01 X13.8697 Y-1.4022
G01 X13.8362 Y-1.4580
G01 X13.8316 Y-1.4709
G01 X13.8295 Y-1.4845
G01 X13.8298 Y-1.4948
G01 X13.8308 Y-1.5016
G01 X13.8348 Y-1.5147
G01 X13.8412 Y-1.5268
G01 X13.8499 Y-1.5374
G01 X13.8605 Y-1.5461
G01 X13.8727 Y-1.5526
G01 X13.8858 Y-1.5566
G01 X13.8994 Y-1.5580
G00 Z1.0000
G00 X14.5608 Y-1.3320
G01 F80.00
G01 Z-0.0280
G01 F50.00
G01 X14.5608 Y-1.8820
G01 X14.5625 Y-1.8886
G01 X14.5665 Y-1.8941
G01 X14.5724 Y-1.8976
G01 X14.5792 Y-1.8986
G01 X14.5858 Y-1.8969
G01 X14.5907 Y-1.8935
G01 X14.5941 Y-1.8886
G01 X14.5958 Y-1.8820
G01 X14.5958 Y-1.4943
G01 X14.5979 Y-1.4774
G01 X14.6040 Y-1.4616
G01 X14.6115 Y-1.4502
G01 X14.6210 Y-1.4405
G01 X14.7119 Y-1.3649
G01 X14.7174 Y-1.3607
G01 X14.7265 Y-1.3555
G01 X14.7395 Y-1.3508
G01 X14.7532 Y-1.3487
G01 X14.8743 Y-1.3484
G01 X14.8800 Y-1.3466
G01 X14.8852 Y-1.3422
G01 X14.8882 Y-1.3370
G01 X14.8892 Y-1.3302
G01 X14.8875 Y-1.3236
G01 X14.8841 Y-1.3187
G01 X14.8792 Y-1.3153
G01 X14.8734 Y-1.3137
G01 X14.7233 Y-1.3137
G01 X14.7190 Y-1.3146
G01 X14.7152 Y-1.3166
G01 X14.6916 Y-1.3360
G01 X14.6800 Y-1.3431
G01 X14.6639 Y-1.3486
G01 X14.6504 Y-1.3501
G01 X14.6336 Y-1.3483
G01 X14.6176 Y-1.3425
G01 X14.6036 Y-1.3330
G01 X14.5894 Y-1.3176
G01 X14.5858 Y-1.3153
G01 X14.5817 Y-1.3139
G01 X14.5740 Y-1.3141
G01 X14.5672 Y-1.3176
G01 X14.5625 Y-1.3236
G01 X14.5611 Y-1.3277
G01 X14.5608 Y-1.3320
G00 X14.5608 Y-1.3320
G01 F80.00
G01 Z-0.0560
G01 F50.00
G01 X14.5608 Y-1.8820
G01 X14.5625 Y-1.8886
G01 X14.5665 Y-1.8941
G01 X14.5724 Y-1.8976
G01 X14.5792 Y-1.8986
G01 X14.5858 Y-1.8969
G01 X14.5907 Y-1.8935
G01 X14.5941 Y-1.8886
G01 X14.5958 Y-1.8820
G01 X14.5958 Y-1.4943
G01 X14.5979 Y-1.4774
G01 X14.6040 Y-1.4616
G01 X14.6115 Y-1.4502
G01 X14.6210 Y-1.4405
G01 X14.7119 Y-1.3649
G01 X14.7174 Y-1.3607
G01 X14.7265 Y-1.3555
G01 X14.7395 Y-1.3508
G01 X14.7532 Y-1.3487
G01 X14.8743 Y-1.3484
G01 X14.8800 Y-1.3466
G01 X14.8852 Y-1.3422
G01 X14.8882 Y-1.3370
G01 X14.8892 Y-1.3302
G01 X14.8875 Y-1.3236
G01 X14.8841 Y-1.3187
G01 X14.8792 Y-1.3153
G01 X14.8734 Y-1.3137
G01 X14.7233 Y-1.3137
G01 X14.7190 Y-1.3146
G01 X14.7152 Y-1.3166
G01 X14.6916 Y-1.3360
G01 X14.6800 Y-1.3431
G01 X14.6639 Y-1.3486
G01 X14.6504 Y-1.3501
G01 X14.6336 Y-1.3483
G01 X14.6176 Y-1.3425
G01 X14.6036 Y-1.3330
G01 X14.5894 Y-1.3176
G01 X14.5858 Y-1.3153
G01 X14.5817 Y-1.3139
G01 X14.5740 Y-1.3141
G01 X14.5672 Y-1.3176
G01 X14.5625 Y-1.3236
G01 X14.5611 Y-1.3277
G01 X14.5608 Y-1.3320
G00 Z1.0000
G00 X14.6028 Y-1.3819
G01 F80.00
G01 Z-0.0280
G01 F50.00
G01 X14.6028 Y-1.4011
G01 X14.6187 Y-1.3878
G01 X14.6028 Y-1.3819
G00 X14.6028 Y-1.3819
G01 F80.00
G01 Z-0.0560
G01 F50.00
G01 X14.6028 Y-1.4011
G01 X14.6187 Y-1.3878
G01 X14.6028 Y-1.3819
G00 Z1.0000
G00 X15.7423 Y-1.4932
G01 F80.00
G01 Z-0.0280
G01 F50.00
G01 X15.7440 Y-1.4928
G01 X15.7430 Y-1.4913
G01 X15.7423 Y-1.4932
G00 X15.7423 Y-1.4932
G01 F80.00
G01 Z-0.0560
G01 F50.00
G01 X15.7440 Y-1.4928
G01 X15.7430 Y-1.4913
G01 X15.7423 Y-1.4932
G00 Z1.0000
G00 X15.8346 Y-1.4969
G01 F80.00
G01 Z-0.0280
G01 F50.00
G01 X16.0402 Y-1.4969
G01 X16.0540 Y-1.4955
G01 X16.0640 Y-1.4927
G01 X16.0704 Y-1.4900
G01 X16.0794 Y-1.4849
G01 X16.0876 Y-1.4784
G01 X16.0947 Y-1.4709
G01 X16.1006 Y-1.4624
G01 X16.1052 Y-1.4530
G01 X16.1074 Y-1.4465
G01 X16.1096 Y-1.4363
G01 X16.1102 Y-1.4260
G01 X16.1093 Y-1.4156
G01 X16.1069 Y-1.4055
G01 X16.0016 Y-1.1248
G01 X15.9968 Y-1.1156
G01 X15.9929 Y-1.1099
G01 X15.9834 Y-1.0999
G01 X15.9721 Y-1.0918
G01 X15.9660 Y-1.0887
G01 X15.9562 Y-1.0852
G01 X15.9426 Y-1.0828
G01 X15.9322 Y-1.0828
G01 X15.9219 Y-1.0843
G01 X15.9088 Y-1.0887
G01 X15.8968 Y-1.0956
G01 X15.8888 Y-1.1022
G01 X15.8819 Y-1.1099
G01 X15.8762 Y-1.1186
G01 X15.8719 Y-1.1280
G01 X15.7679 Y-1.4055
G01 X15.7655 Y-1.4156
G01 X15.7647 Y-1.4225
G01 X15.7646 Y-1.4294
G01 X15.7658 Y-1.4398
G01 X15.7696 Y-1.4530
G01 X15.7742 Y-1.4624
G01 X15.7780 Y-1.4681
G01 X15.7872 Y-1.4784
G01 X15.7926 Y-1.4829
G01 X15.8013 Y-1.4885
G01 X15.8076 Y-1.4914
G01 X15.8174 Y-1.4947
G01 X15.8242 Y-1.4961
G01 X15.8346 Y-1.4969
G00 X15.8346 Y-1.4969
G01 F80.00
G01 Z-0.0560
G01 F50.00
G01 X16.0402 Y-1.4969
G01 X16.0540 Y-1.4955
G01 X16.0640 Y-1.4927
G01 X16.0704 Y-1.4900
G01 X16.0794 Y-1.4849
G01 X16.0876 Y-1.4784
G01 X16.0947 Y-1.4709
G01 X16.1006 Y-1.4624
G01 X16.1052 Y-1.4530
G01 X16.1074 Y-1.4465
G01 X16.1096 Y-1.4363
G01 X16.1102 Y-1.4260
G01 X16.1093 Y-1.4156
G01 X16.1069 Y-1.4055
G01 X16.0016 Y-1.1248
G01 X15.9968 Y-1.1156
G01 X15.9929 Y-1.1099
G01 X15.9834 Y-1.0999
G01 X15.9721 Y-1.0918
G01 X15.9660 Y-1.0887
G01 X15.9562 Y-1.0852
G01 X15.9426 Y-1.0828
G01 X15.9322 Y-1.0828
G01 X15.9219 Y-1.0843
G01 X15.9088 Y-1.0887
G01 X15.8968 Y-1.0956
G01 X15.8888 Y-1.1022
G01 X15.8819 Y-1.1099
G01 X15.8762 Y-1.1186
G01 X15.8719 Y-1.1280
G01 X15.7679 Y-1.4055
G01 X15.7655 Y-1.4156
G01 X15.7647 Y-1.4225
G01 X15.7646 Y-1.4294
G01 X15.7658 Y-1.4398
G01 X15.7696 Y-1.4530
G01 X15.7742 Y-1.4624
G01 X15.7780 Y-1.4681
G01 X15.7872 Y-1.4784
G01 X15.7926 Y-1.4829
G01 X15.8013 Y-1.4885
G01 X15.8076 Y-1.4914
G01 X15.8174 Y-1.4947
G01 X15.8242 Y-1.4961
G01 X15.8346 Y-1.4969
G00 Z1.0000
G00 X16.1059 Y-1.5319
G01 F80.00
G01 Z-0.0280
G01 F50.00
G01 X16.1227 Y-1.5340
G01 X16.1324 Y-1.5371
G01 X16.1415 Y-1.5417
G01 X16.1499 Y-1.5475
G01 X16.1573 Y-1.5544
G01 X16.1672 Y-1.5681
G01 X16.1715 Y-1.5774
G01 X16.2880 Y-1.8881
G01 X16.2925 Y-1.8943
G01 X16.2984 Y-1.8977
G01 X16.3061 Y-1.8985
G01 X16.3126 Y-1.8964
G01 X16.3173 Y-1.8927
G01 X16.3207 Y-1.8868
G01 X16.3216 Y-1.8808
G01 X16.3202 Y-1.8741
G01 X15.9541 Y-0.8980
G01 X15.9507 Y-0.8919
G01 X15.9453 Y-0.8877
G01 X15.9396 Y-0.8859
G01 X15.9327 Y-0.8864
G01 X15.9287 Y-0.8881
G01 X15.9252 Y-0.8907
G01 X15.9225 Y-0.8940
G01 X15.9207 Y-0.8980
G01 X15.5546 Y-1.8741
G01 X15.5534 Y-1.8783
G01 X15.5532 Y-1.8826
G01 X15.5541 Y-1.8868
G01 X15.5560 Y-1.8906
G01 X15.5594 Y-1.8945
G01 X15.5630 Y-1.8968
G01 X15.5670 Y-1.8982
G01 X15.5722 Y-1.8986
G01 X15.5772 Y-1.8974
G01 X15.5809 Y-1.8953
G01 X15.5841 Y-1.8924
G01 X15.5864 Y-1.8888
G01 X15.7046 Y-1.5742
G01 X15.7093 Y-1.5652
G01 X15.7153 Y-1.5569
G01 X15.7224 Y-1.5497
G01 X15.7304 Y-1.5435
G01 X15.7456 Y-1.5359
G01 X15.7554 Y-1.5333
G01 X15.7655 Y-1.5320
G01 X16.1059 Y-1.5319
G00 X16.1059 Y-1.5319
G01 F80.00
G01 Z-0.0560
G01 F50.00
G01 X16.1227 Y-1.5340
G01 X16.1324 Y-1.5371
G01 X16.1415 Y-1.5417
G01 X16.1499 Y-1.5475
G01 X16.1573 Y-1.5544
G01 X16.1672 Y-1.5681
G01 X16.1715 Y-1.5774
G01 X16.2880 Y-1.8881
G01 X16.2925 Y-1.8943
G01 X16.2984 Y-1.8977
G01 X16.3061 Y-1.8985
G01 X16.3126 Y-1.8964
G01 X16.3173 Y-1.8927
G01 X16.3207 Y-1.8868
G01 X16.3216 Y-1.8808
G01 X16.3202 Y-1.8741
G01 X15.9541 Y-0.8980
G01 X15.9507 Y-0.8919
G01 X15.9453 Y-0.8877
G01 X15.9396 Y-0.8859
G01 X15.9327 Y-0.8864
G01 X15.9287 Y-0.8881
G01 X15.9252 Y-0.8907
G01 X15.9225 Y-0.8940
G01 X15.9207 Y-0.8980
G01 X15.5546 Y-1.8741
G01 X15.5534 Y-1.8783
G01 X15.5532 Y-1.8826
G01 X15.5541 Y-1.8868
G01 X15.5560 Y-1.8906
G01 X15.5594 Y-1.8945
G01 X15.5630 Y-1.8968
G01 X15.5670 Y-1.8982
G01 X15.5722 Y-1.8986
G01 X15.5772 Y-1.8974
G01 X15.5809 Y-1.8953
G01 X15.5841 Y-1.8924
G01 X15.5864 Y-1.8888
G01 X15.7046 Y-1.5742
G01 X15.7093 Y-1.5652
G01 X15.7153 Y-1.5569
G01 X15.7224 Y-1.5497
G01 X15.7304 Y-1.5435
G01 X15.7456 Y-1.5359
G01 X15.7554 Y-1.5333
G01 X15.7655 Y-1.5320
G01 X16.1059 Y-1.5319
G00 Z1.0000
G00 X16.1308 Y-1.4928
G01 F80.00
G01 Z-0.0280
G01 F50.00
G01 X16.1325 Y-1.4932
G01 X16.1318 Y-1.4913
G01 X16.1308 Y-1.4928
G00 X16.1308 Y-1.4928
G01 F80.00
G01 Z-0.0560
G01 F50.00
G01 X16.1325 Y-1.4932
G01 X16.1318 Y-1.4913
G01 X16.1308 Y-1.4928
G00 Z1.0000
G00 X15.9640 Y-1.0438
G01 F80.00
G01 Z-0.0280
G01 F50.00
G01 X15.9374 Y-0.9729
G01 X15.9108 Y-1.0438
G01 X15.9236 Y-1.0415
G01 X15.9346 Y-1.0406
G01 X15.9512 Y-1.0415
G01 X15.9640 Y-1.0438
G00 X15.9640 Y-1.0438
G01 F80.00
G01 Z-0.0560
G01 F50.00
G01 X15.9374 Y-0.9729
G01 X15.9108 Y-1.0438
G01 X15.9236 Y-1.0415
G01 X15.9346 Y-1.0406
G01 X15.9512 Y-1.0415
G01 X15.9640 Y-1.0438
G00 Z1.0000
G00 X16.7318 Y-2.0800
G01 F80.00
G01 Z-0.0280
G01 F50.00
G01 X16.7251 Y-2.0877
G01 X16.7145 Y-2.0963
G01 X16.7056 Y-2.1013
G01 X16.6960 Y-2.1050
G01 X16.6827 Y-2.1076
G01 X16.6453 Y-2.1080
G01 X16.6379 Y-2.1100
G01 X16.6327 Y-2.1144
G01 X16.6294 Y-2.1204
G01 X16.6288 Y-2.1272
G01 X16.6307 Y-2.1338
G01 X16.6338 Y-2.1379
G01 X16.6372 Y-2.1405
G01 X16.6411 Y-2.1423
G01 X16.6453 Y-2.1430
G01 X16.7205 Y-2.1430
G01 X16.7247 Y-2.1423
G01 X16.7286 Y-2.1406
G01 X16.7341 Y-2.1353
G01 X16.8064 Y-2.0390
G01 X16.8087 Y-2.0354
G01 X16.8101 Y-2.0312
G01 X16.8104 Y-1.3320
G01 X16.8094 Y-1.3252
G01 X16.8059 Y-1.3193
G01 X16.8004 Y-1.3153
G01 X16.7946 Y-1.3137
G01 X16.7870 Y-1.3146
G01 X16.7811 Y-1.3181
G01 X16.7771 Y-1.3236
G01 X16.7754 Y-1.3302
G01 X16.7750 Y-2.0055
G01 X16.7723 Y-2.0191
G01 X16.7699 Y-2.0256
G01 X16.7652 Y-2.0349
G01 X16.7318 Y-2.0800
G00 X16.7318 Y-2.0800
G01 F80.00
G01 Z-0.0560
G01 F50.00
G01 X16.7251 Y-2.0877
G01 X16.7145 Y-2.0963
G01 X16.7056 Y-2.1013
G01 X16.6960 Y-2.1050
G01 X16.6827 Y-2.1076
G01 X16.6453 Y-2.1080
G01 X16.6379 Y-2.1100
G01 X16.6327 Y-2.1144
G01 X16.6294 Y-2.1204
G01 X16.6288 Y-2.1272
G01 X16.6307 Y-2.1338
G01 X16.6338 Y-2.1379
G01 X16.6372 Y-2.1405
G01 X16.6411 Y-2.1423
G01 X16.6453 Y-2.1430
G01 X16.7205 Y-2.1430
G01 X16.7247 Y-2.1423
G01 X16.7286 Y-2.1406
G01 X16.7341 Y-2.1353
G01 X16.8064 Y-2.0390
G01 X16.8087 Y-2.0354
G01 X16.8101 Y-2.0312
G01 X16.8104 Y-1.3320
G01 X16.8094 Y-1.3252
G01 X16.8059 Y-1.3193
G01 X16.8004 Y-1.3153
G01 X16.7946 Y-1.3137
G01 X16.7870 Y-1.3146
G01 X16.7811 Y-1.3181
G01 X16.7771 Y-1.3236
G01 X16.7754 Y-1.3302
G01 X16.7750 Y-2.0055
G01 X16.7723 Y-2.0191
G01 X16.7699 Y-2.0256
G01 X16.7652 Y-2.0349
G01 X16.7318 Y-2.0800
G00 Z1.0000
G00 X23.1286 Y-3.6413
G01 F80.00
G01 Z-0.0280
G01 F50.00
G01 X23.1275 Y-3.6872
G01 X23.1286 Y-3.7331
G01 X23.1320 Y-3.7806
G01 X23.1378 Y-3.8278
G01 X23.1465 Y-3.8781
G01 X23.1570 Y-3.9245
G01 X23.1698 Y-3.9704
G01 X23.1848 Y-4.0156
G01 X23.2020 Y-4.0599
G01 X23.2213 Y-4.1033
G01 X23.2412 Y-4.1429
G01 X23.2646 Y-4.1844
G01 X23.2900 Y-4.2247
G01 X23.3194 Y-4.2664
G01 X23.3488 Y-4.3039
G01 X23.3794 Y-4.3392
G01 X23.4116 Y-4.3731
G01 X23.4448 Y-4.4048
G01 X23.4808 Y-4.4359
G01 X23.5183 Y-4.4653
G01 X23.5600 Y-4.4947
G01 X23.6003 Y-4.5201
G01 X23.6417 Y-4.5434
G01 X23.6814 Y-4.5634
G01 X23.7247 Y-4.5827
G01 X23.7691 Y-4.5999
G01 X23.8143 Y-4.6149
G01 X23.8635 Y-4.6285
G01 X23.9100 Y-4.6389
G01 X23.9569 Y-4.6469
G01 X24.0041 Y-4.6527
G01 X24.0508 Y-4.6561
G01 X24.0975 Y-4.6572
G01 X24.1434 Y-4.6561
G01 X24.1909 Y-4.6527
G01 X24.2381 Y-4.6469
G01 X24.2850 Y-4.6389
G01 X24.3315 Y-4.6285
G01 X24.3774 Y-4.6159
G01 X24.4227 Y-4.6011
G01 X24.4671 Y-4.5840
G01 X24.5107 Y-4.5648
G01 X24.5563 Y-4.5418
G01 X24.5976 Y-4.5183
G01 X24.6378 Y-4.4928
G01 X24.6739 Y-4.4673
G01 X24.7115 Y-4.4381
G01 X24.7495 Y-4.4053
G01 X24.7834 Y-4.3731
G01 X24.8151 Y-4.3399
G01 X24.8462 Y-4.3039
G01 X24.8756 Y-4.2664
G01 X24.9031 Y-4.2275
G01 X24.9286 Y-4.1873
G01 X24.9521 Y-4.1460
G01 X24.9737 Y-4.1033
G01 X24.9930 Y-4.0600
G01 X25.0132 Y-4.0068
G01 X25.5401 Y-4.0065
G01 X25.5402 Y-4.7832
G01 X25.5409 Y-4.7901
G01 X25.5431 Y-4.8001
G01 X25.5454 Y-4.8066
G01 X25.5501 Y-4.8158
G01 X25.5539 Y-4.8215
G01 X25.5606 Y-4.8293
G01 X25.5657 Y-4.8339
G01 X25.5741 Y-4.8398
G01 X25.5833 Y-4.8445
G01 X25.5931 Y-4.8477
G01 X25.6032 Y-4.8495
G01 X25.6101 Y-4.8498
G01 X27.0101 Y-4.8498
G01 X27.0204 Y-4.8490
G01 X27.0304 Y-4.8468
G01 X27.0431 Y-4.8415
G01 X27.0545 Y-4.8339
G01 X27.0620 Y-4.8268
G01 X27.0701 Y-4.8158
G01 X27.0748 Y-4.8066
G01 X27.0788 Y-4.7935
G01 X27.0800 Y-4.7832
G01 X27.0801 Y-4.0056
G01 X27.4713 Y-4.0054
G01 X27.4725 Y-4.0515
G01 X27.4757 Y-4.0956
G01 X27.4815 Y-4.1428
G01 X27.4895 Y-4.1897
G01 X27.4999 Y-4.2362
G01 X27.5125 Y-4.2821
G01 X27.5274 Y-4.3275
G01 X27.5444 Y-4.3718
G01 X27.5636 Y-4.4154
G01 X27.5849 Y-4.4579
G01 X27.6083 Y-4.4994
G01 X27.6356 Y-4.5425
G01 X27.6631 Y-4.5814
G01 X27.6925 Y-4.6189
G01 X27.7231 Y-4.6542
G01 X27.7553 Y-4.6881
G01 X27.7911 Y-4.7221
G01 X27.8272 Y-4.7531
G01 X27.8620 Y-4.7803
G01 X27.9009 Y-4.8078
G01 X27.9411 Y-4.8333
G01 X27.9824 Y-4.8568
G01 X28.0251 Y-4.8784
G01 X28.0684 Y-4.8977
G01 X28.1128 Y-4.9149
G01 X28.1580 Y-4.9299
G01 X28.2038 Y-4.9427
G01 X28.2503 Y-4.9532
G01 X28.2972 Y-4.9614
G01 X28.3444 Y-4.9673
G01 X28.3945 Y-4.9711
G01 X28.4412 Y-4.9722
G01 X28.4871 Y-4.9711
G01 X28.5346 Y-4.9677
G01 X28.5852 Y-4.9614
G01 X28.6321 Y-4.9532
G01 X28.6752 Y-4.9435
G01 X28.7244 Y-4.9299
G01 X28.7665 Y-4.9160
G01 X28.8108 Y-4.8990
G01 X28.8573 Y-4.8784
G01 X28.8969 Y-4.8585
G01 X28.9384 Y-4.8351
G01 X28.9815 Y-4.8078
G01 X29.0176 Y-4.7823
G01 X29.0552 Y-4.7531
G01 X29.0939 Y-4.7198
G01 X29.1271 Y-4.6881
G01 X29.1588 Y-4.6549
G01 X29.1921 Y-4.6162
G01 X29.2193 Y-4.5814
G01 X29.2468 Y-4.5425
G01 X29.2741 Y-4.4994
G01 X29.2974 Y-4.4580
G01 X29.3174 Y-4.4183
G01 X29.3380 Y-4.3718
G01 X29.3550 Y-4.3275
G01 X29.3689 Y-4.2854
G01 X29.3817 Y-4.2396
G01 X29.3922 Y-4.1931
G01 X29.4009 Y-4.1428
G01 X29.4067 Y-4.0956
G01 X29.4101 Y-4.0489
G01 X29.4112 Y-4.0022
G01 X29.4099 Y-3.9529
G01 X29.4063 Y-3.9054
G01 X29.4004 Y-3.8582
G01 X29.3922 Y-3.8113
G01 X29.3817 Y-3.7649
G01 X29.3689 Y-3.7190
G01 X29.3550 Y-3.6769
G01 X29.3380 Y-3.6326
G01 X29.3188 Y-3.5890
G01 X29.2975 Y-3.5465
G01 X29.2741 Y-3.5050
G01 X29.2468 Y-3.4619
G01 X29.2193 Y-3.4230
G01 X29.1899 Y-3.3855
G01 X29.1593 Y-3.3502
G01 X29.1271 Y-3.3163
G01 X29.0913 Y-3.2823
G01 X29.0552 Y-3.2513
G01 X29.0176 Y-3.2221
G01 X28.9787 Y-3.1947
G01 X28.9384 Y-3.1693
G01 X28.8970 Y-3.1460
G01 X28.8544 Y-3.1246
G01 X28.8108 Y-3.1054
G01 X28.7696 Y-3.0895
G01 X28.7363 Y-3.0784
G01 X28.7363 Y-2.9338
G01 X29.0731 Y-2.9335
G01 X29.0832 Y-2.9317
G01 X29.0898 Y-2.9297
G01 X29.0961 Y-2.9271
G01 X29.1051 Y-2.9220
G01 X29.1132 Y-2.9157
G01 X29.1181 Y-2.9108
G01 X29.1262 Y-2.8998
G01 X29.1309 Y-2.8906
G01 X29.1332 Y-2.8841
G01 X29.1354 Y-2.8741
G01 X29.1362 Y-2.8638
G01 X29.1362 Y-1.8682
G01 X29.6458 Y-1.4313
G01 X51.6409 Y-1.4313
G01 X51.6410 Y-3.3797
G01 X49.4239 Y-5.5741
G01 X46.7120 Y-5.5741
G01 X46.6921 Y-5.5750
G01 X46.6708 Y-5.5780
G01 X46.6465 Y-5.5841
G01 X46.6294 Y-5.5902
G01 X46.6165 Y-5.5959
G01 X46.5912 Y-5.6103
G01 X46.5711 Y-5.6252
G01 X46.5564 Y-5.6386
G01 X46.4166 Y-5.7786
G01 X46.4073 Y-5.7894
G01 X46.3965 Y-5.8040
G01 X46.3836 Y-5.8255
G01 X46.3746 Y-5.8449
G01 X46.3674 Y-5.8655
G01 X46.3623 Y-5.8865
G01 X46.3593 Y-5.9078
G01 X46.3584 Y-5.9277
G01 X46.3584 Y-6.1639
G01 X43.0846 Y-6.1678
G01 X43.0717 Y-6.1646
G01 X43.0614 Y-6.1638
G01 X41.9614 Y-6.1638
G01 X41.9477 Y-6.1651
G01 X41.9346 Y-6.1691
G01 X39.4824 Y-6.1721
G01 X39.4444 Y-6.1741
G01 X39.4118 Y-6.1789
G01 X39.3941 Y-6.1829
G01 X39.3592 Y-6.1933
G01 X39.3423 Y-6.1998
G01 X39.3228 Y-6.2084
G01 X39.3064 Y-6.2168
G01 X39.2879 Y-6.2276
G01 X39.0006 Y-6.2277
G01 X38.9903 Y-6.2289
G01 X38.9772 Y-6.2329
G01 X38.9651 Y-6.2394
G01 X38.9545 Y-6.2481
G01 X38.9458 Y-6.2587
G01 X38.9407 Y-6.2677
G01 X38.9361 Y-6.2806
G01 X38.9341 Y-6.2942
G01 X38.9340 Y-6.6664
G01 X38.1451 Y-6.6655
G01 X38.1451 Y-6.2849
G01 X38.1443 Y-6.2746
G01 X38.1421 Y-6.2646
G01 X38.1384 Y-6.2550
G01 X38.1333 Y-6.2460
G01 X38.1270 Y-6.2379
G01 X38.1195 Y-6.2308
G01 X38.1081 Y-6.2232
G01 X38.0987 Y-6.2190
G01 X38.0888 Y-6.2162
G01 X38.0751 Y-6.2149
G01 X36.7751 Y-6.2149
G01 X36.7648 Y-6.2157
G01 X36.7548 Y-6.2179
G01 X36.7421 Y-6.2232
G01 X36.7307 Y-6.2308
G01 X36.7232 Y-6.2379
G01 X36.7169 Y-6.2460
G01 X36.7104 Y-6.2581
G01 X36.7064 Y-6.2712
G01 X36.7052 Y-6.2815
G01 X36.7051 Y-7.6849
G01 X36.7064 Y-7.6986
G01 X36.7092 Y-7.7085
G01 X36.7151 Y-7.7209
G01 X36.7232 Y-7.7319
G01 X36.7334 Y-7.7411
G01 X36.7452 Y-7.7482
G01 X36.7581 Y-7.7528
G01 X36.7717 Y-7.7548
G01 X38.0751 Y-7.7549
G01 X38.0820 Y-7.7546
G01 X38.0921 Y-7.7528
G01 X38.1019 Y-7.7496
G01 X38.1111 Y-7.7449
G01 X38.1195 Y-7.7390
G01 X38.1270 Y-7.7319
G01 X38.1333 Y-7.7238
G01 X38.1384 Y-7.7148
G01 X38.1421 Y-7.7052
G01 X38.1448 Y-7.6918
G01 X38.1451 Y-7.3058
G01 X38.9340 Y-7.3066
G01 X38.9340 Y-7.5976
G01 X38.9348 Y-7.6079
G01 X38.9381 Y-7.6212
G01 X38.9423 Y-7.6306
G01 X38.9478 Y-7.6393
G01 X38.9545 Y-7.6471
G01 X38.9623 Y-7.6538
G01 X38.9710 Y-7.6593
G01 X38.9837 Y-7.6646
G01 X38.9937 Y-7.6668
G01 X39.0040 Y-7.6676
G01 X40.6040 Y-7.6676
G01 X40.6177 Y-7.6663
G01 X40.6276 Y-7.6635
G01 X40.6370 Y-7.6593
G01 X40.6484 Y-7.6517
G01 X40.6559 Y-7.6446
G01 X40.6622 Y-7.6365
G01 X40.6673 Y-7.6275
G01 X40.6710 Y-7.6179
G01 X40.6737 Y-7.6045
G01 X40.6740 Y-6.9109
G01 X46.3857 Y-6.9041
G01 X47.0853 Y-7.6037
G01 X47.0997 Y-7.6174
G01 X47.1251 Y-7.6383
G01 X47.1428 Y-7.6507
G01 X47.1710 Y-7.6676
G01 X47.1903 Y-7.6773
G01 X47.2207 Y-7.6899
G01 X47.2412 Y-7.6967
G01 X47.2731 Y-7.7047
G01 X47.2940 Y-7.7083
G01 X47.3271 Y-7.7116
G01 X47.3470 Y-7.7122
G01 X51.0800 Y-7.7122
G01 X51.1180 Y-7.7102
G01 X51.1360 Y-7.7079
G01 X51.1578 Y-7.7038
G01 X51.7648 Y-7.7037
G01 X51.7751 Y-7.7025
G01 X51.7850 Y-7.6997
G01 X51.7944 Y-7.6955
G01 X51.8003 Y-7.6920
G01 X51.8084 Y-7.6857
G01 X51.8359 Y-7.6583
G01 X52.1466 Y-7.6602
G01 X52.1466 Y-8.6104
G01 X51.8380 Y-8.6114
G01 X51.8084 Y-8.5819
G01 X51.8003 Y-8.5756
G01 X51.7913 Y-8.5705
G01 X51.7817 Y-8.5668
G01 X51.7751 Y-8.5651
G01 X51.7648 Y-8.5639
G01 X50.6580 Y-8.5639
G01 X50.6444 Y-8.5659
G01 X50.6346 Y-8.5691
G01 X50.6254 Y-8.5738
G01 X50.6144 Y-8.5819
G01 X50.5095 Y-8.6868
G01 X50.5032 Y-8.6949
G01 X50.4997 Y-8.7008
G01 X50.4955 Y-8.7102
G01 X50.4935 Y-8.7168
G01 X50.4917 Y-8.7269
G01 X50.4914 Y-8.7338
G01 X50.4914 Y-9.1338
G01 X50.4917 Y-9.1407
G01 X50.4935 Y-9.1508
G01 X50.4967 Y-9.1606
G01 X50.4997 Y-9.1668
G01 X50.5052 Y-9.1755
G01 X50.5095 Y-9.1808
G01 X50.6119 Y-9.2833
G01 X50.6225 Y-9.2920
G01 X50.6315 Y-9.2971
G01 X50.6444 Y-9.3017
G01 X50.6511 Y-9.3030
G01 X50.6614 Y-9.3038
G01 X51.7648 Y-9.3037
G01 X51.7717 Y-9.3030
G01 X51.7817 Y-9.3008
G01 X51.7913 Y-9.2971
G01 X51.8003 Y-9.2920
G01 X51.8109 Y-9.2833
G01 X51.8426 Y-9.2516
G01 X52.4694 Y-9.2496
G01 X52.5007 Y-9.2478
G01 X52.5283 Y-9.2436
G01 X52.5436 Y-9.2402
G01 X52.5768 Y-9.2301
G01 X52.5915 Y-9.2243
G01 X52.6167 Y-9.2123
G01 X52.6436 Y-9.1963
G01 X52.6715 Y-9.1755
G01 X52.6922 Y-9.1567
G01 X52.7031 Y-9.1454
G01 X52.7230 Y-9.1212
G01 X52.7406 Y-9.0952
G01 X52.7569 Y-9.0646
G01 X52.7676 Y-9.0387
G01 X52.7726 Y-9.0239
G01 X52.7803 Y-8.9935
G01 X52.7851 Y-8.9625
G01 X52.7868 Y-8.9312
G01 X52.7868 Y-7.3420
G01 X52.7863 Y-7.3246
G01 X52.7836 Y-7.2969
G01 X52.7769 Y-7.2629
G01 X52.7726 Y-7.2478
G01 X52.7633 Y-7.2215
G01 X52.7485 Y-7.1901
G01 X52.7323 Y-7.1633
G01 X52.7158 Y-7.1409
G01 X52.7056 Y-7.1290
G01 X52.6837 Y-7.1067
G01 X52.6597 Y-7.0866
G01 X52.6338 Y-7.0690
G01 X52.6059 Y-7.0537
G01 X52.5744 Y-7.0405
G01 X52.5444 Y-7.0315
G01 X52.5291 Y-7.0280
G01 X52.5016 Y-7.0238
G01 X52.4703 Y-7.0219
G01 X51.8447 Y-7.0181
G01 X51.8109 Y-6.9843
G01 X51.8031 Y-6.9776
G01 X51.7944 Y-6.9721
G01 X51.7882 Y-6.9691
G01 X51.7784 Y-6.9659
G01 X51.7683 Y-6.9641
G01 X50.6614 Y-6.9638
G01 X50.6545 Y-6.9641
G01 X50.6444 Y-6.9659
G01 X50.6288 Y-6.9718
G01 X49.9471 Y-6.9718
G01 X49.8689 Y-6.8936
G01 X49.8689 Y-5.8938
G01 X52.1014 Y-3.6841
G01 X52.1180 Y-3.6660
G01 X52.1284 Y-3.6528
G01 X52.1414 Y-3.6335
G01 X52.1497 Y-3.6190
G01 X52.1597 Y-3.5980
G01 X52.1646 Y-3.5856
G01 X52.1733 Y-3.5570
G01 X52.1785 Y-3.5306
G01 X52.1800 Y-3.5173
G01 X52.1812 Y-3.4941
G01 X52.1811 Y-1.4313
G01 X56.6710 Y-1.4313
G01 X56.6710 Y-8.7312
G01 X56.6715 Y-8.7486
G01 X56.6742 Y-8.7765
G01 X56.6775 Y-8.7953
G01 X56.6843 Y-8.8225
G01 X56.6960 Y-8.8552
G01 X56.7025 Y-8.8696
G01 X56.7157 Y-8.8943
G01 X56.7350 Y-8.9233
G01 X56.7528 Y-8.9449
G01 X56.7647 Y-8.9576
G01 X58.9302 Y-11.1231
G01 X58.9302 Y-12.1901
G01 X58.9310 Y-12.2004
G01 X58.9332 Y-12.2104
G01 X58.9369 Y-12.2200
G01 X58.9402 Y-12.2261
G01 X58.9440 Y-12.2318
G01 X58.9507 Y-12.2396
G01 X58.9558 Y-12.2442
G01 X58.9642 Y-12.2501
G01 X58.9734 Y-12.2548
G01 X58.9799 Y-12.2571
G01 X58.9865 Y-12.2588
G01 X58.9968 Y-12.2600
G01 X59.7070 Y-12.2601
G01 X60.2796 Y-13.4726
G01 X60.2796 Y-14.7827
G01 X58.7847 Y-17.1317
G01 X58.7761 Y-17.1461
G01 X58.7639 Y-17.1701
G01 X58.7568 Y-17.1866
G01 X58.7479 Y-17.2125
G01 X58.7432 Y-17.2303
G01 X58.7381 Y-17.2568
G01 X58.7350 Y-17.2901
G01 X58.7347 Y-17.7583
G01 X58.7048 Y-17.7583
G01 X58.6945 Y-17.7591
G01 X58.6845 Y-17.7613
G01 X58.6780 Y-17.7636
G01 X58.6659 Y-17.7701
G01 X58.6604 Y-17.7742
G01 X58.6529 Y-17.7813
G01 X58.6466 Y-17.7894
G01 X58.6431 Y-17.7953
G01 X58.6378 Y-17.8080
G01 X58.6361 Y-17.8146
G01 X58.6349 Y-17.8249
G01 X58.6348 Y-18.8958
G01 X57.2708 Y-20.2625
G01 X57.2583 Y-20.2770
G01 X57.2417 Y-20.2995
G01 X57.2238 Y-20.3294
G01 X57.2168 Y-20.3434
G01 X57.2061 Y-20.3693
G01 X57.2002 Y-20.3874
G01 X57.1934 Y-20.4145
G01 X57.1886 Y-20.4455
G01 X57.1869 Y-20.4786
G01 X57.1869 Y-27.8182
G01 X53.4328 Y-27.8182
G01 X52.3653 Y-26.7506
G01 X52.3433 Y-26.7306
G01 X52.3182 Y-26.7118
G01 X52.2913 Y-26.6955
G01 X52.2599 Y-26.6806
G01 X52.2451 Y-26.6750
G01 X52.2183 Y-26.6669
G01 X52.1846 Y-26.6602
G01 X52.1563 Y-26.6574
G01 X52.1389 Y-26.6569
G01 X51.9056 Y-26.6569
G01 X51.9055 Y-26.5745
G01 X51.9043 Y-26.5642
G01 X51.9015 Y-26.5543
G01 X51.8989 Y-26.5480
G01 X51.8938 Y-26.5390
G01 X51.8875 Y-26.5309
G01 X51.8800 Y-26.5238
G01 X51.8716 Y-26.5179
G01 X51.8655 Y-26.5146
G01 X51.8559 Y-26.5109
G01 X51.8493 Y-26.5092
G01 X51.8356 Y-26.5079
G01 X51.1871 Y-26.5079
G01 X50.4164 Y-25.7372
G01 X50.8030 Y-25.3504
G01 X50.8168 Y-25.3338
G01 X50.8290 Y-25.3159
G01 X50.8394 Y-25.2968
G01 X50.8477 Y-25.2771
G01 X50.8541 Y-25.2564
G01 X50.8585 Y-25.2353
G01 X50.8609 Y-25.2112
G01 X50.8608 Y-25.1888
G01 X50.8585 Y-25.1673
G01 X50.8541 Y-25.1462
G01 X50.8451 Y-25.1187
G01 X50.8360 Y-25.0991
G01 X50.8250 Y-25.0805
G01 X50.8123 Y-25.0630
G01 X50.7967 Y-25.0457
G01 X50.7794 Y-25.0301
G01 X50.7619 Y-25.0174
G01 X50.7433 Y-25.0064
G01 X50.7169 Y-24.9947
G01 X50.6962 Y-24.9883
G01 X50.6751 Y-24.9839
G01 X50.6502 Y-24.9814
G01 X50.6212 Y-24.9821
G01 X50.5965 Y-24.9858
G01 X50.5686 Y-24.9935
G01 X50.5456 Y-25.0030
G01 X50.5265 Y-25.0134
G01 X50.5028 Y-25.0301
G01 X50.4855 Y-25.0457
G01 X49.9941 Y-25.5370
G01 X49.0166 Y-25.5370
G01 X49.0071 Y-25.5316
G01 X48.9975 Y-25.5279
G01 X48.9875 Y-25.5257
G01 X48.9772 Y-25.5249
G01 X48.3772 Y-25.5249
G01 X48.3635 Y-25.5262
G01 X48.3504 Y-25.5302
G01 X48.3412 Y-25.5349
G01 X48.3328 Y-25.5408
G01 X48.3253 Y-25.5479
G01 X48.3190 Y-25.5560
G01 X48.3139 Y-25.5650
G01 X48.3102 Y-25.5746
G01 X48.3080 Y-25.5846
G01 X48.3072 Y-25.5949
G01 X48.3071 Y-27.2081
G01 X48.3029 Y-27.2249
G01 X48.3005 Y-27.2389
G01 X48.2987 Y-27.2570
G01 X48.2983 Y-27.2695
G01 X48.2983 Y-28.9147
G01 X47.0103 Y-28.9147
G01 X46.9870 Y-28.9160
G01 X46.9691 Y-28.9186
G01 X46.9552 Y-28.9218
G01 X46.9378 Y-28.9270
G01 X46.9245 Y-28.9322
G01 X46.9051 Y-28.9415
G01 X46.8895 Y-28.9509
G01 X46.8782 Y-28.9588
G01 X46.8638 Y-28.9706
G01 X46.8535 Y-28.9804
G01 X46.8413 Y-28.9939
G01 X46.8325 Y-29.0051
G01 X46.8224 Y-29.0202
G01 X46.8154 Y-29.0326
G01 X46.8064 Y-29.0520
G01 X46.8002 Y-29.0693
G01 X46.7965 Y-29.0827
G01 X46.7915 Y-29.1115
G01 X46.7902 Y-29.1348
G01 X46.7902 Y-30.0476
G01 X46.7906 Y-30.0601
G01 X46.7924 Y-30.0782
G01 X46.7948 Y-30.0922
G01 X46.7984 Y-30.1069
G01 X46.7984 Y-32.0001
G01 X46.7997 Y-32.0138
G01 X46.8025 Y-32.0237
G01 X46.8084 Y-32.0361
G01 X46.8165 Y-32.0471
G01 X46.8267 Y-32.0563
G01 X46.8385 Y-32.0634
G01 X46.8514 Y-32.0680
G01 X46.8650 Y-32.0700
G01 X47.1684 Y-32.0701
G01 X47.1787 Y-32.0693
G01 X47.1920 Y-32.0660
G01 X47.2014 Y-32.0618
G01 X47.2101 Y-32.0563
G01 X47.2179 Y-32.0496
G01 X47.2246 Y-32.0418
G01 X47.2301 Y-32.0331
G01 X47.2343 Y-32.0237
G01 X47.2376 Y-32.0104
G01 X47.2384 Y-32.0001
G01 X47.2384 Y-30.0001
G01 X47.2381 Y-29.9932
G01 X47.2363 Y-29.9831
G01 X47.2304 Y-29.9676
G01 X47.2304 Y-29.3549
G01 X48.5309 Y-29.3545
G01 X48.5524 Y-29.3522
G01 X48.5735 Y-29.3478
G01 X48.5942 Y-29.3414
G01 X48.6139 Y-29.3331
G01 X48.6330 Y-29.3227
G01 X48.6505 Y-29.3108
G01 X48.6668 Y-29.2973
G01 X48.6826 Y-29.2813
G01 X48.6962 Y-29.2645
G01 X48.7063 Y-29.2494
G01 X48.7133 Y-29.2370
G01 X48.7223 Y-29.2176
G01 X48.7285 Y-29.2003
G01 X48.7339 Y-29.1794
G01 X48.7363 Y-29.1654
G01 X48.7382 Y-29.1447
G01 X48.7385 Y-27.6649
G01 X48.9772 Y-27.6649
G01 X48.9937 Y-27.6629
G01 X50.1656 Y-27.6629
G01 X50.1656 Y-27.8779
G01 X50.1669 Y-27.8916
G01 X50.1697 Y-27.9015
G01 X50.1739 Y-27.9109
G01 X50.1794 Y-27.9196
G01 X50.1886 Y-27.9298
G01 X50.1996 Y-27.9379
G01 X50.2088 Y-27.9426
G01 X50.2186 Y-27.9458
G01 X50.2287 Y-27.9476
G01 X51.8425 Y-27.9476
G01 X51.8559 Y-27.9449
G01 X51.8655 Y-27.9412
G01 X51.8773 Y-27.9341
G01 X51.8851 Y-27.9274
G01 X51.8938 Y-27.9168
G01 X51.8989 Y-27.9078
G01 X51.9026 Y-27.8982
G01 X51.9053 Y-27.8848
G01 X51.9056 Y-27.2971
G01 X52.0063 Y-27.2971
G01 X53.0840 Y-28.3743
G01 X53.0985 Y-28.3868
G01 X53.1209 Y-28.4035
G01 X53.1508 Y-28.4214
G01 X53.1761 Y-28.4334
G01 X53.1938 Y-28.4402
G01 X53.2208 Y-28.4484
G01 X53.2391 Y-28.4525
G01 X53.2700 Y-28.4570
G01 X53.3002 Y-28.4584
G01 X57.5087 Y-28.4584
G01 X57.5401 Y-28.4567
G01 X57.5678 Y-28.4526
G01 X57.5983 Y-28.4451
G01 X57.6165 Y-28.4391
G01 X57.6452 Y-28.4270
G01 X57.6701 Y-28.4137
G01 X57.6963 Y-28.3964
G01 X57.7114 Y-28.3847
G01 X57.7232 Y-28.3743
G01 X57.7430 Y-28.3545
G01 X57.7631 Y-28.3304
G01 X57.7807 Y-28.3043
G01 X57.7957 Y-28.2765
G01 X57.8089 Y-28.2447
G01 X57.8179 Y-28.2144
G01 X57.8234 Y-28.1870
G01 X57.8254 Y-28.1714
G01 X57.8271 Y-28.1400
G01 X57.8271 Y-20.6110
G01 X58.6349 Y-19.8020
G01 X58.6349 Y-20.0283
G01 X58.6357 Y-20.0386
G01 X58.6379 Y-20.0486
G01 X58.6416 Y-20.0582
G01 X58.6467 Y-20.0672
G01 X58.6530 Y-20.0753
G01 X58.6605 Y-20.0824
G01 X58.6689 Y-20.0883
G01 X58.6750 Y-20.0916
G01 X58.6846 Y-20.0953
G01 X58.6946 Y-20.0975
G01 X58.7049 Y-20.0983
G01 X59.4083 Y-20.0982
G01 X59.4152 Y-20.0975
G01 X59.4252 Y-20.0953
G01 X59.4317 Y-20.0930
G01 X59.4409 Y-20.0883
G01 X59.4493 Y-20.0824
G01 X59.4568 Y-20.0753
G01 X59.4631 Y-20.0672
G01 X59.4666 Y-20.0613
G01 X59.4708 Y-20.0519
G01 X59.4728 Y-20.0453
G01 X59.4746 Y-20.0352
G01 X59.4749 Y-20.0283
G01 X59.4747 Y-17.8249
G01 X59.4735 Y-17.8146
G01 X59.4718 Y-17.8080
G01 X59.4665 Y-17.7953
G01 X59.4610 Y-17.7866
G01 X59.4567 Y-17.7813
G01 X59.4492 Y-17.7742
G01 X59.4437 Y-17.7701
G01 X59.4347 Y-17.7650
G01 X59.4284 Y-17.7624
G01 X59.4151 Y-17.7591
G01 X59.4048 Y-17.7583
G01 X59.3749 Y-17.7583
G01 X59.3749 Y-17.3968
G01 X60.8254 Y-15.1176
G01 X61.6496 Y-15.1176
G01 X61.6565 Y-15.1173
G01 X61.6666 Y-15.1155
G01 X61.6764 Y-15.1123
G01 X61.6856 Y-15.1076
G01 X61.6940 Y-15.1017
G01 X61.7015 Y-15.0946
G01 X61.7078 Y-15.0865
G01 X61.7113 Y-15.0806
G01 X61.7155 Y-15.0712
G01 X61.7183 Y-15.0613
G01 X61.7196 Y-15.0476
G01 X61.7196 Y-14.8766
G01 X66.8733 Y-14.8766
G01 X66.8977 Y-14.8759
G01 X66.9396 Y-14.8719
G01 X66.9653 Y-14.8675
G01 X67.0061 Y-14.8574
G01 X67.0283 Y-14.8503
G01 X67.0522 Y-14.8412
G01 X67.0903 Y-14.8235
G01 X67.1117 Y-14.8117
G01 X72.2439 Y-11.7929
G01 X72.2853 Y-11.8190
G01 X72.3280 Y-11.8432
G01 X72.3780 Y-11.8684
G01 X72.4260 Y-11.8896
G01 X72.4718 Y-11.9073
G01 X72.5249 Y-11.9248
G01 X72.5753 Y-11.9387
G01 X72.6235 Y-11.9495
G01 X72.6786 Y-11.9591
G01 X72.7302 Y-11.9654
G01 X72.7797 Y-11.9690
G01 X72.8339 Y-11.9704
G01 X72.8881 Y-11.9690
G01 X72.9371 Y-11.9654
G01 X72.9892 Y-11.9591
G01 X73.0443 Y-11.9495
G01 X73.0922 Y-11.9387
G01 X73.1429 Y-11.9248
G01 X73.1959 Y-11.9073
G01 X73.2449 Y-11.8883
G01 X73.2898 Y-11.8684
G01 X73.3398 Y-11.8432
G01 X73.3825 Y-11.8190
G01 X73.4269 Y-11.7910
G01 X73.4727 Y-11.7588
G01 X73.5114 Y-11.7286
G01 X73.5512 Y-11.6944
G01 X73.5917 Y-11.6558
G01 X73.6255 Y-11.6202
G01 X73.6599 Y-11.5805
G01 X73.6943 Y-11.5364
G01 X73.7226 Y-11.4963
G01 X73.7508 Y-11.4520
G01 X73.7767 Y-11.4063
G01 X73.8004 Y-11.3594
G01 X73.8231 Y-11.3083
G01 X73.8419 Y-11.2592
G01 X73.8573 Y-11.2126
G01 X73.8722 Y-11.1590
G01 X73.8836 Y-11.1078
G01 X73.8920 Y-11.0591
G01 X73.8989 Y-11.0041
G01 X73.9025 Y-10.9546
G01 X73.9039 Y-10.9021
G01 X73.9025 Y-10.8462
G01 X73.8989 Y-10.7972
G01 X73.8926 Y-10.7451
G01 X73.8837 Y-10.6933
G01 X73.8747 Y-10.6529
G01 X74.7455 Y-9.7639
G01 X75.2124 Y-9.6533
G01 X75.2445 Y-9.6838
G01 X75.2843 Y-9.7180
G01 X75.3258 Y-9.7502
G01 X75.3688 Y-9.7804
G01 X75.4132 Y-9.8084
G01 X75.4589 Y-9.8342
G01 X75.5059 Y-9.8578
G01 X75.5539 Y-9.8790
G01 X75.6030 Y-9.8978
G01 X75.6528 Y-9.9142
G01 X75.7032 Y-9.9281
G01 X75.7544 Y-9.9395
G01 X75.8065 Y-9.9485
G01 X75.8581 Y-9.9548
G01 X75.9110 Y-9.9586
G01 X75.9618 Y-9.9598
G01 X76.0160 Y-9.9584
G01 X76.0650 Y-9.9548
G01 X76.1171 Y-9.9485
G01 X76.1722 Y-9.9389
G01 X76.2201 Y-9.9281
G01 X76.2708 Y-9.9142
G01 X76.3238 Y-9.8967
G01 X76.3728 Y-9.8777
G01 X76.4177 Y-9.8578
G01 X76.4677 Y-9.8326
G01 X76.5178 Y-9.8038
G01 X78.7399 Y-9.8038
G01 X78.7557 Y-9.8028
G01 X78.7729 Y-9.7992
G01 X78.7872 Y-9.7941
G01 X78.8028 Y-9.7860
G01 X78.8202 Y-9.7730
G01 X80.4077 Y-8.3442
G01 X80.4172 Y-8.3346
G01 X80.4261 Y-8.3233
G01 X80.4323 Y-8.3133
G01 X80.4389 Y-8.2995
G01 X80.4427 Y-8.2883
G01 X80.4454 Y-8.2772
G01 X80.4470 Y-8.2651
G01 X80.4474 Y-8.2550
G01 X80.4474 Y-4.0144
G01 X81.6513 Y-2.6600
G01 X85.0402 Y-2.6600
G01 X86.2399 Y-3.8597
G01 X86.2399 Y-7.7805
G01 X86.2409 Y-7.7947
G01 X86.2439 Y-7.8096
G01 X86.2484 Y-7.8231
G01 X86.2549 Y-7.8369
G01 X86.2625 Y-7.8489
G01 X86.2715 Y-7.8600
G01 X86.2824 Y-7.8705
G01 X86.2947 Y-7.8795
G01 X86.3101 Y-7.8880
G01 X86.3267 Y-7.8941
G01 X86.3436 Y-7.8977
G01 X86.3599 Y-7.8988
G01 X89.8912 Y-7.8988
G01 X89.8912 Y-12.8605
G01 X89.8927 Y-12.8781
G01 X89.8976 Y-12.8976
G01 X89.9046 Y-12.9139
G01 X89.9138 Y-12.9289
G01 X89.9263 Y-12.9437
G01 X89.9411 Y-12.9562
G01 X89.9583 Y-12.9665
G01 X89.9747 Y-12.9731
G01 X89.9919 Y-12.9773
G01 X90.0112 Y-12.9788
G01 X91.9204 Y-12.9787
G01 X91.9379 Y-12.9768
G01 X91.9550 Y-12.9724
G01 X91.9713 Y-12.9654
G01 X91.9843 Y-12.9576
G01 X91.9974 Y-12.9472
G01 X92.0101 Y-12.9336
G01 X92.0200 Y-12.9190
G01 X92.0277 Y-12.9031
G01 X92.0315 Y-12.8920
G01 X92.0342 Y-12.8809
G01 X92.0357 Y-12.8694
G01 X92.0362 Y-12.8588
G01 X92.0362 Y-7.8988
G01 X98.2679 Y-7.8988
G01 X98.2797 Y-7.8981
G01 X98.2913 Y-7.8962
G01 X98.3026 Y-7.8932
G01 X98.3136 Y-7.8890
G01 X98.3314 Y-7.8795
G01 X98.3410 Y-7.8727
G01 X98.3498 Y-7.8649
G01 X98.3636 Y-7.8489
G01 X98.3700 Y-7.8390
G01 X98.3754 Y-7.8286
G01 X98.3798 Y-7.8176
G01 X98.3830 Y-7.8063
G01 X98.3851 Y-7.7951
G01 X98.3861 Y-7.7838
G01 X98.3862 Y-0.9525
G01 X98.3847 Y-0.9332
G01 X98.3806 Y-0.9161
G01 X98.3739 Y-0.8996
G01 X98.3636 Y-0.8824
G01 X98.3511 Y-0.8676
G01 X98.3363 Y-0.8551
G01 X98.3213 Y-0.8459
G01 X98.3050 Y-0.8389
G01 X98.2855 Y-0.8340
G01 X98.2662 Y-0.8325
G01 X77.7874 Y-0.8325
G01 X77.7682 Y-0.8340
G01 X77.7567 Y-0.8365
G01 X77.7456 Y-0.8400
G01 X77.7348 Y-0.8446
G01 X77.7248 Y-0.8501
G01 X77.7149 Y-0.8569
G01 X77.7064 Y-0.8639
G01 X77.6924 Y-0.8791
G01 X77.2142 Y-1.5169
G01 X77.2064 Y-1.5290
G01 X77.1989 Y-1.5451
G01 X77.1945 Y-1.5595
G01 X77.1917 Y-1.5768
G01 X77.1912 Y-6.9353
G01 X76.2631 Y-7.8633
G01 X76.2204 Y-7.8515
G01 X76.1692 Y-7.8401
G01 X76.1205 Y-7.8317
G01 X76.0684 Y-7.8251
G01 X76.0160 Y-7.8212
G01 X75.9635 Y-7.8198
G01 X75.9076 Y-7.8212
G01 X75.8586 Y-7.8248
G01 X75.8065 Y-7.8311
G01 X75.7547 Y-7.8400
G01 X75.7035 Y-7.8515
G01 X75.6496 Y-7.8664
G01 X75.5998 Y-7.8829
G01 X75.5508 Y-7.9019
G01 X75.5029 Y-7.9232
G01 X75.4559 Y-7.9470
G01 X75.4105 Y-7.9728
G01 X75.3659 Y-8.0011
G01 X75.3230 Y-8.0314
G01 X75.2817 Y-8.0638
G01 X75.2445 Y-8.0958
G01 X75.2064 Y-8.1320
G01 X75.1702 Y-8.1700
G01 X75.1358 Y-8.2097
G01 X75.1014 Y-8.2538
G01 X75.0712 Y-8.2968
G01 X75.0432 Y-8.3412
G01 X75.0174 Y-8.3869
G01 X74.9938 Y-8.4339
G01 X74.9726 Y-8.4819
G01 X74.9549 Y-8.5277
G01 X74.9496 Y-8.5435
G01 X74.3222 Y-8.6921
G01 X74.2957 Y-8.6991
G01 X74.2645 Y-8.7090
G01 X74.2372 Y-8.7194
G01 X74.2109 Y-8.7310
G01 X74.1844 Y-8.7443
G01 X74.1590 Y-8.7588
G01 X74.1374 Y-8.7725
G01 X74.1135 Y-8.7893
G01 X74.0906 Y-8.8073
G01 X74.0685 Y-8.8264
G01 X74.0467 Y-8.8474
G01 X73.0599 Y-9.8548
G01 X73.0413 Y-9.8507
G01 X72.9926 Y-9.8423
G01 X72.9405 Y-9.8357
G01 X72.8881 Y-9.8318
G01 X72.8322 Y-9.8304
G01 X72.7797 Y-9.8318
G01 X72.7307 Y-9.8354
G01 X72.6786 Y-9.8417
G01 X72.6235 Y-9.8513
G01 X72.5722 Y-9.8629
G01 X72.5217 Y-9.8770
G01 X72.4719 Y-9.8935
G01 X72.4260 Y-9.9112
G01 X72.3750 Y-9.9338
G01 X72.3280 Y-9.9576
G01 X72.2853 Y-9.9818
G01 X72.2409 Y-10.0098
G01 X72.1979 Y-10.0400
G01 X72.1564 Y-10.0722
G01 X72.1147 Y-10.1082
G01 X72.0773 Y-10.1438
G01 X72.0399 Y-10.1831
G01 X72.0079 Y-10.2203
G01 X71.9755 Y-10.2616
G01 X71.9452 Y-10.3045
G01 X71.9170 Y-10.3488
G01 X71.8911 Y-10.3945
G01 X71.8673 Y-10.4415
G01 X71.8447 Y-10.4925
G01 X71.8259 Y-10.5416
G01 X71.8105 Y-10.5882
G01 X71.7964 Y-10.6387
G01 X71.7842 Y-10.6930
G01 X71.7758 Y-10.7417
G01 X71.7689 Y-10.7967
G01 X71.7651 Y-10.8496
G01 X71.7639 Y-10.9021
G01 X71.7651 Y-10.9512
G01 X71.7673 Y-10.9822
G01 X66.7453 Y-13.9362
G01 X61.7196 Y-13.9362
G01 X61.7195 Y-13.4442
G01 X61.7183 Y-13.4339
G01 X61.7155 Y-13.4240
G01 X61.7113 Y-13.4146
G01 X61.7058 Y-13.4059
G01 X61.7015 Y-13.4006
G01 X61.6940 Y-13.3935
G01 X61.6826 Y-13.3859
G01 X61.6699 Y-13.3806
G01 X61.6599 Y-13.3784
G01 X61.6530 Y-13.3777
G01 X60.9428 Y-13.3776
G01 X60.3702 Y-12.1651
G01 X60.3702 Y-10.5901
G01 X60.3699 Y-10.5832
G01 X60.3681 Y-10.5731
G01 X60.3649 Y-10.5633
G01 X60.3602 Y-10.5541
G01 X60.3543 Y-10.5457
G01 X60.3472 Y-10.5382
G01 X60.3391 Y-10.5319
G01 X60.3301 Y-10.5268
G01 X60.3205 Y-10.5231
G01 X60.3105 Y-10.5209
G01 X60.3002 Y-10.5201
G01 X59.9703 Y-10.5201
G01 X59.9703 Y-7.5034
G01 X60.3033 Y-7.5034
G01 X60.3033 Y-7.5333
G01 X60.3041 Y-7.5436
G01 X60.3074 Y-7.5569
G01 X60.3116 Y-7.5663
G01 X60.3151 Y-7.5722
G01 X60.3214 Y-7.5803
G01 X60.3263 Y-7.5852
G01 X60.3373 Y-7.5933
G01 X60.3465 Y-7.5980
G01 X60.3530 Y-7.6003
G01 X60.3596 Y-7.6020
G01 X60.3699 Y-7.6032
G01 X62.5733 Y-7.6033
G01 X62.5802 Y-7.6030
G01 X62.5903 Y-7.6012
G01 X62.6001 Y-7.5980
G01 X62.6122 Y-7.5915
G01 X62.6203 Y-7.5852
G01 X62.6274 Y-7.5777
G01 X62.6350 Y-7.5663
G01 X62.6392 Y-7.5569
G01 X62.6420 Y-7.5470
G01 X62.6432 Y-7.5367
G01 X62.6433 Y-6.8333
G01 X62.6420 Y-6.8196
G01 X62.6392 Y-6.8097
G01 X62.6350 Y-6.8003
G01 X62.6295 Y-6.7916
G01 X62.6228 Y-6.7838
G01 X62.6150 Y-6.7771
G01 X62.6063 Y-6.7716
G01 X62.5936 Y-6.7663
G01 X62.5836 Y-6.7641
G01 X62.5733 Y-6.7633
G01 X60.3699 Y-6.7634
G01 X60.3563 Y-6.7654
G01 X60.3465 Y-6.7686
G01 X60.3403 Y-6.7716
G01 X60.3316 Y-6.7771
G01 X60.3263 Y-6.7814
G01 X60.3214 Y-6.7863
G01 X60.3151 Y-6.7944
G01 X60.3116 Y-6.8003
G01 X60.3074 Y-6.8097
G01 X60.3041 Y-6.8230
G01 X60.3033 Y-6.8333
G01 X60.3033 Y-6.8632
G01 X59.6502 Y-6.8632
G01 X59.6171 Y-6.8649
G01 X59.5861 Y-6.8697
G01 X59.5556 Y-6.8775
G01 X59.5261 Y-6.8882
G01 X59.5008 Y-6.9002
G01 X59.4738 Y-6.9162
G01 X59.4485 Y-6.9348
G01 X59.4340 Y-6.9473
G01 X59.4119 Y-6.9696
G01 X59.3941 Y-6.9912
G01 X59.3765 Y-7.0173
G01 X59.3616 Y-7.0449
G01 X59.3538 Y-7.0624
G01 X59.3434 Y-7.0918
G01 X59.3360 Y-7.1222
G01 X59.3315 Y-7.1531
G01 X59.3301 Y-7.1816
G01 X59.3301 Y-10.5201
G01 X59.2327 Y-10.5201
G01 X57.3112 Y-8.5986
G01 X57.3109 Y-1.0972
G01 X57.3095 Y-1.0781
G01 X57.3047 Y-1.0471
G01 X57.2979 Y-1.0199
G01 X57.2919 Y-1.0017
G01 X57.2798 Y-0.9730
G01 X57.2665 Y-0.9481
G01 X57.2563 Y-0.9319
G01 X57.2396 Y-0.9095
G01 X57.2271 Y-0.8950
G01 X57.2073 Y-0.8752
G01 X57.1928 Y-0.8627
G01 X57.1675 Y-0.8441
G01 X57.1435 Y-0.8297
G01 X57.1152 Y-0.8161
G01 X57.0975 Y-0.8093
G01 X57.0705 Y-0.8011
G01 X57.0364 Y-0.7943
G01 X57.0085 Y-0.7916
G01 X56.9911 Y-0.7911
G01 X29.5274 Y-0.7911
G01 X29.4968 Y-0.7926
G01 X29.4613 Y-0.7980
