(G-CODE GENERATED BY FLATCAM v8.95 - www.flatcam.org - Version Date: 2019/08/17)

(Name: Syntez2.drl_edit_mill_cnc)
(Type: G-code from Geometry)
(Units: MM)

(Created on Monday, 14 September 2020 at 21:48)

(TOOL DIAMETER: 0.8 mm)
(Feedrate: 50.0 mm/min)
(Feedrate_Z: 79.9998 mm/min)
(Feedrate rapids 79.9998 mm/min)

(Z_Cut: -1.51 mm)
(DepthPerCut: 0.05 mm <=>31 passes)
(Z_Move: 3.0 mm)
(Z Toolchange: 12.7 mm)
(X,Y Toolchange: 0.0000, 0.0000 mm)
(Z Start: None mm)
(Z End: 12.7 mm)
(Steps per circle: 128)
(Postprocessor Geometry: default)

(X range:    3.3101 ...   83.6100  mm)
(Y range:   -5.5800 ...   -3.3801  mm)

(Spindle Speed: None RPM)

G21
G90
G94

G01 F50.00
G00 Z3.0000

M03
G00 X5.5099 Y-4.4800
G01 F80.00
G01 Z-0.0500
G01 F50.00
G01 X5.5047 Y-4.5878
G01 X5.4888 Y-4.6946
G01 X5.4626 Y-4.7993
G01 X5.4262 Y-4.9009
G01 X5.3801 Y-4.9985
G01 X5.3246 Y-5.0911
G01 X5.2603 Y-5.1778
G01 X5.1878 Y-5.2578
G01 X5.1078 Y-5.3303
G01 X5.0211 Y-5.3946
G01 X4.9285 Y-5.4501
G01 X4.8309 Y-5.4962
G01 X4.7293 Y-5.5326
G01 X4.6246 Y-5.5588
G01 X4.5178 Y-5.5747
G01 X4.4100 Y-5.5800
G01 X4.3022 Y-5.5747
G01 X4.1954 Y-5.5588
G01 X4.0907 Y-5.5326
G01 X3.9891 Y-5.4962
G01 X3.8915 Y-5.4501
G01 X3.7989 Y-5.3946
G01 X3.7122 Y-5.3303
G01 X3.6322 Y-5.2578
G01 X3.5597 Y-5.1778
G01 X3.4954 Y-5.0911
G01 X3.4399 Y-4.9985
G01 X3.3938 Y-4.9009
G01 X3.3574 Y-4.7993
G01 X3.3312 Y-4.6946
G01 X3.3153 Y-4.5878
G01 X3.3101 Y-4.4800
G01 X3.3153 Y-4.3722
G01 X3.3312 Y-4.2654
G01 X3.3574 Y-4.1607
G01 X3.3938 Y-4.0591
G01 X3.4399 Y-3.9615
G01 X3.4954 Y-3.8689
G01 X3.5597 Y-3.7822
G01 X3.6322 Y-3.7022
G01 X3.7122 Y-3.6297
G01 X3.7989 Y-3.5654
G01 X3.8915 Y-3.5099
G01 X3.9891 Y-3.4638
G01 X4.0907 Y-3.4274
G01 X4.1954 Y-3.4012
G01 X4.3022 Y-3.3853
G01 X4.4100 Y-3.3801
G01 X4.5178 Y-3.3853
G01 X4.6246 Y-3.4012
G01 X4.7293 Y-3.4274
G01 X4.8309 Y-3.4638
G01 X4.9285 Y-3.5099
G01 X5.0211 Y-3.5654
G01 X5.1078 Y-3.6297
G01 X5.1878 Y-3.7022
G01 X5.2603 Y-3.7822
G01 X5.3246 Y-3.8689
G01 X5.3801 Y-3.9615
G01 X5.4262 Y-4.0591
G01 X5.4626 Y-4.1607
G01 X5.4888 Y-4.2654
G01 X5.5047 Y-4.3722
G01 X5.5099 Y-4.4800
G00 X5.5099 Y-4.4800
G01 F80.00
G01 Z-0.1000
G01 F50.00
G01 X5.5047 Y-4.5878
G01 X5.4888 Y-4.6946
G01 X5.4626 Y-4.7993
G01 X5.4262 Y-4.9009
G01 X5.3801 Y-4.9985
G01 X5.3246 Y-5.0911
G01 X5.2603 Y-5.1778
G01 X5.1878 Y-5.2578
G01 X5.1078 Y-5.3303
G01 X5.0211 Y-5.3946
G01 X4.9285 Y-5.4501
G01 X4.8309 Y-5.4962
G01 X4.7293 Y-5.5326
G01 X4.6246 Y-5.5588
G01 X4.5178 Y-5.5747
G01 X4.4100 Y-5.5800
G01 X4.3022 Y-5.5747
G01 X4.1954 Y-5.5588
G01 X4.0907 Y-5.5326
G01 X3.9891 Y-5.4962
G01 X3.8915 Y-5.4501
G01 X3.7989 Y-5.3946
G01 X3.7122 Y-5.3303
G01 X3.6322 Y-5.2578
G01 X3.5597 Y-5.1778
G01 X3.4954 Y-5.0911
G01 X3.4399 Y-4.9985
G01 X3.3938 Y-4.9009
G01 X3.3574 Y-4.7993
G01 X3.3312 Y-4.6946
G01 X3.3153 Y-4.5878
G01 X3.3101 Y-4.4800
G01 X3.3153 Y-4.3722
G01 X3.3312 Y-4.2654
G01 X3.3574 Y-4.1607
G01 X3.3938 Y-4.0591
G01 X3.4399 Y-3.9615
G01 X3.4954 Y-3.8689
G01 X3.5597 Y-3.7822
G01 X3.6322 Y-3.7022
G01 X3.7122 Y-3.6297
G01 X3.7989 Y-3.5654
G01 X3.8915 Y-3.5099
G01 X3.9891 Y-3.4638
G01 X4.0907 Y-3.4274
G01 X4.1954 Y-3.4012
G01 X4.3022 Y-3.3853
G01 X4.4100 Y-3.3801
G01 X4.5178 Y-3.3853
G01 X4.6246 Y-3.4012
G01 X4.7293 Y-3.4274
G01 X4.8309 Y-3.4638
G01 X4.9285 Y-3.5099
G01 X5.0211 Y-3.5654
G01 X5.1078 Y-3.6297
G01 X5.1878 Y-3.7022
G01 X5.2603 Y-3.7822
G01 X5.3246 Y-3.8689
G01 X5.3801 Y-3.9615
G01 X5.4262 Y-4.0591
G01 X5.4626 Y-4.1607
G01 X5.4888 Y-4.2654
G01 X5.5047 Y-4.3722
G01 X5.5099 Y-4.4800
G00 X5.5099 Y-4.4800
G01 F80.00
G01 Z-0.1500
G01 F50.00
G01 X5.5047 Y-4.5878
G01 X5.4888 Y-4.6946
G01 X5.4626 Y-4.7993
G01 X5.4262 Y-4.9009
G01 X5.3801 Y-4.9985
G01 X5.3246 Y-5.0911
G01 X5.2603 Y-5.1778
G01 X5.1878 Y-5.2578
G01 X5.1078 Y-5.3303
G01 X5.0211 Y-5.3946
G01 X4.9285 Y-5.4501
G01 X4.8309 Y-5.4962
G01 X4.7293 Y-5.5326
G01 X4.6246 Y-5.5588
G01 X4.5178 Y-5.5747
G01 X4.4100 Y-5.5800
G01 X4.3022 Y-5.5747
G01 X4.1954 Y-5.5588
G01 X4.0907 Y-5.5326
G01 X3.9891 Y-5.4962
G01 X3.8915 Y-5.4501
G01 X3.7989 Y-5.3946
G01 X3.7122 Y-5.3303
G01 X3.6322 Y-5.2578
G01 X3.5597 Y-5.1778
G01 X3.4954 Y-5.0911
G01 X3.4399 Y-4.9985
G01 X3.3938 Y-4.9009
G01 X3.3574 Y-4.7993
G01 X3.3312 Y-4.6946
G01 X3.3153 Y-4.5878
G01 X3.3101 Y-4.4800
G01 X3.3153 Y-4.3722
G01 X3.3312 Y-4.2654
G01 X3.3574 Y-4.1607
G01 X3.3938 Y-4.0591
G01 X3.4399 Y-3.9615
G01 X3.4954 Y-3.8689
G01 X3.5597 Y-3.7822
G01 X3.6322 Y-3.7022
G01 X3.7122 Y-3.6297
G01 X3.7989 Y-3.5654
G01 X3.8915 Y-3.5099
G01 X3.9891 Y-3.4638
G01 X4.0907 Y-3.4274
G01 X4.1954 Y-3.4012
G01 X4.3022 Y-3.3853
G01 X4.4100 Y-3.3801
G01 X4.5178 Y-3.3853
G01 X4.6246 Y-3.4012
G01 X4.7293 Y-3.4274
G01 X4.8309 Y-3.4638
G01 X4.9285 Y-3.5099
G01 X5.0211 Y-3.5654
G01 X5.1078 Y-3.6297
G01 X5.1878 Y-3.7022
G01 X5.2603 Y-3.7822
G01 X5.3246 Y-3.8689
G01 X5.3801 Y-3.9615
G01 X5.4262 Y-4.0591
G01 X5.4626 Y-4.1607
G01 X5.4888 Y-4.2654
G01 X5.5047 Y-4.3722
G01 X5.5099 Y-4.4800
G00 X5.5099 Y-4.4800
G01 F80.00
G01 Z-0.2000
G01 F50.00
G01 X5.5047 Y-4.5878
G01 X5.4888 Y-4.6946
G01 X5.4626 Y-4.7993
G01 X5.4262 Y-4.9009
G01 X5.3801 Y-4.9985
G01 X5.3246 Y-5.0911
G01 X5.2603 Y-5.1778
G01 X5.1878 Y-5.2578
G01 X5.1078 Y-5.3303
G01 X5.0211 Y-5.3946
G01 X4.9285 Y-5.4501
G01 X4.8309 Y-5.4962
G01 X4.7293 Y-5.5326
G01 X4.6246 Y-5.5588
G01 X4.5178 Y-5.5747
G01 X4.4100 Y-5.5800
G01 X4.3022 Y-5.5747
G01 X4.1954 Y-5.5588
G01 X4.0907 Y-5.5326
G01 X3.9891 Y-5.4962
G01 X3.8915 Y-5.4501
G01 X3.7989 Y-5.3946
G01 X3.7122 Y-5.3303
G01 X3.6322 Y-5.2578
G01 X3.5597 Y-5.1778
G01 X3.4954 Y-5.0911
G01 X3.4399 Y-4.9985
G01 X3.3938 Y-4.9009
G01 X3.3574 Y-4.7993
G01 X3.3312 Y-4.6946
G01 X3.3153 Y-4.5878
G01 X3.3101 Y-4.4800
G01 X3.3153 Y-4.3722
G01 X3.3312 Y-4.2654
G01 X3.3574 Y-4.1607
G01 X3.3938 Y-4.0591
G01 X3.4399 Y-3.9615
G01 X3.4954 Y-3.8689
G01 X3.5597 Y-3.7822
G01 X3.6322 Y-3.7022
G01 X3.7122 Y-3.6297
G01 X3.7989 Y-3.5654
G01 X3.8915 Y-3.5099
G01 X3.9891 Y-3.4638
G01 X4.0907 Y-3.4274
G01 X4.1954 Y-3.4012
G01 X4.3022 Y-3.3853
G01 X4.4100 Y-3.3801
G01 X4.5178 Y-3.3853
G01 X4.6246 Y-3.4012
G01 X4.7293 Y-3.4274
G01 X4.8309 Y-3.4638
G01 X4.9285 Y-3.5099
G01 X5.0211 Y-3.5654
G01 X5.1078 Y-3.6297
G01 X5.1878 Y-3.7022
G01 X5.2603 Y-3.7822
G01 X5.3246 Y-3.8689
G01 X5.3801 Y-3.9615
G01 X5.4262 Y-4.0591
G01 X5.4626 Y-4.1607
G01 X5.4888 Y-4.2654
G01 X5.5047 Y-4.3722
G01 X5.5099 Y-4.4800
G00 X5.5099 Y-4.4800
G01 F80.00
G01 Z-0.2500
G01 F50.00
G01 X5.5047 Y-4.5878
G01 X5.4888 Y-4.6946
G01 X5.4626 Y-4.7993
G01 X5.4262 Y-4.9009
G01 X5.3801 Y-4.9985
G01 X5.3246 Y-5.0911
G01 X5.2603 Y-5.1778
G01 X5.1878 Y-5.2578
G01 X5.1078 Y-5.3303
G01 X5.0211 Y-5.3946
G01 X4.9285 Y-5.4501
G01 X4.8309 Y-5.4962
G01 X4.7293 Y-5.5326
G01 X4.6246 Y-5.5588
G01 X4.5178 Y-5.5747
G01 X4.4100 Y-5.5800
G01 X4.3022 Y-5.5747
G01 X4.1954 Y-5.5588
G01 X4.0907 Y-5.5326
G01 X3.9891 Y-5.4962
G01 X3.8915 Y-5.4501
G01 X3.7989 Y-5.3946
G01 X3.7122 Y-5.3303
G01 X3.6322 Y-5.2578
G01 X3.5597 Y-5.1778
G01 X3.4954 Y-5.0911
G01 X3.4399 Y-4.9985
G01 X3.3938 Y-4.9009
G01 X3.3574 Y-4.7993
G01 X3.3312 Y-4.6946
G01 X3.3153 Y-4.5878
G01 X3.3101 Y-4.4800
G01 X3.3153 Y-4.3722
G01 X3.3312 Y-4.2654
G01 X3.3574 Y-4.1607
G01 X3.3938 Y-4.0591
G01 X3.4399 Y-3.9615
G01 X3.4954 Y-3.8689
G01 X3.5597 Y-3.7822
G01 X3.6322 Y-3.7022
G01 X3.7122 Y-3.6297
G01 X3.7989 Y-3.5654
G01 X3.8915 Y-3.5099
G01 X3.9891 Y-3.4638
G01 X4.0907 Y-3.4274
G01 X4.1954 Y-3.4012
G01 X4.3022 Y-3.3853
G01 X4.4100 Y-3.3801
G01 X4.5178 Y-3.3853
G01 X4.6246 Y-3.4012
G01 X4.7293 Y-3.4274
G01 X4.8309 Y-3.4638
G01 X4.9285 Y-3.5099
G01 X5.0211 Y-3.5654
G01 X5.1078 Y-3.6297
G01 X5.1878 Y-3.7022
G01 X5.2603 Y-3.7822
G01 X5.3246 Y-3.8689
G01 X5.3801 Y-3.9615
G01 X5.4262 Y-4.0591
G01 X5.4626 Y-4.1607
G01 X5.4888 Y-4.2654
G01 X5.5047 Y-4.3722
G01 X5.5099 Y-4.4800
G00 X5.5099 Y-4.4800
G01 F80.00
G01 Z-0.3000
G01 F50.00
G01 X5.5047 Y-4.5878
G01 X5.4888 Y-4.6946
G01 X5.4626 Y-4.7993
G01 X5.4262 Y-4.9009
G01 X5.3801 Y-4.9985
G01 X5.3246 Y-5.0911
G01 X5.2603 Y-5.1778
G01 X5.1878 Y-5.2578
G01 X5.1078 Y-5.3303
G01 X5.0211 Y-5.3946
G01 X4.9285 Y-5.4501
G01 X4.8309 Y-5.4962
G01 X4.7293 Y-5.5326
G01 X4.6246 Y-5.5588
G01 X4.5178 Y-5.5747
G01 X4.4100 Y-5.5800
G01 X4.3022 Y-5.5747
G01 X4.1954 Y-5.5588
G01 X4.0907 Y-5.5326
G01 X3.9891 Y-5.4962
G01 X3.8915 Y-5.4501
G01 X3.7989 Y-5.3946
G01 X3.7122 Y-5.3303
G01 X3.6322 Y-5.2578
G01 X3.5597 Y-5.1778
G01 X3.4954 Y-5.0911
G01 X3.4399 Y-4.9985
G01 X3.3938 Y-4.9009
G01 X3.3574 Y-4.7993
G01 X3.3312 Y-4.6946
G01 X3.3153 Y-4.5878
G01 X3.3101 Y-4.4800
G01 X3.3153 Y-4.3722
G01 X3.3312 Y-4.2654
G01 X3.3574 Y-4.1607
G01 X3.3938 Y-4.0591
G01 X3.4399 Y-3.9615
G01 X3.4954 Y-3.8689
G01 X3.5597 Y-3.7822
G01 X3.6322 Y-3.7022
G01 X3.7122 Y-3.6297
G01 X3.7989 Y-3.5654
G01 X3.8915 Y-3.5099
G01 X3.9891 Y-3.4638
G01 X4.0907 Y-3.4274
G01 X4.1954 Y-3.4012
G01 X4.3022 Y-3.3853
G01 X4.4100 Y-3.3801
G01 X4.5178 Y-3.3853
G01 X4.6246 Y-3.4012
G01 X4.7293 Y-3.4274
G01 X4.8309 Y-3.4638
G01 X4.9285 Y-3.5099
G01 X5.0211 Y-3.5654
G01 X5.1078 Y-3.6297
G01 X5.1878 Y-3.7022
G01 X5.2603 Y-3.7822
G01 X5.3246 Y-3.8689
G01 X5.3801 Y-3.9615
G01 X5.4262 Y-4.0591
G01 X5.4626 Y-4.1607
G01 X5.4888 Y-4.2654
G01 X5.5047 Y-4.3722
G01 X5.5099 Y-4.4800
G00 X5.5099 Y-4.4800
G01 F80.00
G01 Z-0.3500
G01 F50.00
G01 X5.5047 Y-4.5878
G01 X5.4888 Y-4.6946
G01 X5.4626 Y-4.7993
G01 X5.4262 Y-4.9009
G01 X5.3801 Y-4.9985
G01 X5.3246 Y-5.0911
G01 X5.2603 Y-5.1778
G01 X5.1878 Y-5.2578
G01 X5.1078 Y-5.3303
G01 X5.0211 Y-5.3946
G01 X4.9285 Y-5.4501
G01 X4.8309 Y-5.4962
G01 X4.7293 Y-5.5326
G01 X4.6246 Y-5.5588
G01 X4.5178 Y-5.5747
G01 X4.4100 Y-5.5800
G01 X4.3022 Y-5.5747
G01 X4.1954 Y-5.5588
G01 X4.0907 Y-5.5326
G01 X3.9891 Y-5.4962
G01 X3.8915 Y-5.4501
G01 X3.7989 Y-5.3946
G01 X3.7122 Y-5.3303
G01 X3.6322 Y-5.2578
G01 X3.5597 Y-5.1778
G01 X3.4954 Y-5.0911
G01 X3.4399 Y-4.9985
G01 X3.3938 Y-4.9009
G01 X3.3574 Y-4.7993
G01 X3.3312 Y-4.6946
G01 X3.3153 Y-4.5878
G01 X3.3101 Y-4.4800
G01 X3.3153 Y-4.3722
G01 X3.3312 Y-4.2654
G01 X3.3574 Y-4.1607
G01 X3.3938 Y-4.0591
G01 X3.4399 Y-3.9615
G01 X3.4954 Y-3.8689
G01 X3.5597 Y-3.7822
G01 X3.6322 Y-3.7022
G01 X3.7122 Y-3.6297
G01 X3.7989 Y-3.5654
G01 X3.8915 Y-3.5099
G01 X3.9891 Y-3.4638
G01 X4.0907 Y-3.4274
G01 X4.1954 Y-3.4012
G01 X4.3022 Y-3.3853
G01 X4.4100 Y-3.3801
G01 X4.5178 Y-3.3853
G01 X4.6246 Y-3.4012
G01 X4.7293 Y-3.4274
G01 X4.8309 Y-3.4638
G01 X4.9285 Y-3.5099
G01 X5.0211 Y-3.5654
G01 X5.1078 Y-3.6297
G01 X5.1878 Y-3.7022
G01 X5.2603 Y-3.7822
G01 X5.3246 Y-3.8689
G01 X5.3801 Y-3.9615
G01 X5.4262 Y-4.0591
G01 X5.4626 Y-4.1607
G01 X5.4888 Y-4.2654
G01 X5.5047 Y-4.3722
G01 X5.5099 Y-4.4800
G00 X5.5099 Y-4.4800
G01 F80.00
G01 Z-0.4000
G01 F50.00
G01 X5.5047 Y-4.5878
G01 X5.4888 Y-4.6946
G01 X5.4626 Y-4.7993
G01 X5.4262 Y-4.9009
G01 X5.3801 Y-4.9985
G01 X5.3246 Y-5.0911
G01 X5.2603 Y-5.1778
G01 X5.1878 Y-5.2578
G01 X5.1078 Y-5.3303
G01 X5.0211 Y-5.3946
G01 X4.9285 Y-5.4501
G01 X4.8309 Y-5.4962
G01 X4.7293 Y-5.5326
G01 X4.6246 Y-5.5588
G01 X4.5178 Y-5.5747
G01 X4.4100 Y-5.5800
G01 X4.3022 Y-5.5747
G01 X4.1954 Y-5.5588
G01 X4.0907 Y-5.5326
G01 X3.9891 Y-5.4962
G01 X3.8915 Y-5.4501
G01 X3.7989 Y-5.3946
G01 X3.7122 Y-5.3303
G01 X3.6322 Y-5.2578
G01 X3.5597 Y-5.1778
G01 X3.4954 Y-5.0911
G01 X3.4399 Y-4.9985
G01 X3.3938 Y-4.9009
G01 X3.3574 Y-4.7993
G01 X3.3312 Y-4.6946
G01 X3.3153 Y-4.5878
G01 X3.3101 Y-4.4800
G01 X3.3153 Y-4.3722
G01 X3.3312 Y-4.2654
G01 X3.3574 Y-4.1607
G01 X3.3938 Y-4.0591
G01 X3.4399 Y-3.9615
G01 X3.4954 Y-3.8689
G01 X3.5597 Y-3.7822
G01 X3.6322 Y-3.7022
G01 X3.7122 Y-3.6297
G01 X3.7989 Y-3.5654
G01 X3.8915 Y-3.5099
G01 X3.9891 Y-3.4638
G01 X4.0907 Y-3.4274
G01 X4.1954 Y-3.4012
G01 X4.3022 Y-3.3853
G01 X4.4100 Y-3.3801
G01 X4.5178 Y-3.3853
G01 X4.6246 Y-3.4012
G01 X4.7293 Y-3.4274
G01 X4.8309 Y-3.4638
G01 X4.9285 Y-3.5099
G01 X5.0211 Y-3.5654
G01 X5.1078 Y-3.6297
G01 X5.1878 Y-3.7022
G01 X5.2603 Y-3.7822
G01 X5.3246 Y-3.8689
G01 X5.3801 Y-3.9615
G01 X5.4262 Y-4.0591
G01 X5.4626 Y-4.1607
G01 X5.4888 Y-4.2654
G01 X5.5047 Y-4.3722
G01 X5.5099 Y-4.4800
G00 X5.5099 Y-4.4800
G01 F80.00
G01 Z-0.4500
G01 F50.00
G01 X5.5047 Y-4.5878
G01 X5.4888 Y-4.6946
G01 X5.4626 Y-4.7993
G01 X5.4262 Y-4.9009
G01 X5.3801 Y-4.9985
G01 X5.3246 Y-5.0911
G01 X5.2603 Y-5.1778
G01 X5.1878 Y-5.2578
G01 X5.1078 Y-5.3303
G01 X5.0211 Y-5.3946
G01 X4.9285 Y-5.4501
G01 X4.8309 Y-5.4962
G01 X4.7293 Y-5.5326
G01 X4.6246 Y-5.5588
G01 X4.5178 Y-5.5747
G01 X4.4100 Y-5.5800
G01 X4.3022 Y-5.5747
G01 X4.1954 Y-5.5588
G01 X4.0907 Y-5.5326
G01 X3.9891 Y-5.4962
G01 X3.8915 Y-5.4501
G01 X3.7989 Y-5.3946
G01 X3.7122 Y-5.3303
G01 X3.6322 Y-5.2578
G01 X3.5597 Y-5.1778
G01 X3.4954 Y-5.0911
G01 X3.4399 Y-4.9985
G01 X3.3938 Y-4.9009
G01 X3.3574 Y-4.7993
G01 X3.3312 Y-4.6946
G01 X3.3153 Y-4.5878
G01 X3.3101 Y-4.4800
G01 X3.3153 Y-4.3722
G01 X3.3312 Y-4.2654
G01 X3.3574 Y-4.1607
G01 X3.3938 Y-4.0591
G01 X3.4399 Y-3.9615
G01 X3.4954 Y-3.8689
G01 X3.5597 Y-3.7822
G01 X3.6322 Y-3.7022
G01 X3.7122 Y-3.6297
G01 X3.7989 Y-3.5654
G01 X3.8915 Y-3.5099
G01 X3.9891 Y-3.4638
G01 X4.0907 Y-3.4274
G01 X4.1954 Y-3.4012
G01 X4.3022 Y-3.3853
G01 X4.4100 Y-3.3801
G01 X4.5178 Y-3.3853
G01 X4.6246 Y-3.4012
G01 X4.7293 Y-3.4274
G01 X4.8309 Y-3.4638
G01 X4.9285 Y-3.5099
G01 X5.0211 Y-3.5654
G01 X5.1078 Y-3.6297
G01 X5.1878 Y-3.7022
G01 X5.2603 Y-3.7822
G01 X5.3246 Y-3.8689
G01 X5.3801 Y-3.9615
G01 X5.4262 Y-4.0591
G01 X5.4626 Y-4.1607
G01 X5.4888 Y-4.2654
G01 X5.5047 Y-4.3722
G01 X5.5099 Y-4.4800
G00 X5.5099 Y-4.4800
G01 F80.00
G01 Z-0.5000
G01 F50.00
G01 X5.5047 Y-4.5878
G01 X5.4888 Y-4.6946
G01 X5.4626 Y-4.7993
G01 X5.4262 Y-4.9009
G01 X5.3801 Y-4.9985
G01 X5.3246 Y-5.0911
G01 X5.2603 Y-5.1778
G01 X5.1878 Y-5.2578
G01 X5.1078 Y-5.3303
G01 X5.0211 Y-5.3946
G01 X4.9285 Y-5.4501
G01 X4.8309 Y-5.4962
G01 X4.7293 Y-5.5326
G01 X4.6246 Y-5.5588
G01 X4.5178 Y-5.5747
G01 X4.4100 Y-5.5800
G01 X4.3022 Y-5.5747
G01 X4.1954 Y-5.5588
G01 X4.0907 Y-5.5326
G01 X3.9891 Y-5.4962
G01 X3.8915 Y-5.4501
G01 X3.7989 Y-5.3946
G01 X3.7122 Y-5.3303
G01 X3.6322 Y-5.2578
G01 X3.5597 Y-5.1778
G01 X3.4954 Y-5.0911
G01 X3.4399 Y-4.9985
G01 X3.3938 Y-4.9009
G01 X3.3574 Y-4.7993
G01 X3.3312 Y-4.6946
G01 X3.3153 Y-4.5878
G01 X3.3101 Y-4.4800
G01 X3.3153 Y-4.3722
G01 X3.3312 Y-4.2654
G01 X3.3574 Y-4.1607
G01 X3.3938 Y-4.0591
G01 X3.4399 Y-3.9615
G01 X3.4954 Y-3.8689
G01 X3.5597 Y-3.7822
G01 X3.6322 Y-3.7022
G01 X3.7122 Y-3.6297
G01 X3.7989 Y-3.5654
G01 X3.8915 Y-3.5099
G01 X3.9891 Y-3.4638
G01 X4.0907 Y-3.4274
G01 X4.1954 Y-3.4012
G01 X4.3022 Y-3.3853
G01 X4.4100 Y-3.3801
G01 X4.5178 Y-3.3853
G01 X4.6246 Y-3.4012
G01 X4.7293 Y-3.4274
G01 X4.8309 Y-3.4638
G01 X4.9285 Y-3.5099
G01 X5.0211 Y-3.5654
G01 X5.1078 Y-3.6297
G01 X5.1878 Y-3.7022
G01 X5.2603 Y-3.7822
G01 X5.3246 Y-3.8689
G01 X5.3801 Y-3.9615
G01 X5.4262 Y-4.0591
G01 X5.4626 Y-4.1607
G01 X5.4888 Y-4.2654
G01 X5.5047 Y-4.3722
G01 X5.5099 Y-4.4800
G00 X5.5099 Y-4.4800
G01 F80.00
G01 Z-0.5500
G01 F50.00
G01 X5.5047 Y-4.5878
G01 X5.4888 Y-4.6946
G01 X5.4626 Y-4.7993
G01 X5.4262 Y-4.9009
G01 X5.3801 Y-4.9985
G01 X5.3246 Y-5.0911
G01 X5.2603 Y-5.1778
G01 X5.1878 Y-5.2578
G01 X5.1078 Y-5.3303
G01 X5.0211 Y-5.3946
G01 X4.9285 Y-5.4501
G01 X4.8309 Y-5.4962
G01 X4.7293 Y-5.5326
G01 X4.6246 Y-5.5588
G01 X4.5178 Y-5.5747
G01 X4.4100 Y-5.5800
G01 X4.3022 Y-5.5747
G01 X4.1954 Y-5.5588
G01 X4.0907 Y-5.5326
G01 X3.9891 Y-5.4962
G01 X3.8915 Y-5.4501
G01 X3.7989 Y-5.3946
G01 X3.7122 Y-5.3303
G01 X3.6322 Y-5.2578
G01 X3.5597 Y-5.1778
G01 X3.4954 Y-5.0911
G01 X3.4399 Y-4.9985
G01 X3.3938 Y-4.9009
G01 X3.3574 Y-4.7993
G01 X3.3312 Y-4.6946
G01 X3.3153 Y-4.5878
G01 X3.3101 Y-4.4800
G01 X3.3153 Y-4.3722
G01 X3.3312 Y-4.2654
G01 X3.3574 Y-4.1607
G01 X3.3938 Y-4.0591
G01 X3.4399 Y-3.9615
G01 X3.4954 Y-3.8689
G01 X3.5597 Y-3.7822
G01 X3.6322 Y-3.7022
G01 X3.7122 Y-3.6297
G01 X3.7989 Y-3.5654
G01 X3.8915 Y-3.5099
G01 X3.9891 Y-3.4638
G01 X4.0907 Y-3.4274
G01 X4.1954 Y-3.4012
G01 X4.3022 Y-3.3853
G01 X4.4100 Y-3.3801
G01 X4.5178 Y-3.3853
G01 X4.6246 Y-3.4012
G01 X4.7293 Y-3.4274
G01 X4.8309 Y-3.4638
G01 X4.9285 Y-3.5099
G01 X5.0211 Y-3.5654
G01 X5.1078 Y-3.6297
G01 X5.1878 Y-3.7022
G01 X5.2603 Y-3.7822
G01 X5.3246 Y-3.8689
G01 X5.3801 Y-3.9615
G01 X5.4262 Y-4.0591
G01 X5.4626 Y-4.1607
G01 X5.4888 Y-4.2654
G01 X5.5047 Y-4.3722
G01 X5.5099 Y-4.4800
G00 X5.5099 Y-4.4800
G01 F80.00
G01 Z-0.6000
G01 F50.00
G01 X5.5047 Y-4.5878
G01 X5.4888 Y-4.6946
G01 X5.4626 Y-4.7993
G01 X5.4262 Y-4.9009
G01 X5.3801 Y-4.9985
G01 X5.3246 Y-5.0911
G01 X5.2603 Y-5.1778
G01 X5.1878 Y-5.2578
G01 X5.1078 Y-5.3303
G01 X5.0211 Y-5.3946
G01 X4.9285 Y-5.4501
G01 X4.8309 Y-5.4962
G01 X4.7293 Y-5.5326
G01 X4.6246 Y-5.5588
G01 X4.5178 Y-5.5747
G01 X4.4100 Y-5.5800
G01 X4.3022 Y-5.5747
G01 X4.1954 Y-5.5588
G01 X4.0907 Y-5.5326
G01 X3.9891 Y-5.4962
G01 X3.8915 Y-5.4501
G01 X3.7989 Y-5.3946
G01 X3.7122 Y-5.3303
G01 X3.6322 Y-5.2578
G01 X3.5597 Y-5.1778
G01 X3.4954 Y-5.0911
G01 X3.4399 Y-4.9985
G01 X3.3938 Y-4.9009
G01 X3.3574 Y-4.7993
G01 X3.3312 Y-4.6946
G01 X3.3153 Y-4.5878
G01 X3.3101 Y-4.4800
G01 X3.3153 Y-4.3722
G01 X3.3312 Y-4.2654
G01 X3.3574 Y-4.1607
G01 X3.3938 Y-4.0591
G01 X3.4399 Y-3.9615
G01 X3.4954 Y-3.8689
G01 X3.5597 Y-3.7822
G01 X3.6322 Y-3.7022
G01 X3.7122 Y-3.6297
G01 X3.7989 Y-3.5654
G01 X3.8915 Y-3.5099
G01 X3.9891 Y-3.4638
G01 X4.0907 Y-3.4274
G01 X4.1954 Y-3.4012
G01 X4.3022 Y-3.3853
G01 X4.4100 Y-3.3801
G01 X4.5178 Y-3.3853
G01 X4.6246 Y-3.4012
G01 X4.7293 Y-3.4274
G01 X4.8309 Y-3.4638
G01 X4.9285 Y-3.5099
G01 X5.0211 Y-3.5654
G01 X5.1078 Y-3.6297
G01 X5.1878 Y-3.7022
G01 X5.2603 Y-3.7822
G01 X5.3246 Y-3.8689
G01 X5.3801 Y-3.9615
G01 X5.4262 Y-4.0591
G01 X5.4626 Y-4.1607
G01 X5.4888 Y-4.2654
G01 X5.5047 Y-4.3722
G01 X5.5099 Y-4.4800
G00 X5.5099 Y-4.4800
G01 F80.00
G01 Z-0.6500
G01 F50.00
G01 X5.5047 Y-4.5878
G01 X5.4888 Y-4.6946
G01 X5.4626 Y-4.7993
G01 X5.4262 Y-4.9009
G01 X5.3801 Y-4.9985
G01 X5.3246 Y-5.0911
G01 X5.2603 Y-5.1778
G01 X5.1878 Y-5.2578
G01 X5.1078 Y-5.3303
G01 X5.0211 Y-5.3946
G01 X4.9285 Y-5.4501
G01 X4.8309 Y-5.4962
G01 X4.7293 Y-5.5326
G01 X4.6246 Y-5.5588
G01 X4.5178 Y-5.5747
G01 X4.4100 Y-5.5800
G01 X4.3022 Y-5.5747
G01 X4.1954 Y-5.5588
G01 X4.0907 Y-5.5326
G01 X3.9891 Y-5.4962
G01 X3.8915 Y-5.4501
G01 X3.7989 Y-5.3946
G01 X3.7122 Y-5.3303
G01 X3.6322 Y-5.2578
G01 X3.5597 Y-5.1778
G01 X3.4954 Y-5.0911
G01 X3.4399 Y-4.9985
G01 X3.3938 Y-4.9009
G01 X3.3574 Y-4.7993
G01 X3.3312 Y-4.6946
G01 X3.3153 Y-4.5878
G01 X3.3101 Y-4.4800
G01 X3.3153 Y-4.3722
G01 X3.3312 Y-4.2654
G01 X3.3574 Y-4.1607
G01 X3.3938 Y-4.0591
G01 X3.4399 Y-3.9615
G01 X3.4954 Y-3.8689
G01 X3.5597 Y-3.7822
G01 X3.6322 Y-3.7022
G01 X3.7122 Y-3.6297
G01 X3.7989 Y-3.5654
G01 X3.8915 Y-3.5099
G01 X3.9891 Y-3.4638
G01 X4.0907 Y-3.4274
G01 X4.1954 Y-3.4012
G01 X4.3022 Y-3.3853
G01 X4.4100 Y-3.3801
G01 X4.5178 Y-3.3853
G01 X4.6246 Y-3.4012
G01 X4.7293 Y-3.4274
G01 X4.8309 Y-3.4638
G01 X4.9285 Y-3.5099
G01 X5.0211 Y-3.5654
G01 X5.1078 Y-3.6297
G01 X5.1878 Y-3.7022
G01 X5.2603 Y-3.7822
G01 X5.3246 Y-3.8689
G01 X5.3801 Y-3.9615
G01 X5.4262 Y-4.0591
G01 X5.4626 Y-4.1607
G01 X5.4888 Y-4.2654
G01 X5.5047 Y-4.3722
G01 X5.5099 Y-4.4800
G00 X5.5099 Y-4.4800
G01 F80.00
G01 Z-0.7000
G01 F50.00
G01 X5.5047 Y-4.5878
G01 X5.4888 Y-4.6946
G01 X5.4626 Y-4.7993
G01 X5.4262 Y-4.9009
G01 X5.3801 Y-4.9985
G01 X5.3246 Y-5.0911
G01 X5.2603 Y-5.1778
G01 X5.1878 Y-5.2578
G01 X5.1078 Y-5.3303
G01 X5.0211 Y-5.3946
G01 X4.9285 Y-5.4501
G01 X4.8309 Y-5.4962
G01 X4.7293 Y-5.5326
G01 X4.6246 Y-5.5588
G01 X4.5178 Y-5.5747
G01 X4.4100 Y-5.5800
G01 X4.3022 Y-5.5747
G01 X4.1954 Y-5.5588
G01 X4.0907 Y-5.5326
G01 X3.9891 Y-5.4962
G01 X3.8915 Y-5.4501
G01 X3.7989 Y-5.3946
G01 X3.7122 Y-5.3303
G01 X3.6322 Y-5.2578
G01 X3.5597 Y-5.1778
G01 X3.4954 Y-5.0911
G01 X3.4399 Y-4.9985
G01 X3.3938 Y-4.9009
G01 X3.3574 Y-4.7993
G01 X3.3312 Y-4.6946
G01 X3.3153 Y-4.5878
G01 X3.3101 Y-4.4800
G01 X3.3153 Y-4.3722
G01 X3.3312 Y-4.2654
G01 X3.3574 Y-4.1607
G01 X3.3938 Y-4.0591
G01 X3.4399 Y-3.9615
G01 X3.4954 Y-3.8689
G01 X3.5597 Y-3.7822
G01 X3.6322 Y-3.7022
G01 X3.7122 Y-3.6297
G01 X3.7989 Y-3.5654
G01 X3.8915 Y-3.5099
G01 X3.9891 Y-3.4638
G01 X4.0907 Y-3.4274
G01 X4.1954 Y-3.4012
G01 X4.3022 Y-3.3853
G01 X4.4100 Y-3.3801
G01 X4.5178 Y-3.3853
G01 X4.6246 Y-3.4012
G01 X4.7293 Y-3.4274
G01 X4.8309 Y-3.4638
G01 X4.9285 Y-3.5099
G01 X5.0211 Y-3.5654
G01 X5.1078 Y-3.6297
G01 X5.1878 Y-3.7022
G01 X5.2603 Y-3.7822
G01 X5.3246 Y-3.8689
G01 X5.3801 Y-3.9615
G01 X5.4262 Y-4.0591
G01 X5.4626 Y-4.1607
G01 X5.4888 Y-4.2654
G01 X5.5047 Y-4.3722
G01 X5.5099 Y-4.4800
G00 X5.5099 Y-4.4800
G01 F80.00
G01 Z-0.7500
G01 F50.00
G01 X5.5047 Y-4.5878
G01 X5.4888 Y-4.6946
G01 X5.4626 Y-4.7993
G01 X5.4262 Y-4.9009
G01 X5.3801 Y-4.9985
G01 X5.3246 Y-5.0911
G01 X5.2603 Y-5.1778
G01 X5.1878 Y-5.2578
G01 X5.1078 Y-5.3303
G01 X5.0211 Y-5.3946
G01 X4.9285 Y-5.4501
G01 X4.8309 Y-5.4962
G01 X4.7293 Y-5.5326
G01 X4.6246 Y-5.5588
G01 X4.5178 Y-5.5747
G01 X4.4100 Y-5.5800
G01 X4.3022 Y-5.5747
G01 X4.1954 Y-5.5588
G01 X4.0907 Y-5.5326
G01 X3.9891 Y-5.4962
G01 X3.8915 Y-5.4501
G01 X3.7989 Y-5.3946
G01 X3.7122 Y-5.3303
G01 X3.6322 Y-5.2578
G01 X3.5597 Y-5.1778
G01 X3.4954 Y-5.0911
G01 X3.4399 Y-4.9985
G01 X3.3938 Y-4.9009
G01 X3.3574 Y-4.7993
G01 X3.3312 Y-4.6946
G01 X3.3153 Y-4.5878
G01 X3.3101 Y-4.4800
G01 X3.3153 Y-4.3722
G01 X3.3312 Y-4.2654
G01 X3.3574 Y-4.1607
G01 X3.3938 Y-4.0591
G01 X3.4399 Y-3.9615
G01 X3.4954 Y-3.8689
G01 X3.5597 Y-3.7822
G01 X3.6322 Y-3.7022
G01 X3.7122 Y-3.6297
G01 X3.7989 Y-3.5654
G01 X3.8915 Y-3.5099
G01 X3.9891 Y-3.4638
G01 X4.0907 Y-3.4274
G01 X4.1954 Y-3.4012
G01 X4.3022 Y-3.3853
G01 X4.4100 Y-3.3801
G01 X4.5178 Y-3.3853
G01 X4.6246 Y-3.4012
G01 X4.7293 Y-3.4274
G01 X4.8309 Y-3.4638
G01 X4.9285 Y-3.5099
G01 X5.0211 Y-3.5654
G01 X5.1078 Y-3.6297
G01 X5.1878 Y-3.7022
G01 X5.2603 Y-3.7822
G01 X5.3246 Y-3.8689
G01 X5.3801 Y-3.9615
G01 X5.4262 Y-4.0591
G01 X5.4626 Y-4.1607
G01 X5.4888 Y-4.2654
G01 X5.5047 Y-4.3722
G01 X5.5099 Y-4.4800
G00 X5.5099 Y-4.4800
G01 F80.00
G01 Z-0.8000
G01 F50.00
G01 X5.5047 Y-4.5878
G01 X5.4888 Y-4.6946
G01 X5.4626 Y-4.7993
G01 X5.4262 Y-4.9009
G01 X5.3801 Y-4.9985
G01 X5.3246 Y-5.0911
G01 X5.2603 Y-5.1778
G01 X5.1878 Y-5.2578
G01 X5.1078 Y-5.3303
G01 X5.0211 Y-5.3946
G01 X4.9285 Y-5.4501
G01 X4.8309 Y-5.4962
G01 X4.7293 Y-5.5326
G01 X4.6246 Y-5.5588
G01 X4.5178 Y-5.5747
G01 X4.4100 Y-5.5800
G01 X4.3022 Y-5.5747
G01 X4.1954 Y-5.5588
G01 X4.0907 Y-5.5326
G01 X3.9891 Y-5.4962
G01 X3.8915 Y-5.4501
G01 X3.7989 Y-5.3946
G01 X3.7122 Y-5.3303
G01 X3.6322 Y-5.2578
G01 X3.5597 Y-5.1778
G01 X3.4954 Y-5.0911
G01 X3.4399 Y-4.9985
G01 X3.3938 Y-4.9009
G01 X3.3574 Y-4.7993
G01 X3.3312 Y-4.6946
G01 X3.3153 Y-4.5878
G01 X3.3101 Y-4.4800
G01 X3.3153 Y-4.3722
G01 X3.3312 Y-4.2654
G01 X3.3574 Y-4.1607
G01 X3.3938 Y-4.0591
G01 X3.4399 Y-3.9615
G01 X3.4954 Y-3.8689
G01 X3.5597 Y-3.7822
G01 X3.6322 Y-3.7022
G01 X3.7122 Y-3.6297
G01 X3.7989 Y-3.5654
G01 X3.8915 Y-3.5099
G01 X3.9891 Y-3.4638
G01 X4.0907 Y-3.4274
G01 X4.1954 Y-3.4012
G01 X4.3022 Y-3.3853
G01 X4.4100 Y-3.3801
G01 X4.5178 Y-3.3853
G01 X4.6246 Y-3.4012
G01 X4.7293 Y-3.4274
G01 X4.8309 Y-3.4638
G01 X4.9285 Y-3.5099
G01 X5.0211 Y-3.5654
G01 X5.1078 Y-3.6297
G01 X5.1878 Y-3.7022
G01 X5.2603 Y-3.7822
G01 X5.3246 Y-3.8689
G01 X5.3801 Y-3.9615
G01 X5.4262 Y-4.0591
G01 X5.4626 Y-4.1607
G01 X5.4888 Y-4.2654
G01 X5.5047 Y-4.3722
G01 X5.5099 Y-4.4800
G00 X5.5099 Y-4.4800
G01 F80.00
G01 Z-0.8500
G01 F50.00
G01 X5.5047 Y-4.5878
G01 X5.4888 Y-4.6946
G01 X5.4626 Y-4.7993
G01 X5.4262 Y-4.9009
G01 X5.3801 Y-4.9985
G01 X5.3246 Y-5.0911
G01 X5.2603 Y-5.1778
G01 X5.1878 Y-5.2578
G01 X5.1078 Y-5.3303
G01 X5.0211 Y-5.3946
G01 X4.9285 Y-5.4501
G01 X4.8309 Y-5.4962
G01 X4.7293 Y-5.5326
G01 X4.6246 Y-5.5588
G01 X4.5178 Y-5.5747
G01 X4.4100 Y-5.5800
G01 X4.3022 Y-5.5747
G01 X4.1954 Y-5.5588
G01 X4.0907 Y-5.5326
G01 X3.9891 Y-5.4962
G01 X3.8915 Y-5.4501
G01 X3.7989 Y-5.3946
G01 X3.7122 Y-5.3303
G01 X3.6322 Y-5.2578
G01 X3.5597 Y-5.1778
G01 X3.4954 Y-5.0911
G01 X3.4399 Y-4.9985
G01 X3.3938 Y-4.9009
G01 X3.3574 Y-4.7993
G01 X3.3312 Y-4.6946
G01 X3.3153 Y-4.5878
G01 X3.3101 Y-4.4800
G01 X3.3153 Y-4.3722
G01 X3.3312 Y-4.2654
G01 X3.3574 Y-4.1607
G01 X3.3938 Y-4.0591
G01 X3.4399 Y-3.9615
G01 X3.4954 Y-3.8689
G01 X3.5597 Y-3.7822
G01 X3.6322 Y-3.7022
G01 X3.7122 Y-3.6297
G01 X3.7989 Y-3.5654
G01 X3.8915 Y-3.5099
G01 X3.9891 Y-3.4638
G01 X4.0907 Y-3.4274
G01 X4.1954 Y-3.4012
G01 X4.3022 Y-3.3853
G01 X4.4100 Y-3.3801
G01 X4.5178 Y-3.3853
G01 X4.6246 Y-3.4012
G01 X4.7293 Y-3.4274
G01 X4.8309 Y-3.4638
G01 X4.9285 Y-3.5099
G01 X5.0211 Y-3.5654
G01 X5.1078 Y-3.6297
G01 X5.1878 Y-3.7022
G01 X5.2603 Y-3.7822
G01 X5.3246 Y-3.8689
G01 X5.3801 Y-3.9615
G01 X5.4262 Y-4.0591
G01 X5.4626 Y-4.1607
G01 X5.4888 Y-4.2654
G01 X5.5047 Y-4.3722
G01 X5.5099 Y-4.4800
G00 X5.5099 Y-4.4800
G01 F80.00
G01 Z-0.9000
G01 F50.00
G01 X5.5047 Y-4.5878
G01 X5.4888 Y-4.6946
G01 X5.4626 Y-4.7993
G01 X5.4262 Y-4.9009
G01 X5.3801 Y-4.9985
G01 X5.3246 Y-5.0911
G01 X5.2603 Y-5.1778
G01 X5.1878 Y-5.2578
G01 X5.1078 Y-5.3303
G01 X5.0211 Y-5.3946
G01 X4.9285 Y-5.4501
G01 X4.8309 Y-5.4962
G01 X4.7293 Y-5.5326
G01 X4.6246 Y-5.5588
G01 X4.5178 Y-5.5747
G01 X4.4100 Y-5.5800
G01 X4.3022 Y-5.5747
G01 X4.1954 Y-5.5588
G01 X4.0907 Y-5.5326
G01 X3.9891 Y-5.4962
G01 X3.8915 Y-5.4501
G01 X3.7989 Y-5.3946
G01 X3.7122 Y-5.3303
G01 X3.6322 Y-5.2578
G01 X3.5597 Y-5.1778
G01 X3.4954 Y-5.0911
G01 X3.4399 Y-4.9985
G01 X3.3938 Y-4.9009
G01 X3.3574 Y-4.7993
G01 X3.3312 Y-4.6946
G01 X3.3153 Y-4.5878
G01 X3.3101 Y-4.4800
G01 X3.3153 Y-4.3722
G01 X3.3312 Y-4.2654
G01 X3.3574 Y-4.1607
G01 X3.3938 Y-4.0591
G01 X3.4399 Y-3.9615
G01 X3.4954 Y-3.8689
G01 X3.5597 Y-3.7822
G01 X3.6322 Y-3.7022
G01 X3.7122 Y-3.6297
G01 X3.7989 Y-3.5654
G01 X3.8915 Y-3.5099
G01 X3.9891 Y-3.4638
G01 X4.0907 Y-3.4274
G01 X4.1954 Y-3.4012
G01 X4.3022 Y-3.3853
G01 X4.4100 Y-3.3801
G01 X4.5178 Y-3.3853
G01 X4.6246 Y-3.4012
G01 X4.7293 Y-3.4274
G01 X4.8309 Y-3.4638
G01 X4.9285 Y-3.5099
G01 X5.0211 Y-3.5654
G01 X5.1078 Y-3.6297
G01 X5.1878 Y-3.7022
G01 X5.2603 Y-3.7822
G01 X5.3246 Y-3.8689
G01 X5.3801 Y-3.9615
G01 X5.4262 Y-4.0591
G01 X5.4626 Y-4.1607
G01 X5.4888 Y-4.2654
G01 X5.5047 Y-4.3722
G01 X5.5099 Y-4.4800
G00 X5.5099 Y-4.4800
G01 F80.00
G01 Z-0.9500
G01 F50.00
G01 X5.5047 Y-4.5878
G01 X5.4888 Y-4.6946
G01 X5.4626 Y-4.7993
G01 X5.4262 Y-4.9009
G01 X5.3801 Y-4.9985
G01 X5.3246 Y-5.0911
G01 X5.2603 Y-5.1778
G01 X5.1878 Y-5.2578
G01 X5.1078 Y-5.3303
G01 X5.0211 Y-5.3946
G01 X4.9285 Y-5.4501
G01 X4.8309 Y-5.4962
G01 X4.7293 Y-5.5326
G01 X4.6246 Y-5.5588
G01 X4.5178 Y-5.5747
G01 X4.4100 Y-5.5800
G01 X4.3022 Y-5.5747
G01 X4.1954 Y-5.5588
G01 X4.0907 Y-5.5326
G01 X3.9891 Y-5.4962
G01 X3.8915 Y-5.4501
G01 X3.7989 Y-5.3946
G01 X3.7122 Y-5.3303
G01 X3.6322 Y-5.2578
G01 X3.5597 Y-5.1778
G01 X3.4954 Y-5.0911
G01 X3.4399 Y-4.9985
G01 X3.3938 Y-4.9009
G01 X3.3574 Y-4.7993
G01 X3.3312 Y-4.6946
G01 X3.3153 Y-4.5878
G01 X3.3101 Y-4.4800
G01 X3.3153 Y-4.3722
G01 X3.3312 Y-4.2654
G01 X3.3574 Y-4.1607
G01 X3.3938 Y-4.0591
G01 X3.4399 Y-3.9615
G01 X3.4954 Y-3.8689
G01 X3.5597 Y-3.7822
G01 X3.6322 Y-3.7022
G01 X3.7122 Y-3.6297
G01 X3.7989 Y-3.5654
G01 X3.8915 Y-3.5099
G01 X3.9891 Y-3.4638
G01 X4.0907 Y-3.4274
G01 X4.1954 Y-3.4012
G01 X4.3022 Y-3.3853
G01 X4.4100 Y-3.3801
G01 X4.5178 Y-3.3853
G01 X4.6246 Y-3.4012
G01 X4.7293 Y-3.4274
G01 X4.8309 Y-3.4638
G01 X4.9285 Y-3.5099
G01 X5.0211 Y-3.5654
G01 X5.1078 Y-3.6297
G01 X5.1878 Y-3.7022
G01 X5.2603 Y-3.7822
G01 X5.3246 Y-3.8689
G01 X5.3801 Y-3.9615
G01 X5.4262 Y-4.0591
G01 X5.4626 Y-4.1607
G01 X5.4888 Y-4.2654
G01 X5.5047 Y-4.3722
G01 X5.5099 Y-4.4800
G00 X5.5099 Y-4.4800
G01 F80.00
G01 Z-1.0000
G01 F50.00
G01 X5.5047 Y-4.5878
G01 X5.4888 Y-4.6946
G01 X5.4626 Y-4.7993
G01 X5.4262 Y-4.9009
G01 X5.3801 Y-4.9985
G01 X5.3246 Y-5.0911
G01 X5.2603 Y-5.1778
G01 X5.1878 Y-5.2578
G01 X5.1078 Y-5.3303
G01 X5.0211 Y-5.3946
G01 X4.9285 Y-5.4501
G01 X4.8309 Y-5.4962
G01 X4.7293 Y-5.5326
G01 X4.6246 Y-5.5588
G01 X4.5178 Y-5.5747
G01 X4.4100 Y-5.5800
G01 X4.3022 Y-5.5747
G01 X4.1954 Y-5.5588
G01 X4.0907 Y-5.5326
G01 X3.9891 Y-5.4962
G01 X3.8915 Y-5.4501
G01 X3.7989 Y-5.3946
G01 X3.7122 Y-5.3303
G01 X3.6322 Y-5.2578
G01 X3.5597 Y-5.1778
G01 X3.4954 Y-5.0911
G01 X3.4399 Y-4.9985
G01 X3.3938 Y-4.9009
G01 X3.3574 Y-4.7993
G01 X3.3312 Y-4.6946
G01 X3.3153 Y-4.5878
G01 X3.3101 Y-4.4800
G01 X3.3153 Y-4.3722
G01 X3.3312 Y-4.2654
G01 X3.3574 Y-4.1607
G01 X3.3938 Y-4.0591
G01 X3.4399 Y-3.9615
G01 X3.4954 Y-3.8689
G01 X3.5597 Y-3.7822
G01 X3.6322 Y-3.7022
G01 X3.7122 Y-3.6297
G01 X3.7989 Y-3.5654
G01 X3.8915 Y-3.5099
G01 X3.9891 Y-3.4638
G01 X4.0907 Y-3.4274
G01 X4.1954 Y-3.4012
G01 X4.3022 Y-3.3853
G01 X4.4100 Y-3.3801
G01 X4.5178 Y-3.3853
G01 X4.6246 Y-3.4012
G01 X4.7293 Y-3.4274
G01 X4.8309 Y-3.4638
G01 X4.9285 Y-3.5099
G01 X5.0211 Y-3.5654
G01 X5.1078 Y-3.6297
G01 X5.1878 Y-3.7022
G01 X5.2603 Y-3.7822
G01 X5.3246 Y-3.8689
G01 X5.3801 Y-3.9615
G01 X5.4262 Y-4.0591
G01 X5.4626 Y-4.1607
G01 X5.4888 Y-4.2654
G01 X5.5047 Y-4.3722
G01 X5.5099 Y-4.4800
G00 X5.5099 Y-4.4800
G01 F80.00
G01 Z-1.0500
G01 F50.00
G01 X5.5047 Y-4.5878
G01 X5.4888 Y-4.6946
G01 X5.4626 Y-4.7993
G01 X5.4262 Y-4.9009
G01 X5.3801 Y-4.9985
G01 X5.3246 Y-5.0911
G01 X5.2603 Y-5.1778
G01 X5.1878 Y-5.2578
G01 X5.1078 Y-5.3303
G01 X5.0211 Y-5.3946
G01 X4.9285 Y-5.4501
G01 X4.8309 Y-5.4962
G01 X4.7293 Y-5.5326
G01 X4.6246 Y-5.5588
G01 X4.5178 Y-5.5747
G01 X4.4100 Y-5.5800
G01 X4.3022 Y-5.5747
G01 X4.1954 Y-5.5588
G01 X4.0907 Y-5.5326
G01 X3.9891 Y-5.4962
G01 X3.8915 Y-5.4501
G01 X3.7989 Y-5.3946
G01 X3.7122 Y-5.3303
G01 X3.6322 Y-5.2578
G01 X3.5597 Y-5.1778
G01 X3.4954 Y-5.0911
G01 X3.4399 Y-4.9985
G01 X3.3938 Y-4.9009
G01 X3.3574 Y-4.7993
G01 X3.3312 Y-4.6946
G01 X3.3153 Y-4.5878
G01 X3.3101 Y-4.4800
G01 X3.3153 Y-4.3722
G01 X3.3312 Y-4.2654
G01 X3.3574 Y-4.1607
G01 X3.3938 Y-4.0591
G01 X3.4399 Y-3.9615
G01 X3.4954 Y-3.8689
G01 X3.5597 Y-3.7822
G01 X3.6322 Y-3.7022
G01 X3.7122 Y-3.6297
G01 X3.7989 Y-3.5654
G01 X3.8915 Y-3.5099
G01 X3.9891 Y-3.4638
G01 X4.0907 Y-3.4274
G01 X4.1954 Y-3.4012
G01 X4.3022 Y-3.3853
G01 X4.4100 Y-3.3801
G01 X4.5178 Y-3.3853
G01 X4.6246 Y-3.4012
G01 X4.7293 Y-3.4274
G01 X4.8309 Y-3.4638
G01 X4.9285 Y-3.5099
G01 X5.0211 Y-3.5654
G01 X5.1078 Y-3.6297
G01 X5.1878 Y-3.7022
G01 X5.2603 Y-3.7822
G01 X5.3246 Y-3.8689
G01 X5.3801 Y-3.9615
G01 X5.4262 Y-4.0591
G01 X5.4626 Y-4.1607
G01 X5.4888 Y-4.2654
G01 X5.5047 Y-4.3722
G01 X5.5099 Y-4.4800
G00 X5.5099 Y-4.4800
G01 F80.00
G01 Z-1.1000
G01 F50.00
G01 X5.5047 Y-4.5878
G01 X5.4888 Y-4.6946
G01 X5.4626 Y-4.7993
G01 X5.4262 Y-4.9009
G01 X5.3801 Y-4.9985
G01 X5.3246 Y-5.0911
G01 X5.2603 Y-5.1778
G01 X5.1878 Y-5.2578
G01 X5.1078 Y-5.3303
G01 X5.0211 Y-5.3946
G01 X4.9285 Y-5.4501
G01 X4.8309 Y-5.4962
G01 X4.7293 Y-5.5326
G01 X4.6246 Y-5.5588
G01 X4.5178 Y-5.5747
G01 X4.4100 Y-5.5800
G01 X4.3022 Y-5.5747
G01 X4.1954 Y-5.5588
G01 X4.0907 Y-5.5326
G01 X3.9891 Y-5.4962
G01 X3.8915 Y-5.4501
G01 X3.7989 Y-5.3946
G01 X3.7122 Y-5.3303
G01 X3.6322 Y-5.2578
G01 X3.5597 Y-5.1778
G01 X3.4954 Y-5.0911
G01 X3.4399 Y-4.9985
G01 X3.3938 Y-4.9009
G01 X3.3574 Y-4.7993
G01 X3.3312 Y-4.6946
G01 X3.3153 Y-4.5878
G01 X3.3101 Y-4.4800
G01 X3.3153 Y-4.3722
G01 X3.3312 Y-4.2654
G01 X3.3574 Y-4.1607
G01 X3.3938 Y-4.0591
G01 X3.4399 Y-3.9615
G01 X3.4954 Y-3.8689
G01 X3.5597 Y-3.7822
G01 X3.6322 Y-3.7022
G01 X3.7122 Y-3.6297
G01 X3.7989 Y-3.5654
G01 X3.8915 Y-3.5099
G01 X3.9891 Y-3.4638
G01 X4.0907 Y-3.4274
G01 X4.1954 Y-3.4012
G01 X4.3022 Y-3.3853
G01 X4.4100 Y-3.3801
G01 X4.5178 Y-3.3853
G01 X4.6246 Y-3.4012
G01 X4.7293 Y-3.4274
G01 X4.8309 Y-3.4638
G01 X4.9285 Y-3.5099
G01 X5.0211 Y-3.5654
G01 X5.1078 Y-3.6297
G01 X5.1878 Y-3.7022
G01 X5.2603 Y-3.7822
G01 X5.3246 Y-3.8689
G01 X5.3801 Y-3.9615
G01 X5.4262 Y-4.0591
G01 X5.4626 Y-4.1607
G01 X5.4888 Y-4.2654
G01 X5.5047 Y-4.3722
G01 X5.5099 Y-4.4800
G00 X5.5099 Y-4.4800
G01 F80.00
G01 Z-1.1500
G01 F50.00
G01 X5.5047 Y-4.5878
G01 X5.4888 Y-4.6946
G01 X5.4626 Y-4.7993
G01 X5.4262 Y-4.9009
G01 X5.3801 Y-4.9985
G01 X5.3246 Y-5.0911
G01 X5.2603 Y-5.1778
G01 X5.1878 Y-5.2578
G01 X5.1078 Y-5.3303
G01 X5.0211 Y-5.3946
G01 X4.9285 Y-5.4501
G01 X4.8309 Y-5.4962
G01 X4.7293 Y-5.5326
G01 X4.6246 Y-5.5588
G01 X4.5178 Y-5.5747
G01 X4.4100 Y-5.5800
G01 X4.3022 Y-5.5747
G01 X4.1954 Y-5.5588
G01 X4.0907 Y-5.5326
G01 X3.9891 Y-5.4962
G01 X3.8915 Y-5.4501
G01 X3.7989 Y-5.3946
G01 X3.7122 Y-5.3303
G01 X3.6322 Y-5.2578
G01 X3.5597 Y-5.1778
G01 X3.4954 Y-5.0911
G01 X3.4399 Y-4.9985
G01 X3.3938 Y-4.9009
G01 X3.3574 Y-4.7993
G01 X3.3312 Y-4.6946
G01 X3.3153 Y-4.5878
G01 X3.3101 Y-4.4800
G01 X3.3153 Y-4.3722
G01 X3.3312 Y-4.2654
G01 X3.3574 Y-4.1607
G01 X3.3938 Y-4.0591
G01 X3.4399 Y-3.9615
G01 X3.4954 Y-3.8689
G01 X3.5597 Y-3.7822
G01 X3.6322 Y-3.7022
G01 X3.7122 Y-3.6297
G01 X3.7989 Y-3.5654
G01 X3.8915 Y-3.5099
G01 X3.9891 Y-3.4638
G01 X4.0907 Y-3.4274
G01 X4.1954 Y-3.4012
G01 X4.3022 Y-3.3853
G01 X4.4100 Y-3.3801
G01 X4.5178 Y-3.3853
G01 X4.6246 Y-3.4012
G01 X4.7293 Y-3.4274
G01 X4.8309 Y-3.4638
G01 X4.9285 Y-3.5099
G01 X5.0211 Y-3.5654
G01 X5.1078 Y-3.6297
G01 X5.1878 Y-3.7022
G01 X5.2603 Y-3.7822
G01 X5.3246 Y-3.8689
G01 X5.3801 Y-3.9615
G01 X5.4262 Y-4.0591
G01 X5.4626 Y-4.1607
G01 X5.4888 Y-4.2654
G01 X5.5047 Y-4.3722
G01 X5.5099 Y-4.4800
G00 X5.5099 Y-4.4800
G01 F80.00
G01 Z-1.2000
G01 F50.00
G01 X5.5047 Y-4.5878
G01 X5.4888 Y-4.6946
G01 X5.4626 Y-4.7993
G01 X5.4262 Y-4.9009
G01 X5.3801 Y-4.9985
G01 X5.3246 Y-5.0911
G01 X5.2603 Y-5.1778
G01 X5.1878 Y-5.2578
G01 X5.1078 Y-5.3303
G01 X5.0211 Y-5.3946
G01 X4.9285 Y-5.4501
G01 X4.8309 Y-5.4962
G01 X4.7293 Y-5.5326
G01 X4.6246 Y-5.5588
G01 X4.5178 Y-5.5747
G01 X4.4100 Y-5.5800
G01 X4.3022 Y-5.5747
G01 X4.1954 Y-5.5588
G01 X4.0907 Y-5.5326
G01 X3.9891 Y-5.4962
G01 X3.8915 Y-5.4501
G01 X3.7989 Y-5.3946
G01 X3.7122 Y-5.3303
G01 X3.6322 Y-5.2578
G01 X3.5597 Y-5.1778
G01 X3.4954 Y-5.0911
G01 X3.4399 Y-4.9985
G01 X3.3938 Y-4.9009
G01 X3.3574 Y-4.7993
G01 X3.3312 Y-4.6946
G01 X3.3153 Y-4.5878
G01 X3.3101 Y-4.4800
G01 X3.3153 Y-4.3722
G01 X3.3312 Y-4.2654
G01 X3.3574 Y-4.1607
G01 X3.3938 Y-4.0591
G01 X3.4399 Y-3.9615
G01 X3.4954 Y-3.8689
G01 X3.5597 Y-3.7822
G01 X3.6322 Y-3.7022
G01 X3.7122 Y-3.6297
G01 X3.7989 Y-3.5654
G01 X3.8915 Y-3.5099
G01 X3.9891 Y-3.4638
G01 X4.0907 Y-3.4274
G01 X4.1954 Y-3.4012
G01 X4.3022 Y-3.3853
G01 X4.4100 Y-3.3801
G01 X4.5178 Y-3.3853
G01 X4.6246 Y-3.4012
G01 X4.7293 Y-3.4274
G01 X4.8309 Y-3.4638
G01 X4.9285 Y-3.5099
G01 X5.0211 Y-3.5654
G01 X5.1078 Y-3.6297
G01 X5.1878 Y-3.7022
G01 X5.2603 Y-3.7822
G01 X5.3246 Y-3.8689
G01 X5.3801 Y-3.9615
G01 X5.4262 Y-4.0591
G01 X5.4626 Y-4.1607
G01 X5.4888 Y-4.2654
G01 X5.5047 Y-4.3722
G01 X5.5099 Y-4.4800
G00 X5.5099 Y-4.4800
G01 F80.00
G01 Z-1.2500
G01 F50.00
G01 X5.5047 Y-4.5878
G01 X5.4888 Y-4.6946
G01 X5.4626 Y-4.7993
G01 X5.4262 Y-4.9009
G01 X5.3801 Y-4.9985
G01 X5.3246 Y-5.0911
G01 X5.2603 Y-5.1778
G01 X5.1878 Y-5.2578
G01 X5.1078 Y-5.3303
G01 X5.0211 Y-5.3946
G01 X4.9285 Y-5.4501
G01 X4.8309 Y-5.4962
G01 X4.7293 Y-5.5326
G01 X4.6246 Y-5.5588
G01 X4.5178 Y-5.5747
G01 X4.4100 Y-5.5800
G01 X4.3022 Y-5.5747
G01 X4.1954 Y-5.5588
G01 X4.0907 Y-5.5326
G01 X3.9891 Y-5.4962
G01 X3.8915 Y-5.4501
G01 X3.7989 Y-5.3946
G01 X3.7122 Y-5.3303
G01 X3.6322 Y-5.2578
G01 X3.5597 Y-5.1778
G01 X3.4954 Y-5.0911
G01 X3.4399 Y-4.9985
G01 X3.3938 Y-4.9009
G01 X3.3574 Y-4.7993
G01 X3.3312 Y-4.6946
G01 X3.3153 Y-4.5878
G01 X3.3101 Y-4.4800
G01 X3.3153 Y-4.3722
G01 X3.3312 Y-4.2654
G01 X3.3574 Y-4.1607
G01 X3.3938 Y-4.0591
G01 X3.4399 Y-3.9615
G01 X3.4954 Y-3.8689
G01 X3.5597 Y-3.7822
G01 X3.6322 Y-3.7022
G01 X3.7122 Y-3.6297
G01 X3.7989 Y-3.5654
G01 X3.8915 Y-3.5099
G01 X3.9891 Y-3.4638
G01 X4.0907 Y-3.4274
G01 X4.1954 Y-3.4012
G01 X4.3022 Y-3.3853
G01 X4.4100 Y-3.3801
G01 X4.5178 Y-3.3853
G01 X4.6246 Y-3.4012
G01 X4.7293 Y-3.4274
G01 X4.8309 Y-3.4638
G01 X4.9285 Y-3.5099
G01 X5.0211 Y-3.5654
G01 X5.1078 Y-3.6297
G01 X5.1878 Y-3.7022
G01 X5.2603 Y-3.7822
G01 X5.3246 Y-3.8689
G01 X5.3801 Y-3.9615
G01 X5.4262 Y-4.0591
G01 X5.4626 Y-4.1607
G01 X5.4888 Y-4.2654
G01 X5.5047 Y-4.3722
G01 X5.5099 Y-4.4800
G00 X5.5099 Y-4.4800
G01 F80.00
G01 Z-1.3000
G01 F50.00
G01 X5.5047 Y-4.5878
G01 X5.4888 Y-4.6946
G01 X5.4626 Y-4.7993
G01 X5.4262 Y-4.9009
G01 X5.3801 Y-4.9985
G01 X5.3246 Y-5.0911
G01 X5.2603 Y-5.1778
G01 X5.1878 Y-5.2578
G01 X5.1078 Y-5.3303
G01 X5.0211 Y-5.3946
G01 X4.9285 Y-5.4501
G01 X4.8309 Y-5.4962
G01 X4.7293 Y-5.5326
G01 X4.6246 Y-5.5588
G01 X4.5178 Y-5.5747
G01 X4.4100 Y-5.5800
G01 X4.3022 Y-5.5747
G01 X4.1954 Y-5.5588
G01 X4.0907 Y-5.5326
G01 X3.9891 Y-5.4962
G01 X3.8915 Y-5.4501
G01 X3.7989 Y-5.3946
G01 X3.7122 Y-5.3303
G01 X3.6322 Y-5.2578
G01 X3.5597 Y-5.1778
G01 X3.4954 Y-5.0911
G01 X3.4399 Y-4.9985
G01 X3.3938 Y-4.9009
G01 X3.3574 Y-4.7993
G01 X3.3312 Y-4.6946
G01 X3.3153 Y-4.5878
G01 X3.3101 Y-4.4800
G01 X3.3153 Y-4.3722
G01 X3.3312 Y-4.2654
G01 X3.3574 Y-4.1607
G01 X3.3938 Y-4.0591
G01 X3.4399 Y-3.9615
G01 X3.4954 Y-3.8689
G01 X3.5597 Y-3.7822
G01 X3.6322 Y-3.7022
G01 X3.7122 Y-3.6297
G01 X3.7989 Y-3.5654
G01 X3.8915 Y-3.5099
G01 X3.9891 Y-3.4638
G01 X4.0907 Y-3.4274
G01 X4.1954 Y-3.4012
G01 X4.3022 Y-3.3853
G01 X4.4100 Y-3.3801
G01 X4.5178 Y-3.3853
G01 X4.6246 Y-3.4012
G01 X4.7293 Y-3.4274
G01 X4.8309 Y-3.4638
G01 X4.9285 Y-3.5099
G01 X5.0211 Y-3.5654
G01 X5.1078 Y-3.6297
G01 X5.1878 Y-3.7022
G01 X5.2603 Y-3.7822
G01 X5.3246 Y-3.8689
G01 X5.3801 Y-3.9615
G01 X5.4262 Y-4.0591
G01 X5.4626 Y-4.1607
G01 X5.4888 Y-4.2654
G01 X5.5047 Y-4.3722
G01 X5.5099 Y-4.4800
G00 X5.5099 Y-4.4800
G01 F80.00
G01 Z-1.3500
G01 F50.00
G01 X5.5047 Y-4.5878
G01 X5.4888 Y-4.6946
G01 X5.4626 Y-4.7993
G01 X5.4262 Y-4.9009
G01 X5.3801 Y-4.9985
G01 X5.3246 Y-5.0911
G01 X5.2603 Y-5.1778
G01 X5.1878 Y-5.2578
G01 X5.1078 Y-5.3303
G01 X5.0211 Y-5.3946
G01 X4.9285 Y-5.4501
G01 X4.8309 Y-5.4962
G01 X4.7293 Y-5.5326
G01 X4.6246 Y-5.5588
G01 X4.5178 Y-5.5747
G01 X4.4100 Y-5.5800
G01 X4.3022 Y-5.5747
G01 X4.1954 Y-5.5588
G01 X4.0907 Y-5.5326
G01 X3.9891 Y-5.4962
G01 X3.8915 Y-5.4501
G01 X3.7989 Y-5.3946
G01 X3.7122 Y-5.3303
G01 X3.6322 Y-5.2578
G01 X3.5597 Y-5.1778
G01 X3.4954 Y-5.0911
G01 X3.4399 Y-4.9985
G01 X3.3938 Y-4.9009
G01 X3.3574 Y-4.7993
G01 X3.3312 Y-4.6946
G01 X3.3153 Y-4.5878
G01 X3.3101 Y-4.4800
G01 X3.3153 Y-4.3722
G01 X3.3312 Y-4.2654
G01 X3.3574 Y-4.1607
G01 X3.3938 Y-4.0591
G01 X3.4399 Y-3.9615
G01 X3.4954 Y-3.8689
G01 X3.5597 Y-3.7822
G01 X3.6322 Y-3.7022
G01 X3.7122 Y-3.6297
G01 X3.7989 Y-3.5654
G01 X3.8915 Y-3.5099
G01 X3.9891 Y-3.4638
G01 X4.0907 Y-3.4274
G01 X4.1954 Y-3.4012
G01 X4.3022 Y-3.3853
G01 X4.4100 Y-3.3801
G01 X4.5178 Y-3.3853
G01 X4.6246 Y-3.4012
G01 X4.7293 Y-3.4274
G01 X4.8309 Y-3.4638
G01 X4.9285 Y-3.5099
G01 X5.0211 Y-3.5654
G01 X5.1078 Y-3.6297
G01 X5.1878 Y-3.7022
G01 X5.2603 Y-3.7822
G01 X5.3246 Y-3.8689
G01 X5.3801 Y-3.9615
G01 X5.4262 Y-4.0591
G01 X5.4626 Y-4.1607
G01 X5.4888 Y-4.2654
G01 X5.5047 Y-4.3722
G01 X5.5099 Y-4.4800
G00 X5.5099 Y-4.4800
G01 F80.00
G01 Z-1.4000
G01 F50.00
G01 X5.5047 Y-4.5878
G01 X5.4888 Y-4.6946
G01 X5.4626 Y-4.7993
G01 X5.4262 Y-4.9009
G01 X5.3801 Y-4.9985
G01 X5.3246 Y-5.0911
G01 X5.2603 Y-5.1778
G01 X5.1878 Y-5.2578
G01 X5.1078 Y-5.3303
G01 X5.0211 Y-5.3946
G01 X4.9285 Y-5.4501
G01 X4.8309 Y-5.4962
G01 X4.7293 Y-5.5326
G01 X4.6246 Y-5.5588
G01 X4.5178 Y-5.5747
G01 X4.4100 Y-5.5800
G01 X4.3022 Y-5.5747
G01 X4.1954 Y-5.5588
G01 X4.0907 Y-5.5326
G01 X3.9891 Y-5.4962
G01 X3.8915 Y-5.4501
G01 X3.7989 Y-5.3946
G01 X3.7122 Y-5.3303
G01 X3.6322 Y-5.2578
G01 X3.5597 Y-5.1778
G01 X3.4954 Y-5.0911
G01 X3.4399 Y-4.9985
G01 X3.3938 Y-4.9009
G01 X3.3574 Y-4.7993
G01 X3.3312 Y-4.6946
G01 X3.3153 Y-4.5878
G01 X3.3101 Y-4.4800
G01 X3.3153 Y-4.3722
G01 X3.3312 Y-4.2654
G01 X3.3574 Y-4.1607
G01 X3.3938 Y-4.0591
G01 X3.4399 Y-3.9615
G01 X3.4954 Y-3.8689
G01 X3.5597 Y-3.7822
G01 X3.6322 Y-3.7022
G01 X3.7122 Y-3.6297
G01 X3.7989 Y-3.5654
G01 X3.8915 Y-3.5099
G01 X3.9891 Y-3.4638
G01 X4.0907 Y-3.4274
G01 X4.1954 Y-3.4012
G01 X4.3022 Y-3.3853
G01 X4.4100 Y-3.3801
G01 X4.5178 Y-3.3853
G01 X4.6246 Y-3.4012
G01 X4.7293 Y-3.4274
G01 X4.8309 Y-3.4638
G01 X4.9285 Y-3.5099
G01 X5.0211 Y-3.5654
G01 X5.1078 Y-3.6297
G01 X5.1878 Y-3.7022
G01 X5.2603 Y-3.7822
G01 X5.3246 Y-3.8689
G01 X5.3801 Y-3.9615
G01 X5.4262 Y-4.0591
G01 X5.4626 Y-4.1607
G01 X5.4888 Y-4.2654
G01 X5.5047 Y-4.3722
G01 X5.5099 Y-4.4800
G00 X5.5099 Y-4.4800
G01 F80.00
G01 Z-1.4500
G01 F50.00
G01 X5.5047 Y-4.5878
G01 X5.4888 Y-4.6946
G01 X5.4626 Y-4.7993
G01 X5.4262 Y-4.9009
G01 X5.3801 Y-4.9985
G01 X5.3246 Y-5.0911
G01 X5.2603 Y-5.1778
G01 X5.1878 Y-5.2578
G01 X5.1078 Y-5.3303
G01 X5.0211 Y-5.3946
G01 X4.9285 Y-5.4501
G01 X4.8309 Y-5.4962
G01 X4.7293 Y-5.5326
G01 X4.6246 Y-5.5588
G01 X4.5178 Y-5.5747
G01 X4.4100 Y-5.5800
G01 X4.3022 Y-5.5747
G01 X4.1954 Y-5.5588
G01 X4.0907 Y-5.5326
G01 X3.9891 Y-5.4962
G01 X3.8915 Y-5.4501
G01 X3.7989 Y-5.3946
G01 X3.7122 Y-5.3303
G01 X3.6322 Y-5.2578
G01 X3.5597 Y-5.1778
G01 X3.4954 Y-5.0911
G01 X3.4399 Y-4.9985
G01 X3.3938 Y-4.9009
G01 X3.3574 Y-4.7993
G01 X3.3312 Y-4.6946
G01 X3.3153 Y-4.5878
G01 X3.3101 Y-4.4800
G01 X3.3153 Y-4.3722
G01 X3.3312 Y-4.2654
G01 X3.3574 Y-4.1607
G01 X3.3938 Y-4.0591
G01 X3.4399 Y-3.9615
G01 X3.4954 Y-3.8689
G01 X3.5597 Y-3.7822
G01 X3.6322 Y-3.7022
G01 X3.7122 Y-3.6297
G01 X3.7989 Y-3.5654
G01 X3.8915 Y-3.5099
G01 X3.9891 Y-3.4638
G01 X4.0907 Y-3.4274
G01 X4.1954 Y-3.4012
G01 X4.3022 Y-3.3853
G01 X4.4100 Y-3.3801
G01 X4.5178 Y-3.3853
G01 X4.6246 Y-3.4012
G01 X4.7293 Y-3.4274
G01 X4.8309 Y-3.4638
G01 X4.9285 Y-3.5099
G01 X5.0211 Y-3.5654
G01 X5.1078 Y-3.6297
G01 X5.1878 Y-3.7022
G01 X5.2603 Y-3.7822
G01 X5.3246 Y-3.8689
G01 X5.3801 Y-3.9615
G01 X5.4262 Y-4.0591
G01 X5.4626 Y-4.1607
G01 X5.4888 Y-4.2654
G01 X5.5047 Y-4.3722
G01 X5.5099 Y-4.4800
G00 X5.5099 Y-4.4800
G01 F80.00
G01 Z-1.5000
G01 F50.00
G01 X5.5047 Y-4.5878
G01 X5.4888 Y-4.6946
G01 X5.4626 Y-4.7993
G01 X5.4262 Y-4.9009
G01 X5.3801 Y-4.9985
G01 X5.3246 Y-5.0911
G01 X5.2603 Y-5.1778
G01 X5.1878 Y-5.2578
G01 X5.1078 Y-5.3303
G01 X5.0211 Y-5.3946
G01 X4.9285 Y-5.4501
G01 X4.8309 Y-5.4962
G01 X4.7293 Y-5.5326
G01 X4.6246 Y-5.5588
G01 X4.5178 Y-5.5747
G01 X4.4100 Y-5.5800
G01 X4.3022 Y-5.5747
G01 X4.1954 Y-5.5588
G01 X4.0907 Y-5.5326
G01 X3.9891 Y-5.4962
G01 X3.8915 Y-5.4501
G01 X3.7989 Y-5.3946
G01 X3.7122 Y-5.3303
G01 X3.6322 Y-5.2578
G01 X3.5597 Y-5.1778
G01 X3.4954 Y-5.0911
G01 X3.4399 Y-4.9985
G01 X3.3938 Y-4.9009
G01 X3.3574 Y-4.7993
G01 X3.3312 Y-4.6946
G01 X3.3153 Y-4.5878
G01 X3.3101 Y-4.4800
G01 X3.3153 Y-4.3722
G01 X3.3312 Y-4.2654
G01 X3.3574 Y-4.1607
G01 X3.3938 Y-4.0591
G01 X3.4399 Y-3.9615
G01 X3.4954 Y-3.8689
G01 X3.5597 Y-3.7822
G01 X3.6322 Y-3.7022
G01 X3.7122 Y-3.6297
G01 X3.7989 Y-3.5654
G01 X3.8915 Y-3.5099
G01 X3.9891 Y-3.4638
G01 X4.0907 Y-3.4274
G01 X4.1954 Y-3.4012
G01 X4.3022 Y-3.3853
G01 X4.4100 Y-3.3801
G01 X4.5178 Y-3.3853
G01 X4.6246 Y-3.4012
G01 X4.7293 Y-3.4274
G01 X4.8309 Y-3.4638
G01 X4.9285 Y-3.5099
G01 X5.0211 Y-3.5654
G01 X5.1078 Y-3.6297
G01 X5.1878 Y-3.7022
G01 X5.2603 Y-3.7822
G01 X5.3246 Y-3.8689
G01 X5.3801 Y-3.9615
G01 X5.4262 Y-4.0591
G01 X5.4626 Y-4.1607
G01 X5.4888 Y-4.2654
G01 X5.5047 Y-4.3722
G01 X5.5099 Y-4.4800
G00 X5.5099 Y-4.4800
G01 F80.00
G01 Z-1.5100
G01 F50.00
G01 X5.5047 Y-4.5878
G01 X5.4888 Y-4.6946
G01 X5.4626 Y-4.7993
G01 X5.4262 Y-4.9009
G01 X5.3801 Y-4.9985
G01 X5.3246 Y-5.0911
G01 X5.2603 Y-5.1778
G01 X5.1878 Y-5.2578
G01 X5.1078 Y-5.3303
G01 X5.0211 Y-5.3946
G01 X4.9285 Y-5.4501
G01 X4.8309 Y-5.4962
G01 X4.7293 Y-5.5326
G01 X4.6246 Y-5.5588
G01 X4.5178 Y-5.5747
G01 X4.4100 Y-5.5800
G01 X4.3022 Y-5.5747
G01 X4.1954 Y-5.5588
G01 X4.0907 Y-5.5326
G01 X3.9891 Y-5.4962
G01 X3.8915 Y-5.4501
G01 X3.7989 Y-5.3946
G01 X3.7122 Y-5.3303
G01 X3.6322 Y-5.2578
G01 X3.5597 Y-5.1778
G01 X3.4954 Y-5.0911
G01 X3.4399 Y-4.9985
G01 X3.3938 Y-4.9009
G01 X3.3574 Y-4.7993
G01 X3.3312 Y-4.6946
G01 X3.3153 Y-4.5878
G01 X3.3101 Y-4.4800
G01 X3.3153 Y-4.3722
G01 X3.3312 Y-4.2654
G01 X3.3574 Y-4.1607
G01 X3.3938 Y-4.0591
G01 X3.4399 Y-3.9615
G01 X3.4954 Y-3.8689
G01 X3.5597 Y-3.7822
G01 X3.6322 Y-3.7022
G01 X3.7122 Y-3.6297
G01 X3.7989 Y-3.5654
G01 X3.8915 Y-3.5099
G01 X3.9891 Y-3.4638
G01 X4.0907 Y-3.4274
G01 X4.1954 Y-3.4012
G01 X4.3022 Y-3.3853
G01 X4.4100 Y-3.3801
G01 X4.5178 Y-3.3853
G01 X4.6246 Y-3.4012
G01 X4.7293 Y-3.4274
G01 X4.8309 Y-3.4638
G01 X4.9285 Y-3.5099
G01 X5.0211 Y-3.5654
G01 X5.1078 Y-3.6297
G01 X5.1878 Y-3.7022
G01 X5.2603 Y-3.7822
G01 X5.3246 Y-3.8689
G01 X5.3801 Y-3.9615
G01 X5.4262 Y-4.0591
G01 X5.4626 Y-4.1607
G01 X5.4888 Y-4.2654
G01 X5.5047 Y-4.3722
G01 X5.5099 Y-4.4800
G00 Z3.0000
G00 X83.6100 Y-4.4800
G01 F80.00
G01 Z-0.0500
G01 F50.00
G01 X83.6047 Y-4.5878
G01 X83.5888 Y-4.6946
G01 X83.5626 Y-4.7993
G01 X83.5262 Y-4.9009
G01 X83.4801 Y-4.9985
G01 X83.4246 Y-5.0911
G01 X83.3603 Y-5.1778
G01 X83.2878 Y-5.2578
G01 X83.2078 Y-5.3303
G01 X83.1211 Y-5.3946
G01 X83.0285 Y-5.4501
G01 X82.9309 Y-5.4962
G01 X82.8293 Y-5.5326
G01 X82.7246 Y-5.5588
G01 X82.6178 Y-5.5747
G01 X82.5100 Y-5.5800
G01 X82.4022 Y-5.5747
G01 X82.2954 Y-5.5588
G01 X82.1907 Y-5.5326
G01 X82.0891 Y-5.4962
G01 X81.9915 Y-5.4501
G01 X81.8989 Y-5.3946
G01 X81.8122 Y-5.3303
G01 X81.7322 Y-5.2578
G01 X81.6597 Y-5.1778
G01 X81.5954 Y-5.0911
G01 X81.5399 Y-4.9985
G01 X81.4938 Y-4.9009
G01 X81.4574 Y-4.7993
G01 X81.4312 Y-4.6946
G01 X81.4153 Y-4.5878
G01 X81.4100 Y-4.4800
G01 X81.4153 Y-4.3722
G01 X81.4312 Y-4.2654
G01 X81.4574 Y-4.1607
G01 X81.4938 Y-4.0591
G01 X81.5399 Y-3.9615
G01 X81.5954 Y-3.8689
G01 X81.6597 Y-3.7822
G01 X81.7322 Y-3.7022
G01 X81.8122 Y-3.6297
G01 X81.8989 Y-3.5654
G01 X81.9915 Y-3.5099
G01 X82.0891 Y-3.4638
G01 X82.1907 Y-3.4274
G01 X82.2954 Y-3.4012
G01 X82.4022 Y-3.3853
G01 X82.5100 Y-3.3801
G01 X82.6178 Y-3.3853
G01 X82.7246 Y-3.4012
G01 X82.8293 Y-3.4274
G01 X82.9309 Y-3.4638
G01 X83.0285 Y-3.5099
G01 X83.1211 Y-3.5654
G01 X83.2078 Y-3.6297
G01 X83.2878 Y-3.7022
G01 X83.3603 Y-3.7822
G01 X83.4246 Y-3.8689
G01 X83.4801 Y-3.9615
G01 X83.5262 Y-4.0591
G01 X83.5626 Y-4.1607
G01 X83.5888 Y-4.2654
G01 X83.6047 Y-4.3722
G01 X83.6100 Y-4.4800
G00 X83.6100 Y-4.4800
G01 F80.00
G01 Z-0.1000
G01 F50.00
G01 X83.6047 Y-4.5878
G01 X83.5888 Y-4.6946
G01 X83.5626 Y-4.7993
G01 X83.5262 Y-4.9009
G01 X83.4801 Y-4.9985
G01 X83.4246 Y-5.0911
G01 X83.3603 Y-5.1778
G01 X83.2878 Y-5.2578
G01 X83.2078 Y-5.3303
G01 X83.1211 Y-5.3946
G01 X83.0285 Y-5.4501
G01 X82.9309 Y-5.4962
G01 X82.8293 Y-5.5326
G01 X82.7246 Y-5.5588
G01 X82.6178 Y-5.5747
G01 X82.5100 Y-5.5800
G01 X82.4022 Y-5.5747
G01 X82.2954 Y-5.5588
G01 X82.1907 Y-5.5326
G01 X82.0891 Y-5.4962
G01 X81.9915 Y-5.4501
G01 X81.8989 Y-5.3946
G01 X81.8122 Y-5.3303
G01 X81.7322 Y-5.2578
G01 X81.6597 Y-5.1778
G01 X81.5954 Y-5.0911
G01 X81.5399 Y-4.9985
G01 X81.4938 Y-4.9009
G01 X81.4574 Y-4.7993
G01 X81.4312 Y-4.6946
G01 X81.4153 Y-4.5878
G01 X81.4100 Y-4.4800
G01 X81.4153 Y-4.3722
G01 X81.4312 Y-4.2654
G01 X81.4574 Y-4.1607
G01 X81.4938 Y-4.0591
G01 X81.5399 Y-3.9615
G01 X81.5954 Y-3.8689
G01 X81.6597 Y-3.7822
G01 X81.7322 Y-3.7022
G01 X81.8122 Y-3.6297
G01 X81.8989 Y-3.5654
G01 X81.9915 Y-3.5099
G01 X82.0891 Y-3.4638
G01 X82.1907 Y-3.4274
G01 X82.2954 Y-3.4012
G01 X82.4022 Y-3.3853
G01 X82.5100 Y-3.3801
G01 X82.6178 Y-3.3853
G01 X82.7246 Y-3.4012
G01 X82.8293 Y-3.4274
G01 X82.9309 Y-3.4638
G01 X83.0285 Y-3.5099
G01 X83.1211 Y-3.5654
G01 X83.2078 Y-3.6297
G01 X83.2878 Y-3.7022
G01 X83.3603 Y-3.7822
G01 X83.4246 Y-3.8689
G01 X83.4801 Y-3.9615
G01 X83.5262 Y-4.0591
G01 X83.5626 Y-4.1607
G01 X83.5888 Y-4.2654
G01 X83.6047 Y-4.3722
G01 X83.6100 Y-4.4800
G00 X83.6100 Y-4.4800
G01 F80.00
G01 Z-0.1500
G01 F50.00
G01 X83.6047 Y-4.5878
G01 X83.5888 Y-4.6946
G01 X83.5626 Y-4.7993
G01 X83.5262 Y-4.9009
G01 X83.4801 Y-4.9985
G01 X83.4246 Y-5.0911
G01 X83.3603 Y-5.1778
G01 X83.2878 Y-5.2578
G01 X83.2078 Y-5.3303
G01 X83.1211 Y-5.3946
G01 X83.0285 Y-5.4501
G01 X82.9309 Y-5.4962
G01 X82.8293 Y-5.5326
G01 X82.7246 Y-5.5588
G01 X82.6178 Y-5.5747
G01 X82.5100 Y-5.5800
G01 X82.4022 Y-5.5747
G01 X82.2954 Y-5.5588
G01 X82.1907 Y-5.5326
G01 X82.0891 Y-5.4962
G01 X81.9915 Y-5.4501
G01 X81.8989 Y-5.3946
G01 X81.8122 Y-5.3303
G01 X81.7322 Y-5.2578
G01 X81.6597 Y-5.1778
G01 X81.5954 Y-5.0911
G01 X81.5399 Y-4.9985
G01 X81.4938 Y-4.9009
G01 X81.4574 Y-4.7993
G01 X81.4312 Y-4.6946
G01 X81.4153 Y-4.5878
G01 X81.4100 Y-4.4800
G01 X81.4153 Y-4.3722
G01 X81.4312 Y-4.2654
G01 X81.4574 Y-4.1607
G01 X81.4938 Y-4.0591
G01 X81.5399 Y-3.9615
G01 X81.5954 Y-3.8689
G01 X81.6597 Y-3.7822
G01 X81.7322 Y-3.7022
G01 X81.8122 Y-3.6297
G01 X81.8989 Y-3.5654
G01 X81.9915 Y-3.5099
G01 X82.0891 Y-3.4638
G01 X82.1907 Y-3.4274
G01 X82.2954 Y-3.4012
G01 X82.4022 Y-3.3853
G01 X82.5100 Y-3.3801
G01 X82.6178 Y-3.3853
G01 X82.7246 Y-3.4012
G01 X82.8293 Y-3.4274
G01 X82.9309 Y-3.4638
G01 X83.0285 Y-3.5099
G01 X83.1211 Y-3.5654
G01 X83.2078 Y-3.6297
G01 X83.2878 Y-3.7022
G01 X83.3603 Y-3.7822
G01 X83.4246 Y-3.8689
G01 X83.4801 Y-3.9615
G01 X83.5262 Y-4.0591
G01 X83.5626 Y-4.1607
G01 X83.5888 Y-4.2654
G01 X83.6047 Y-4.3722
G01 X83.6100 Y-4.4800
G00 X83.6100 Y-4.4800
G01 F80.00
G01 Z-0.2000
G01 F50.00
G01 X83.6047 Y-4.5878
G01 X83.5888 Y-4.6946
G01 X83.5626 Y-4.7993
G01 X83.5262 Y-4.9009
G01 X83.4801 Y-4.9985
G01 X83.4246 Y-5.0911
G01 X83.3603 Y-5.1778
G01 X83.2878 Y-5.2578
G01 X83.2078 Y-5.3303
G01 X83.1211 Y-5.3946
G01 X83.0285 Y-5.4501
G01 X82.9309 Y-5.4962
G01 X82.8293 Y-5.5326
G01 X82.7246 Y-5.5588
G01 X82.6178 Y-5.5747
G01 X82.5100 Y-5.5800
G01 X82.4022 Y-5.5747
G01 X82.2954 Y-5.5588
G01 X82.1907 Y-5.5326
G01 X82.0891 Y-5.4962
G01 X81.9915 Y-5.4501
G01 X81.8989 Y-5.3946
G01 X81.8122 Y-5.3303
G01 X81.7322 Y-5.2578
G01 X81.6597 Y-5.1778
G01 X81.5954 Y-5.0911
G01 X81.5399 Y-4.9985
G01 X81.4938 Y-4.9009
G01 X81.4574 Y-4.7993
G01 X81.4312 Y-4.6946
G01 X81.4153 Y-4.5878
G01 X81.4100 Y-4.4800
G01 X81.4153 Y-4.3722
G01 X81.4312 Y-4.2654
G01 X81.4574 Y-4.1607
G01 X81.4938 Y-4.0591
G01 X81.5399 Y-3.9615
G01 X81.5954 Y-3.8689
G01 X81.6597 Y-3.7822
G01 X81.7322 Y-3.7022
G01 X81.8122 Y-3.6297
G01 X81.8989 Y-3.5654
G01 X81.9915 Y-3.5099
G01 X82.0891 Y-3.4638
G01 X82.1907 Y-3.4274
G01 X82.2954 Y-3.4012
G01 X82.4022 Y-3.3853
G01 X82.5100 Y-3.3801
G01 X82.6178 Y-3.3853
G01 X82.7246 Y-3.4012
G01 X82.8293 Y-3.4274
G01 X82.9309 Y-3.4638
G01 X83.0285 Y-3.5099
G01 X83.1211 Y-3.5654
G01 X83.2078 Y-3.6297
G01 X83.2878 Y-3.7022
G01 X83.3603 Y-3.7822
G01 X83.4246 Y-3.8689
G01 X83.4801 Y-3.9615
G01 X83.5262 Y-4.0591
G01 X83.5626 Y-4.1607
G01 X83.5888 Y-4.2654
G01 X83.6047 Y-4.3722
G01 X83.6100 Y-4.4800
G00 X83.6100 Y-4.4800
G01 F80.00
G01 Z-0.2500
G01 F50.00
G01 X83.6047 Y-4.5878
G01 X83.5888 Y-4.6946
G01 X83.5626 Y-4.7993
G01 X83.5262 Y-4.9009
G01 X83.4801 Y-4.9985
G01 X83.4246 Y-5.0911
G01 X83.3603 Y-5.1778
G01 X83.2878 Y-5.2578
G01 X83.2078 Y-5.3303
G01 X83.1211 Y-5.3946
G01 X83.0285 Y-5.4501
G01 X82.9309 Y-5.4962
G01 X82.8293 Y-5.5326
G01 X82.7246 Y-5.5588
G01 X82.6178 Y-5.5747
G01 X82.5100 Y-5.5800
G01 X82.4022 Y-5.5747
G01 X82.2954 Y-5.5588
G01 X82.1907 Y-5.5326
G01 X82.0891 Y-5.4962
G01 X81.9915 Y-5.4501
G01 X81.8989 Y-5.3946
G01 X81.8122 Y-5.3303
G01 X81.7322 Y-5.2578
G01 X81.6597 Y-5.1778
G01 X81.5954 Y-5.0911
G01 X81.5399 Y-4.9985
G01 X81.4938 Y-4.9009
G01 X81.4574 Y-4.7993
G01 X81.4312 Y-4.6946
G01 X81.4153 Y-4.5878
G01 X81.4100 Y-4.4800
G01 X81.4153 Y-4.3722
G01 X81.4312 Y-4.2654
G01 X81.4574 Y-4.1607
G01 X81.4938 Y-4.0591
G01 X81.5399 Y-3.9615
G01 X81.5954 Y-3.8689
G01 X81.6597 Y-3.7822
G01 X81.7322 Y-3.7022
G01 X81.8122 Y-3.6297
G01 X81.8989 Y-3.5654
G01 X81.9915 Y-3.5099
G01 X82.0891 Y-3.4638
G01 X82.1907 Y-3.4274
G01 X82.2954 Y-3.4012
G01 X82.4022 Y-3.3853
G01 X82.5100 Y-3.3801
G01 X82.6178 Y-3.3853
G01 X82.7246 Y-3.4012
G01 X82.8293 Y-3.4274
G01 X82.9309 Y-3.4638
G01 X83.0285 Y-3.5099
G01 X83.1211 Y-3.5654
G01 X83.2078 Y-3.6297
G01 X83.2878 Y-3.7022
G01 X83.3603 Y-3.7822
G01 X83.4246 Y-3.8689
G01 X83.4801 Y-3.9615
G01 X83.5262 Y-4.0591
G01 X83.5626 Y-4.1607
G01 X83.5888 Y-4.2654
G01 X83.6047 Y-4.3722
G01 X83.6100 Y-4.4800
G00 X83.6100 Y-4.4800
G01 F80.00
G01 Z-0.3000
G01 F50.00
G01 X83.6047 Y-4.5878
G01 X83.5888 Y-4.6946
G01 X83.5626 Y-4.7993
G01 X83.5262 Y-4.9009
G01 X83.4801 Y-4.9985
G01 X83.4246 Y-5.0911
G01 X83.3603 Y-5.1778
G01 X83.2878 Y-5.2578
G01 X83.2078 Y-5.3303
G01 X83.1211 Y-5.3946
G01 X83.0285 Y-5.4501
G01 X82.9309 Y-5.4962
G01 X82.8293 Y-5.5326
G01 X82.7246 Y-5.5588
G01 X82.6178 Y-5.5747
G01 X82.5100 Y-5.5800
G01 X82.4022 Y-5.5747
G01 X82.2954 Y-5.5588
G01 X82.1907 Y-5.5326
G01 X82.0891 Y-5.4962
G01 X81.9915 Y-5.4501
G01 X81.8989 Y-5.3946
G01 X81.8122 Y-5.3303
G01 X81.7322 Y-5.2578
G01 X81.6597 Y-5.1778
G01 X81.5954 Y-5.0911
G01 X81.5399 Y-4.9985
G01 X81.4938 Y-4.9009
G01 X81.4574 Y-4.7993
G01 X81.4312 Y-4.6946
G01 X81.4153 Y-4.5878
G01 X81.4100 Y-4.4800
G01 X81.4153 Y-4.3722
G01 X81.4312 Y-4.2654
G01 X81.4574 Y-4.1607
G01 X81.4938 Y-4.0591
G01 X81.5399 Y-3.9615
G01 X81.5954 Y-3.8689
G01 X81.6597 Y-3.7822
G01 X81.7322 Y-3.7022
G01 X81.8122 Y-3.6297
G01 X81.8989 Y-3.5654
G01 X81.9915 Y-3.5099
G01 X82.0891 Y-3.4638
G01 X82.1907 Y-3.4274
G01 X82.2954 Y-3.4012
G01 X82.4022 Y-3.3853
G01 X82.5100 Y-3.3801
G01 X82.6178 Y-3.3853
G01 X82.7246 Y-3.4012
G01 X82.8293 Y-3.4274
G01 X82.9309 Y-3.4638
G01 X83.0285 Y-3.5099
G01 X83.1211 Y-3.5654
G01 X83.2078 Y-3.6297
G01 X83.2878 Y-3.7022
G01 X83.3603 Y-3.7822
G01 X83.4246 Y-3.8689
G01 X83.4801 Y-3.9615
G01 X83.5262 Y-4.0591
G01 X83.5626 Y-4.1607
G01 X83.5888 Y-4.2654
G01 X83.6047 Y-4.3722
G01 X83.6100 Y-4.4800
G00 X83.6100 Y-4.4800
G01 F80.00
G01 Z-0.3500
G01 F50.00
G01 X83.6047 Y-4.5878
G01 X83.5888 Y-4.6946
G01 X83.5626 Y-4.7993
G01 X83.5262 Y-4.9009
G01 X83.4801 Y-4.9985
G01 X83.4246 Y-5.0911
G01 X83.3603 Y-5.1778
G01 X83.2878 Y-5.2578
G01 X83.2078 Y-5.3303
G01 X83.1211 Y-5.3946
G01 X83.0285 Y-5.4501
G01 X82.9309 Y-5.4962
G01 X82.8293 Y-5.5326
G01 X82.7246 Y-5.5588
G01 X82.6178 Y-5.5747
G01 X82.5100 Y-5.5800
G01 X82.4022 Y-5.5747
G01 X82.2954 Y-5.5588
G01 X82.1907 Y-5.5326
G01 X82.0891 Y-5.4962
G01 X81.9915 Y-5.4501
G01 X81.8989 Y-5.3946
G01 X81.8122 Y-5.3303
G01 X81.7322 Y-5.2578
G01 X81.6597 Y-5.1778
G01 X81.5954 Y-5.0911
G01 X81.5399 Y-4.9985
G01 X81.4938 Y-4.9009
G01 X81.4574 Y-4.7993
G01 X81.4312 Y-4.6946
G01 X81.4153 Y-4.5878
G01 X81.4100 Y-4.4800
G01 X81.4153 Y-4.3722
G01 X81.4312 Y-4.2654
G01 X81.4574 Y-4.1607
G01 X81.4938 Y-4.0591
G01 X81.5399 Y-3.9615
G01 X81.5954 Y-3.8689
G01 X81.6597 Y-3.7822
G01 X81.7322 Y-3.7022
G01 X81.8122 Y-3.6297
G01 X81.8989 Y-3.5654
G01 X81.9915 Y-3.5099
G01 X82.0891 Y-3.4638
G01 X82.1907 Y-3.4274
G01 X82.2954 Y-3.4012
G01 X82.4022 Y-3.3853
G01 X82.5100 Y-3.3801
G01 X82.6178 Y-3.3853
G01 X82.7246 Y-3.4012
G01 X82.8293 Y-3.4274
G01 X82.9309 Y-3.4638
G01 X83.0285 Y-3.5099
G01 X83.1211 Y-3.5654
G01 X83.2078 Y-3.6297
G01 X83.2878 Y-3.7022
G01 X83.3603 Y-3.7822
G01 X83.4246 Y-3.8689
G01 X83.4801 Y-3.9615
G01 X83.5262 Y-4.0591
G01 X83.5626 Y-4.1607
G01 X83.5888 Y-4.2654
G01 X83.6047 Y-4.3722
G01 X83.6100 Y-4.4800
G00 X83.6100 Y-4.4800
G01 F80.00
G01 Z-0.4000
G01 F50.00
G01 X83.6047 Y-4.5878
G01 X83.5888 Y-4.6946
G01 X83.5626 Y-4.7993
G01 X83.5262 Y-4.9009
G01 X83.4801 Y-4.9985
G01 X83.4246 Y-5.0911
G01 X83.3603 Y-5.1778
G01 X83.2878 Y-5.2578
G01 X83.2078 Y-5.3303
G01 X83.1211 Y-5.3946
G01 X83.0285 Y-5.4501
G01 X82.9309 Y-5.4962
G01 X82.8293 Y-5.5326
G01 X82.7246 Y-5.5588
G01 X82.6178 Y-5.5747
G01 X82.5100 Y-5.5800
G01 X82.4022 Y-5.5747
G01 X82.2954 Y-5.5588
G01 X82.1907 Y-5.5326
G01 X82.0891 Y-5.4962
G01 X81.9915 Y-5.4501
G01 X81.8989 Y-5.3946
G01 X81.8122 Y-5.3303
G01 X81.7322 Y-5.2578
G01 X81.6597 Y-5.1778
G01 X81.5954 Y-5.0911
G01 X81.5399 Y-4.9985
G01 X81.4938 Y-4.9009
G01 X81.4574 Y-4.7993
G01 X81.4312 Y-4.6946
G01 X81.4153 Y-4.5878
G01 X81.4100 Y-4.4800
G01 X81.4153 Y-4.3722
G01 X81.4312 Y-4.2654
G01 X81.4574 Y-4.1607
G01 X81.4938 Y-4.0591
G01 X81.5399 Y-3.9615
G01 X81.5954 Y-3.8689
G01 X81.6597 Y-3.7822
G01 X81.7322 Y-3.7022
G01 X81.8122 Y-3.6297
G01 X81.8989 Y-3.5654
G01 X81.9915 Y-3.5099
G01 X82.0891 Y-3.4638
G01 X82.1907 Y-3.4274
G01 X82.2954 Y-3.4012
G01 X82.4022 Y-3.3853
G01 X82.5100 Y-3.3801
G01 X82.6178 Y-3.3853
G01 X82.7246 Y-3.4012
G01 X82.8293 Y-3.4274
G01 X82.9309 Y-3.4638
G01 X83.0285 Y-3.5099
G01 X83.1211 Y-3.5654
G01 X83.2078 Y-3.6297
G01 X83.2878 Y-3.7022
G01 X83.3603 Y-3.7822
G01 X83.4246 Y-3.8689
G01 X83.4801 Y-3.9615
G01 X83.5262 Y-4.0591
G01 X83.5626 Y-4.1607
G01 X83.5888 Y-4.2654
G01 X83.6047 Y-4.3722
G01 X83.6100 Y-4.4800
G00 X83.6100 Y-4.4800
G01 F80.00
G01 Z-0.4500
G01 F50.00
G01 X83.6047 Y-4.5878
G01 X83.5888 Y-4.6946
G01 X83.5626 Y-4.7993
G01 X83.5262 Y-4.9009
G01 X83.4801 Y-4.9985
G01 X83.4246 Y-5.0911
G01 X83.3603 Y-5.1778
G01 X83.2878 Y-5.2578
G01 X83.2078 Y-5.3303
G01 X83.1211 Y-5.3946
G01 X83.0285 Y-5.4501
G01 X82.9309 Y-5.4962
G01 X82.8293 Y-5.5326
G01 X82.7246 Y-5.5588
G01 X82.6178 Y-5.5747
G01 X82.5100 Y-5.5800
G01 X82.4022 Y-5.5747
G01 X82.2954 Y-5.5588
G01 X82.1907 Y-5.5326
G01 X82.0891 Y-5.4962
G01 X81.9915 Y-5.4501
G01 X81.8989 Y-5.3946
G01 X81.8122 Y-5.3303
G01 X81.7322 Y-5.2578
G01 X81.6597 Y-5.1778
G01 X81.5954 Y-5.0911
G01 X81.5399 Y-4.9985
G01 X81.4938 Y-4.9009
G01 X81.4574 Y-4.7993
G01 X81.4312 Y-4.6946
G01 X81.4153 Y-4.5878
G01 X81.4100 Y-4.4800
G01 X81.4153 Y-4.3722
G01 X81.4312 Y-4.2654
G01 X81.4574 Y-4.1607
G01 X81.4938 Y-4.0591
G01 X81.5399 Y-3.9615
G01 X81.5954 Y-3.8689
G01 X81.6597 Y-3.7822
G01 X81.7322 Y-3.7022
G01 X81.8122 Y-3.6297
G01 X81.8989 Y-3.5654
G01 X81.9915 Y-3.5099
G01 X82.0891 Y-3.4638
G01 X82.1907 Y-3.4274
G01 X82.2954 Y-3.4012
G01 X82.4022 Y-3.3853
G01 X82.5100 Y-3.3801
G01 X82.6178 Y-3.3853
G01 X82.7246 Y-3.4012
G01 X82.8293 Y-3.4274
G01 X82.9309 Y-3.4638
G01 X83.0285 Y-3.5099
G01 X83.1211 Y-3.5654
G01 X83.2078 Y-3.6297
G01 X83.2878 Y-3.7022
G01 X83.3603 Y-3.7822
G01 X83.4246 Y-3.8689
G01 X83.4801 Y-3.9615
G01 X83.5262 Y-4.0591
G01 X83.5626 Y-4.1607
G01 X83.5888 Y-4.2654
G01 X83.6047 Y-4.3722
G01 X83.6100 Y-4.4800
G00 X83.6100 Y-4.4800
G01 F80.00
G01 Z-0.5000
G01 F50.00
G01 X83.6047 Y-4.5878
G01 X83.5888 Y-4.6946
G01 X83.5626 Y-4.7993
G01 X83.5262 Y-4.9009
G01 X83.4801 Y-4.9985
G01 X83.4246 Y-5.0911
G01 X83.3603 Y-5.1778
G01 X83.2878 Y-5.2578
G01 X83.2078 Y-5.3303
G01 X83.1211 Y-5.3946
G01 X83.0285 Y-5.4501
G01 X82.9309 Y-5.4962
G01 X82.8293 Y-5.5326
G01 X82.7246 Y-5.5588
G01 X82.6178 Y-5.5747
G01 X82.5100 Y-5.5800
G01 X82.4022 Y-5.5747
G01 X82.2954 Y-5.5588
G01 X82.1907 Y-5.5326
G01 X82.0891 Y-5.4962
G01 X81.9915 Y-5.4501
G01 X81.8989 Y-5.3946
G01 X81.8122 Y-5.3303
G01 X81.7322 Y-5.2578
G01 X81.6597 Y-5.1778
G01 X81.5954 Y-5.0911
G01 X81.5399 Y-4.9985
G01 X81.4938 Y-4.9009
G01 X81.4574 Y-4.7993
G01 X81.4312 Y-4.6946
G01 X81.4153 Y-4.5878
G01 X81.4100 Y-4.4800
G01 X81.4153 Y-4.3722
G01 X81.4312 Y-4.2654
G01 X81.4574 Y-4.1607
G01 X81.4938 Y-4.0591
G01 X81.5399 Y-3.9615
G01 X81.5954 Y-3.8689
G01 X81.6597 Y-3.7822
G01 X81.7322 Y-3.7022
G01 X81.8122 Y-3.6297
G01 X81.8989 Y-3.5654
G01 X81.9915 Y-3.5099
G01 X82.0891 Y-3.4638
G01 X82.1907 Y-3.4274
G01 X82.2954 Y-3.4012
G01 X82.4022 Y-3.3853
G01 X82.5100 Y-3.3801
G01 X82.6178 Y-3.3853
G01 X82.7246 Y-3.4012
G01 X82.8293 Y-3.4274
G01 X82.9309 Y-3.4638
G01 X83.0285 Y-3.5099
G01 X83.1211 Y-3.5654
G01 X83.2078 Y-3.6297
G01 X83.2878 Y-3.7022
G01 X83.3603 Y-3.7822
G01 X83.4246 Y-3.8689
G01 X83.4801 Y-3.9615
G01 X83.5262 Y-4.0591
G01 X83.5626 Y-4.1607
G01 X83.5888 Y-4.2654
G01 X83.6047 Y-4.3722
G01 X83.6100 Y-4.4800
G00 X83.6100 Y-4.4800
G01 F80.00
G01 Z-0.5500
G01 F50.00
G01 X83.6047 Y-4.5878
G01 X83.5888 Y-4.6946
G01 X83.5626 Y-4.7993
G01 X83.5262 Y-4.9009
G01 X83.4801 Y-4.9985
G01 X83.4246 Y-5.0911
G01 X83.3603 Y-5.1778
G01 X83.2878 Y-5.2578
G01 X83.2078 Y-5.3303
G01 X83.1211 Y-5.3946
G01 X83.0285 Y-5.4501
G01 X82.9309 Y-5.4962
G01 X82.8293 Y-5.5326
G01 X82.7246 Y-5.5588
G01 X82.6178 Y-5.5747
G01 X82.5100 Y-5.5800
G01 X82.4022 Y-5.5747
G01 X82.2954 Y-5.5588
G01 X82.1907 Y-5.5326
G01 X82.0891 Y-5.4962
G01 X81.9915 Y-5.4501
G01 X81.8989 Y-5.3946
G01 X81.8122 Y-5.3303
G01 X81.7322 Y-5.2578
G01 X81.6597 Y-5.1778
G01 X81.5954 Y-5.0911
G01 X81.5399 Y-4.9985
G01 X81.4938 Y-4.9009
G01 X81.4574 Y-4.7993
G01 X81.4312 Y-4.6946
G01 X81.4153 Y-4.5878
G01 X81.4100 Y-4.4800
G01 X81.4153 Y-4.3722
G01 X81.4312 Y-4.2654
G01 X81.4574 Y-4.1607
G01 X81.4938 Y-4.0591
G01 X81.5399 Y-3.9615
G01 X81.5954 Y-3.8689
G01 X81.6597 Y-3.7822
G01 X81.7322 Y-3.7022
G01 X81.8122 Y-3.6297
G01 X81.8989 Y-3.5654
G01 X81.9915 Y-3.5099
G01 X82.0891 Y-3.4638
G01 X82.1907 Y-3.4274
G01 X82.2954 Y-3.4012
G01 X82.4022 Y-3.3853
G01 X82.5100 Y-3.3801
G01 X82.6178 Y-3.3853
G01 X82.7246 Y-3.4012
G01 X82.8293 Y-3.4274
G01 X82.9309 Y-3.4638
G01 X83.0285 Y-3.5099
G01 X83.1211 Y-3.5654
G01 X83.2078 Y-3.6297
G01 X83.2878 Y-3.7022
G01 X83.3603 Y-3.7822
G01 X83.4246 Y-3.8689
G01 X83.4801 Y-3.9615
G01 X83.5262 Y-4.0591
G01 X83.5626 Y-4.1607
G01 X83.5888 Y-4.2654
G01 X83.6047 Y-4.3722
G01 X83.6100 Y-4.4800
G00 X83.6100 Y-4.4800
G01 F80.00
G01 Z-0.6000
G01 F50.00
G01 X83.6047 Y-4.5878
G01 X83.5888 Y-4.6946
G01 X83.5626 Y-4.7993
G01 X83.5262 Y-4.9009
G01 X83.4801 Y-4.9985
G01 X83.4246 Y-5.0911
G01 X83.3603 Y-5.1778
G01 X83.2878 Y-5.2578
G01 X83.2078 Y-5.3303
G01 X83.1211 Y-5.3946
G01 X83.0285 Y-5.4501
G01 X82.9309 Y-5.4962
G01 X82.8293 Y-5.5326
G01 X82.7246 Y-5.5588
G01 X82.6178 Y-5.5747
G01 X82.5100 Y-5.5800
G01 X82.4022 Y-5.5747
G01 X82.2954 Y-5.5588
G01 X82.1907 Y-5.5326
G01 X82.0891 Y-5.4962
G01 X81.9915 Y-5.4501
G01 X81.8989 Y-5.3946
G01 X81.8122 Y-5.3303
G01 X81.7322 Y-5.2578
G01 X81.6597 Y-5.1778
G01 X81.5954 Y-5.0911
G01 X81.5399 Y-4.9985
G01 X81.4938 Y-4.9009
G01 X81.4574 Y-4.7993
G01 X81.4312 Y-4.6946
G01 X81.4153 Y-4.5878
G01 X81.4100 Y-4.4800
G01 X81.4153 Y-4.3722
G01 X81.4312 Y-4.2654
G01 X81.4574 Y-4.1607
G01 X81.4938 Y-4.0591
G01 X81.5399 Y-3.9615
G01 X81.5954 Y-3.8689
G01 X81.6597 Y-3.7822
G01 X81.7322 Y-3.7022
G01 X81.8122 Y-3.6297
G01 X81.8989 Y-3.5654
G01 X81.9915 Y-3.5099
G01 X82.0891 Y-3.4638
G01 X82.1907 Y-3.4274
G01 X82.2954 Y-3.4012
G01 X82.4022 Y-3.3853
G01 X82.5100 Y-3.3801
G01 X82.6178 Y-3.3853
G01 X82.7246 Y-3.4012
G01 X82.8293 Y-3.4274
G01 X82.9309 Y-3.4638
G01 X83.0285 Y-3.5099
G01 X83.1211 Y-3.5654
G01 X83.2078 Y-3.6297
G01 X83.2878 Y-3.7022
G01 X83.3603 Y-3.7822
G01 X83.4246 Y-3.8689
G01 X83.4801 Y-3.9615
G01 X83.5262 Y-4.0591
G01 X83.5626 Y-4.1607
G01 X83.5888 Y-4.2654
G01 X83.6047 Y-4.3722
G01 X83.6100 Y-4.4800
G00 X83.6100 Y-4.4800
G01 F80.00
G01 Z-0.6500
G01 F50.00
G01 X83.6047 Y-4.5878
G01 X83.5888 Y-4.6946
G01 X83.5626 Y-4.7993
G01 X83.5262 Y-4.9009
G01 X83.4801 Y-4.9985
G01 X83.4246 Y-5.0911
G01 X83.3603 Y-5.1778
G01 X83.2878 Y-5.2578
G01 X83.2078 Y-5.3303
G01 X83.1211 Y-5.3946
G01 X83.0285 Y-5.4501
G01 X82.9309 Y-5.4962
G01 X82.8293 Y-5.5326
G01 X82.7246 Y-5.5588
G01 X82.6178 Y-5.5747
G01 X82.5100 Y-5.5800
G01 X82.4022 Y-5.5747
G01 X82.2954 Y-5.5588
G01 X82.1907 Y-5.5326
G01 X82.0891 Y-5.4962
G01 X81.9915 Y-5.4501
G01 X81.8989 Y-5.3946
G01 X81.8122 Y-5.3303
G01 X81.7322 Y-5.2578
G01 X81.6597 Y-5.1778
G01 X81.5954 Y-5.0911
G01 X81.5399 Y-4.9985
G01 X81.4938 Y-4.9009
G01 X81.4574 Y-4.7993
G01 X81.4312 Y-4.6946
G01 X81.4153 Y-4.5878
G01 X81.4100 Y-4.4800
G01 X81.4153 Y-4.3722
G01 X81.4312 Y-4.2654
G01 X81.4574 Y-4.1607
G01 X81.4938 Y-4.0591
G01 X81.5399 Y-3.9615
G01 X81.5954 Y-3.8689
G01 X81.6597 Y-3.7822
G01 X81.7322 Y-3.7022
G01 X81.8122 Y-3.6297
G01 X81.8989 Y-3.5654
G01 X81.9915 Y-3.5099
G01 X82.0891 Y-3.4638
G01 X82.1907 Y-3.4274
G01 X82.2954 Y-3.4012
G01 X82.4022 Y-3.3853
G01 X82.5100 Y-3.3801
G01 X82.6178 Y-3.3853
G01 X82.7246 Y-3.4012
G01 X82.8293 Y-3.4274
G01 X82.9309 Y-3.4638
G01 X83.0285 Y-3.5099
G01 X83.1211 Y-3.5654
G01 X83.2078 Y-3.6297
G01 X83.2878 Y-3.7022
G01 X83.3603 Y-3.7822
G01 X83.4246 Y-3.8689
G01 X83.4801 Y-3.9615
G01 X83.5262 Y-4.0591
G01 X83.5626 Y-4.1607
G01 X83.5888 Y-4.2654
G01 X83.6047 Y-4.3722
G01 X83.6100 Y-4.4800
G00 X83.6100 Y-4.4800
G01 F80.00
G01 Z-0.7000
G01 F50.00
G01 X83.6047 Y-4.5878
G01 X83.5888 Y-4.6946
G01 X83.5626 Y-4.7993
G01 X83.5262 Y-4.9009
G01 X83.4801 Y-4.9985
G01 X83.4246 Y-5.0911
G01 X83.3603 Y-5.1778
G01 X83.2878 Y-5.2578
G01 X83.2078 Y-5.3303
G01 X83.1211 Y-5.3946
G01 X83.0285 Y-5.4501
G01 X82.9309 Y-5.4962
G01 X82.8293 Y-5.5326
G01 X82.7246 Y-5.5588
G01 X82.6178 Y-5.5747
G01 X82.5100 Y-5.5800
G01 X82.4022 Y-5.5747
G01 X82.2954 Y-5.5588
G01 X82.1907 Y-5.5326
G01 X82.0891 Y-5.4962
G01 X81.9915 Y-5.4501
G01 X81.8989 Y-5.3946
G01 X81.8122 Y-5.3303
G01 X81.7322 Y-5.2578
G01 X81.6597 Y-5.1778
G01 X81.5954 Y-5.0911
G01 X81.5399 Y-4.9985
G01 X81.4938 Y-4.9009
G01 X81.4574 Y-4.7993
G01 X81.4312 Y-4.6946
G01 X81.4153 Y-4.5878
G01 X81.4100 Y-4.4800
G01 X81.4153 Y-4.3722
G01 X81.4312 Y-4.2654
G01 X81.4574 Y-4.1607
G01 X81.4938 Y-4.0591
G01 X81.5399 Y-3.9615
G01 X81.5954 Y-3.8689
G01 X81.6597 Y-3.7822
G01 X81.7322 Y-3.7022
G01 X81.8122 Y-3.6297
G01 X81.8989 Y-3.5654
G01 X81.9915 Y-3.5099
G01 X82.0891 Y-3.4638
G01 X82.1907 Y-3.4274
G01 X82.2954 Y-3.4012
G01 X82.4022 Y-3.3853
G01 X82.5100 Y-3.3801
G01 X82.6178 Y-3.3853
G01 X82.7246 Y-3.4012
G01 X82.8293 Y-3.4274
G01 X82.9309 Y-3.4638
G01 X83.0285 Y-3.5099
G01 X83.1211 Y-3.5654
G01 X83.2078 Y-3.6297
G01 X83.2878 Y-3.7022
G01 X83.3603 Y-3.7822
G01 X83.4246 Y-3.8689
G01 X83.4801 Y-3.9615
G01 X83.5262 Y-4.0591
G01 X83.5626 Y-4.1607
G01 X83.5888 Y-4.2654
G01 X83.6047 Y-4.3722
G01 X83.6100 Y-4.4800
G00 X83.6100 Y-4.4800
G01 F80.00
G01 Z-0.7500
G01 F50.00
G01 X83.6047 Y-4.5878
G01 X83.5888 Y-4.6946
G01 X83.5626 Y-4.7993
G01 X83.5262 Y-4.9009
G01 X83.4801 Y-4.9985
G01 X83.4246 Y-5.0911
G01 X83.3603 Y-5.1778
G01 X83.2878 Y-5.2578
G01 X83.2078 Y-5.3303
G01 X83.1211 Y-5.3946
G01 X83.0285 Y-5.4501
G01 X82.9309 Y-5.4962
G01 X82.8293 Y-5.5326
G01 X82.7246 Y-5.5588
G01 X82.6178 Y-5.5747
G01 X82.5100 Y-5.5800
G01 X82.4022 Y-5.5747
G01 X82.2954 Y-5.5588
G01 X82.1907 Y-5.5326
G01 X82.0891 Y-5.4962
G01 X81.9915 Y-5.4501
G01 X81.8989 Y-5.3946
G01 X81.8122 Y-5.3303
G01 X81.7322 Y-5.2578
G01 X81.6597 Y-5.1778
G01 X81.5954 Y-5.0911
G01 X81.5399 Y-4.9985
G01 X81.4938 Y-4.9009
G01 X81.4574 Y-4.7993
G01 X81.4312 Y-4.6946
G01 X81.4153 Y-4.5878
G01 X81.4100 Y-4.4800
G01 X81.4153 Y-4.3722
G01 X81.4312 Y-4.2654
G01 X81.4574 Y-4.1607
G01 X81.4938 Y-4.0591
G01 X81.5399 Y-3.9615
G01 X81.5954 Y-3.8689
G01 X81.6597 Y-3.7822
G01 X81.7322 Y-3.7022
G01 X81.8122 Y-3.6297
G01 X81.8989 Y-3.5654
G01 X81.9915 Y-3.5099
G01 X82.0891 Y-3.4638
G01 X82.1907 Y-3.4274
G01 X82.2954 Y-3.4012
G01 X82.4022 Y-3.3853
G01 X82.5100 Y-3.3801
G01 X82.6178 Y-3.3853
G01 X82.7246 Y-3.4012
G01 X82.8293 Y-3.4274
G01 X82.9309 Y-3.4638
G01 X83.0285 Y-3.5099
G01 X83.1211 Y-3.5654
G01 X83.2078 Y-3.6297
G01 X83.2878 Y-3.7022
G01 X83.3603 Y-3.7822
G01 X83.4246 Y-3.8689
G01 X83.4801 Y-3.9615
G01 X83.5262 Y-4.0591
G01 X83.5626 Y-4.1607
G01 X83.5888 Y-4.2654
G01 X83.6047 Y-4.3722
G01 X83.6100 Y-4.4800
G00 X83.6100 Y-4.4800
G01 F80.00
G01 Z-0.8000
G01 F50.00
G01 X83.6047 Y-4.5878
G01 X83.5888 Y-4.6946
G01 X83.5626 Y-4.7993
G01 X83.5262 Y-4.9009
G01 X83.4801 Y-4.9985
G01 X83.4246 Y-5.0911
G01 X83.3603 Y-5.1778
G01 X83.2878 Y-5.2578
G01 X83.2078 Y-5.3303
G01 X83.1211 Y-5.3946
G01 X83.0285 Y-5.4501
G01 X82.9309 Y-5.4962
G01 X82.8293 Y-5.5326
G01 X82.7246 Y-5.5588
G01 X82.6178 Y-5.5747
G01 X82.5100 Y-5.5800
G01 X82.4022 Y-5.5747
G01 X82.2954 Y-5.5588
G01 X82.1907 Y-5.5326
G01 X82.0891 Y-5.4962
G01 X81.9915 Y-5.4501
G01 X81.8989 Y-5.3946
G01 X81.8122 Y-5.3303
G01 X81.7322 Y-5.2578
G01 X81.6597 Y-5.1778
G01 X81.5954 Y-5.0911
G01 X81.5399 Y-4.9985
G01 X81.4938 Y-4.9009
G01 X81.4574 Y-4.7993
G01 X81.4312 Y-4.6946
G01 X81.4153 Y-4.5878
G01 X81.4100 Y-4.4800
G01 X81.4153 Y-4.3722
G01 X81.4312 Y-4.2654
G01 X81.4574 Y-4.1607
G01 X81.4938 Y-4.0591
G01 X81.5399 Y-3.9615
G01 X81.5954 Y-3.8689
G01 X81.6597 Y-3.7822
G01 X81.7322 Y-3.7022
G01 X81.8122 Y-3.6297
G01 X81.8989 Y-3.5654
G01 X81.9915 Y-3.5099
G01 X82.0891 Y-3.4638
G01 X82.1907 Y-3.4274
G01 X82.2954 Y-3.4012
G01 X82.4022 Y-3.3853
G01 X82.5100 Y-3.3801
G01 X82.6178 Y-3.3853
G01 X82.7246 Y-3.4012
G01 X82.8293 Y-3.4274
G01 X82.9309 Y-3.4638
G01 X83.0285 Y-3.5099
G01 X83.1211 Y-3.5654
G01 X83.2078 Y-3.6297
G01 X83.2878 Y-3.7022
G01 X83.3603 Y-3.7822
G01 X83.4246 Y-3.8689
G01 X83.4801 Y-3.9615
G01 X83.5262 Y-4.0591
G01 X83.5626 Y-4.1607
G01 X83.5888 Y-4.2654
G01 X83.6047 Y-4.3722
G01 X83.6100 Y-4.4800
G00 X83.6100 Y-4.4800
G01 F80.00
G01 Z-0.8500
G01 F50.00
G01 X83.6047 Y-4.5878
G01 X83.5888 Y-4.6946
G01 X83.5626 Y-4.7993
G01 X83.5262 Y-4.9009
G01 X83.4801 Y-4.9985
G01 X83.4246 Y-5.0911
G01 X83.3603 Y-5.1778
G01 X83.2878 Y-5.2578
G01 X83.2078 Y-5.3303
G01 X83.1211 Y-5.3946
G01 X83.0285 Y-5.4501
G01 X82.9309 Y-5.4962
G01 X82.8293 Y-5.5326
G01 X82.7246 Y-5.5588
G01 X82.6178 Y-5.5747
G01 X82.5100 Y-5.5800
G01 X82.4022 Y-5.5747
G01 X82.2954 Y-5.5588
G01 X82.1907 Y-5.5326
G01 X82.0891 Y-5.4962
G01 X81.9915 Y-5.4501
G01 X81.8989 Y-5.3946
G01 X81.8122 Y-5.3303
G01 X81.7322 Y-5.2578
G01 X81.6597 Y-5.1778
G01 X81.5954 Y-5.0911
G01 X81.5399 Y-4.9985
G01 X81.4938 Y-4.9009
G01 X81.4574 Y-4.7993
G01 X81.4312 Y-4.6946
G01 X81.4153 Y-4.5878
G01 X81.4100 Y-4.4800
G01 X81.4153 Y-4.3722
G01 X81.4312 Y-4.2654
G01 X81.4574 Y-4.1607
G01 X81.4938 Y-4.0591
G01 X81.5399 Y-3.9615
G01 X81.5954 Y-3.8689
G01 X81.6597 Y-3.7822
G01 X81.7322 Y-3.7022
G01 X81.8122 Y-3.6297
G01 X81.8989 Y-3.5654
G01 X81.9915 Y-3.5099
G01 X82.0891 Y-3.4638
G01 X82.1907 Y-3.4274
G01 X82.2954 Y-3.4012
G01 X82.4022 Y-3.3853
G01 X82.5100 Y-3.3801
G01 X82.6178 Y-3.3853
G01 X82.7246 Y-3.4012
G01 X82.8293 Y-3.4274
G01 X82.9309 Y-3.4638
G01 X83.0285 Y-3.5099
G01 X83.1211 Y-3.5654
G01 X83.2078 Y-3.6297
G01 X83.2878 Y-3.7022
G01 X83.3603 Y-3.7822
G01 X83.4246 Y-3.8689
G01 X83.4801 Y-3.9615
G01 X83.5262 Y-4.0591
G01 X83.5626 Y-4.1607
G01 X83.5888 Y-4.2654
G01 X83.6047 Y-4.3722
G01 X83.6100 Y-4.4800
G00 X83.6100 Y-4.4800
G01 F80.00
G01 Z-0.9000
G01 F50.00
G01 X83.6047 Y-4.5878
G01 X83.5888 Y-4.6946
G01 X83.5626 Y-4.7993
G01 X83.5262 Y-4.9009
G01 X83.4801 Y-4.9985
G01 X83.4246 Y-5.0911
G01 X83.3603 Y-5.1778
G01 X83.2878 Y-5.2578
G01 X83.2078 Y-5.3303
G01 X83.1211 Y-5.3946
G01 X83.0285 Y-5.4501
G01 X82.9309 Y-5.4962
G01 X82.8293 Y-5.5326
G01 X82.7246 Y-5.5588
G01 X82.6178 Y-5.5747
G01 X82.5100 Y-5.5800
G01 X82.4022 Y-5.5747
G01 X82.2954 Y-5.5588
G01 X82.1907 Y-5.5326
G01 X82.0891 Y-5.4962
G01 X81.9915 Y-5.4501
G01 X81.8989 Y-5.3946
G01 X81.8122 Y-5.3303
G01 X81.7322 Y-5.2578
G01 X81.6597 Y-5.1778
G01 X81.5954 Y-5.0911
G01 X81.5399 Y-4.9985
G01 X81.4938 Y-4.9009
G01 X81.4574 Y-4.7993
G01 X81.4312 Y-4.6946
G01 X81.4153 Y-4.5878
G01 X81.4100 Y-4.4800
G01 X81.4153 Y-4.3722
G01 X81.4312 Y-4.2654
G01 X81.4574 Y-4.1607
G01 X81.4938 Y-4.0591
G01 X81.5399 Y-3.9615
G01 X81.5954 Y-3.8689
G01 X81.6597 Y-3.7822
G01 X81.7322 Y-3.7022
G01 X81.8122 Y-3.6297
G01 X81.8989 Y-3.5654
G01 X81.9915 Y-3.5099
G01 X82.0891 Y-3.4638
G01 X82.1907 Y-3.4274
G01 X82.2954 Y-3.4012
G01 X82.4022 Y-3.3853
G01 X82.5100 Y-3.3801
G01 X82.6178 Y-3.3853
G01 X82.7246 Y-3.4012
G01 X82.8293 Y-3.4274
G01 X82.9309 Y-3.4638
G01 X83.0285 Y-3.5099
G01 X83.1211 Y-3.5654
G01 X83.2078 Y-3.6297
G01 X83.2878 Y-3.7022
G01 X83.3603 Y-3.7822
G01 X83.4246 Y-3.8689
G01 X83.4801 Y-3.9615
G01 X83.5262 Y-4.0591
G01 X83.5626 Y-4.1607
G01 X83.5888 Y-4.2654
G01 X83.6047 Y-4.3722
G01 X83.6100 Y-4.4800
G00 X83.6100 Y-4.4800
G01 F80.00
G01 Z-0.9500
G01 F50.00
G01 X83.6047 Y-4.5878
G01 X83.5888 Y-4.6946
G01 X83.5626 Y-4.7993
G01 X83.5262 Y-4.9009
G01 X83.4801 Y-4.9985
G01 X83.4246 Y-5.0911
G01 X83.3603 Y-5.1778
G01 X83.2878 Y-5.2578
G01 X83.2078 Y-5.3303
G01 X83.1211 Y-5.3946
G01 X83.0285 Y-5.4501
G01 X82.9309 Y-5.4962
G01 X82.8293 Y-5.5326
G01 X82.7246 Y-5.5588
G01 X82.6178 Y-5.5747
G01 X82.5100 Y-5.5800
G01 X82.4022 Y-5.5747
G01 X82.2954 Y-5.5588
G01 X82.1907 Y-5.5326
G01 X82.0891 Y-5.4962
G01 X81.9915 Y-5.4501
G01 X81.8989 Y-5.3946
G01 X81.8122 Y-5.3303
G01 X81.7322 Y-5.2578
G01 X81.6597 Y-5.1778
G01 X81.5954 Y-5.0911
G01 X81.5399 Y-4.9985
G01 X81.4938 Y-4.9009
G01 X81.4574 Y-4.7993
G01 X81.4312 Y-4.6946
G01 X81.4153 Y-4.5878
G01 X81.4100 Y-4.4800
G01 X81.4153 Y-4.3722
G01 X81.4312 Y-4.2654
G01 X81.4574 Y-4.1607
G01 X81.4938 Y-4.0591
G01 X81.5399 Y-3.9615
G01 X81.5954 Y-3.8689
G01 X81.6597 Y-3.7822
G01 X81.7322 Y-3.7022
G01 X81.8122 Y-3.6297
G01 X81.8989 Y-3.5654
G01 X81.9915 Y-3.5099
G01 X82.0891 Y-3.4638
G01 X82.1907 Y-3.4274
G01 X82.2954 Y-3.4012
G01 X82.4022 Y-3.3853
G01 X82.5100 Y-3.3801
G01 X82.6178 Y-3.3853
G01 X82.7246 Y-3.4012
G01 X82.8293 Y-3.4274
G01 X82.9309 Y-3.4638
G01 X83.0285 Y-3.5099
G01 X83.1211 Y-3.5654
G01 X83.2078 Y-3.6297
G01 X83.2878 Y-3.7022
G01 X83.3603 Y-3.7822
G01 X83.4246 Y-3.8689
G01 X83.4801 Y-3.9615
G01 X83.5262 Y-4.0591
G01 X83.5626 Y-4.1607
G01 X83.5888 Y-4.2654
G01 X83.6047 Y-4.3722
G01 X83.6100 Y-4.4800
G00 X83.6100 Y-4.4800
G01 F80.00
G01 Z-1.0000
G01 F50.00
G01 X83.6047 Y-4.5878
G01 X83.5888 Y-4.6946
G01 X83.5626 Y-4.7993
G01 X83.5262 Y-4.9009
G01 X83.4801 Y-4.9985
G01 X83.4246 Y-5.0911
G01 X83.3603 Y-5.1778
G01 X83.2878 Y-5.2578
G01 X83.2078 Y-5.3303
G01 X83.1211 Y-5.3946
G01 X83.0285 Y-5.4501
G01 X82.9309 Y-5.4962
G01 X82.8293 Y-5.5326
G01 X82.7246 Y-5.5588
G01 X82.6178 Y-5.5747
G01 X82.5100 Y-5.5800
G01 X82.4022 Y-5.5747
G01 X82.2954 Y-5.5588
G01 X82.1907 Y-5.5326
G01 X82.0891 Y-5.4962
G01 X81.9915 Y-5.4501
G01 X81.8989 Y-5.3946
G01 X81.8122 Y-5.3303
G01 X81.7322 Y-5.2578
G01 X81.6597 Y-5.1778
G01 X81.5954 Y-5.0911
G01 X81.5399 Y-4.9985
G01 X81.4938 Y-4.9009
G01 X81.4574 Y-4.7993
G01 X81.4312 Y-4.6946
G01 X81.4153 Y-4.5878
G01 X81.4100 Y-4.4800
G01 X81.4153 Y-4.3722
G01 X81.4312 Y-4.2654
G01 X81.4574 Y-4.1607
G01 X81.4938 Y-4.0591
G01 X81.5399 Y-3.9615
G01 X81.5954 Y-3.8689
G01 X81.6597 Y-3.7822
G01 X81.7322 Y-3.7022
G01 X81.8122 Y-3.6297
G01 X81.8989 Y-3.5654
G01 X81.9915 Y-3.5099
G01 X82.0891 Y-3.4638
G01 X82.1907 Y-3.4274
G01 X82.2954 Y-3.4012
G01 X82.4022 Y-3.3853
G01 X82.5100 Y-3.3801
G01 X82.6178 Y-3.3853
G01 X82.7246 Y-3.4012
G01 X82.8293 Y-3.4274
G01 X82.9309 Y-3.4638
G01 X83.0285 Y-3.5099
G01 X83.1211 Y-3.5654
G01 X83.2078 Y-3.6297
G01 X83.2878 Y-3.7022
G01 X83.3603 Y-3.7822
G01 X83.4246 Y-3.8689
G01 X83.4801 Y-3.9615
G01 X83.5262 Y-4.0591
G01 X83.5626 Y-4.1607
G01 X83.5888 Y-4.2654
G01 X83.6047 Y-4.3722
G01 X83.6100 Y-4.4800
G00 X83.6100 Y-4.4800
G01 F80.00
G01 Z-1.0500
G01 F50.00
G01 X83.6047 Y-4.5878
G01 X83.5888 Y-4.6946
G01 X83.5626 Y-4.7993
G01 X83.5262 Y-4.9009
G01 X83.4801 Y-4.9985
G01 X83.4246 Y-5.0911
G01 X83.3603 Y-5.1778
G01 X83.2878 Y-5.2578
G01 X83.2078 Y-5.3303
G01 X83.1211 Y-5.3946
G01 X83.0285 Y-5.4501
G01 X82.9309 Y-5.4962
G01 X82.8293 Y-5.5326
G01 X82.7246 Y-5.5588
G01 X82.6178 Y-5.5747
G01 X82.5100 Y-5.5800
G01 X82.4022 Y-5.5747
G01 X82.2954 Y-5.5588
G01 X82.1907 Y-5.5326
G01 X82.0891 Y-5.4962
G01 X81.9915 Y-5.4501
G01 X81.8989 Y-5.3946
G01 X81.8122 Y-5.3303
G01 X81.7322 Y-5.2578
G01 X81.6597 Y-5.1778
G01 X81.5954 Y-5.0911
G01 X81.5399 Y-4.9985
G01 X81.4938 Y-4.9009
G01 X81.4574 Y-4.7993
G01 X81.4312 Y-4.6946
G01 X81.4153 Y-4.5878
G01 X81.4100 Y-4.4800
G01 X81.4153 Y-4.3722
G01 X81.4312 Y-4.2654
G01 X81.4574 Y-4.1607
G01 X81.4938 Y-4.0591
G01 X81.5399 Y-3.9615
G01 X81.5954 Y-3.8689
G01 X81.6597 Y-3.7822
G01 X81.7322 Y-3.7022
G01 X81.8122 Y-3.6297
G01 X81.8989 Y-3.5654
G01 X81.9915 Y-3.5099
G01 X82.0891 Y-3.4638
G01 X82.1907 Y-3.4274
G01 X82.2954 Y-3.4012
G01 X82.4022 Y-3.3853
G01 X82.5100 Y-3.3801
G01 X82.6178 Y-3.3853
G01 X82.7246 Y-3.4012
G01 X82.8293 Y-3.4274
G01 X82.9309 Y-3.4638
G01 X83.0285 Y-3.5099
G01 X83.1211 Y-3.5654
G01 X83.2078 Y-3.6297
G01 X83.2878 Y-3.7022
G01 X83.3603 Y-3.7822
G01 X83.4246 Y-3.8689
G01 X83.4801 Y-3.9615
G01 X83.5262 Y-4.0591
G01 X83.5626 Y-4.1607
G01 X83.5888 Y-4.2654
G01 X83.6047 Y-4.3722
G01 X83.6100 Y-4.4800
G00 X83.6100 Y-4.4800
G01 F80.00
G01 Z-1.1000
G01 F50.00
G01 X83.6047 Y-4.5878
G01 X83.5888 Y-4.6946
G01 X83.5626 Y-4.7993
G01 X83.5262 Y-4.9009
G01 X83.4801 Y-4.9985
G01 X83.4246 Y-5.0911
G01 X83.3603 Y-5.1778
G01 X83.2878 Y-5.2578
G01 X83.2078 Y-5.3303
G01 X83.1211 Y-5.3946
G01 X83.0285 Y-5.4501
G01 X82.9309 Y-5.4962
G01 X82.8293 Y-5.5326
G01 X82.7246 Y-5.5588
G01 X82.6178 Y-5.5747
G01 X82.5100 Y-5.5800
G01 X82.4022 Y-5.5747
G01 X82.2954 Y-5.5588
G01 X82.1907 Y-5.5326
G01 X82.0891 Y-5.4962
G01 X81.9915 Y-5.4501
G01 X81.8989 Y-5.3946
G01 X81.8122 Y-5.3303
G01 X81.7322 Y-5.2578
G01 X81.6597 Y-5.1778
G01 X81.5954 Y-5.0911
G01 X81.5399 Y-4.9985
G01 X81.4938 Y-4.9009
G01 X81.4574 Y-4.7993
G01 X81.4312 Y-4.6946
G01 X81.4153 Y-4.5878
G01 X81.4100 Y-4.4800
G01 X81.4153 Y-4.3722
G01 X81.4312 Y-4.2654
G01 X81.4574 Y-4.1607
G01 X81.4938 Y-4.0591
G01 X81.5399 Y-3.9615
G01 X81.5954 Y-3.8689
G01 X81.6597 Y-3.7822
G01 X81.7322 Y-3.7022
G01 X81.8122 Y-3.6297
G01 X81.8989 Y-3.5654
G01 X81.9915 Y-3.5099
G01 X82.0891 Y-3.4638
G01 X82.1907 Y-3.4274
G01 X82.2954 Y-3.4012
G01 X82.4022 Y-3.3853
G01 X82.5100 Y-3.3801
G01 X82.6178 Y-3.3853
G01 X82.7246 Y-3.4012
G01 X82.8293 Y-3.4274
G01 X82.9309 Y-3.4638
G01 X83.0285 Y-3.5099
G01 X83.1211 Y-3.5654
G01 X83.2078 Y-3.6297
G01 X83.2878 Y-3.7022
G01 X83.3603 Y-3.7822
G01 X83.4246 Y-3.8689
G01 X83.4801 Y-3.9615
G01 X83.5262 Y-4.0591
G01 X83.5626 Y-4.1607
G01 X83.5888 Y-4.2654
G01 X83.6047 Y-4.3722
G01 X83.6100 Y-4.4800
G00 X83.6100 Y-4.4800
G01 F80.00
G01 Z-1.1500
G01 F50.00
G01 X83.6047 Y-4.5878
G01 X83.5888 Y-4.6946
G01 X83.5626 Y-4.7993
G01 X83.5262 Y-4.9009
G01 X83.4801 Y-4.9985
G01 X83.4246 Y-5.0911
G01 X83.3603 Y-5.1778
G01 X83.2878 Y-5.2578
G01 X83.2078 Y-5.3303
G01 X83.1211 Y-5.3946
G01 X83.0285 Y-5.4501
G01 X82.9309 Y-5.4962
G01 X82.8293 Y-5.5326
G01 X82.7246 Y-5.5588
G01 X82.6178 Y-5.5747
G01 X82.5100 Y-5.5800
G01 X82.4022 Y-5.5747
G01 X82.2954 Y-5.5588
G01 X82.1907 Y-5.5326
G01 X82.0891 Y-5.4962
G01 X81.9915 Y-5.4501
G01 X81.8989 Y-5.3946
G01 X81.8122 Y-5.3303
G01 X81.7322 Y-5.2578
G01 X81.6597 Y-5.1778
G01 X81.5954 Y-5.0911
G01 X81.5399 Y-4.9985
G01 X81.4938 Y-4.9009
G01 X81.4574 Y-4.7993
G01 X81.4312 Y-4.6946
G01 X81.4153 Y-4.5878
G01 X81.4100 Y-4.4800
G01 X81.4153 Y-4.3722
G01 X81.4312 Y-4.2654
G01 X81.4574 Y-4.1607
G01 X81.4938 Y-4.0591
G01 X81.5399 Y-3.9615
G01 X81.5954 Y-3.8689
G01 X81.6597 Y-3.7822
G01 X81.7322 Y-3.7022
G01 X81.8122 Y-3.6297
G01 X81.8989 Y-3.5654
G01 X81.9915 Y-3.5099
G01 X82.0891 Y-3.4638
G01 X82.1907 Y-3.4274
G01 X82.2954 Y-3.4012
G01 X82.4022 Y-3.3853
G01 X82.5100 Y-3.3801
G01 X82.6178 Y-3.3853
G01 X82.7246 Y-3.4012
G01 X82.8293 Y-3.4274
G01 X82.9309 Y-3.4638
G01 X83.0285 Y-3.5099
G01 X83.1211 Y-3.5654
G01 X83.2078 Y-3.6297
G01 X83.2878 Y-3.7022
G01 X83.3603 Y-3.7822
G01 X83.4246 Y-3.8689
G01 X83.4801 Y-3.9615
G01 X83.5262 Y-4.0591
G01 X83.5626 Y-4.1607
G01 X83.5888 Y-4.2654
G01 X83.6047 Y-4.3722
G01 X83.6100 Y-4.4800
G00 X83.6100 Y-4.4800
G01 F80.00
G01 Z-1.2000
G01 F50.00
G01 X83.6047 Y-4.5878
G01 X83.5888 Y-4.6946
G01 X83.5626 Y-4.7993
G01 X83.5262 Y-4.9009
G01 X83.4801 Y-4.9985
G01 X83.4246 Y-5.0911
G01 X83.3603 Y-5.1778
G01 X83.2878 Y-5.2578
G01 X83.2078 Y-5.3303
G01 X83.1211 Y-5.3946
G01 X83.0285 Y-5.4501
G01 X82.9309 Y-5.4962
G01 X82.8293 Y-5.5326
G01 X82.7246 Y-5.5588
G01 X82.6178 Y-5.5747
G01 X82.5100 Y-5.5800
G01 X82.4022 Y-5.5747
G01 X82.2954 Y-5.5588
G01 X82.1907 Y-5.5326
G01 X82.0891 Y-5.4962
G01 X81.9915 Y-5.4501
G01 X81.8989 Y-5.3946
G01 X81.8122 Y-5.3303
G01 X81.7322 Y-5.2578
G01 X81.6597 Y-5.1778
G01 X81.5954 Y-5.0911
G01 X81.5399 Y-4.9985
G01 X81.4938 Y-4.9009
G01 X81.4574 Y-4.7993
G01 X81.4312 Y-4.6946
G01 X81.4153 Y-4.5878
G01 X81.4100 Y-4.4800
G01 X81.4153 Y-4.3722
G01 X81.4312 Y-4.2654
G01 X81.4574 Y-4.1607
G01 X81.4938 Y-4.0591
G01 X81.5399 Y-3.9615
G01 X81.5954 Y-3.8689
G01 X81.6597 Y-3.7822
G01 X81.7322 Y-3.7022
G01 X81.8122 Y-3.6297
G01 X81.8989 Y-3.5654
G01 X81.9915 Y-3.5099
G01 X82.0891 Y-3.4638
G01 X82.1907 Y-3.4274
G01 X82.2954 Y-3.4012
G01 X82.4022 Y-3.3853
G01 X82.5100 Y-3.3801
G01 X82.6178 Y-3.3853
G01 X82.7246 Y-3.4012
G01 X82.8293 Y-3.4274
G01 X82.9309 Y-3.4638
G01 X83.0285 Y-3.5099
G01 X83.1211 Y-3.5654
G01 X83.2078 Y-3.6297
G01 X83.2878 Y-3.7022
G01 X83.3603 Y-3.7822
G01 X83.4246 Y-3.8689
G01 X83.4801 Y-3.9615
G01 X83.5262 Y-4.0591
G01 X83.5626 Y-4.1607
G01 X83.5888 Y-4.2654
G01 X83.6047 Y-4.3722
G01 X83.6100 Y-4.4800
G00 X83.6100 Y-4.4800
G01 F80.00
G01 Z-1.2500
G01 F50.00
G01 X83.6047 Y-4.5878
G01 X83.5888 Y-4.6946
G01 X83.5626 Y-4.7993
G01 X83.5262 Y-4.9009
G01 X83.4801 Y-4.9985
G01 X83.4246 Y-5.0911
G01 X83.3603 Y-5.1778
G01 X83.2878 Y-5.2578
G01 X83.2078 Y-5.3303
G01 X83.1211 Y-5.3946
G01 X83.0285 Y-5.4501
G01 X82.9309 Y-5.4962
G01 X82.8293 Y-5.5326
G01 X82.7246 Y-5.5588
G01 X82.6178 Y-5.5747
G01 X82.5100 Y-5.5800
G01 X82.4022 Y-5.5747
G01 X82.2954 Y-5.5588
G01 X82.1907 Y-5.5326
G01 X82.0891 Y-5.4962
G01 X81.9915 Y-5.4501
G01 X81.8989 Y-5.3946
G01 X81.8122 Y-5.3303
G01 X81.7322 Y-5.2578
G01 X81.6597 Y-5.1778
G01 X81.5954 Y-5.0911
G01 X81.5399 Y-4.9985
G01 X81.4938 Y-4.9009
G01 X81.4574 Y-4.7993
G01 X81.4312 Y-4.6946
G01 X81.4153 Y-4.5878
G01 X81.4100 Y-4.4800
G01 X81.4153 Y-4.3722
G01 X81.4312 Y-4.2654
G01 X81.4574 Y-4.1607
G01 X81.4938 Y-4.0591
G01 X81.5399 Y-3.9615
G01 X81.5954 Y-3.8689
G01 X81.6597 Y-3.7822
G01 X81.7322 Y-3.7022
G01 X81.8122 Y-3.6297
G01 X81.8989 Y-3.5654
G01 X81.9915 Y-3.5099
G01 X82.0891 Y-3.4638
G01 X82.1907 Y-3.4274
G01 X82.2954 Y-3.4012
G01 X82.4022 Y-3.3853
G01 X82.5100 Y-3.3801
G01 X82.6178 Y-3.3853
G01 X82.7246 Y-3.4012
G01 X82.8293 Y-3.4274
G01 X82.9309 Y-3.4638
G01 X83.0285 Y-3.5099
G01 X83.1211 Y-3.5654
G01 X83.2078 Y-3.6297
G01 X83.2878 Y-3.7022
G01 X83.3603 Y-3.7822
G01 X83.4246 Y-3.8689
G01 X83.4801 Y-3.9615
G01 X83.5262 Y-4.0591
G01 X83.5626 Y-4.1607
G01 X83.5888 Y-4.2654
G01 X83.6047 Y-4.3722
G01 X83.6100 Y-4.4800
G00 X83.6100 Y-4.4800
G01 F80.00
G01 Z-1.3000
G01 F50.00
G01 X83.6047 Y-4.5878
G01 X83.5888 Y-4.6946
G01 X83.5626 Y-4.7993
G01 X83.5262 Y-4.9009
G01 X83.4801 Y-4.9985
G01 X83.4246 Y-5.0911
G01 X83.3603 Y-5.1778
G01 X83.2878 Y-5.2578
G01 X83.2078 Y-5.3303
G01 X83.1211 Y-5.3946
G01 X83.0285 Y-5.4501
G01 X82.9309 Y-5.4962
G01 X82.8293 Y-5.5326
G01 X82.7246 Y-5.5588
G01 X82.6178 Y-5.5747
G01 X82.5100 Y-5.5800
G01 X82.4022 Y-5.5747
G01 X82.2954 Y-5.5588
G01 X82.1907 Y-5.5326
G01 X82.0891 Y-5.4962
G01 X81.9915 Y-5.4501
G01 X81.8989 Y-5.3946
G01 X81.8122 Y-5.3303
G01 X81.7322 Y-5.2578
G01 X81.6597 Y-5.1778
G01 X81.5954 Y-5.0911
G01 X81.5399 Y-4.9985
G01 X81.4938 Y-4.9009
G01 X81.4574 Y-4.7993
G01 X81.4312 Y-4.6946
G01 X81.4153 Y-4.5878
G01 X81.4100 Y-4.4800
G01 X81.4153 Y-4.3722
G01 X81.4312 Y-4.2654
G01 X81.4574 Y-4.1607
G01 X81.4938 Y-4.0591
G01 X81.5399 Y-3.9615
G01 X81.5954 Y-3.8689
G01 X81.6597 Y-3.7822
G01 X81.7322 Y-3.7022
G01 X81.8122 Y-3.6297
G01 X81.8989 Y-3.5654
G01 X81.9915 Y-3.5099
G01 X82.0891 Y-3.4638
G01 X82.1907 Y-3.4274
G01 X82.2954 Y-3.4012
G01 X82.4022 Y-3.3853
G01 X82.5100 Y-3.3801
G01 X82.6178 Y-3.3853
G01 X82.7246 Y-3.4012
G01 X82.8293 Y-3.4274
G01 X82.9309 Y-3.4638
G01 X83.0285 Y-3.5099
G01 X83.1211 Y-3.5654
G01 X83.2078 Y-3.6297
G01 X83.2878 Y-3.7022
G01 X83.3603 Y-3.7822
G01 X83.4246 Y-3.8689
G01 X83.4801 Y-3.9615
G01 X83.5262 Y-4.0591
G01 X83.5626 Y-4.1607
G01 X83.5888 Y-4.2654
G01 X83.6047 Y-4.3722
G01 X83.6100 Y-4.4800
G00 X83.6100 Y-4.4800
G01 F80.00
G01 Z-1.3500
G01 F50.00
G01 X83.6047 Y-4.5878
G01 X83.5888 Y-4.6946
G01 X83.5626 Y-4.7993
G01 X83.5262 Y-4.9009
G01 X83.4801 Y-4.9985
G01 X83.4246 Y-5.0911
G01 X83.3603 Y-5.1778
G01 X83.2878 Y-5.2578
G01 X83.2078 Y-5.3303
G01 X83.1211 Y-5.3946
G01 X83.0285 Y-5.4501
G01 X82.9309 Y-5.4962
G01 X82.8293 Y-5.5326
G01 X82.7246 Y-5.5588
G01 X82.6178 Y-5.5747
G01 X82.5100 Y-5.5800
G01 X82.4022 Y-5.5747
G01 X82.2954 Y-5.5588
G01 X82.1907 Y-5.5326
G01 X82.0891 Y-5.4962
G01 X81.9915 Y-5.4501
G01 X81.8989 Y-5.3946
G01 X81.8122 Y-5.3303
G01 X81.7322 Y-5.2578
G01 X81.6597 Y-5.1778
G01 X81.5954 Y-5.0911
G01 X81.5399 Y-4.9985
G01 X81.4938 Y-4.9009
G01 X81.4574 Y-4.7993
G01 X81.4312 Y-4.6946
G01 X81.4153 Y-4.5878
G01 X81.4100 Y-4.4800
G01 X81.4153 Y-4.3722
G01 X81.4312 Y-4.2654
G01 X81.4574 Y-4.1607
G01 X81.4938 Y-4.0591
G01 X81.5399 Y-3.9615
G01 X81.5954 Y-3.8689
G01 X81.6597 Y-3.7822
G01 X81.7322 Y-3.7022
G01 X81.8122 Y-3.6297
G01 X81.8989 Y-3.5654
G01 X81.9915 Y-3.5099
G01 X82.0891 Y-3.4638
G01 X82.1907 Y-3.4274
G01 X82.2954 Y-3.4012
G01 X82.4022 Y-3.3853
G01 X82.5100 Y-3.3801
G01 X82.6178 Y-3.3853
G01 X82.7246 Y-3.4012
G01 X82.8293 Y-3.4274
G01 X82.9309 Y-3.4638
G01 X83.0285 Y-3.5099
G01 X83.1211 Y-3.5654
G01 X83.2078 Y-3.6297
G01 X83.2878 Y-3.7022
G01 X83.3603 Y-3.7822
G01 X83.4246 Y-3.8689
G01 X83.4801 Y-3.9615
G01 X83.5262 Y-4.0591
G01 X83.5626 Y-4.1607
G01 X83.5888 Y-4.2654
G01 X83.6047 Y-4.3722
G01 X83.6100 Y-4.4800
G00 X83.6100 Y-4.4800
G01 F80.00
G01 Z-1.4000
G01 F50.00
G01 X83.6047 Y-4.5878
G01 X83.5888 Y-4.6946
G01 X83.5626 Y-4.7993
G01 X83.5262 Y-4.9009
G01 X83.4801 Y-4.9985
G01 X83.4246 Y-5.0911
G01 X83.3603 Y-5.1778
G01 X83.2878 Y-5.2578
G01 X83.2078 Y-5.3303
G01 X83.1211 Y-5.3946
G01 X83.0285 Y-5.4501
G01 X82.9309 Y-5.4962
G01 X82.8293 Y-5.5326
G01 X82.7246 Y-5.5588
G01 X82.6178 Y-5.5747
G01 X82.5100 Y-5.5800
G01 X82.4022 Y-5.5747
G01 X82.2954 Y-5.5588
G01 X82.1907 Y-5.5326
G01 X82.0891 Y-5.4962
G01 X81.9915 Y-5.4501
G01 X81.8989 Y-5.3946
G01 X81.8122 Y-5.3303
G01 X81.7322 Y-5.2578
G01 X81.6597 Y-5.1778
G01 X81.5954 Y-5.0911
G01 X81.5399 Y-4.9985
G01 X81.4938 Y-4.9009
G01 X81.4574 Y-4.7993
G01 X81.4312 Y-4.6946
G01 X81.4153 Y-4.5878
G01 X81.4100 Y-4.4800
G01 X81.4153 Y-4.3722
G01 X81.4312 Y-4.2654
G01 X81.4574 Y-4.1607
G01 X81.4938 Y-4.0591
G01 X81.5399 Y-3.9615
G01 X81.5954 Y-3.8689
G01 X81.6597 Y-3.7822
G01 X81.7322 Y-3.7022
G01 X81.8122 Y-3.6297
G01 X81.8989 Y-3.5654
G01 X81.9915 Y-3.5099
G01 X82.0891 Y-3.4638
G01 X82.1907 Y-3.4274
G01 X82.2954 Y-3.4012
G01 X82.4022 Y-3.3853
G01 X82.5100 Y-3.3801
G01 X82.6178 Y-3.3853
G01 X82.7246 Y-3.4012
G01 X82.8293 Y-3.4274
G01 X82.9309 Y-3.4638
G01 X83.0285 Y-3.5099
G01 X83.1211 Y-3.5654
G01 X83.2078 Y-3.6297
G01 X83.2878 Y-3.7022
G01 X83.3603 Y-3.7822
G01 X83.4246 Y-3.8689
G01 X83.4801 Y-3.9615
G01 X83.5262 Y-4.0591
G01 X83.5626 Y-4.1607
G01 X83.5888 Y-4.2654
G01 X83.6047 Y-4.3722
G01 X83.6100 Y-4.4800
G00 X83.6100 Y-4.4800
G01 F80.00
G01 Z-1.4500
G01 F50.00
G01 X83.6047 Y-4.5878
G01 X83.5888 Y-4.6946
G01 X83.5626 Y-4.7993
G01 X83.5262 Y-4.9009
G01 X83.4801 Y-4.9985
G01 X83.4246 Y-5.0911
G01 X83.3603 Y-5.1778
G01 X83.2878 Y-5.2578
G01 X83.2078 Y-5.3303
G01 X83.1211 Y-5.3946
G01 X83.0285 Y-5.4501
G01 X82.9309 Y-5.4962
G01 X82.8293 Y-5.5326
G01 X82.7246 Y-5.5588
G01 X82.6178 Y-5.5747
G01 X82.5100 Y-5.5800
G01 X82.4022 Y-5.5747
G01 X82.2954 Y-5.5588
G01 X82.1907 Y-5.5326
G01 X82.0891 Y-5.4962
G01 X81.9915 Y-5.4501
G01 X81.8989 Y-5.3946
G01 X81.8122 Y-5.3303
G01 X81.7322 Y-5.2578
G01 X81.6597 Y-5.1778
G01 X81.5954 Y-5.0911
G01 X81.5399 Y-4.9985
G01 X81.4938 Y-4.9009
G01 X81.4574 Y-4.7993
G01 X81.4312 Y-4.6946
G01 X81.4153 Y-4.5878
G01 X81.4100 Y-4.4800
G01 X81.4153 Y-4.3722
G01 X81.4312 Y-4.2654
G01 X81.4574 Y-4.1607
G01 X81.4938 Y-4.0591
G01 X81.5399 Y-3.9615
G01 X81.5954 Y-3.8689
G01 X81.6597 Y-3.7822
G01 X81.7322 Y-3.7022
G01 X81.8122 Y-3.6297
G01 X81.8989 Y-3.5654
G01 X81.9915 Y-3.5099
G01 X82.0891 Y-3.4638
G01 X82.1907 Y-3.4274
G01 X82.2954 Y-3.4012
G01 X82.4022 Y-3.3853
G01 X82.5100 Y-3.3801
G01 X82.6178 Y-3.3853
G01 X82.7246 Y-3.4012
G01 X82.8293 Y-3.4274
G01 X82.9309 Y-3.4638
G01 X83.0285 Y-3.5099
G01 X83.1211 Y-3.5654
G01 X83.2078 Y-3.6297
G01 X83.2878 Y-3.7022
G01 X83.3603 Y-3.7822
G01 X83.4246 Y-3.8689
G01 X83.4801 Y-3.9615
G01 X83.5262 Y-4.0591
G01 X83.5626 Y-4.1607
G01 X83.5888 Y-4.2654
G01 X83.6047 Y-4.3722
G01 X83.6100 Y-4.4800
G00 X83.6100 Y-4.4800
G01 F80.00
G01 Z-1.5000
G01 F50.00
G01 X83.6047 Y-4.5878
G01 X83.5888 Y-4.6946
G01 X83.5626 Y-4.7993
G01 X83.5262 Y-4.9009
G01 X83.4801 Y-4.9985
G01 X83.4246 Y-5.0911
G01 X83.3603 Y-5.1778
G01 X83.2878 Y-5.2578
G01 X83.2078 Y-5.3303
G01 X83.1211 Y-5.3946
G01 X83.0285 Y-5.4501
G01 X82.9309 Y-5.4962
G01 X82.8293 Y-5.5326
G01 X82.7246 Y-5.5588
G01 X82.6178 Y-5.5747
G01 X82.5100 Y-5.5800
G01 X82.4022 Y-5.5747
G01 X82.2954 Y-5.5588
G01 X82.1907 Y-5.5326
G01 X82.0891 Y-5.4962
G01 X81.9915 Y-5.4501
G01 X81.8989 Y-5.3946
G01 X81.8122 Y-5.3303
G01 X81.7322 Y-5.2578
G01 X81.6597 Y-5.1778
G01 X81.5954 Y-5.0911
G01 X81.5399 Y-4.9985
G01 X81.4938 Y-4.9009
G01 X81.4574 Y-4.7993
G01 X81.4312 Y-4.6946
G01 X81.4153 Y-4.5878
G01 X81.4100 Y-4.4800
G01 X81.4153 Y-4.3722
G01 X81.4312 Y-4.2654
G01 X81.4574 Y-4.1607
G01 X81.4938 Y-4.0591
G01 X81.5399 Y-3.9615
G01 X81.5954 Y-3.8689
G01 X81.6597 Y-3.7822
G01 X81.7322 Y-3.7022
G01 X81.8122 Y-3.6297
G01 X81.8989 Y-3.5654
G01 X81.9915 Y-3.5099
G01 X82.0891 Y-3.4638
G01 X82.1907 Y-3.4274
G01 X82.2954 Y-3.4012
G01 X82.4022 Y-3.3853
G01 X82.5100 Y-3.3801
G01 X82.6178 Y-3.3853
G01 X82.7246 Y-3.4012
G01 X82.8293 Y-3.4274
G01 X82.9309 Y-3.4638
G01 X83.0285 Y-3.5099
G01 X83.1211 Y-3.5654
G01 X83.2078 Y-3.6297
G01 X83.2878 Y-3.7022
G01 X83.3603 Y-3.7822
G01 X83.4246 Y-3.8689
G01 X83.4801 Y-3.9615
G01 X83.5262 Y-4.0591
G01 X83.5626 Y-4.1607
G01 X83.5888 Y-4.2654
G01 X83.6047 Y-4.3722
G01 X83.6100 Y-4.4800
G00 X83.6100 Y-4.4800
G01 F80.00
G01 Z-1.5100
G01 F50.00
G01 X83.6047 Y-4.5878
G01 X83.5888 Y-4.6946
G01 X83.5626 Y-4.7993
G01 X83.5262 Y-4.9009
G01 X83.4801 Y-4.9985
G01 X83.4246 Y-5.0911
G01 X83.3603 Y-5.1778
G01 X83.2878 Y-5.2578
G01 X83.2078 Y-5.3303
G01 X83.1211 Y-5.3946
G01 X83.0285 Y-5.4501
G01 X82.9309 Y-5.4962
G01 X82.8293 Y-5.5326
G01 X82.7246 Y-5.5588
G01 X82.6178 Y-5.5747
G01 X82.5100 Y-5.5800
G01 X82.4022 Y-5.5747
G01 X82.2954 Y-5.5588
G01 X82.1907 Y-5.5326
G01 X82.0891 Y-5.4962
G01 X81.9915 Y-5.4501
G01 X81.8989 Y-5.3946
G01 X81.8122 Y-5.3303
G01 X81.7322 Y-5.2578
G01 X81.6597 Y-5.1778
G01 X81.5954 Y-5.0911
G01 X81.5399 Y-4.9985
G01 X81.4938 Y-4.9009
G01 X81.4574 Y-4.7993
G01 X81.4312 Y-4.6946
G01 X81.4153 Y-4.5878
G01 X81.4100 Y-4.4800
G01 X81.4153 Y-4.3722
G01 X81.4312 Y-4.2654
G01 X81.4574 Y-4.1607
G01 X81.4938 Y-4.0591
G01 X81.5399 Y-3.9615
G01 X81.5954 Y-3.8689
G01 X81.6597 Y-3.7822
G01 X81.7322 Y-3.7022
G01 X81.8122 Y-3.6297
G01 X81.8989 Y-3.5654
G01 X81.9915 Y-3.5099
G01 X82.0891 Y-3.4638
G01 X82.1907 Y-3.4274
G01 X82.2954 Y-3.4012
G01 X82.4022 Y-3.3853
G01 X82.5100 Y-3.3801
G01 X82.6178 Y-3.3853
G01 X82.7246 Y-3.4012
G01 X82.8293 Y-3.4274
G01 X82.9309 Y-3.4638
G01 X83.0285 Y-3.5099
G01 X83.1211 Y-3.5654
G01 X83.2078 Y-3.6297
G01 X83.2878 Y-3.7022
G01 X83.3603 Y-3.7822
G01 X83.4246 Y-3.8689
G01 X83.4801 Y-3.9615
G01 X83.5262 Y-4.0591
G01 X83.5626 Y-4.1607
G01 X83.5888 Y-4.2654
G01 X83.6047 Y-4.3722
G01 X83.6100 Y-4.4800
G00 Z3.0000
M05
G00 Z3.0000
G00 Z12.70
G00 X0.0 Y0.0

M02