(G-CODE GENERATED BY FLATCAM v8.95 - www.flatcam.org - Version Date: 2019/08/17)

(Name: Syntez2_Ф1_верх.gbr_cutoff_cnc)
(Type: G-code from Geometry)
(Units: MM)

(Created on Monday, 14 September 2020 at 22:01)

(TOOL DIAMETER: 0.8 mm)
(Feedrate: 50.0 mm/min)
(Feedrate_Z: 79.9998 mm/min)
(Feedrate rapids 79.9998 mm/min)

(Z_Cut: -1.51 mm)
(DepthPerCut: 0.05 mm <=>31 passes)
(Z_Move: 3.0 mm)
(Z Toolchange: 12.7 mm)
(X,Y Toolchange: 0.0000, 0.0000 mm)
(Z Start: None mm)
(Z End: 12.7 mm)
(Steps per circle: 128)
(Postprocessor Geometry: default)

(X range:   -0.7969 ...   99.8879  mm)
(Y range:  -33.5634 ...    0.8487  mm)

(Spindle Speed: None RPM)

G21
G90
G94

G01 F50.00
G00 Z3.0000

M03
G00 X-0.7969 Y0.4366
G01 F80.00
G01 Z-0.0500
G01 F50.00
G01 X-0.7969 Y-13.4458
G01 X-0.7950 Y-13.4849
G01 X-0.7926 Y-13.5043
G01 X-0.7850 Y-13.5427
G01 X-0.7736 Y-13.5802
G01 X-0.7666 Y-13.5985
G01 X-0.7587 Y-13.6164
G01 X-0.7403 Y-13.6509
G01 X-0.7186 Y-13.6835
G01 X-0.7066 Y-13.6990
G01 X-0.6804 Y-13.7280
G01 X-0.6514 Y-13.7544
G01 X-0.6360 Y-13.7665
G01 X-0.6035 Y-13.7883
G01 X-0.5691 Y-13.8069
G01 X-0.5329 Y-13.8220
G01 X-0.5144 Y-13.8282
G01 X-0.4764 Y-13.8378
G01 X-0.4377 Y-13.8437
G01 X-0.3987 Y-13.8458
G01 X-0.3595 Y-13.8441
G01 X-0.3401 Y-13.8417
G01 X-0.3017 Y-13.8343
G01 X-0.2642 Y-13.8231
G01 X-0.2279 Y-13.8084
G01 X-0.1808 Y-13.7844
G01 X-0.1634 Y-13.7743
G01 X-0.1466 Y-13.7634
G01 X-0.1304 Y-13.7516
G01 X-0.1148 Y-13.7391
G01 X-0.0998 Y-13.7257
G01 X-0.0856 Y-13.7117
G01 X-0.0720 Y-13.6969
G01 X-0.0592 Y-13.6815
G01 X-0.0472 Y-13.6655
G01 X-0.0360 Y-13.6488
G01 X-0.0256 Y-13.6317
G01 X-0.0162 Y-13.6140
G01 X-0.0045 Y-13.5892
G01 X0.0026 Y-13.5792
G01 X0.0099 Y-13.5726
G01 X0.0205 Y-13.5665
G01 X0.0323 Y-13.5632
G01 X0.0446 Y-13.5626
G01 X20.4004 Y-13.5626
G01 X20.4396 Y-13.5606
G01 X20.4787 Y-13.5557
G01 X20.8921 Y-13.5658
G01 X21.3106 Y-13.5964
G01 X21.7272 Y-13.6475
G01 X22.1407 Y-13.7189
G01 X22.5502 Y-13.8106
G01 X22.9548 Y-13.9222
G01 X23.3534 Y-14.0535
G01 X23.7450 Y-14.2043
G01 X24.1288 Y-14.3741
G01 X24.5038 Y-14.5625
G01 X24.8691 Y-14.7691
G01 X25.2238 Y-14.9933
G01 X25.5671 Y-15.2347
G01 X25.8981 Y-15.4927
G01 X26.2251 Y-15.7748
G01 X26.5289 Y-16.0644
G01 X26.8180 Y-16.3686
G01 X27.0919 Y-16.6865
G01 X27.3425 Y-17.0077
G01 X27.5913 Y-17.3608
G01 X27.8092 Y-17.7050
G01 X28.0163 Y-18.0700
G01 X28.2105 Y-18.4558
G01 X28.3756 Y-18.8282
G01 X28.5269 Y-19.2197
G01 X28.6624 Y-19.6298
G01 X28.7711 Y-20.0224
G01 X28.8633 Y-20.4318
G01 X28.9371 Y-20.8574
G01 X28.9882 Y-21.2740
G01 X29.0182 Y-21.6802
G01 X29.0289 Y-22.1108
G01 X29.0289 Y-32.9754
G01 X29.0286 Y-32.9852
G01 X29.0266 Y-32.9948
G01 X29.0102 Y-33.0375
G01 X28.9998 Y-33.0748
G01 X28.9960 Y-33.0938
G01 X28.9911 Y-33.1323
G01 X28.9899 Y-33.1711
G01 X28.9926 Y-33.2097
G01 X28.9953 Y-33.2290
G01 X29.0035 Y-33.2669
G01 X29.0153 Y-33.3038
G01 X29.0307 Y-33.3394
G01 X29.0494 Y-33.3733
G01 X29.0713 Y-33.4053
G01 X29.0834 Y-33.4205
G01 X29.1097 Y-33.4489
G01 X29.1387 Y-33.4747
G01 X29.1700 Y-33.4976
G01 X29.1865 Y-33.5078
G01 X29.2208 Y-33.5259
G01 X29.2567 Y-33.5406
G01 X29.2938 Y-33.5517
G01 X29.3319 Y-33.5592
G01 X29.3511 Y-33.5615
G01 X29.3899 Y-33.5634
G01 X63.6444 Y-33.5634
G01 X63.6832 Y-33.5615
G01 X63.7024 Y-33.5592
G01 X63.7215 Y-33.5559
G01 X63.7592 Y-33.5466
G01 X63.7957 Y-33.5337
G01 X63.8135 Y-33.5259
G01 X63.8478 Y-33.5078
G01 X63.8643 Y-33.4976
G01 X63.8956 Y-33.4747
G01 X63.9246 Y-33.4489
G01 X63.9509 Y-33.4205
G01 X63.9630 Y-33.4053
G01 X63.9849 Y-33.3733
G01 X64.0036 Y-33.3394
G01 X64.0118 Y-33.3218
G01 X64.0254 Y-33.2855
G01 X64.0308 Y-33.2669
G01 X64.0390 Y-33.2290
G01 X64.0417 Y-33.2097
G01 X64.0444 Y-33.1711
G01 X64.0432 Y-33.1323
G01 X64.0383 Y-33.0938
G01 X64.0345 Y-33.0748
G01 X64.0241 Y-33.0375
G01 X64.0077 Y-32.9948
G01 X64.0057 Y-32.9852
G01 X64.0054 Y-32.9754
G01 X64.0054 Y-22.1843
G01 X64.0034 Y-22.1449
G01 X63.9990 Y-22.1121
G01 X63.9986 Y-22.0998
G01 X64.0086 Y-21.6931
G01 X64.0368 Y-21.2991
G01 X64.0848 Y-20.8950
G01 X64.1520 Y-20.4936
G01 X64.2382 Y-20.0959
G01 X64.3433 Y-19.7028
G01 X64.4708 Y-19.3038
G01 X64.6133 Y-18.9226
G01 X64.7737 Y-18.5486
G01 X64.9518 Y-18.1827
G01 X65.1471 Y-17.8257
G01 X65.3591 Y-17.4784
G01 X65.5805 Y-17.1512
G01 X65.8242 Y-16.8253
G01 X66.0831 Y-16.5113
G01 X66.3648 Y-16.2013
G01 X66.6528 Y-15.9138
G01 X66.9541 Y-15.6403
G01 X67.2681 Y-15.3814
G01 X67.5940 Y-15.1377
G01 X67.9312 Y-14.9099
G01 X68.2788 Y-14.6983
G01 X68.6361 Y-14.5035
G01 X68.9914 Y-14.3309
G01 X69.3654 Y-14.1705
G01 X69.7579 Y-14.0241
G01 X70.1456 Y-13.9005
G01 X70.5387 Y-13.7954
G01 X70.9364 Y-13.7092
G01 X71.3260 Y-13.6437
G01 X71.7300 Y-13.5951
G01 X72.1359 Y-13.5658
G01 X72.5536 Y-13.5557
G01 X85.2182 Y-13.5589
G01 X85.2569 Y-13.5570
G01 X85.2762 Y-13.5547
G01 X85.3142 Y-13.5472
G01 X85.3513 Y-13.5361
G01 X85.3694 Y-13.5293
G01 X85.3872 Y-13.5215
G01 X85.4056 Y-13.5123
G01 X85.4437 Y-13.5292
G01 X85.4696 Y-13.5386
G01 X85.4954 Y-13.5466
G01 X85.5215 Y-13.5534
G01 X85.5479 Y-13.5588
G01 X85.5819 Y-13.5638
G01 X85.6088 Y-13.5663
G01 X85.6456 Y-13.5676
G01 X90.2097 Y-13.5676
G01 X90.2463 Y-13.5663
G01 X90.2804 Y-13.5630
G01 X90.3069 Y-13.5589
G01 X90.3522 Y-13.5488
G01 X90.3849 Y-13.5389
G01 X90.4102 Y-13.5297
G01 X90.4527 Y-13.5110
G01 X90.4767 Y-13.4984
G01 X90.5138 Y-13.5239
G01 X90.5544 Y-13.5468
G01 X90.5855 Y-13.5615
G01 X90.6290 Y-13.5783
G01 X90.6618 Y-13.5883
G01 X90.7054 Y-13.5982
G01 X90.7413 Y-13.6035
G01 X90.7829 Y-13.6068
G01 X92.7894 Y-13.6073
G01 X92.8335 Y-13.6055
G01 X92.8798 Y-13.5998
G01 X92.9135 Y-13.5931
G01 X92.9396 Y-13.5863
G01 X92.9654 Y-13.5783
G01 X93.0089 Y-13.5615
G01 X93.0334 Y-13.5502
G01 X93.0573 Y-13.5376
G01 X93.0806 Y-13.5239
G01 X93.1031 Y-13.5090
G01 X93.1331 Y-13.4866
G01 X93.1531 Y-13.4986
G01 X93.1903 Y-13.5173
G01 X93.2130 Y-13.5267
G01 X93.2526 Y-13.5398
G01 X93.2764 Y-13.5457
G01 X93.3175 Y-13.5529
G01 X93.3419 Y-13.5553
G01 X93.3738 Y-13.5564
G01 X99.4161 Y-13.5563
G01 X99.4382 Y-13.5553
G01 X99.4602 Y-13.5532
G01 X99.4844 Y-13.5496
G01 X99.5061 Y-13.5452
G01 X99.5275 Y-13.5398
G01 X99.5671 Y-13.5267
G01 X99.5875 Y-13.5183
G01 X99.6075 Y-13.5089
G01 X99.6292 Y-13.4973
G01 X99.6481 Y-13.4859
G01 X99.6664 Y-13.4736
G01 X99.6841 Y-13.4604
G01 X99.7012 Y-13.4463
G01 X99.7314 Y-13.4176
G01 X99.7462 Y-13.4013
G01 X99.7603 Y-13.3842
G01 X99.7807 Y-13.3561
G01 X99.7985 Y-13.3271
G01 X99.8088 Y-13.3076
G01 X99.8182 Y-13.2876
G01 X99.8266 Y-13.2672
G01 X99.8340 Y-13.2464
G01 X99.8403 Y-13.2252
G01 X99.8456 Y-13.2038
G01 X99.8528 Y-13.1627
G01 X99.8552 Y-13.1383
G01 X99.8563 Y-13.1064
G01 X99.8563 Y-7.3120
G01 X99.8552 Y-7.2801
G01 X99.8528 Y-7.2557
G01 X99.8495 Y-7.2339
G01 X99.8403 Y-7.1932
G01 X99.8329 Y-7.1687
G01 X99.8182 Y-7.1308
G01 X99.8077 Y-7.1086
G01 X99.7972 Y-7.0890
G01 X99.8145 Y-7.0609
G01 X99.8308 Y-7.0304
G01 X99.8495 Y-6.9883
G01 X99.8612 Y-6.9554
G01 X99.8737 Y-6.9105
G01 X99.8804 Y-6.8768
G01 X99.8861 Y-6.8305
G01 X99.8878 Y-6.7962
G01 X99.8876 Y0.2554
G01 X99.8861 Y0.2823
G01 X99.8832 Y0.3092
G01 X99.8753 Y0.3551
G01 X99.8689 Y0.3814
G01 X99.8612 Y0.4072
G01 X99.8496 Y0.4396
G01 X99.8308 Y0.4822
G01 X99.8182 Y0.5061
G01 X99.8045 Y0.5294
G01 X99.7907 Y0.5503
G01 X99.7752 Y0.5718
G01 X99.7567 Y0.5947
G01 X99.7421 Y0.6112
G01 X99.7144 Y0.6391
G01 X99.6943 Y0.6571
G01 X99.6733 Y0.6741
G01 X99.6352 Y0.7009
G01 X99.6121 Y0.7150
G01 X99.5884 Y0.7278
G01 X99.5641 Y0.7396
G01 X99.5397 Y0.7499
G01 X99.5068 Y0.7616
G01 X99.4810 Y0.7693
G01 X99.4547 Y0.7757
G01 X99.4088 Y0.7836
G01 X99.3746 Y0.7870
G01 X99.3378 Y0.7883
G01 X77.5494 Y0.7883
G01 X77.5053 Y0.7865
G01 X77.4784 Y0.7836
G01 X77.4517 Y0.7795
G01 X77.4062 Y0.7693
G01 X77.3804 Y0.7616
G01 X77.3557 Y0.7530
G01 X77.3333 Y0.7692
G01 X77.2996 Y0.7894
G01 X77.2642 Y0.8062
G01 X77.2458 Y0.8132
G01 X77.2083 Y0.8246
G01 X77.1698 Y0.8323
G01 X77.1503 Y0.8347
G01 X77.1111 Y0.8366
G01 X56.7382 Y0.8366
G01 X56.6986 Y0.8346
G01 X56.6593 Y0.8287
G01 X56.6208 Y0.8190
G01 X56.5863 Y0.8066
G01 X56.5659 Y0.8139
G01 X56.5355 Y0.8235
G01 X56.5046 Y0.8315
G01 X56.4734 Y0.8380
G01 X56.4443 Y0.8427
G01 X56.4134 Y0.8462
G01 X56.3832 Y0.8482
G01 X56.3562 Y0.8487
G01 X30.8372 Y0.8487
G01 X30.8151 Y0.8483
G01 X30.7833 Y0.8464
G01 X30.7515 Y0.8430
G01 X30.7200 Y0.8380
G01 X30.6888 Y0.8315
G01 X30.6579 Y0.8235
G01 X30.6275 Y0.8139
G01 X30.5983 Y0.8032
G01 X30.5732 Y0.8132
G01 X30.5546 Y0.8194
G01 X30.5165 Y0.8289
G01 X30.4777 Y0.8347
G01 X30.4385 Y0.8366
G01 X-0.3969 Y0.8366
G01 X-0.4361 Y0.8347
G01 X-0.4749 Y0.8289
G01 X-0.5130 Y0.8194
G01 X-0.5500 Y0.8062
G01 X-0.5855 Y0.7894
G01 X-0.6191 Y0.7692
G01 X-0.6507 Y0.7458
G01 X-0.6797 Y0.7194
G01 X-0.7061 Y0.6904
G01 X-0.7295 Y0.6588
G01 X-0.7497 Y0.6252
G01 X-0.7665 Y0.5897
G01 X-0.7797 Y0.5527
G01 X-0.7892 Y0.5146
G01 X-0.7950 Y0.4758
G01 X-0.7969 Y0.4366
G00 X-0.7969 Y0.4366
G01 F80.00
G01 Z-0.1000
G01 F50.00
G01 X-0.7969 Y-13.4458
G01 X-0.7950 Y-13.4849
G01 X-0.7926 Y-13.5043
G01 X-0.7850 Y-13.5427
G01 X-0.7736 Y-13.5802
G01 X-0.7666 Y-13.5985
G01 X-0.7587 Y-13.6164
G01 X-0.7403 Y-13.6509
G01 X-0.7186 Y-13.6835
G01 X-0.7066 Y-13.6990
G01 X-0.6804 Y-13.7280
G01 X-0.6514 Y-13.7544
G01 X-0.6360 Y-13.7665
G01 X-0.6035 Y-13.7883
G01 X-0.5691 Y-13.8069
G01 X-0.5329 Y-13.8220
G01 X-0.5144 Y-13.8282
G01 X-0.4764 Y-13.8378
G01 X-0.4377 Y-13.8437
G01 X-0.3987 Y-13.8458
G01 X-0.3595 Y-13.8441
G01 X-0.3401 Y-13.8417
G01 X-0.3017 Y-13.8343
G01 X-0.2642 Y-13.8231
G01 X-0.2279 Y-13.8084
G01 X-0.1808 Y-13.7844
G01 X-0.1634 Y-13.7743
G01 X-0.1466 Y-13.7634
G01 X-0.1304 Y-13.7516
G01 X-0.1148 Y-13.7391
G01 X-0.0998 Y-13.7257
G01 X-0.0856 Y-13.7117
G01 X-0.0720 Y-13.6969
G01 X-0.0592 Y-13.6815
G01 X-0.0472 Y-13.6655
G01 X-0.0360 Y-13.6488
G01 X-0.0256 Y-13.6317
G01 X-0.0162 Y-13.6140
G01 X-0.0045 Y-13.5892
G01 X0.0026 Y-13.5792
G01 X0.0099 Y-13.5726
G01 X0.0205 Y-13.5665
G01 X0.0323 Y-13.5632
G01 X0.0446 Y-13.5626
G01 X20.4004 Y-13.5626
G01 X20.4396 Y-13.5606
G01 X20.4787 Y-13.5557
G01 X20.8921 Y-13.5658
G01 X21.3106 Y-13.5964
G01 X21.7272 Y-13.6475
G01 X22.1407 Y-13.7189
G01 X22.5502 Y-13.8106
G01 X22.9548 Y-13.9222
G01 X23.3534 Y-14.0535
G01 X23.7450 Y-14.2043
G01 X24.1288 Y-14.3741
G01 X24.5038 Y-14.5625
G01 X24.8691 Y-14.7691
G01 X25.2238 Y-14.9933
G01 X25.5671 Y-15.2347
G01 X25.8981 Y-15.4927
G01 X26.2251 Y-15.7748
G01 X26.5289 Y-16.0644
G01 X26.8180 Y-16.3686
G01 X27.0919 Y-16.6865
G01 X27.3425 Y-17.0077
G01 X27.5913 Y-17.3608
G01 X27.8092 Y-17.7050
G01 X28.0163 Y-18.0700
G01 X28.2105 Y-18.4558
G01 X28.3756 Y-18.8282
G01 X28.5269 Y-19.2197
G01 X28.6624 Y-19.6298
G01 X28.7711 Y-20.0224
G01 X28.8633 Y-20.4318
G01 X28.9371 Y-20.8574
G01 X28.9882 Y-21.2740
G01 X29.0182 Y-21.6802
G01 X29.0289 Y-22.1108
G01 X29.0289 Y-32.9754
G01 X29.0286 Y-32.9852
G01 X29.0266 Y-32.9948
G01 X29.0102 Y-33.0375
G01 X28.9998 Y-33.0748
G01 X28.9960 Y-33.0938
G01 X28.9911 Y-33.1323
G01 X28.9899 Y-33.1711
G01 X28.9926 Y-33.2097
G01 X28.9953 Y-33.2290
G01 X29.0035 Y-33.2669
G01 X29.0153 Y-33.3038
G01 X29.0307 Y-33.3394
G01 X29.0494 Y-33.3733
G01 X29.0713 Y-33.4053
G01 X29.0834 Y-33.4205
G01 X29.1097 Y-33.4489
G01 X29.1387 Y-33.4747
G01 X29.1700 Y-33.4976
G01 X29.1865 Y-33.5078
G01 X29.2208 Y-33.5259
G01 X29.2567 Y-33.5406
G01 X29.2938 Y-33.5517
G01 X29.3319 Y-33.5592
G01 X29.3511 Y-33.5615
G01 X29.3899 Y-33.5634
G01 X63.6444 Y-33.5634
G01 X63.6832 Y-33.5615
G01 X63.7024 Y-33.5592
G01 X63.7215 Y-33.5559
G01 X63.7592 Y-33.5466
G01 X63.7957 Y-33.5337
G01 X63.8135 Y-33.5259
G01 X63.8478 Y-33.5078
G01 X63.8643 Y-33.4976
G01 X63.8956 Y-33.4747
G01 X63.9246 Y-33.4489
G01 X63.9509 Y-33.4205
G01 X63.9630 Y-33.4053
G01 X63.9849 Y-33.3733
G01 X64.0036 Y-33.3394
G01 X64.0118 Y-33.3218
G01 X64.0254 Y-33.2855
G01 X64.0308 Y-33.2669
G01 X64.0390 Y-33.2290
G01 X64.0417 Y-33.2097
G01 X64.0444 Y-33.1711
G01 X64.0432 Y-33.1323
G01 X64.0383 Y-33.0938
G01 X64.0345 Y-33.0748
G01 X64.0241 Y-33.0375
G01 X64.0077 Y-32.9948
G01 X64.0057 Y-32.9852
G01 X64.0054 Y-32.9754
G01 X64.0054 Y-22.1843
G01 X64.0034 Y-22.1449
G01 X63.9990 Y-22.1121
G01 X63.9986 Y-22.0998
G01 X64.0086 Y-21.6931
G01 X64.0368 Y-21.2991
G01 X64.0848 Y-20.8950
G01 X64.1520 Y-20.4936
G01 X64.2382 Y-20.0959
G01 X64.3433 Y-19.7028
G01 X64.4708 Y-19.3038
G01 X64.6133 Y-18.9226
G01 X64.7737 Y-18.5486
G01 X64.9518 Y-18.1827
G01 X65.1471 Y-17.8257
G01 X65.3591 Y-17.4784
G01 X65.5805 Y-17.1512
G01 X65.8242 Y-16.8253
G01 X66.0831 Y-16.5113
G01 X66.3648 Y-16.2013
G01 X66.6528 Y-15.9138
G01 X66.9541 Y-15.6403
G01 X67.2681 Y-15.3814
G01 X67.5940 Y-15.1377
G01 X67.9312 Y-14.9099
G01 X68.2788 Y-14.6983
G01 X68.6361 Y-14.5035
G01 X68.9914 Y-14.3309
G01 X69.3654 Y-14.1705
G01 X69.7579 Y-14.0241
G01 X70.1456 Y-13.9005
G01 X70.5387 Y-13.7954
G01 X70.9364 Y-13.7092
G01 X71.3260 Y-13.6437
G01 X71.7300 Y-13.5951
G01 X72.1359 Y-13.5658
G01 X72.5536 Y-13.5557
G01 X85.2182 Y-13.5589
G01 X85.2569 Y-13.5570
G01 X85.2762 Y-13.5547
G01 X85.3142 Y-13.5472
G01 X85.3513 Y-13.5361
G01 X85.3694 Y-13.5293
G01 X85.3872 Y-13.5215
G01 X85.4056 Y-13.5123
G01 X85.4437 Y-13.5292
G01 X85.4696 Y-13.5386
G01 X85.4954 Y-13.5466
G01 X85.5215 Y-13.5534
G01 X85.5479 Y-13.5588
G01 X85.5819 Y-13.5638
G01 X85.6088 Y-13.5663
G01 X85.6456 Y-13.5676
G01 X90.2097 Y-13.5676
G01 X90.2463 Y-13.5663
G01 X90.2804 Y-13.5630
G01 X90.3069 Y-13.5589
G01 X90.3522 Y-13.5488
G01 X90.3849 Y-13.5389
G01 X90.4102 Y-13.5297
G01 X90.4527 Y-13.5110
G01 X90.4767 Y-13.4984
G01 X90.5138 Y-13.5239
G01 X90.5544 Y-13.5468
G01 X90.5855 Y-13.5615
G01 X90.6290 Y-13.5783
G01 X90.6618 Y-13.5883
G01 X90.7054 Y-13.5982
G01 X90.7413 Y-13.6035
G01 X90.7829 Y-13.6068
G01 X92.7894 Y-13.6073
G01 X92.8335 Y-13.6055
G01 X92.8798 Y-13.5998
G01 X92.9135 Y-13.5931
G01 X92.9396 Y-13.5863
G01 X92.9654 Y-13.5783
G01 X93.0089 Y-13.5615
G01 X93.0334 Y-13.5502
G01 X93.0573 Y-13.5376
G01 X93.0806 Y-13.5239
G01 X93.1031 Y-13.5090
G01 X93.1331 Y-13.4866
G01 X93.1531 Y-13.4986
G01 X93.1903 Y-13.5173
G01 X93.2130 Y-13.5267
G01 X93.2526 Y-13.5398
G01 X93.2764 Y-13.5457
G01 X93.3175 Y-13.5529
G01 X93.3419 Y-13.5553
G01 X93.3738 Y-13.5564
G01 X99.4161 Y-13.5563
G01 X99.4382 Y-13.5553
G01 X99.4602 Y-13.5532
G01 X99.4844 Y-13.5496
G01 X99.5061 Y-13.5452
G01 X99.5275 Y-13.5398
G01 X99.5671 Y-13.5267
G01 X99.5875 Y-13.5183
G01 X99.6075 Y-13.5089
G01 X99.6292 Y-13.4973
G01 X99.6481 Y-13.4859
G01 X99.6664 Y-13.4736
G01 X99.6841 Y-13.4604
G01 X99.7012 Y-13.4463
G01 X99.7314 Y-13.4176
G01 X99.7462 Y-13.4013
G01 X99.7603 Y-13.3842
G01 X99.7807 Y-13.3561
G01 X99.7985 Y-13.3271
G01 X99.8088 Y-13.3076
G01 X99.8182 Y-13.2876
G01 X99.8266 Y-13.2672
G01 X99.8340 Y-13.2464
G01 X99.8403 Y-13.2252
G01 X99.8456 Y-13.2038
G01 X99.8528 Y-13.1627
G01 X99.8552 Y-13.1383
G01 X99.8563 Y-13.1064
G01 X99.8563 Y-7.3120
G01 X99.8552 Y-7.2801
G01 X99.8528 Y-7.2557
G01 X99.8495 Y-7.2339
G01 X99.8403 Y-7.1932
G01 X99.8329 Y-7.1687
G01 X99.8182 Y-7.1308
G01 X99.8077 Y-7.1086
G01 X99.7972 Y-7.0890
G01 X99.8145 Y-7.0609
G01 X99.8308 Y-7.0304
G01 X99.8495 Y-6.9883
G01 X99.8612 Y-6.9554
G01 X99.8737 Y-6.9105
G01 X99.8804 Y-6.8768
G01 X99.8861 Y-6.8305
G01 X99.8878 Y-6.7962
G01 X99.8876 Y0.2554
G01 X99.8861 Y0.2823
G01 X99.8832 Y0.3092
G01 X99.8753 Y0.3551
G01 X99.8689 Y0.3814
G01 X99.8612 Y0.4072
G01 X99.8496 Y0.4396
G01 X99.8308 Y0.4822
G01 X99.8182 Y0.5061
G01 X99.8045 Y0.5294
G01 X99.7907 Y0.5503
G01 X99.7752 Y0.5718
G01 X99.7567 Y0.5947
G01 X99.7421 Y0.6112
G01 X99.7144 Y0.6391
G01 X99.6943 Y0.6571
G01 X99.6733 Y0.6741
G01 X99.6352 Y0.7009
G01 X99.6121 Y0.7150
G01 X99.5884 Y0.7278
G01 X99.5641 Y0.7396
G01 X99.5397 Y0.7499
G01 X99.5068 Y0.7616
G01 X99.4810 Y0.7693
G01 X99.4547 Y0.7757
G01 X99.4088 Y0.7836
G01 X99.3746 Y0.7870
G01 X99.3378 Y0.7883
G01 X77.5494 Y0.7883
G01 X77.5053 Y0.7865
G01 X77.4784 Y0.7836
G01 X77.4517 Y0.7795
G01 X77.4062 Y0.7693
G01 X77.3804 Y0.7616
G01 X77.3557 Y0.7530
G01 X77.3333 Y0.7692
G01 X77.2996 Y0.7894
G01 X77.2642 Y0.8062
G01 X77.2458 Y0.8132
G01 X77.2083 Y0.8246
G01 X77.1698 Y0.8323
G01 X77.1503 Y0.8347
G01 X77.1111 Y0.8366
G01 X56.7382 Y0.8366
G01 X56.6986 Y0.8346
G01 X56.6593 Y0.8287
G01 X56.6208 Y0.8190
G01 X56.5863 Y0.8066
G01 X56.5659 Y0.8139
G01 X56.5355 Y0.8235
G01 X56.5046 Y0.8315
G01 X56.4734 Y0.8380
G01 X56.4443 Y0.8427
G01 X56.4134 Y0.8462
G01 X56.3832 Y0.8482
G01 X56.3562 Y0.8487
G01 X30.8372 Y0.8487
G01 X30.8151 Y0.8483
G01 X30.7833 Y0.8464
G01 X30.7515 Y0.8430
G01 X30.7200 Y0.8380
G01 X30.6888 Y0.8315
G01 X30.6579 Y0.8235
G01 X30.6275 Y0.8139
G01 X30.5983 Y0.8032
G01 X30.5732 Y0.8132
G01 X30.5546 Y0.8194
G01 X30.5165 Y0.8289
G01 X30.4777 Y0.8347
G01 X30.4385 Y0.8366
G01 X-0.3969 Y0.8366
G01 X-0.4361 Y0.8347
G01 X-0.4749 Y0.8289
G01 X-0.5130 Y0.8194
G01 X-0.5500 Y0.8062
G01 X-0.5855 Y0.7894
G01 X-0.6191 Y0.7692
G01 X-0.6507 Y0.7458
G01 X-0.6797 Y0.7194
G01 X-0.7061 Y0.6904
G01 X-0.7295 Y0.6588
G01 X-0.7497 Y0.6252
G01 X-0.7665 Y0.5897
G01 X-0.7797 Y0.5527
G01 X-0.7892 Y0.5146
G01 X-0.7950 Y0.4758
G01 X-0.7969 Y0.4366
G00 X-0.7969 Y0.4366
G01 F80.00
G01 Z-0.1500
G01 F50.00
G01 X-0.7969 Y-13.4458
G01 X-0.7950 Y-13.4849
G01 X-0.7926 Y-13.5043
G01 X-0.7850 Y-13.5427
G01 X-0.7736 Y-13.5802
G01 X-0.7666 Y-13.5985
G01 X-0.7587 Y-13.6164
G01 X-0.7403 Y-13.6509
G01 X-0.7186 Y-13.6835
G01 X-0.7066 Y-13.6990
G01 X-0.6804 Y-13.7280
G01 X-0.6514 Y-13.7544
G01 X-0.6360 Y-13.7665
G01 X-0.6035 Y-13.7883
G01 X-0.5691 Y-13.8069
G01 X-0.5329 Y-13.8220
G01 X-0.5144 Y-13.8282
G01 X-0.4764 Y-13.8378
G01 X-0.4377 Y-13.8437
G01 X-0.3987 Y-13.8458
G01 X-0.3595 Y-13.8441
G01 X-0.3401 Y-13.8417
G01 X-0.3017 Y-13.8343
G01 X-0.2642 Y-13.8231
G01 X-0.2279 Y-13.8084
G01 X-0.1808 Y-13.7844
G01 X-0.1634 Y-13.7743
G01 X-0.1466 Y-13.7634
G01 X-0.1304 Y-13.7516
G01 X-0.1148 Y-13.7391
G01 X-0.0998 Y-13.7257
G01 X-0.0856 Y-13.7117
G01 X-0.0720 Y-13.6969
G01 X-0.0592 Y-13.6815
G01 X-0.0472 Y-13.6655
G01 X-0.0360 Y-13.6488
G01 X-0.0256 Y-13.6317
G01 X-0.0162 Y-13.6140
G01 X-0.0045 Y-13.5892
G01 X0.0026 Y-13.5792
G01 X0.0099 Y-13.5726
G01 X0.0205 Y-13.5665
G01 X0.0323 Y-13.5632
G01 X0.0446 Y-13.5626
G01 X20.4004 Y-13.5626
G01 X20.4396 Y-13.5606
G01 X20.4787 Y-13.5557
G01 X20.8921 Y-13.5658
G01 X21.3106 Y-13.5964
G01 X21.7272 Y-13.6475
G01 X22.1407 Y-13.7189
G01 X22.5502 Y-13.8106
G01 X22.9548 Y-13.9222
G01 X23.3534 Y-14.0535
G01 X23.7450 Y-14.2043
G01 X24.1288 Y-14.3741
G01 X24.5038 Y-14.5625
G01 X24.8691 Y-14.7691
G01 X25.2238 Y-14.9933
G01 X25.5671 Y-15.2347
G01 X25.8981 Y-15.4927
G01 X26.2251 Y-15.7748
G01 X26.5289 Y-16.0644
G01 X26.8180 Y-16.3686
G01 X27.0919 Y-16.6865
G01 X27.3425 Y-17.0077
G01 X27.5913 Y-17.3608
G01 X27.8092 Y-17.7050
G01 X28.0163 Y-18.0700
G01 X28.2105 Y-18.4558
G01 X28.3756 Y-18.8282
G01 X28.5269 Y-19.2197
G01 X28.6624 Y-19.6298
G01 X28.7711 Y-20.0224
G01 X28.8633 Y-20.4318
G01 X28.9371 Y-20.8574
G01 X28.9882 Y-21.2740
G01 X29.0182 Y-21.6802
G01 X29.0289 Y-22.1108
G01 X29.0289 Y-32.9754
G01 X29.0286 Y-32.9852
G01 X29.0266 Y-32.9948
G01 X29.0102 Y-33.0375
G01 X28.9998 Y-33.0748
G01 X28.9960 Y-33.0938
G01 X28.9911 Y-33.1323
G01 X28.9899 Y-33.1711
G01 X28.9926 Y-33.2097
G01 X28.9953 Y-33.2290
G01 X29.0035 Y-33.2669
G01 X29.0153 Y-33.3038
G01 X29.0307 Y-33.3394
G01 X29.0494 Y-33.3733
G01 X29.0713 Y-33.4053
G01 X29.0834 Y-33.4205
G01 X29.1097 Y-33.4489
G01 X29.1387 Y-33.4747
G01 X29.1700 Y-33.4976
G01 X29.1865 Y-33.5078
G01 X29.2208 Y-33.5259
G01 X29.2567 Y-33.5406
G01 X29.2938 Y-33.5517
G01 X29.3319 Y-33.5592
G01 X29.3511 Y-33.5615
G01 X29.3899 Y-33.5634
G01 X63.6444 Y-33.5634
G01 X63.6832 Y-33.5615
G01 X63.7024 Y-33.5592
G01 X63.7215 Y-33.5559
G01 X63.7592 Y-33.5466
G01 X63.7957 Y-33.5337
G01 X63.8135 Y-33.5259
G01 X63.8478 Y-33.5078
G01 X63.8643 Y-33.4976
G01 X63.8956 Y-33.4747
G01 X63.9246 Y-33.4489
G01 X63.9509 Y-33.4205
G01 X63.9630 Y-33.4053
G01 X63.9849 Y-33.3733
G01 X64.0036 Y-33.3394
G01 X64.0118 Y-33.3218
G01 X64.0254 Y-33.2855
G01 X64.0308 Y-33.2669
G01 X64.0390 Y-33.2290
G01 X64.0417 Y-33.2097
G01 X64.0444 Y-33.1711
G01 X64.0432 Y-33.1323
G01 X64.0383 Y-33.0938
G01 X64.0345 Y-33.0748
G01 X64.0241 Y-33.0375
G01 X64.0077 Y-32.9948
G01 X64.0057 Y-32.9852
G01 X64.0054 Y-32.9754
G01 X64.0054 Y-22.1843
G01 X64.0034 Y-22.1449
G01 X63.9990 Y-22.1121
G01 X63.9986 Y-22.0998
G01 X64.0086 Y-21.6931
G01 X64.0368 Y-21.2991
G01 X64.0848 Y-20.8950
G01 X64.1520 Y-20.4936
G01 X64.2382 Y-20.0959
G01 X64.3433 Y-19.7028
G01 X64.4708 Y-19.3038
G01 X64.6133 Y-18.9226
G01 X64.7737 Y-18.5486
G01 X64.9518 Y-18.1827
G01 X65.1471 Y-17.8257
G01 X65.3591 Y-17.4784
G01 X65.5805 Y-17.1512
G01 X65.8242 Y-16.8253
G01 X66.0831 Y-16.5113
G01 X66.3648 Y-16.2013
G01 X66.6528 Y-15.9138
G01 X66.9541 Y-15.6403
G01 X67.2681 Y-15.3814
G01 X67.5940 Y-15.1377
G01 X67.9312 Y-14.9099
G01 X68.2788 Y-14.6983
G01 X68.6361 Y-14.5035
G01 X68.9914 Y-14.3309
G01 X69.3654 Y-14.1705
G01 X69.7579 Y-14.0241
G01 X70.1456 Y-13.9005
G01 X70.5387 Y-13.7954
G01 X70.9364 Y-13.7092
G01 X71.3260 Y-13.6437
G01 X71.7300 Y-13.5951
G01 X72.1359 Y-13.5658
G01 X72.5536 Y-13.5557
G01 X85.2182 Y-13.5589
G01 X85.2569 Y-13.5570
G01 X85.2762 Y-13.5547
G01 X85.3142 Y-13.5472
G01 X85.3513 Y-13.5361
G01 X85.3694 Y-13.5293
G01 X85.3872 Y-13.5215
G01 X85.4056 Y-13.5123
G01 X85.4437 Y-13.5292
G01 X85.4696 Y-13.5386
G01 X85.4954 Y-13.5466
G01 X85.5215 Y-13.5534
G01 X85.5479 Y-13.5588
G01 X85.5819 Y-13.5638
G01 X85.6088 Y-13.5663
G01 X85.6456 Y-13.5676
G01 X90.2097 Y-13.5676
G01 X90.2463 Y-13.5663
G01 X90.2804 Y-13.5630
G01 X90.3069 Y-13.5589
G01 X90.3522 Y-13.5488
G01 X90.3849 Y-13.5389
G01 X90.4102 Y-13.5297
G01 X90.4527 Y-13.5110
G01 X90.4767 Y-13.4984
G01 X90.5138 Y-13.5239
G01 X90.5544 Y-13.5468
G01 X90.5855 Y-13.5615
G01 X90.6290 Y-13.5783
G01 X90.6618 Y-13.5883
G01 X90.7054 Y-13.5982
G01 X90.7413 Y-13.6035
G01 X90.7829 Y-13.6068
G01 X92.7894 Y-13.6073
G01 X92.8335 Y-13.6055
G01 X92.8798 Y-13.5998
G01 X92.9135 Y-13.5931
G01 X92.9396 Y-13.5863
G01 X92.9654 Y-13.5783
G01 X93.0089 Y-13.5615
G01 X93.0334 Y-13.5502
G01 X93.0573 Y-13.5376
G01 X93.0806 Y-13.5239
G01 X93.1031 Y-13.5090
G01 X93.1331 Y-13.4866
G01 X93.1531 Y-13.4986
G01 X93.1903 Y-13.5173
G01 X93.2130 Y-13.5267
G01 X93.2526 Y-13.5398
G01 X93.2764 Y-13.5457
G01 X93.3175 Y-13.5529
G01 X93.3419 Y-13.5553
G01 X93.3738 Y-13.5564
G01 X99.4161 Y-13.5563
G01 X99.4382 Y-13.5553
G01 X99.4602 Y-13.5532
G01 X99.4844 Y-13.5496
G01 X99.5061 Y-13.5452
G01 X99.5275 Y-13.5398
G01 X99.5671 Y-13.5267
G01 X99.5875 Y-13.5183
G01 X99.6075 Y-13.5089
G01 X99.6292 Y-13.4973
G01 X99.6481 Y-13.4859
G01 X99.6664 Y-13.4736
G01 X99.6841 Y-13.4604
G01 X99.7012 Y-13.4463
G01 X99.7314 Y-13.4176
G01 X99.7462 Y-13.4013
G01 X99.7603 Y-13.3842
G01 X99.7807 Y-13.3561
G01 X99.7985 Y-13.3271
G01 X99.8088 Y-13.3076
G01 X99.8182 Y-13.2876
G01 X99.8266 Y-13.2672
G01 X99.8340 Y-13.2464
G01 X99.8403 Y-13.2252
G01 X99.8456 Y-13.2038
G01 X99.8528 Y-13.1627
G01 X99.8552 Y-13.1383
G01 X99.8563 Y-13.1064
G01 X99.8563 Y-7.3120
G01 X99.8552 Y-7.2801
G01 X99.8528 Y-7.2557
G01 X99.8495 Y-7.2339
G01 X99.8403 Y-7.1932
G01 X99.8329 Y-7.1687
G01 X99.8182 Y-7.1308
G01 X99.8077 Y-7.1086
G01 X99.7972 Y-7.0890
G01 X99.8145 Y-7.0609
G01 X99.8308 Y-7.0304
G01 X99.8495 Y-6.9883
G01 X99.8612 Y-6.9554
G01 X99.8737 Y-6.9105
G01 X99.8804 Y-6.8768
G01 X99.8861 Y-6.8305
G01 X99.8878 Y-6.7962
G01 X99.8876 Y0.2554
G01 X99.8861 Y0.2823
G01 X99.8832 Y0.3092
G01 X99.8753 Y0.3551
G01 X99.8689 Y0.3814
G01 X99.8612 Y0.4072
G01 X99.8496 Y0.4396
G01 X99.8308 Y0.4822
G01 X99.8182 Y0.5061
G01 X99.8045 Y0.5294
G01 X99.7907 Y0.5503
G01 X99.7752 Y0.5718
G01 X99.7567 Y0.5947
G01 X99.7421 Y0.6112
G01 X99.7144 Y0.6391
G01 X99.6943 Y0.6571
G01 X99.6733 Y0.6741
G01 X99.6352 Y0.7009
G01 X99.6121 Y0.7150
G01 X99.5884 Y0.7278
G01 X99.5641 Y0.7396
G01 X99.5397 Y0.7499
G01 X99.5068 Y0.7616
G01 X99.4810 Y0.7693
G01 X99.4547 Y0.7757
G01 X99.4088 Y0.7836
G01 X99.3746 Y0.7870
G01 X99.3378 Y0.7883
G01 X77.5494 Y0.7883
G01 X77.5053 Y0.7865
G01 X77.4784 Y0.7836
G01 X77.4517 Y0.7795
G01 X77.4062 Y0.7693
G01 X77.3804 Y0.7616
G01 X77.3557 Y0.7530
G01 X77.3333 Y0.7692
G01 X77.2996 Y0.7894
G01 X77.2642 Y0.8062
G01 X77.2458 Y0.8132
G01 X77.2083 Y0.8246
G01 X77.1698 Y0.8323
G01 X77.1503 Y0.8347
G01 X77.1111 Y0.8366
G01 X56.7382 Y0.8366
G01 X56.6986 Y0.8346
G01 X56.6593 Y0.8287
G01 X56.6208 Y0.8190
G01 X56.5863 Y0.8066
G01 X56.5659 Y0.8139
G01 X56.5355 Y0.8235
G01 X56.5046 Y0.8315
G01 X56.4734 Y0.8380
G01 X56.4443 Y0.8427
G01 X56.4134 Y0.8462
G01 X56.3832 Y0.8482
G01 X56.3562 Y0.8487
G01 X30.8372 Y0.8487
G01 X30.8151 Y0.8483
G01 X30.7833 Y0.8464
G01 X30.7515 Y0.8430
G01 X30.7200 Y0.8380
G01 X30.6888 Y0.8315
G01 X30.6579 Y0.8235
G01 X30.6275 Y0.8139
G01 X30.5983 Y0.8032
G01 X30.5732 Y0.8132
G01 X30.5546 Y0.8194
G01 X30.5165 Y0.8289
G01 X30.4777 Y0.8347
G01 X30.4385 Y0.8366
G01 X-0.3969 Y0.8366
G01 X-0.4361 Y0.8347
G01 X-0.4749 Y0.8289
G01 X-0.5130 Y0.8194
G01 X-0.5500 Y0.8062
G01 X-0.5855 Y0.7894
G01 X-0.6191 Y0.7692
G01 X-0.6507 Y0.7458
G01 X-0.6797 Y0.7194
G01 X-0.7061 Y0.6904
G01 X-0.7295 Y0.6588
G01 X-0.7497 Y0.6252
G01 X-0.7665 Y0.5897
G01 X-0.7797 Y0.5527
G01 X-0.7892 Y0.5146
G01 X-0.7950 Y0.4758
G01 X-0.7969 Y0.4366
G00 X-0.7969 Y0.4366
G01 F80.00
G01 Z-0.2000
G01 F50.00
G01 X-0.7969 Y-13.4458
G01 X-0.7950 Y-13.4849
G01 X-0.7926 Y-13.5043
G01 X-0.7850 Y-13.5427
G01 X-0.7736 Y-13.5802
G01 X-0.7666 Y-13.5985
G01 X-0.7587 Y-13.6164
G01 X-0.7403 Y-13.6509
G01 X-0.7186 Y-13.6835
G01 X-0.7066 Y-13.6990
G01 X-0.6804 Y-13.7280
G01 X-0.6514 Y-13.7544
G01 X-0.6360 Y-13.7665
G01 X-0.6035 Y-13.7883
G01 X-0.5691 Y-13.8069
G01 X-0.5329 Y-13.8220
G01 X-0.5144 Y-13.8282
G01 X-0.4764 Y-13.8378
G01 X-0.4377 Y-13.8437
G01 X-0.3987 Y-13.8458
G01 X-0.3595 Y-13.8441
G01 X-0.3401 Y-13.8417
G01 X-0.3017 Y-13.8343
G01 X-0.2642 Y-13.8231
G01 X-0.2279 Y-13.8084
G01 X-0.1808 Y-13.7844
G01 X-0.1634 Y-13.7743
G01 X-0.1466 Y-13.7634
G01 X-0.1304 Y-13.7516
G01 X-0.1148 Y-13.7391
G01 X-0.0998 Y-13.7257
G01 X-0.0856 Y-13.7117
G01 X-0.0720 Y-13.6969
G01 X-0.0592 Y-13.6815
G01 X-0.0472 Y-13.6655
G01 X-0.0360 Y-13.6488
G01 X-0.0256 Y-13.6317
G01 X-0.0162 Y-13.6140
G01 X-0.0045 Y-13.5892
G01 X0.0026 Y-13.5792
G01 X0.0099 Y-13.5726
G01 X0.0205 Y-13.5665
G01 X0.0323 Y-13.5632
G01 X0.0446 Y-13.5626
G01 X20.4004 Y-13.5626
G01 X20.4396 Y-13.5606
G01 X20.4787 Y-13.5557
G01 X20.8921 Y-13.5658
G01 X21.3106 Y-13.5964
G01 X21.7272 Y-13.6475
G01 X22.1407 Y-13.7189
G01 X22.5502 Y-13.8106
G01 X22.9548 Y-13.9222
G01 X23.3534 Y-14.0535
G01 X23.7450 Y-14.2043
G01 X24.1288 Y-14.3741
G01 X24.5038 Y-14.5625
G01 X24.8691 Y-14.7691
G01 X25.2238 Y-14.9933
G01 X25.5671 Y-15.2347
G01 X25.8981 Y-15.4927
G01 X26.2251 Y-15.7748
G01 X26.5289 Y-16.0644
G01 X26.8180 Y-16.3686
G01 X27.0919 Y-16.6865
G01 X27.3425 Y-17.0077
G01 X27.5913 Y-17.3608
G01 X27.8092 Y-17.7050
G01 X28.0163 Y-18.0700
G01 X28.2105 Y-18.4558
G01 X28.3756 Y-18.8282
G01 X28.5269 Y-19.2197
G01 X28.6624 Y-19.6298
G01 X28.7711 Y-20.0224
G01 X28.8633 Y-20.4318
G01 X28.9371 Y-20.8574
G01 X28.9882 Y-21.2740
G01 X29.0182 Y-21.6802
G01 X29.0289 Y-22.1108
G01 X29.0289 Y-32.9754
G01 X29.0286 Y-32.9852
G01 X29.0266 Y-32.9948
G01 X29.0102 Y-33.0375
G01 X28.9998 Y-33.0748
G01 X28.9960 Y-33.0938
G01 X28.9911 Y-33.1323
G01 X28.9899 Y-33.1711
G01 X28.9926 Y-33.2097
G01 X28.9953 Y-33.2290
G01 X29.0035 Y-33.2669
G01 X29.0153 Y-33.3038
G01 X29.0307 Y-33.3394
G01 X29.0494 Y-33.3733
G01 X29.0713 Y-33.4053
G01 X29.0834 Y-33.4205
G01 X29.1097 Y-33.4489
G01 X29.1387 Y-33.4747
G01 X29.1700 Y-33.4976
G01 X29.1865 Y-33.5078
G01 X29.2208 Y-33.5259
G01 X29.2567 Y-33.5406
G01 X29.2938 Y-33.5517
G01 X29.3319 Y-33.5592
G01 X29.3511 Y-33.5615
G01 X29.3899 Y-33.5634
G01 X63.6444 Y-33.5634
G01 X63.6832 Y-33.5615
G01 X63.7024 Y-33.5592
G01 X63.7215 Y-33.5559
G01 X63.7592 Y-33.5466
G01 X63.7957 Y-33.5337
G01 X63.8135 Y-33.5259
G01 X63.8478 Y-33.5078
G01 X63.8643 Y-33.4976
G01 X63.8956 Y-33.4747
G01 X63.9246 Y-33.4489
G01 X63.9509 Y-33.4205
G01 X63.9630 Y-33.4053
G01 X63.9849 Y-33.3733
G01 X64.0036 Y-33.3394
G01 X64.0118 Y-33.3218
G01 X64.0254 Y-33.2855
G01 X64.0308 Y-33.2669
G01 X64.0390 Y-33.2290
G01 X64.0417 Y-33.2097
G01 X64.0444 Y-33.1711
G01 X64.0432 Y-33.1323
G01 X64.0383 Y-33.0938
G01 X64.0345 Y-33.0748
G01 X64.0241 Y-33.0375
G01 X64.0077 Y-32.9948
G01 X64.0057 Y-32.9852
G01 X64.0054 Y-32.9754
G01 X64.0054 Y-22.1843
G01 X64.0034 Y-22.1449
G01 X63.9990 Y-22.1121
G01 X63.9986 Y-22.0998
G01 X64.0086 Y-21.6931
G01 X64.0368 Y-21.2991
G01 X64.0848 Y-20.8950
G01 X64.1520 Y-20.4936
G01 X64.2382 Y-20.0959
G01 X64.3433 Y-19.7028
G01 X64.4708 Y-19.3038
G01 X64.6133 Y-18.9226
G01 X64.7737 Y-18.5486
G01 X64.9518 Y-18.1827
G01 X65.1471 Y-17.8257
G01 X65.3591 Y-17.4784
G01 X65.5805 Y-17.1512
G01 X65.8242 Y-16.8253
G01 X66.0831 Y-16.5113
G01 X66.3648 Y-16.2013
G01 X66.6528 Y-15.9138
G01 X66.9541 Y-15.6403
G01 X67.2681 Y-15.3814
G01 X67.5940 Y-15.1377
G01 X67.9312 Y-14.9099
G01 X68.2788 Y-14.6983
G01 X68.6361 Y-14.5035
G01 X68.9914 Y-14.3309
G01 X69.3654 Y-14.1705
G01 X69.7579 Y-14.0241
G01 X70.1456 Y-13.9005
G01 X70.5387 Y-13.7954
G01 X70.9364 Y-13.7092
G01 X71.3260 Y-13.6437
G01 X71.7300 Y-13.5951
G01 X72.1359 Y-13.5658
G01 X72.5536 Y-13.5557
G01 X85.2182 Y-13.5589
G01 X85.2569 Y-13.5570
G01 X85.2762 Y-13.5547
G01 X85.3142 Y-13.5472
G01 X85.3513 Y-13.5361
G01 X85.3694 Y-13.5293
G01 X85.3872 Y-13.5215
G01 X85.4056 Y-13.5123
G01 X85.4437 Y-13.5292
G01 X85.4696 Y-13.5386
G01 X85.4954 Y-13.5466
G01 X85.5215 Y-13.5534
G01 X85.5479 Y-13.5588
G01 X85.5819 Y-13.5638
G01 X85.6088 Y-13.5663
G01 X85.6456 Y-13.5676
G01 X90.2097 Y-13.5676
G01 X90.2463 Y-13.5663
G01 X90.2804 Y-13.5630
G01 X90.3069 Y-13.5589
G01 X90.3522 Y-13.5488
G01 X90.3849 Y-13.5389
G01 X90.4102 Y-13.5297
G01 X90.4527 Y-13.5110
G01 X90.4767 Y-13.4984
G01 X90.5138 Y-13.5239
G01 X90.5544 Y-13.5468
G01 X90.5855 Y-13.5615
G01 X90.6290 Y-13.5783
G01 X90.6618 Y-13.5883
G01 X90.7054 Y-13.5982
G01 X90.7413 Y-13.6035
G01 X90.7829 Y-13.6068
G01 X92.7894 Y-13.6073
G01 X92.8335 Y-13.6055
G01 X92.8798 Y-13.5998
G01 X92.9135 Y-13.5931
G01 X92.9396 Y-13.5863
G01 X92.9654 Y-13.5783
G01 X93.0089 Y-13.5615
G01 X93.0334 Y-13.5502
G01 X93.0573 Y-13.5376
G01 X93.0806 Y-13.5239
G01 X93.1031 Y-13.5090
G01 X93.1331 Y-13.4866
G01 X93.1531 Y-13.4986
G01 X93.1903 Y-13.5173
G01 X93.2130 Y-13.5267
G01 X93.2526 Y-13.5398
G01 X93.2764 Y-13.5457
G01 X93.3175 Y-13.5529
G01 X93.3419 Y-13.5553
G01 X93.3738 Y-13.5564
G01 X99.4161 Y-13.5563
G01 X99.4382 Y-13.5553
G01 X99.4602 Y-13.5532
G01 X99.4844 Y-13.5496
G01 X99.5061 Y-13.5452
G01 X99.5275 Y-13.5398
G01 X99.5671 Y-13.5267
G01 X99.5875 Y-13.5183
G01 X99.6075 Y-13.5089
G01 X99.6292 Y-13.4973
G01 X99.6481 Y-13.4859
G01 X99.6664 Y-13.4736
G01 X99.6841 Y-13.4604
G01 X99.7012 Y-13.4463
G01 X99.7314 Y-13.4176
G01 X99.7462 Y-13.4013
G01 X99.7603 Y-13.3842
G01 X99.7807 Y-13.3561
G01 X99.7985 Y-13.3271
G01 X99.8088 Y-13.3076
G01 X99.8182 Y-13.2876
G01 X99.8266 Y-13.2672
G01 X99.8340 Y-13.2464
G01 X99.8403 Y-13.2252
G01 X99.8456 Y-13.2038
G01 X99.8528 Y-13.1627
G01 X99.8552 Y-13.1383
G01 X99.8563 Y-13.1064
G01 X99.8563 Y-7.3120
G01 X99.8552 Y-7.2801
G01 X99.8528 Y-7.2557
G01 X99.8495 Y-7.2339
G01 X99.8403 Y-7.1932
G01 X99.8329 Y-7.1687
G01 X99.8182 Y-7.1308
G01 X99.8077 Y-7.1086
G01 X99.7972 Y-7.0890
G01 X99.8145 Y-7.0609
G01 X99.8308 Y-7.0304
G01 X99.8495 Y-6.9883
G01 X99.8612 Y-6.9554
G01 X99.8737 Y-6.9105
G01 X99.8804 Y-6.8768
G01 X99.8861 Y-6.8305
G01 X99.8878 Y-6.7962
G01 X99.8876 Y0.2554
G01 X99.8861 Y0.2823
G01 X99.8832 Y0.3092
G01 X99.8753 Y0.3551
G01 X99.8689 Y0.3814
G01 X99.8612 Y0.4072
G01 X99.8496 Y0.4396
G01 X99.8308 Y0.4822
G01 X99.8182 Y0.5061
G01 X99.8045 Y0.5294
G01 X99.7907 Y0.5503
G01 X99.7752 Y0.5718
G01 X99.7567 Y0.5947
G01 X99.7421 Y0.6112
G01 X99.7144 Y0.6391
G01 X99.6943 Y0.6571
G01 X99.6733 Y0.6741
G01 X99.6352 Y0.7009
G01 X99.6121 Y0.7150
G01 X99.5884 Y0.7278
G01 X99.5641 Y0.7396
G01 X99.5397 Y0.7499
G01 X99.5068 Y0.7616
G01 X99.4810 Y0.7693
G01 X99.4547 Y0.7757
G01 X99.4088 Y0.7836
G01 X99.3746 Y0.7870
G01 X99.3378 Y0.7883
G01 X77.5494 Y0.7883
G01 X77.5053 Y0.7865
G01 X77.4784 Y0.7836
G01 X77.4517 Y0.7795
G01 X77.4062 Y0.7693
G01 X77.3804 Y0.7616
G01 X77.3557 Y0.7530
G01 X77.3333 Y0.7692
G01 X77.2996 Y0.7894
G01 X77.2642 Y0.8062
G01 X77.2458 Y0.8132
G01 X77.2083 Y0.8246
G01 X77.1698 Y0.8323
G01 X77.1503 Y0.8347
G01 X77.1111 Y0.8366
G01 X56.7382 Y0.8366
G01 X56.6986 Y0.8346
G01 X56.6593 Y0.8287
G01 X56.6208 Y0.8190
G01 X56.5863 Y0.8066
G01 X56.5659 Y0.8139
G01 X56.5355 Y0.8235
G01 X56.5046 Y0.8315
G01 X56.4734 Y0.8380
G01 X56.4443 Y0.8427
G01 X56.4134 Y0.8462
G01 X56.3832 Y0.8482
G01 X56.3562 Y0.8487
G01 X30.8372 Y0.8487
G01 X30.8151 Y0.8483
G01 X30.7833 Y0.8464
G01 X30.7515 Y0.8430
G01 X30.7200 Y0.8380
G01 X30.6888 Y0.8315
G01 X30.6579 Y0.8235
G01 X30.6275 Y0.8139
G01 X30.5983 Y0.8032
G01 X30.5732 Y0.8132
G01 X30.5546 Y0.8194
G01 X30.5165 Y0.8289
G01 X30.4777 Y0.8347
G01 X30.4385 Y0.8366
G01 X-0.3969 Y0.8366
G01 X-0.4361 Y0.8347
G01 X-0.4749 Y0.8289
G01 X-0.5130 Y0.8194
G01 X-0.5500 Y0.8062
G01 X-0.5855 Y0.7894
G01 X-0.6191 Y0.7692
G01 X-0.6507 Y0.7458
G01 X-0.6797 Y0.7194
G01 X-0.7061 Y0.6904
G01 X-0.7295 Y0.6588
G01 X-0.7497 Y0.6252
G01 X-0.7665 Y0.5897
G01 X-0.7797 Y0.5527
G01 X-0.7892 Y0.5146
G01 X-0.7950 Y0.4758
G01 X-0.7969 Y0.4366
G00 X-0.7969 Y0.4366
G01 F80.00
G01 Z-0.2500
G01 F50.00
G01 X-0.7969 Y-13.4458
G01 X-0.7950 Y-13.4849
G01 X-0.7926 Y-13.5043
G01 X-0.7850 Y-13.5427
G01 X-0.7736 Y-13.5802
G01 X-0.7666 Y-13.5985
G01 X-0.7587 Y-13.6164
G01 X-0.7403 Y-13.6509
G01 X-0.7186 Y-13.6835
G01 X-0.7066 Y-13.6990
G01 X-0.6804 Y-13.7280
G01 X-0.6514 Y-13.7544
G01 X-0.6360 Y-13.7665
G01 X-0.6035 Y-13.7883
G01 X-0.5691 Y-13.8069
G01 X-0.5329 Y-13.8220
G01 X-0.5144 Y-13.8282
G01 X-0.4764 Y-13.8378
G01 X-0.4377 Y-13.8437
G01 X-0.3987 Y-13.8458
G01 X-0.3595 Y-13.8441
G01 X-0.3401 Y-13.8417
G01 X-0.3017 Y-13.8343
G01 X-0.2642 Y-13.8231
G01 X-0.2279 Y-13.8084
G01 X-0.1808 Y-13.7844
G01 X-0.1634 Y-13.7743
G01 X-0.1466 Y-13.7634
G01 X-0.1304 Y-13.7516
G01 X-0.1148 Y-13.7391
G01 X-0.0998 Y-13.7257
G01 X-0.0856 Y-13.7117
G01 X-0.0720 Y-13.6969
G01 X-0.0592 Y-13.6815
G01 X-0.0472 Y-13.6655
G01 X-0.0360 Y-13.6488
G01 X-0.0256 Y-13.6317
G01 X-0.0162 Y-13.6140
G01 X-0.0045 Y-13.5892
G01 X0.0026 Y-13.5792
G01 X0.0099 Y-13.5726
G01 X0.0205 Y-13.5665
G01 X0.0323 Y-13.5632
G01 X0.0446 Y-13.5626
G01 X20.4004 Y-13.5626
G01 X20.4396 Y-13.5606
G01 X20.4787 Y-13.5557
G01 X20.8921 Y-13.5658
G01 X21.3106 Y-13.5964
G01 X21.7272 Y-13.6475
G01 X22.1407 Y-13.7189
G01 X22.5502 Y-13.8106
G01 X22.9548 Y-13.9222
G01 X23.3534 Y-14.0535
G01 X23.7450 Y-14.2043
G01 X24.1288 Y-14.3741
G01 X24.5038 Y-14.5625
G01 X24.8691 Y-14.7691
G01 X25.2238 Y-14.9933
G01 X25.5671 Y-15.2347
G01 X25.8981 Y-15.4927
G01 X26.2251 Y-15.7748
G01 X26.5289 Y-16.0644
G01 X26.8180 Y-16.3686
G01 X27.0919 Y-16.6865
G01 X27.3425 Y-17.0077
G01 X27.5913 Y-17.3608
G01 X27.8092 Y-17.7050
G01 X28.0163 Y-18.0700
G01 X28.2105 Y-18.4558
G01 X28.3756 Y-18.8282
G01 X28.5269 Y-19.2197
G01 X28.6624 Y-19.6298
G01 X28.7711 Y-20.0224
G01 X28.8633 Y-20.4318
G01 X28.9371 Y-20.8574
G01 X28.9882 Y-21.2740
G01 X29.0182 Y-21.6802
G01 X29.0289 Y-22.1108
G01 X29.0289 Y-32.9754
G01 X29.0286 Y-32.9852
G01 X29.0266 Y-32.9948
G01 X29.0102 Y-33.0375
G01 X28.9998 Y-33.0748
G01 X28.9960 Y-33.0938
G01 X28.9911 Y-33.1323
G01 X28.9899 Y-33.1711
G01 X28.9926 Y-33.2097
G01 X28.9953 Y-33.2290
G01 X29.0035 Y-33.2669
G01 X29.0153 Y-33.3038
G01 X29.0307 Y-33.3394
G01 X29.0494 Y-33.3733
G01 X29.0713 Y-33.4053
G01 X29.0834 Y-33.4205
G01 X29.1097 Y-33.4489
G01 X29.1387 Y-33.4747
G01 X29.1700 Y-33.4976
G01 X29.1865 Y-33.5078
G01 X29.2208 Y-33.5259
G01 X29.2567 Y-33.5406
G01 X29.2938 Y-33.5517
G01 X29.3319 Y-33.5592
G01 X29.3511 Y-33.5615
G01 X29.3899 Y-33.5634
G01 X63.6444 Y-33.5634
G01 X63.6832 Y-33.5615
G01 X63.7024 Y-33.5592
G01 X63.7215 Y-33.5559
G01 X63.7592 Y-33.5466
G01 X63.7957 Y-33.5337
G01 X63.8135 Y-33.5259
G01 X63.8478 Y-33.5078
G01 X63.8643 Y-33.4976
G01 X63.8956 Y-33.4747
G01 X63.9246 Y-33.4489
G01 X63.9509 Y-33.4205
G01 X63.9630 Y-33.4053
G01 X63.9849 Y-33.3733
G01 X64.0036 Y-33.3394
G01 X64.0118 Y-33.3218
G01 X64.0254 Y-33.2855
G01 X64.0308 Y-33.2669
G01 X64.0390 Y-33.2290
G01 X64.0417 Y-33.2097
G01 X64.0444 Y-33.1711
G01 X64.0432 Y-33.1323
G01 X64.0383 Y-33.0938
G01 X64.0345 Y-33.0748
G01 X64.0241 Y-33.0375
G01 X64.0077 Y-32.9948
G01 X64.0057 Y-32.9852
G01 X64.0054 Y-32.9754
G01 X64.0054 Y-22.1843
G01 X64.0034 Y-22.1449
G01 X63.9990 Y-22.1121
G01 X63.9986 Y-22.0998
G01 X64.0086 Y-21.6931
G01 X64.0368 Y-21.2991
G01 X64.0848 Y-20.8950
G01 X64.1520 Y-20.4936
G01 X64.2382 Y-20.0959
G01 X64.3433 Y-19.7028
G01 X64.4708 Y-19.3038
G01 X64.6133 Y-18.9226
G01 X64.7737 Y-18.5486
G01 X64.9518 Y-18.1827
G01 X65.1471 Y-17.8257
G01 X65.3591 Y-17.4784
G01 X65.5805 Y-17.1512
G01 X65.8242 Y-16.8253
G01 X66.0831 Y-16.5113
G01 X66.3648 Y-16.2013
G01 X66.6528 Y-15.9138
G01 X66.9541 Y-15.6403
G01 X67.2681 Y-15.3814
G01 X67.5940 Y-15.1377
G01 X67.9312 Y-14.9099
G01 X68.2788 Y-14.6983
G01 X68.6361 Y-14.5035
G01 X68.9914 Y-14.3309
G01 X69.3654 Y-14.1705
G01 X69.7579 Y-14.0241
G01 X70.1456 Y-13.9005
G01 X70.5387 Y-13.7954
G01 X70.9364 Y-13.7092
G01 X71.3260 Y-13.6437
G01 X71.7300 Y-13.5951
G01 X72.1359 Y-13.5658
G01 X72.5536 Y-13.5557
G01 X85.2182 Y-13.5589
G01 X85.2569 Y-13.5570
G01 X85.2762 Y-13.5547
G01 X85.3142 Y-13.5472
G01 X85.3513 Y-13.5361
G01 X85.3694 Y-13.5293
G01 X85.3872 Y-13.5215
G01 X85.4056 Y-13.5123
G01 X85.4437 Y-13.5292
G01 X85.4696 Y-13.5386
G01 X85.4954 Y-13.5466
G01 X85.5215 Y-13.5534
G01 X85.5479 Y-13.5588
G01 X85.5819 Y-13.5638
G01 X85.6088 Y-13.5663
G01 X85.6456 Y-13.5676
G01 X90.2097 Y-13.5676
G01 X90.2463 Y-13.5663
G01 X90.2804 Y-13.5630
G01 X90.3069 Y-13.5589
G01 X90.3522 Y-13.5488
G01 X90.3849 Y-13.5389
G01 X90.4102 Y-13.5297
G01 X90.4527 Y-13.5110
G01 X90.4767 Y-13.4984
G01 X90.5138 Y-13.5239
G01 X90.5544 Y-13.5468
G01 X90.5855 Y-13.5615
G01 X90.6290 Y-13.5783
G01 X90.6618 Y-13.5883
G01 X90.7054 Y-13.5982
G01 X90.7413 Y-13.6035
G01 X90.7829 Y-13.6068
G01 X92.7894 Y-13.6073
G01 X92.8335 Y-13.6055
G01 X92.8798 Y-13.5998
G01 X92.9135 Y-13.5931
G01 X92.9396 Y-13.5863
G01 X92.9654 Y-13.5783
G01 X93.0089 Y-13.5615
G01 X93.0334 Y-13.5502
G01 X93.0573 Y-13.5376
G01 X93.0806 Y-13.5239
G01 X93.1031 Y-13.5090
G01 X93.1331 Y-13.4866
G01 X93.1531 Y-13.4986
G01 X93.1903 Y-13.5173
G01 X93.2130 Y-13.5267
G01 X93.2526 Y-13.5398
G01 X93.2764 Y-13.5457
G01 X93.3175 Y-13.5529
G01 X93.3419 Y-13.5553
G01 X93.3738 Y-13.5564
G01 X99.4161 Y-13.5563
G01 X99.4382 Y-13.5553
G01 X99.4602 Y-13.5532
G01 X99.4844 Y-13.5496
G01 X99.5061 Y-13.5452
G01 X99.5275 Y-13.5398
G01 X99.5671 Y-13.5267
G01 X99.5875 Y-13.5183
G01 X99.6075 Y-13.5089
G01 X99.6292 Y-13.4973
G01 X99.6481 Y-13.4859
G01 X99.6664 Y-13.4736
G01 X99.6841 Y-13.4604
G01 X99.7012 Y-13.4463
G01 X99.7314 Y-13.4176
G01 X99.7462 Y-13.4013
G01 X99.7603 Y-13.3842
G01 X99.7807 Y-13.3561
G01 X99.7985 Y-13.3271
G01 X99.8088 Y-13.3076
G01 X99.8182 Y-13.2876
G01 X99.8266 Y-13.2672
G01 X99.8340 Y-13.2464
G01 X99.8403 Y-13.2252
G01 X99.8456 Y-13.2038
G01 X99.8528 Y-13.1627
G01 X99.8552 Y-13.1383
G01 X99.8563 Y-13.1064
G01 X99.8563 Y-7.3120
G01 X99.8552 Y-7.2801
G01 X99.8528 Y-7.2557
G01 X99.8495 Y-7.2339
G01 X99.8403 Y-7.1932
G01 X99.8329 Y-7.1687
G01 X99.8182 Y-7.1308
G01 X99.8077 Y-7.1086
G01 X99.7972 Y-7.0890
G01 X99.8145 Y-7.0609
G01 X99.8308 Y-7.0304
G01 X99.8495 Y-6.9883
G01 X99.8612 Y-6.9554
G01 X99.8737 Y-6.9105
G01 X99.8804 Y-6.8768
G01 X99.8861 Y-6.8305
G01 X99.8878 Y-6.7962
G01 X99.8876 Y0.2554
G01 X99.8861 Y0.2823
G01 X99.8832 Y0.3092
G01 X99.8753 Y0.3551
G01 X99.8689 Y0.3814
G01 X99.8612 Y0.4072
G01 X99.8496 Y0.4396
G01 X99.8308 Y0.4822
G01 X99.8182 Y0.5061
G01 X99.8045 Y0.5294
G01 X99.7907 Y0.5503
G01 X99.7752 Y0.5718
G01 X99.7567 Y0.5947
G01 X99.7421 Y0.6112
G01 X99.7144 Y0.6391
G01 X99.6943 Y0.6571
G01 X99.6733 Y0.6741
G01 X99.6352 Y0.7009
G01 X99.6121 Y0.7150
G01 X99.5884 Y0.7278
G01 X99.5641 Y0.7396
G01 X99.5397 Y0.7499
G01 X99.5068 Y0.7616
G01 X99.4810 Y0.7693
G01 X99.4547 Y0.7757
G01 X99.4088 Y0.7836
G01 X99.3746 Y0.7870
G01 X99.3378 Y0.7883
G01 X77.5494 Y0.7883
G01 X77.5053 Y0.7865
G01 X77.4784 Y0.7836
G01 X77.4517 Y0.7795
G01 X77.4062 Y0.7693
G01 X77.3804 Y0.7616
G01 X77.3557 Y0.7530
G01 X77.3333 Y0.7692
G01 X77.2996 Y0.7894
G01 X77.2642 Y0.8062
G01 X77.2458 Y0.8132
G01 X77.2083 Y0.8246
G01 X77.1698 Y0.8323
G01 X77.1503 Y0.8347
G01 X77.1111 Y0.8366
G01 X56.7382 Y0.8366
G01 X56.6986 Y0.8346
G01 X56.6593 Y0.8287
G01 X56.6208 Y0.8190
G01 X56.5863 Y0.8066
G01 X56.5659 Y0.8139
G01 X56.5355 Y0.8235
G01 X56.5046 Y0.8315
G01 X56.4734 Y0.8380
G01 X56.4443 Y0.8427
G01 X56.4134 Y0.8462
G01 X56.3832 Y0.8482
G01 X56.3562 Y0.8487
G01 X30.8372 Y0.8487
G01 X30.8151 Y0.8483
G01 X30.7833 Y0.8464
G01 X30.7515 Y0.8430
G01 X30.7200 Y0.8380
G01 X30.6888 Y0.8315
G01 X30.6579 Y0.8235
G01 X30.6275 Y0.8139
G01 X30.5983 Y0.8032
G01 X30.5732 Y0.8132
G01 X30.5546 Y0.8194
G01 X30.5165 Y0.8289
G01 X30.4777 Y0.8347
G01 X30.4385 Y0.8366
G01 X-0.3969 Y0.8366
G01 X-0.4361 Y0.8347
G01 X-0.4749 Y0.8289
G01 X-0.5130 Y0.8194
G01 X-0.5500 Y0.8062
G01 X-0.5855 Y0.7894
G01 X-0.6191 Y0.7692
G01 X-0.6507 Y0.7458
G01 X-0.6797 Y0.7194
G01 X-0.7061 Y0.6904
G01 X-0.7295 Y0.6588
G01 X-0.7497 Y0.6252
G01 X-0.7665 Y0.5897
G01 X-0.7797 Y0.5527
G01 X-0.7892 Y0.5146
G01 X-0.7950 Y0.4758
G01 X-0.7969 Y0.4366
G00 X-0.7969 Y0.4366
G01 F80.00
G01 Z-0.3000
G01 F50.00
G01 X-0.7969 Y-13.4458
G01 X-0.7950 Y-13.4849
G01 X-0.7926 Y-13.5043
G01 X-0.7850 Y-13.5427
G01 X-0.7736 Y-13.5802
G01 X-0.7666 Y-13.5985
G01 X-0.7587 Y-13.6164
G01 X-0.7403 Y-13.6509
G01 X-0.7186 Y-13.6835
G01 X-0.7066 Y-13.6990
G01 X-0.6804 Y-13.7280
G01 X-0.6514 Y-13.7544
G01 X-0.6360 Y-13.7665
G01 X-0.6035 Y-13.7883
G01 X-0.5691 Y-13.8069
G01 X-0.5329 Y-13.8220
G01 X-0.5144 Y-13.8282
G01 X-0.4764 Y-13.8378
G01 X-0.4377 Y-13.8437
G01 X-0.3987 Y-13.8458
G01 X-0.3595 Y-13.8441
G01 X-0.3401 Y-13.8417
G01 X-0.3017 Y-13.8343
G01 X-0.2642 Y-13.8231
G01 X-0.2279 Y-13.8084
G01 X-0.1808 Y-13.7844
G01 X-0.1634 Y-13.7743
G01 X-0.1466 Y-13.7634
G01 X-0.1304 Y-13.7516
G01 X-0.1148 Y-13.7391
G01 X-0.0998 Y-13.7257
G01 X-0.0856 Y-13.7117
G01 X-0.0720 Y-13.6969
G01 X-0.0592 Y-13.6815
G01 X-0.0472 Y-13.6655
G01 X-0.0360 Y-13.6488
G01 X-0.0256 Y-13.6317
G01 X-0.0162 Y-13.6140
G01 X-0.0045 Y-13.5892
G01 X0.0026 Y-13.5792
G01 X0.0099 Y-13.5726
G01 X0.0205 Y-13.5665
G01 X0.0323 Y-13.5632
G01 X0.0446 Y-13.5626
G01 X20.4004 Y-13.5626
G01 X20.4396 Y-13.5606
G01 X20.4787 Y-13.5557
G01 X20.8921 Y-13.5658
G01 X21.3106 Y-13.5964
G01 X21.7272 Y-13.6475
G01 X22.1407 Y-13.7189
G01 X22.5502 Y-13.8106
G01 X22.9548 Y-13.9222
G01 X23.3534 Y-14.0535
G01 X23.7450 Y-14.2043
G01 X24.1288 Y-14.3741
G01 X24.5038 Y-14.5625
G01 X24.8691 Y-14.7691
G01 X25.2238 Y-14.9933
G01 X25.5671 Y-15.2347
G01 X25.8981 Y-15.4927
G01 X26.2251 Y-15.7748
G01 X26.5289 Y-16.0644
G01 X26.8180 Y-16.3686
G01 X27.0919 Y-16.6865
G01 X27.3425 Y-17.0077
G01 X27.5913 Y-17.3608
G01 X27.8092 Y-17.7050
G01 X28.0163 Y-18.0700
G01 X28.2105 Y-18.4558
G01 X28.3756 Y-18.8282
G01 X28.5269 Y-19.2197
G01 X28.6624 Y-19.6298
G01 X28.7711 Y-20.0224
G01 X28.8633 Y-20.4318
G01 X28.9371 Y-20.8574
G01 X28.9882 Y-21.2740
G01 X29.0182 Y-21.6802
G01 X29.0289 Y-22.1108
G01 X29.0289 Y-32.9754
G01 X29.0286 Y-32.9852
G01 X29.0266 Y-32.9948
G01 X29.0102 Y-33.0375
G01 X28.9998 Y-33.0748
G01 X28.9960 Y-33.0938
G01 X28.9911 Y-33.1323
G01 X28.9899 Y-33.1711
G01 X28.9926 Y-33.2097
G01 X28.9953 Y-33.2290
G01 X29.0035 Y-33.2669
G01 X29.0153 Y-33.3038
G01 X29.0307 Y-33.3394
G01 X29.0494 Y-33.3733
G01 X29.0713 Y-33.4053
G01 X29.0834 Y-33.4205
G01 X29.1097 Y-33.4489
G01 X29.1387 Y-33.4747
G01 X29.1700 Y-33.4976
G01 X29.1865 Y-33.5078
G01 X29.2208 Y-33.5259
G01 X29.2567 Y-33.5406
G01 X29.2938 Y-33.5517
G01 X29.3319 Y-33.5592
G01 X29.3511 Y-33.5615
G01 X29.3899 Y-33.5634
G01 X63.6444 Y-33.5634
G01 X63.6832 Y-33.5615
G01 X63.7024 Y-33.5592
G01 X63.7215 Y-33.5559
G01 X63.7592 Y-33.5466
G01 X63.7957 Y-33.5337
G01 X63.8135 Y-33.5259
G01 X63.8478 Y-33.5078
G01 X63.8643 Y-33.4976
G01 X63.8956 Y-33.4747
G01 X63.9246 Y-33.4489
G01 X63.9509 Y-33.4205
G01 X63.9630 Y-33.4053
G01 X63.9849 Y-33.3733
G01 X64.0036 Y-33.3394
G01 X64.0118 Y-33.3218
G01 X64.0254 Y-33.2855
G01 X64.0308 Y-33.2669
G01 X64.0390 Y-33.2290
G01 X64.0417 Y-33.2097
G01 X64.0444 Y-33.1711
G01 X64.0432 Y-33.1323
G01 X64.0383 Y-33.0938
G01 X64.0345 Y-33.0748
G01 X64.0241 Y-33.0375
G01 X64.0077 Y-32.9948
G01 X64.0057 Y-32.9852
G01 X64.0054 Y-32.9754
G01 X64.0054 Y-22.1843
G01 X64.0034 Y-22.1449
G01 X63.9990 Y-22.1121
G01 X63.9986 Y-22.0998
G01 X64.0086 Y-21.6931
G01 X64.0368 Y-21.2991
G01 X64.0848 Y-20.8950
G01 X64.1520 Y-20.4936
G01 X64.2382 Y-20.0959
G01 X64.3433 Y-19.7028
G01 X64.4708 Y-19.3038
G01 X64.6133 Y-18.9226
G01 X64.7737 Y-18.5486
G01 X64.9518 Y-18.1827
G01 X65.1471 Y-17.8257
G01 X65.3591 Y-17.4784
G01 X65.5805 Y-17.1512
G01 X65.8242 Y-16.8253
G01 X66.0831 Y-16.5113
G01 X66.3648 Y-16.2013
G01 X66.6528 Y-15.9138
G01 X66.9541 Y-15.6403
G01 X67.2681 Y-15.3814
G01 X67.5940 Y-15.1377
G01 X67.9312 Y-14.9099
G01 X68.2788 Y-14.6983
G01 X68.6361 Y-14.5035
G01 X68.9914 Y-14.3309
G01 X69.3654 Y-14.1705
G01 X69.7579 Y-14.0241
G01 X70.1456 Y-13.9005
G01 X70.5387 Y-13.7954
G01 X70.9364 Y-13.7092
G01 X71.3260 Y-13.6437
G01 X71.7300 Y-13.5951
G01 X72.1359 Y-13.5658
G01 X72.5536 Y-13.5557
G01 X85.2182 Y-13.5589
G01 X85.2569 Y-13.5570
G01 X85.2762 Y-13.5547
G01 X85.3142 Y-13.5472
G01 X85.3513 Y-13.5361
G01 X85.3694 Y-13.5293
G01 X85.3872 Y-13.5215
G01 X85.4056 Y-13.5123
G01 X85.4437 Y-13.5292
G01 X85.4696 Y-13.5386
G01 X85.4954 Y-13.5466
G01 X85.5215 Y-13.5534
G01 X85.5479 Y-13.5588
G01 X85.5819 Y-13.5638
G01 X85.6088 Y-13.5663
G01 X85.6456 Y-13.5676
G01 X90.2097 Y-13.5676
G01 X90.2463 Y-13.5663
G01 X90.2804 Y-13.5630
G01 X90.3069 Y-13.5589
G01 X90.3522 Y-13.5488
G01 X90.3849 Y-13.5389
G01 X90.4102 Y-13.5297
G01 X90.4527 Y-13.5110
G01 X90.4767 Y-13.4984
G01 X90.5138 Y-13.5239
G01 X90.5544 Y-13.5468
G01 X90.5855 Y-13.5615
G01 X90.6290 Y-13.5783
G01 X90.6618 Y-13.5883
G01 X90.7054 Y-13.5982
G01 X90.7413 Y-13.6035
G01 X90.7829 Y-13.6068
G01 X92.7894 Y-13.6073
G01 X92.8335 Y-13.6055
G01 X92.8798 Y-13.5998
G01 X92.9135 Y-13.5931
G01 X92.9396 Y-13.5863
G01 X92.9654 Y-13.5783
G01 X93.0089 Y-13.5615
G01 X93.0334 Y-13.5502
G01 X93.0573 Y-13.5376
G01 X93.0806 Y-13.5239
G01 X93.1031 Y-13.5090
G01 X93.1331 Y-13.4866
G01 X93.1531 Y-13.4986
G01 X93.1903 Y-13.5173
G01 X93.2130 Y-13.5267
G01 X93.2526 Y-13.5398
G01 X93.2764 Y-13.5457
G01 X93.3175 Y-13.5529
G01 X93.3419 Y-13.5553
G01 X93.3738 Y-13.5564
G01 X99.4161 Y-13.5563
G01 X99.4382 Y-13.5553
G01 X99.4602 Y-13.5532
G01 X99.4844 Y-13.5496
G01 X99.5061 Y-13.5452
G01 X99.5275 Y-13.5398
G01 X99.5671 Y-13.5267
G01 X99.5875 Y-13.5183
G01 X99.6075 Y-13.5089
G01 X99.6292 Y-13.4973
G01 X99.6481 Y-13.4859
G01 X99.6664 Y-13.4736
G01 X99.6841 Y-13.4604
G01 X99.7012 Y-13.4463
G01 X99.7314 Y-13.4176
G01 X99.7462 Y-13.4013
G01 X99.7603 Y-13.3842
G01 X99.7807 Y-13.3561
G01 X99.7985 Y-13.3271
G01 X99.8088 Y-13.3076
G01 X99.8182 Y-13.2876
G01 X99.8266 Y-13.2672
G01 X99.8340 Y-13.2464
G01 X99.8403 Y-13.2252
G01 X99.8456 Y-13.2038
G01 X99.8528 Y-13.1627
G01 X99.8552 Y-13.1383
G01 X99.8563 Y-13.1064
G01 X99.8563 Y-7.3120
G01 X99.8552 Y-7.2801
G01 X99.8528 Y-7.2557
G01 X99.8495 Y-7.2339
G01 X99.8403 Y-7.1932
G01 X99.8329 Y-7.1687
G01 X99.8182 Y-7.1308
G01 X99.8077 Y-7.1086
G01 X99.7972 Y-7.0890
G01 X99.8145 Y-7.0609
G01 X99.8308 Y-7.0304
G01 X99.8495 Y-6.9883
G01 X99.8612 Y-6.9554
G01 X99.8737 Y-6.9105
G01 X99.8804 Y-6.8768
G01 X99.8861 Y-6.8305
G01 X99.8878 Y-6.7962
G01 X99.8876 Y0.2554
G01 X99.8861 Y0.2823
G01 X99.8832 Y0.3092
G01 X99.8753 Y0.3551
G01 X99.8689 Y0.3814
G01 X99.8612 Y0.4072
G01 X99.8496 Y0.4396
G01 X99.8308 Y0.4822
G01 X99.8182 Y0.5061
G01 X99.8045 Y0.5294
G01 X99.7907 Y0.5503
G01 X99.7752 Y0.5718
G01 X99.7567 Y0.5947
G01 X99.7421 Y0.6112
G01 X99.7144 Y0.6391
G01 X99.6943 Y0.6571
G01 X99.6733 Y0.6741
G01 X99.6352 Y0.7009
G01 X99.6121 Y0.7150
G01 X99.5884 Y0.7278
G01 X99.5641 Y0.7396
G01 X99.5397 Y0.7499
G01 X99.5068 Y0.7616
G01 X99.4810 Y0.7693
G01 X99.4547 Y0.7757
G01 X99.4088 Y0.7836
G01 X99.3746 Y0.7870
G01 X99.3378 Y0.7883
G01 X77.5494 Y0.7883
G01 X77.5053 Y0.7865
G01 X77.4784 Y0.7836
G01 X77.4517 Y0.7795
G01 X77.4062 Y0.7693
G01 X77.3804 Y0.7616
G01 X77.3557 Y0.7530
G01 X77.3333 Y0.7692
G01 X77.2996 Y0.7894
G01 X77.2642 Y0.8062
G01 X77.2458 Y0.8132
G01 X77.2083 Y0.8246
G01 X77.1698 Y0.8323
G01 X77.1503 Y0.8347
G01 X77.1111 Y0.8366
G01 X56.7382 Y0.8366
G01 X56.6986 Y0.8346
G01 X56.6593 Y0.8287
G01 X56.6208 Y0.8190
G01 X56.5863 Y0.8066
G01 X56.5659 Y0.8139
G01 X56.5355 Y0.8235
G01 X56.5046 Y0.8315
G01 X56.4734 Y0.8380
G01 X56.4443 Y0.8427
G01 X56.4134 Y0.8462
G01 X56.3832 Y0.8482
G01 X56.3562 Y0.8487
G01 X30.8372 Y0.8487
G01 X30.8151 Y0.8483
G01 X30.7833 Y0.8464
G01 X30.7515 Y0.8430
G01 X30.7200 Y0.8380
G01 X30.6888 Y0.8315
G01 X30.6579 Y0.8235
G01 X30.6275 Y0.8139
G01 X30.5983 Y0.8032
G01 X30.5732 Y0.8132
G01 X30.5546 Y0.8194
G01 X30.5165 Y0.8289
G01 X30.4777 Y0.8347
G01 X30.4385 Y0.8366
G01 X-0.3969 Y0.8366
G01 X-0.4361 Y0.8347
G01 X-0.4749 Y0.8289
G01 X-0.5130 Y0.8194
G01 X-0.5500 Y0.8062
G01 X-0.5855 Y0.7894
G01 X-0.6191 Y0.7692
G01 X-0.6507 Y0.7458
G01 X-0.6797 Y0.7194
G01 X-0.7061 Y0.6904
G01 X-0.7295 Y0.6588
G01 X-0.7497 Y0.6252
G01 X-0.7665 Y0.5897
G01 X-0.7797 Y0.5527
G01 X-0.7892 Y0.5146
G01 X-0.7950 Y0.4758
G01 X-0.7969 Y0.4366
G00 X-0.7969 Y0.4366
G01 F80.00
G01 Z-0.3500
G01 F50.00
G01 X-0.7969 Y-13.4458
G01 X-0.7950 Y-13.4849
G01 X-0.7926 Y-13.5043
G01 X-0.7850 Y-13.5427
G01 X-0.7736 Y-13.5802
G01 X-0.7666 Y-13.5985
G01 X-0.7587 Y-13.6164
G01 X-0.7403 Y-13.6509
G01 X-0.7186 Y-13.6835
G01 X-0.7066 Y-13.6990
G01 X-0.6804 Y-13.7280
G01 X-0.6514 Y-13.7544
G01 X-0.6360 Y-13.7665
G01 X-0.6035 Y-13.7883
G01 X-0.5691 Y-13.8069
G01 X-0.5329 Y-13.8220
G01 X-0.5144 Y-13.8282
G01 X-0.4764 Y-13.8378
G01 X-0.4377 Y-13.8437
G01 X-0.3987 Y-13.8458
G01 X-0.3595 Y-13.8441
G01 X-0.3401 Y-13.8417
G01 X-0.3017 Y-13.8343
G01 X-0.2642 Y-13.8231
G01 X-0.2279 Y-13.8084
G01 X-0.1808 Y-13.7844
G01 X-0.1634 Y-13.7743
G01 X-0.1466 Y-13.7634
G01 X-0.1304 Y-13.7516
G01 X-0.1148 Y-13.7391
G01 X-0.0998 Y-13.7257
G01 X-0.0856 Y-13.7117
G01 X-0.0720 Y-13.6969
G01 X-0.0592 Y-13.6815
G01 X-0.0472 Y-13.6655
G01 X-0.0360 Y-13.6488
G01 X-0.0256 Y-13.6317
G01 X-0.0162 Y-13.6140
G01 X-0.0045 Y-13.5892
G01 X0.0026 Y-13.5792
G01 X0.0099 Y-13.5726
G01 X0.0205 Y-13.5665
G01 X0.0323 Y-13.5632
G01 X0.0446 Y-13.5626
G01 X20.4004 Y-13.5626
G01 X20.4396 Y-13.5606
G01 X20.4787 Y-13.5557
G01 X20.8921 Y-13.5658
G01 X21.3106 Y-13.5964
G01 X21.7272 Y-13.6475
G01 X22.1407 Y-13.7189
G01 X22.5502 Y-13.8106
G01 X22.9548 Y-13.9222
G01 X23.3534 Y-14.0535
G01 X23.7450 Y-14.2043
G01 X24.1288 Y-14.3741
G01 X24.5038 Y-14.5625
G01 X24.8691 Y-14.7691
G01 X25.2238 Y-14.9933
G01 X25.5671 Y-15.2347
G01 X25.8981 Y-15.4927
G01 X26.2251 Y-15.7748
G01 X26.5289 Y-16.0644
G01 X26.8180 Y-16.3686
G01 X27.0919 Y-16.6865
G01 X27.3425 Y-17.0077
G01 X27.5913 Y-17.3608
G01 X27.8092 Y-17.7050
G01 X28.0163 Y-18.0700
G01 X28.2105 Y-18.4558
G01 X28.3756 Y-18.8282
G01 X28.5269 Y-19.2197
G01 X28.6624 Y-19.6298
G01 X28.7711 Y-20.0224
G01 X28.8633 Y-20.4318
G01 X28.9371 Y-20.8574
G01 X28.9882 Y-21.2740
G01 X29.0182 Y-21.6802
G01 X29.0289 Y-22.1108
G01 X29.0289 Y-32.9754
G01 X29.0286 Y-32.9852
G01 X29.0266 Y-32.9948
G01 X29.0102 Y-33.0375
G01 X28.9998 Y-33.0748
G01 X28.9960 Y-33.0938
G01 X28.9911 Y-33.1323
G01 X28.9899 Y-33.1711
G01 X28.9926 Y-33.2097
G01 X28.9953 Y-33.2290
G01 X29.0035 Y-33.2669
G01 X29.0153 Y-33.3038
G01 X29.0307 Y-33.3394
G01 X29.0494 Y-33.3733
G01 X29.0713 Y-33.4053
G01 X29.0834 Y-33.4205
G01 X29.1097 Y-33.4489
G01 X29.1387 Y-33.4747
G01 X29.1700 Y-33.4976
G01 X29.1865 Y-33.5078
G01 X29.2208 Y-33.5259
G01 X29.2567 Y-33.5406
G01 X29.2938 Y-33.5517
G01 X29.3319 Y-33.5592
G01 X29.3511 Y-33.5615
G01 X29.3899 Y-33.5634
G01 X63.6444 Y-33.5634
G01 X63.6832 Y-33.5615
G01 X63.7024 Y-33.5592
G01 X63.7215 Y-33.5559
G01 X63.7592 Y-33.5466
G01 X63.7957 Y-33.5337
G01 X63.8135 Y-33.5259
G01 X63.8478 Y-33.5078
G01 X63.8643 Y-33.4976
G01 X63.8956 Y-33.4747
G01 X63.9246 Y-33.4489
G01 X63.9509 Y-33.4205
G01 X63.9630 Y-33.4053
G01 X63.9849 Y-33.3733
G01 X64.0036 Y-33.3394
G01 X64.0118 Y-33.3218
G01 X64.0254 Y-33.2855
G01 X64.0308 Y-33.2669
G01 X64.0390 Y-33.2290
G01 X64.0417 Y-33.2097
G01 X64.0444 Y-33.1711
G01 X64.0432 Y-33.1323
G01 X64.0383 Y-33.0938
G01 X64.0345 Y-33.0748
G01 X64.0241 Y-33.0375
G01 X64.0077 Y-32.9948
G01 X64.0057 Y-32.9852
G01 X64.0054 Y-32.9754
G01 X64.0054 Y-22.1843
G01 X64.0034 Y-22.1449
G01 X63.9990 Y-22.1121
G01 X63.9986 Y-22.0998
G01 X64.0086 Y-21.6931
G01 X64.0368 Y-21.2991
G01 X64.0848 Y-20.8950
G01 X64.1520 Y-20.4936
G01 X64.2382 Y-20.0959
G01 X64.3433 Y-19.7028
G01 X64.4708 Y-19.3038
G01 X64.6133 Y-18.9226
G01 X64.7737 Y-18.5486
G01 X64.9518 Y-18.1827
G01 X65.1471 Y-17.8257
G01 X65.3591 Y-17.4784
G01 X65.5805 Y-17.1512
G01 X65.8242 Y-16.8253
G01 X66.0831 Y-16.5113
G01 X66.3648 Y-16.2013
G01 X66.6528 Y-15.9138
G01 X66.9541 Y-15.6403
G01 X67.2681 Y-15.3814
G01 X67.5940 Y-15.1377
G01 X67.9312 Y-14.9099
G01 X68.2788 Y-14.6983
G01 X68.6361 Y-14.5035
G01 X68.9914 Y-14.3309
G01 X69.3654 Y-14.1705
G01 X69.7579 Y-14.0241
G01 X70.1456 Y-13.9005
G01 X70.5387 Y-13.7954
G01 X70.9364 Y-13.7092
G01 X71.3260 Y-13.6437
G01 X71.7300 Y-13.5951
G01 X72.1359 Y-13.5658
G01 X72.5536 Y-13.5557
G01 X85.2182 Y-13.5589
G01 X85.2569 Y-13.5570
G01 X85.2762 Y-13.5547
G01 X85.3142 Y-13.5472
G01 X85.3513 Y-13.5361
G01 X85.3694 Y-13.5293
G01 X85.3872 Y-13.5215
G01 X85.4056 Y-13.5123
G01 X85.4437 Y-13.5292
G01 X85.4696 Y-13.5386
G01 X85.4954 Y-13.5466
G01 X85.5215 Y-13.5534
G01 X85.5479 Y-13.5588
G01 X85.5819 Y-13.5638
G01 X85.6088 Y-13.5663
G01 X85.6456 Y-13.5676
G01 X90.2097 Y-13.5676
G01 X90.2463 Y-13.5663
G01 X90.2804 Y-13.5630
G01 X90.3069 Y-13.5589
G01 X90.3522 Y-13.5488
G01 X90.3849 Y-13.5389
G01 X90.4102 Y-13.5297
G01 X90.4527 Y-13.5110
G01 X90.4767 Y-13.4984
G01 X90.5138 Y-13.5239
G01 X90.5544 Y-13.5468
G01 X90.5855 Y-13.5615
G01 X90.6290 Y-13.5783
G01 X90.6618 Y-13.5883
G01 X90.7054 Y-13.5982
G01 X90.7413 Y-13.6035
G01 X90.7829 Y-13.6068
G01 X92.7894 Y-13.6073
G01 X92.8335 Y-13.6055
G01 X92.8798 Y-13.5998
G01 X92.9135 Y-13.5931
G01 X92.9396 Y-13.5863
G01 X92.9654 Y-13.5783
G01 X93.0089 Y-13.5615
G01 X93.0334 Y-13.5502
G01 X93.0573 Y-13.5376
G01 X93.0806 Y-13.5239
G01 X93.1031 Y-13.5090
G01 X93.1331 Y-13.4866
G01 X93.1531 Y-13.4986
G01 X93.1903 Y-13.5173
G01 X93.2130 Y-13.5267
G01 X93.2526 Y-13.5398
G01 X93.2764 Y-13.5457
G01 X93.3175 Y-13.5529
G01 X93.3419 Y-13.5553
G01 X93.3738 Y-13.5564
G01 X99.4161 Y-13.5563
G01 X99.4382 Y-13.5553
G01 X99.4602 Y-13.5532
G01 X99.4844 Y-13.5496
G01 X99.5061 Y-13.5452
G01 X99.5275 Y-13.5398
G01 X99.5671 Y-13.5267
G01 X99.5875 Y-13.5183
G01 X99.6075 Y-13.5089
G01 X99.6292 Y-13.4973
G01 X99.6481 Y-13.4859
G01 X99.6664 Y-13.4736
G01 X99.6841 Y-13.4604
G01 X99.7012 Y-13.4463
G01 X99.7314 Y-13.4176
G01 X99.7462 Y-13.4013
G01 X99.7603 Y-13.3842
G01 X99.7807 Y-13.3561
G01 X99.7985 Y-13.3271
G01 X99.8088 Y-13.3076
G01 X99.8182 Y-13.2876
G01 X99.8266 Y-13.2672
G01 X99.8340 Y-13.2464
G01 X99.8403 Y-13.2252
G01 X99.8456 Y-13.2038
G01 X99.8528 Y-13.1627
G01 X99.8552 Y-13.1383
G01 X99.8563 Y-13.1064
G01 X99.8563 Y-7.3120
G01 X99.8552 Y-7.2801
G01 X99.8528 Y-7.2557
G01 X99.8495 Y-7.2339
G01 X99.8403 Y-7.1932
G01 X99.8329 Y-7.1687
G01 X99.8182 Y-7.1308
G01 X99.8077 Y-7.1086
G01 X99.7972 Y-7.0890
G01 X99.8145 Y-7.0609
G01 X99.8308 Y-7.0304
G01 X99.8495 Y-6.9883
G01 X99.8612 Y-6.9554
G01 X99.8737 Y-6.9105
G01 X99.8804 Y-6.8768
G01 X99.8861 Y-6.8305
G01 X99.8878 Y-6.7962
G01 X99.8876 Y0.2554
G01 X99.8861 Y0.2823
G01 X99.8832 Y0.3092
G01 X99.8753 Y0.3551
G01 X99.8689 Y0.3814
G01 X99.8612 Y0.4072
G01 X99.8496 Y0.4396
G01 X99.8308 Y0.4822
G01 X99.8182 Y0.5061
G01 X99.8045 Y0.5294
G01 X99.7907 Y0.5503
G01 X99.7752 Y0.5718
G01 X99.7567 Y0.5947
G01 X99.7421 Y0.6112
G01 X99.7144 Y0.6391
G01 X99.6943 Y0.6571
G01 X99.6733 Y0.6741
G01 X99.6352 Y0.7009
G01 X99.6121 Y0.7150
G01 X99.5884 Y0.7278
G01 X99.5641 Y0.7396
G01 X99.5397 Y0.7499
G01 X99.5068 Y0.7616
G01 X99.4810 Y0.7693
G01 X99.4547 Y0.7757
G01 X99.4088 Y0.7836
G01 X99.3746 Y0.7870
G01 X99.3378 Y0.7883
G01 X77.5494 Y0.7883
G01 X77.5053 Y0.7865
G01 X77.4784 Y0.7836
G01 X77.4517 Y0.7795
G01 X77.4062 Y0.7693
G01 X77.3804 Y0.7616
G01 X77.3557 Y0.7530
G01 X77.3333 Y0.7692
G01 X77.2996 Y0.7894
G01 X77.2642 Y0.8062
G01 X77.2458 Y0.8132
G01 X77.2083 Y0.8246
G01 X77.1698 Y0.8323
G01 X77.1503 Y0.8347
G01 X77.1111 Y0.8366
G01 X56.7382 Y0.8366
G01 X56.6986 Y0.8346
G01 X56.6593 Y0.8287
G01 X56.6208 Y0.8190
G01 X56.5863 Y0.8066
G01 X56.5659 Y0.8139
G01 X56.5355 Y0.8235
G01 X56.5046 Y0.8315
G01 X56.4734 Y0.8380
G01 X56.4443 Y0.8427
G01 X56.4134 Y0.8462
G01 X56.3832 Y0.8482
G01 X56.3562 Y0.8487
G01 X30.8372 Y0.8487
G01 X30.8151 Y0.8483
G01 X30.7833 Y0.8464
G01 X30.7515 Y0.8430
G01 X30.7200 Y0.8380
G01 X30.6888 Y0.8315
G01 X30.6579 Y0.8235
G01 X30.6275 Y0.8139
G01 X30.5983 Y0.8032
G01 X30.5732 Y0.8132
G01 X30.5546 Y0.8194
G01 X30.5165 Y0.8289
G01 X30.4777 Y0.8347
G01 X30.4385 Y0.8366
G01 X-0.3969 Y0.8366
G01 X-0.4361 Y0.8347
G01 X-0.4749 Y0.8289
G01 X-0.5130 Y0.8194
G01 X-0.5500 Y0.8062
G01 X-0.5855 Y0.7894
G01 X-0.6191 Y0.7692
G01 X-0.6507 Y0.7458
G01 X-0.6797 Y0.7194
G01 X-0.7061 Y0.6904
G01 X-0.7295 Y0.6588
G01 X-0.7497 Y0.6252
G01 X-0.7665 Y0.5897
G01 X-0.7797 Y0.5527
G01 X-0.7892 Y0.5146
G01 X-0.7950 Y0.4758
G01 X-0.7969 Y0.4366
G00 X-0.7969 Y0.4366
G01 F80.00
G01 Z-0.4000
G01 F50.00
G01 X-0.7969 Y-13.4458
G01 X-0.7950 Y-13.4849
G01 X-0.7926 Y-13.5043
G01 X-0.7850 Y-13.5427
G01 X-0.7736 Y-13.5802
G01 X-0.7666 Y-13.5985
G01 X-0.7587 Y-13.6164
G01 X-0.7403 Y-13.6509
G01 X-0.7186 Y-13.6835
G01 X-0.7066 Y-13.6990
G01 X-0.6804 Y-13.7280
G01 X-0.6514 Y-13.7544
G01 X-0.6360 Y-13.7665
G01 X-0.6035 Y-13.7883
G01 X-0.5691 Y-13.8069
G01 X-0.5329 Y-13.8220
G01 X-0.5144 Y-13.8282
G01 X-0.4764 Y-13.8378
G01 X-0.4377 Y-13.8437
G01 X-0.3987 Y-13.8458
G01 X-0.3595 Y-13.8441
G01 X-0.3401 Y-13.8417
G01 X-0.3017 Y-13.8343
G01 X-0.2642 Y-13.8231
G01 X-0.2279 Y-13.8084
G01 X-0.1808 Y-13.7844
G01 X-0.1634 Y-13.7743
G01 X-0.1466 Y-13.7634
G01 X-0.1304 Y-13.7516
G01 X-0.1148 Y-13.7391
G01 X-0.0998 Y-13.7257
G01 X-0.0856 Y-13.7117
G01 X-0.0720 Y-13.6969
G01 X-0.0592 Y-13.6815
G01 X-0.0472 Y-13.6655
G01 X-0.0360 Y-13.6488
G01 X-0.0256 Y-13.6317
G01 X-0.0162 Y-13.6140
G01 X-0.0045 Y-13.5892
G01 X0.0026 Y-13.5792
G01 X0.0099 Y-13.5726
G01 X0.0205 Y-13.5665
G01 X0.0323 Y-13.5632
G01 X0.0446 Y-13.5626
G01 X20.4004 Y-13.5626
G01 X20.4396 Y-13.5606
G01 X20.4787 Y-13.5557
G01 X20.8921 Y-13.5658
G01 X21.3106 Y-13.5964
G01 X21.7272 Y-13.6475
G01 X22.1407 Y-13.7189
G01 X22.5502 Y-13.8106
G01 X22.9548 Y-13.9222
G01 X23.3534 Y-14.0535
G01 X23.7450 Y-14.2043
G01 X24.1288 Y-14.3741
G01 X24.5038 Y-14.5625
G01 X24.8691 Y-14.7691
G01 X25.2238 Y-14.9933
G01 X25.5671 Y-15.2347
G01 X25.8981 Y-15.4927
G01 X26.2251 Y-15.7748
G01 X26.5289 Y-16.0644
G01 X26.8180 Y-16.3686
G01 X27.0919 Y-16.6865
G01 X27.3425 Y-17.0077
G01 X27.5913 Y-17.3608
G01 X27.8092 Y-17.7050
G01 X28.0163 Y-18.0700
G01 X28.2105 Y-18.4558
G01 X28.3756 Y-18.8282
G01 X28.5269 Y-19.2197
G01 X28.6624 Y-19.6298
G01 X28.7711 Y-20.0224
G01 X28.8633 Y-20.4318
G01 X28.9371 Y-20.8574
G01 X28.9882 Y-21.2740
G01 X29.0182 Y-21.6802
G01 X29.0289 Y-22.1108
G01 X29.0289 Y-32.9754
G01 X29.0286 Y-32.9852
G01 X29.0266 Y-32.9948
G01 X29.0102 Y-33.0375
G01 X28.9998 Y-33.0748
G01 X28.9960 Y-33.0938
G01 X28.9911 Y-33.1323
G01 X28.9899 Y-33.1711
G01 X28.9926 Y-33.2097
G01 X28.9953 Y-33.2290
G01 X29.0035 Y-33.2669
G01 X29.0153 Y-33.3038
G01 X29.0307 Y-33.3394
G01 X29.0494 Y-33.3733
G01 X29.0713 Y-33.4053
G01 X29.0834 Y-33.4205
G01 X29.1097 Y-33.4489
G01 X29.1387 Y-33.4747
G01 X29.1700 Y-33.4976
G01 X29.1865 Y-33.5078
G01 X29.2208 Y-33.5259
G01 X29.2567 Y-33.5406
G01 X29.2938 Y-33.5517
G01 X29.3319 Y-33.5592
G01 X29.3511 Y-33.5615
G01 X29.3899 Y-33.5634
G01 X63.6444 Y-33.5634
G01 X63.6832 Y-33.5615
G01 X63.7024 Y-33.5592
G01 X63.7215 Y-33.5559
G01 X63.7592 Y-33.5466
G01 X63.7957 Y-33.5337
G01 X63.8135 Y-33.5259
G01 X63.8478 Y-33.5078
G01 X63.8643 Y-33.4976
G01 X63.8956 Y-33.4747
G01 X63.9246 Y-33.4489
G01 X63.9509 Y-33.4205
G01 X63.9630 Y-33.4053
G01 X63.9849 Y-33.3733
G01 X64.0036 Y-33.3394
G01 X64.0118 Y-33.3218
G01 X64.0254 Y-33.2855
G01 X64.0308 Y-33.2669
G01 X64.0390 Y-33.2290
G01 X64.0417 Y-33.2097
G01 X64.0444 Y-33.1711
G01 X64.0432 Y-33.1323
G01 X64.0383 Y-33.0938
G01 X64.0345 Y-33.0748
G01 X64.0241 Y-33.0375
G01 X64.0077 Y-32.9948
G01 X64.0057 Y-32.9852
G01 X64.0054 Y-32.9754
G01 X64.0054 Y-22.1843
G01 X64.0034 Y-22.1449
G01 X63.9990 Y-22.1121
G01 X63.9986 Y-22.0998
G01 X64.0086 Y-21.6931
G01 X64.0368 Y-21.2991
G01 X64.0848 Y-20.8950
G01 X64.1520 Y-20.4936
G01 X64.2382 Y-20.0959
G01 X64.3433 Y-19.7028
G01 X64.4708 Y-19.3038
G01 X64.6133 Y-18.9226
G01 X64.7737 Y-18.5486
G01 X64.9518 Y-18.1827
G01 X65.1471 Y-17.8257
G01 X65.3591 Y-17.4784
G01 X65.5805 Y-17.1512
G01 X65.8242 Y-16.8253
G01 X66.0831 Y-16.5113
G01 X66.3648 Y-16.2013
G01 X66.6528 Y-15.9138
G01 X66.9541 Y-15.6403
G01 X67.2681 Y-15.3814
G01 X67.5940 Y-15.1377
G01 X67.9312 Y-14.9099
G01 X68.2788 Y-14.6983
G01 X68.6361 Y-14.5035
G01 X68.9914 Y-14.3309
G01 X69.3654 Y-14.1705
G01 X69.7579 Y-14.0241
G01 X70.1456 Y-13.9005
G01 X70.5387 Y-13.7954
G01 X70.9364 Y-13.7092
G01 X71.3260 Y-13.6437
G01 X71.7300 Y-13.5951
G01 X72.1359 Y-13.5658
G01 X72.5536 Y-13.5557
G01 X85.2182 Y-13.5589
G01 X85.2569 Y-13.5570
G01 X85.2762 Y-13.5547
G01 X85.3142 Y-13.5472
G01 X85.3513 Y-13.5361
G01 X85.3694 Y-13.5293
G01 X85.3872 Y-13.5215
G01 X85.4056 Y-13.5123
G01 X85.4437 Y-13.5292
G01 X85.4696 Y-13.5386
G01 X85.4954 Y-13.5466
G01 X85.5215 Y-13.5534
G01 X85.5479 Y-13.5588
G01 X85.5819 Y-13.5638
G01 X85.6088 Y-13.5663
G01 X85.6456 Y-13.5676
G01 X90.2097 Y-13.5676
G01 X90.2463 Y-13.5663
G01 X90.2804 Y-13.5630
G01 X90.3069 Y-13.5589
G01 X90.3522 Y-13.5488
G01 X90.3849 Y-13.5389
G01 X90.4102 Y-13.5297
G01 X90.4527 Y-13.5110
G01 X90.4767 Y-13.4984
G01 X90.5138 Y-13.5239
G01 X90.5544 Y-13.5468
G01 X90.5855 Y-13.5615
G01 X90.6290 Y-13.5783
G01 X90.6618 Y-13.5883
G01 X90.7054 Y-13.5982
G01 X90.7413 Y-13.6035
G01 X90.7829 Y-13.6068
G01 X92.7894 Y-13.6073
G01 X92.8335 Y-13.6055
G01 X92.8798 Y-13.5998
G01 X92.9135 Y-13.5931
G01 X92.9396 Y-13.5863
G01 X92.9654 Y-13.5783
G01 X93.0089 Y-13.5615
G01 X93.0334 Y-13.5502
G01 X93.0573 Y-13.5376
G01 X93.0806 Y-13.5239
G01 X93.1031 Y-13.5090
G01 X93.1331 Y-13.4866
G01 X93.1531 Y-13.4986
G01 X93.1903 Y-13.5173
G01 X93.2130 Y-13.5267
G01 X93.2526 Y-13.5398
G01 X93.2764 Y-13.5457
G01 X93.3175 Y-13.5529
G01 X93.3419 Y-13.5553
G01 X93.3738 Y-13.5564
G01 X99.4161 Y-13.5563
G01 X99.4382 Y-13.5553
G01 X99.4602 Y-13.5532
G01 X99.4844 Y-13.5496
G01 X99.5061 Y-13.5452
G01 X99.5275 Y-13.5398
G01 X99.5671 Y-13.5267
G01 X99.5875 Y-13.5183
G01 X99.6075 Y-13.5089
G01 X99.6292 Y-13.4973
G01 X99.6481 Y-13.4859
G01 X99.6664 Y-13.4736
G01 X99.6841 Y-13.4604
G01 X99.7012 Y-13.4463
G01 X99.7314 Y-13.4176
G01 X99.7462 Y-13.4013
G01 X99.7603 Y-13.3842
G01 X99.7807 Y-13.3561
G01 X99.7985 Y-13.3271
G01 X99.8088 Y-13.3076
G01 X99.8182 Y-13.2876
G01 X99.8266 Y-13.2672
G01 X99.8340 Y-13.2464
G01 X99.8403 Y-13.2252
G01 X99.8456 Y-13.2038
G01 X99.8528 Y-13.1627
G01 X99.8552 Y-13.1383
G01 X99.8563 Y-13.1064
G01 X99.8563 Y-7.3120
G01 X99.8552 Y-7.2801
G01 X99.8528 Y-7.2557
G01 X99.8495 Y-7.2339
G01 X99.8403 Y-7.1932
G01 X99.8329 Y-7.1687
G01 X99.8182 Y-7.1308
G01 X99.8077 Y-7.1086
G01 X99.7972 Y-7.0890
G01 X99.8145 Y-7.0609
G01 X99.8308 Y-7.0304
G01 X99.8495 Y-6.9883
G01 X99.8612 Y-6.9554
G01 X99.8737 Y-6.9105
G01 X99.8804 Y-6.8768
G01 X99.8861 Y-6.8305
G01 X99.8878 Y-6.7962
G01 X99.8876 Y0.2554
G01 X99.8861 Y0.2823
G01 X99.8832 Y0.3092
G01 X99.8753 Y0.3551
G01 X99.8689 Y0.3814
G01 X99.8612 Y0.4072
G01 X99.8496 Y0.4396
G01 X99.8308 Y0.4822
G01 X99.8182 Y0.5061
G01 X99.8045 Y0.5294
G01 X99.7907 Y0.5503
G01 X99.7752 Y0.5718
G01 X99.7567 Y0.5947
G01 X99.7421 Y0.6112
G01 X99.7144 Y0.6391
G01 X99.6943 Y0.6571
G01 X99.6733 Y0.6741
G01 X99.6352 Y0.7009
G01 X99.6121 Y0.7150
G01 X99.5884 Y0.7278
G01 X99.5641 Y0.7396
G01 X99.5397 Y0.7499
G01 X99.5068 Y0.7616
G01 X99.4810 Y0.7693
G01 X99.4547 Y0.7757
G01 X99.4088 Y0.7836
G01 X99.3746 Y0.7870
G01 X99.3378 Y0.7883
G01 X77.5494 Y0.7883
G01 X77.5053 Y0.7865
G01 X77.4784 Y0.7836
G01 X77.4517 Y0.7795
G01 X77.4062 Y0.7693
G01 X77.3804 Y0.7616
G01 X77.3557 Y0.7530
G01 X77.3333 Y0.7692
G01 X77.2996 Y0.7894
G01 X77.2642 Y0.8062
G01 X77.2458 Y0.8132
G01 X77.2083 Y0.8246
G01 X77.1698 Y0.8323
G01 X77.1503 Y0.8347
G01 X77.1111 Y0.8366
G01 X56.7382 Y0.8366
G01 X56.6986 Y0.8346
G01 X56.6593 Y0.8287
G01 X56.6208 Y0.8190
G01 X56.5863 Y0.8066
G01 X56.5659 Y0.8139
G01 X56.5355 Y0.8235
G01 X56.5046 Y0.8315
G01 X56.4734 Y0.8380
G01 X56.4443 Y0.8427
G01 X56.4134 Y0.8462
G01 X56.3832 Y0.8482
G01 X56.3562 Y0.8487
G01 X30.8372 Y0.8487
G01 X30.8151 Y0.8483
G01 X30.7833 Y0.8464
G01 X30.7515 Y0.8430
G01 X30.7200 Y0.8380
G01 X30.6888 Y0.8315
G01 X30.6579 Y0.8235
G01 X30.6275 Y0.8139
G01 X30.5983 Y0.8032
G01 X30.5732 Y0.8132
G01 X30.5546 Y0.8194
G01 X30.5165 Y0.8289
G01 X30.4777 Y0.8347
G01 X30.4385 Y0.8366
G01 X-0.3969 Y0.8366
G01 X-0.4361 Y0.8347
G01 X-0.4749 Y0.8289
G01 X-0.5130 Y0.8194
G01 X-0.5500 Y0.8062
G01 X-0.5855 Y0.7894
G01 X-0.6191 Y0.7692
G01 X-0.6507 Y0.7458
G01 X-0.6797 Y0.7194
G01 X-0.7061 Y0.6904
G01 X-0.7295 Y0.6588
G01 X-0.7497 Y0.6252
G01 X-0.7665 Y0.5897
G01 X-0.7797 Y0.5527
G01 X-0.7892 Y0.5146
G01 X-0.7950 Y0.4758
G01 X-0.7969 Y0.4366
G00 X-0.7969 Y0.4366
G01 F80.00
G01 Z-0.4500
G01 F50.00
G01 X-0.7969 Y-13.4458
G01 X-0.7950 Y-13.4849
G01 X-0.7926 Y-13.5043
G01 X-0.7850 Y-13.5427
G01 X-0.7736 Y-13.5802
G01 X-0.7666 Y-13.5985
G01 X-0.7587 Y-13.6164
G01 X-0.7403 Y-13.6509
G01 X-0.7186 Y-13.6835
G01 X-0.7066 Y-13.6990
G01 X-0.6804 Y-13.7280
G01 X-0.6514 Y-13.7544
G01 X-0.6360 Y-13.7665
G01 X-0.6035 Y-13.7883
G01 X-0.5691 Y-13.8069
G01 X-0.5329 Y-13.8220
G01 X-0.5144 Y-13.8282
G01 X-0.4764 Y-13.8378
G01 X-0.4377 Y-13.8437
G01 X-0.3987 Y-13.8458
G01 X-0.3595 Y-13.8441
G01 X-0.3401 Y-13.8417
G01 X-0.3017 Y-13.8343
G01 X-0.2642 Y-13.8231
G01 X-0.2279 Y-13.8084
G01 X-0.1808 Y-13.7844
G01 X-0.1634 Y-13.7743
G01 X-0.1466 Y-13.7634
G01 X-0.1304 Y-13.7516
G01 X-0.1148 Y-13.7391
G01 X-0.0998 Y-13.7257
G01 X-0.0856 Y-13.7117
G01 X-0.0720 Y-13.6969
G01 X-0.0592 Y-13.6815
G01 X-0.0472 Y-13.6655
G01 X-0.0360 Y-13.6488
G01 X-0.0256 Y-13.6317
G01 X-0.0162 Y-13.6140
G01 X-0.0045 Y-13.5892
G01 X0.0026 Y-13.5792
G01 X0.0099 Y-13.5726
G01 X0.0205 Y-13.5665
G01 X0.0323 Y-13.5632
G01 X0.0446 Y-13.5626
G01 X20.4004 Y-13.5626
G01 X20.4396 Y-13.5606
G01 X20.4787 Y-13.5557
G01 X20.8921 Y-13.5658
G01 X21.3106 Y-13.5964
G01 X21.7272 Y-13.6475
G01 X22.1407 Y-13.7189
G01 X22.5502 Y-13.8106
G01 X22.9548 Y-13.9222
G01 X23.3534 Y-14.0535
G01 X23.7450 Y-14.2043
G01 X24.1288 Y-14.3741
G01 X24.5038 Y-14.5625
G01 X24.8691 Y-14.7691
G01 X25.2238 Y-14.9933
G01 X25.5671 Y-15.2347
G01 X25.8981 Y-15.4927
G01 X26.2251 Y-15.7748
G01 X26.5289 Y-16.0644
G01 X26.8180 Y-16.3686
G01 X27.0919 Y-16.6865
G01 X27.3425 Y-17.0077
G01 X27.5913 Y-17.3608
G01 X27.8092 Y-17.7050
G01 X28.0163 Y-18.0700
G01 X28.2105 Y-18.4558
G01 X28.3756 Y-18.8282
G01 X28.5269 Y-19.2197
G01 X28.6624 Y-19.6298
G01 X28.7711 Y-20.0224
G01 X28.8633 Y-20.4318
G01 X28.9371 Y-20.8574
G01 X28.9882 Y-21.2740
G01 X29.0182 Y-21.6802
G01 X29.0289 Y-22.1108
G01 X29.0289 Y-32.9754
G01 X29.0286 Y-32.9852
G01 X29.0266 Y-32.9948
G01 X29.0102 Y-33.0375
G01 X28.9998 Y-33.0748
G01 X28.9960 Y-33.0938
G01 X28.9911 Y-33.1323
G01 X28.9899 Y-33.1711
G01 X28.9926 Y-33.2097
G01 X28.9953 Y-33.2290
G01 X29.0035 Y-33.2669
G01 X29.0153 Y-33.3038
G01 X29.0307 Y-33.3394
G01 X29.0494 Y-33.3733
G01 X29.0713 Y-33.4053
G01 X29.0834 Y-33.4205
G01 X29.1097 Y-33.4489
G01 X29.1387 Y-33.4747
G01 X29.1700 Y-33.4976
G01 X29.1865 Y-33.5078
G01 X29.2208 Y-33.5259
G01 X29.2567 Y-33.5406
G01 X29.2938 Y-33.5517
G01 X29.3319 Y-33.5592
G01 X29.3511 Y-33.5615
G01 X29.3899 Y-33.5634
G01 X63.6444 Y-33.5634
G01 X63.6832 Y-33.5615
G01 X63.7024 Y-33.5592
G01 X63.7215 Y-33.5559
G01 X63.7592 Y-33.5466
G01 X63.7957 Y-33.5337
G01 X63.8135 Y-33.5259
G01 X63.8478 Y-33.5078
G01 X63.8643 Y-33.4976
G01 X63.8956 Y-33.4747
G01 X63.9246 Y-33.4489
G01 X63.9509 Y-33.4205
G01 X63.9630 Y-33.4053
G01 X63.9849 Y-33.3733
G01 X64.0036 Y-33.3394
G01 X64.0118 Y-33.3218
G01 X64.0254 Y-33.2855
G01 X64.0308 Y-33.2669
G01 X64.0390 Y-33.2290
G01 X64.0417 Y-33.2097
G01 X64.0444 Y-33.1711
G01 X64.0432 Y-33.1323
G01 X64.0383 Y-33.0938
G01 X64.0345 Y-33.0748
G01 X64.0241 Y-33.0375
G01 X64.0077 Y-32.9948
G01 X64.0057 Y-32.9852
G01 X64.0054 Y-32.9754
G01 X64.0054 Y-22.1843
G01 X64.0034 Y-22.1449
G01 X63.9990 Y-22.1121
G01 X63.9986 Y-22.0998
G01 X64.0086 Y-21.6931
G01 X64.0368 Y-21.2991
G01 X64.0848 Y-20.8950
G01 X64.1520 Y-20.4936
G01 X64.2382 Y-20.0959
G01 X64.3433 Y-19.7028
G01 X64.4708 Y-19.3038
G01 X64.6133 Y-18.9226
G01 X64.7737 Y-18.5486
G01 X64.9518 Y-18.1827
G01 X65.1471 Y-17.8257
G01 X65.3591 Y-17.4784
G01 X65.5805 Y-17.1512
G01 X65.8242 Y-16.8253
G01 X66.0831 Y-16.5113
G01 X66.3648 Y-16.2013
G01 X66.6528 Y-15.9138
G01 X66.9541 Y-15.6403
G01 X67.2681 Y-15.3814
G01 X67.5940 Y-15.1377
G01 X67.9312 Y-14.9099
G01 X68.2788 Y-14.6983
G01 X68.6361 Y-14.5035
G01 X68.9914 Y-14.3309
G01 X69.3654 Y-14.1705
G01 X69.7579 Y-14.0241
G01 X70.1456 Y-13.9005
G01 X70.5387 Y-13.7954
G01 X70.9364 Y-13.7092
G01 X71.3260 Y-13.6437
G01 X71.7300 Y-13.5951
G01 X72.1359 Y-13.5658
G01 X72.5536 Y-13.5557
G01 X85.2182 Y-13.5589
G01 X85.2569 Y-13.5570
G01 X85.2762 Y-13.5547
G01 X85.3142 Y-13.5472
G01 X85.3513 Y-13.5361
G01 X85.3694 Y-13.5293
G01 X85.3872 Y-13.5215
G01 X85.4056 Y-13.5123
G01 X85.4437 Y-13.5292
G01 X85.4696 Y-13.5386
G01 X85.4954 Y-13.5466
G01 X85.5215 Y-13.5534
G01 X85.5479 Y-13.5588
G01 X85.5819 Y-13.5638
G01 X85.6088 Y-13.5663
G01 X85.6456 Y-13.5676
G01 X90.2097 Y-13.5676
G01 X90.2463 Y-13.5663
G01 X90.2804 Y-13.5630
G01 X90.3069 Y-13.5589
G01 X90.3522 Y-13.5488
G01 X90.3849 Y-13.5389
G01 X90.4102 Y-13.5297
G01 X90.4527 Y-13.5110
G01 X90.4767 Y-13.4984
G01 X90.5138 Y-13.5239
G01 X90.5544 Y-13.5468
G01 X90.5855 Y-13.5615
G01 X90.6290 Y-13.5783
G01 X90.6618 Y-13.5883
G01 X90.7054 Y-13.5982
G01 X90.7413 Y-13.6035
G01 X90.7829 Y-13.6068
G01 X92.7894 Y-13.6073
G01 X92.8335 Y-13.6055
G01 X92.8798 Y-13.5998
G01 X92.9135 Y-13.5931
G01 X92.9396 Y-13.5863
G01 X92.9654 Y-13.5783
G01 X93.0089 Y-13.5615
G01 X93.0334 Y-13.5502
G01 X93.0573 Y-13.5376
G01 X93.0806 Y-13.5239
G01 X93.1031 Y-13.5090
G01 X93.1331 Y-13.4866
G01 X93.1531 Y-13.4986
G01 X93.1903 Y-13.5173
G01 X93.2130 Y-13.5267
G01 X93.2526 Y-13.5398
G01 X93.2764 Y-13.5457
G01 X93.3175 Y-13.5529
G01 X93.3419 Y-13.5553
G01 X93.3738 Y-13.5564
G01 X99.4161 Y-13.5563
G01 X99.4382 Y-13.5553
G01 X99.4602 Y-13.5532
G01 X99.4844 Y-13.5496
G01 X99.5061 Y-13.5452
G01 X99.5275 Y-13.5398
G01 X99.5671 Y-13.5267
G01 X99.5875 Y-13.5183
G01 X99.6075 Y-13.5089
G01 X99.6292 Y-13.4973
G01 X99.6481 Y-13.4859
G01 X99.6664 Y-13.4736
G01 X99.6841 Y-13.4604
G01 X99.7012 Y-13.4463
G01 X99.7314 Y-13.4176
G01 X99.7462 Y-13.4013
G01 X99.7603 Y-13.3842
G01 X99.7807 Y-13.3561
G01 X99.7985 Y-13.3271
G01 X99.8088 Y-13.3076
G01 X99.8182 Y-13.2876
G01 X99.8266 Y-13.2672
G01 X99.8340 Y-13.2464
G01 X99.8403 Y-13.2252
G01 X99.8456 Y-13.2038
G01 X99.8528 Y-13.1627
G01 X99.8552 Y-13.1383
G01 X99.8563 Y-13.1064
G01 X99.8563 Y-7.3120
G01 X99.8552 Y-7.2801
G01 X99.8528 Y-7.2557
G01 X99.8495 Y-7.2339
G01 X99.8403 Y-7.1932
G01 X99.8329 Y-7.1687
G01 X99.8182 Y-7.1308
G01 X99.8077 Y-7.1086
G01 X99.7972 Y-7.0890
G01 X99.8145 Y-7.0609
G01 X99.8308 Y-7.0304
G01 X99.8495 Y-6.9883
G01 X99.8612 Y-6.9554
G01 X99.8737 Y-6.9105
G01 X99.8804 Y-6.8768
G01 X99.8861 Y-6.8305
G01 X99.8878 Y-6.7962
G01 X99.8876 Y0.2554
G01 X99.8861 Y0.2823
G01 X99.8832 Y0.3092
G01 X99.8753 Y0.3551
G01 X99.8689 Y0.3814
G01 X99.8612 Y0.4072
G01 X99.8496 Y0.4396
G01 X99.8308 Y0.4822
G01 X99.8182 Y0.5061
G01 X99.8045 Y0.5294
G01 X99.7907 Y0.5503
G01 X99.7752 Y0.5718
G01 X99.7567 Y0.5947
G01 X99.7421 Y0.6112
G01 X99.7144 Y0.6391
G01 X99.6943 Y0.6571
G01 X99.6733 Y0.6741
G01 X99.6352 Y0.7009
G01 X99.6121 Y0.7150
G01 X99.5884 Y0.7278
G01 X99.5641 Y0.7396
G01 X99.5397 Y0.7499
G01 X99.5068 Y0.7616
G01 X99.4810 Y0.7693
G01 X99.4547 Y0.7757
G01 X99.4088 Y0.7836
G01 X99.3746 Y0.7870
G01 X99.3378 Y0.7883
G01 X77.5494 Y0.7883
G01 X77.5053 Y0.7865
G01 X77.4784 Y0.7836
G01 X77.4517 Y0.7795
G01 X77.4062 Y0.7693
G01 X77.3804 Y0.7616
G01 X77.3557 Y0.7530
G01 X77.3333 Y0.7692
G01 X77.2996 Y0.7894
G01 X77.2642 Y0.8062
G01 X77.2458 Y0.8132
G01 X77.2083 Y0.8246
G01 X77.1698 Y0.8323
G01 X77.1503 Y0.8347
G01 X77.1111 Y0.8366
G01 X56.7382 Y0.8366
G01 X56.6986 Y0.8346
G01 X56.6593 Y0.8287
G01 X56.6208 Y0.8190
G01 X56.5863 Y0.8066
G01 X56.5659 Y0.8139
G01 X56.5355 Y0.8235
G01 X56.5046 Y0.8315
G01 X56.4734 Y0.8380
G01 X56.4443 Y0.8427
G01 X56.4134 Y0.8462
G01 X56.3832 Y0.8482
G01 X56.3562 Y0.8487
G01 X30.8372 Y0.8487
G01 X30.8151 Y0.8483
G01 X30.7833 Y0.8464
G01 X30.7515 Y0.8430
G01 X30.7200 Y0.8380
G01 X30.6888 Y0.8315
G01 X30.6579 Y0.8235
G01 X30.6275 Y0.8139
G01 X30.5983 Y0.8032
G01 X30.5732 Y0.8132
G01 X30.5546 Y0.8194
G01 X30.5165 Y0.8289
G01 X30.4777 Y0.8347
G01 X30.4385 Y0.8366
G01 X-0.3969 Y0.8366
G01 X-0.4361 Y0.8347
G01 X-0.4749 Y0.8289
G01 X-0.5130 Y0.8194
G01 X-0.5500 Y0.8062
G01 X-0.5855 Y0.7894
G01 X-0.6191 Y0.7692
G01 X-0.6507 Y0.7458
G01 X-0.6797 Y0.7194
G01 X-0.7061 Y0.6904
G01 X-0.7295 Y0.6588
G01 X-0.7497 Y0.6252
G01 X-0.7665 Y0.5897
G01 X-0.7797 Y0.5527
G01 X-0.7892 Y0.5146
G01 X-0.7950 Y0.4758
G01 X-0.7969 Y0.4366
G00 X-0.7969 Y0.4366
G01 F80.00
G01 Z-0.5000
G01 F50.00
G01 X-0.7969 Y-13.4458
G01 X-0.7950 Y-13.4849
G01 X-0.7926 Y-13.5043
G01 X-0.7850 Y-13.5427
G01 X-0.7736 Y-13.5802
G01 X-0.7666 Y-13.5985
G01 X-0.7587 Y-13.6164
G01 X-0.7403 Y-13.6509
G01 X-0.7186 Y-13.6835
G01 X-0.7066 Y-13.6990
G01 X-0.6804 Y-13.7280
G01 X-0.6514 Y-13.7544
G01 X-0.6360 Y-13.7665
G01 X-0.6035 Y-13.7883
G01 X-0.5691 Y-13.8069
G01 X-0.5329 Y-13.8220
G01 X-0.5144 Y-13.8282
G01 X-0.4764 Y-13.8378
G01 X-0.4377 Y-13.8437
G01 X-0.3987 Y-13.8458
G01 X-0.3595 Y-13.8441
G01 X-0.3401 Y-13.8417
G01 X-0.3017 Y-13.8343
G01 X-0.2642 Y-13.8231
G01 X-0.2279 Y-13.8084
G01 X-0.1808 Y-13.7844
G01 X-0.1634 Y-13.7743
G01 X-0.1466 Y-13.7634
G01 X-0.1304 Y-13.7516
G01 X-0.1148 Y-13.7391
G01 X-0.0998 Y-13.7257
G01 X-0.0856 Y-13.7117
G01 X-0.0720 Y-13.6969
G01 X-0.0592 Y-13.6815
G01 X-0.0472 Y-13.6655
G01 X-0.0360 Y-13.6488
G01 X-0.0256 Y-13.6317
G01 X-0.0162 Y-13.6140
G01 X-0.0045 Y-13.5892
G01 X0.0026 Y-13.5792
G01 X0.0099 Y-13.5726
G01 X0.0205 Y-13.5665
G01 X0.0323 Y-13.5632
G01 X0.0446 Y-13.5626
G01 X20.4004 Y-13.5626
G01 X20.4396 Y-13.5606
G01 X20.4787 Y-13.5557
G01 X20.8921 Y-13.5658
G01 X21.3106 Y-13.5964
G01 X21.7272 Y-13.6475
G01 X22.1407 Y-13.7189
G01 X22.5502 Y-13.8106
G01 X22.9548 Y-13.9222
G01 X23.3534 Y-14.0535
G01 X23.7450 Y-14.2043
G01 X24.1288 Y-14.3741
G01 X24.5038 Y-14.5625
G01 X24.8691 Y-14.7691
G01 X25.2238 Y-14.9933
G01 X25.5671 Y-15.2347
G01 X25.8981 Y-15.4927
G01 X26.2251 Y-15.7748
G01 X26.5289 Y-16.0644
G01 X26.8180 Y-16.3686
G01 X27.0919 Y-16.6865
G01 X27.3425 Y-17.0077
G01 X27.5913 Y-17.3608
G01 X27.8092 Y-17.7050
G01 X28.0163 Y-18.0700
G01 X28.2105 Y-18.4558
G01 X28.3756 Y-18.8282
G01 X28.5269 Y-19.2197
G01 X28.6624 Y-19.6298
G01 X28.7711 Y-20.0224
G01 X28.8633 Y-20.4318
G01 X28.9371 Y-20.8574
G01 X28.9882 Y-21.2740
G01 X29.0182 Y-21.6802
G01 X29.0289 Y-22.1108
G01 X29.0289 Y-32.9754
G01 X29.0286 Y-32.9852
G01 X29.0266 Y-32.9948
G01 X29.0102 Y-33.0375
G01 X28.9998 Y-33.0748
G01 X28.9960 Y-33.0938
G01 X28.9911 Y-33.1323
G01 X28.9899 Y-33.1711
G01 X28.9926 Y-33.2097
G01 X28.9953 Y-33.2290
G01 X29.0035 Y-33.2669
G01 X29.0153 Y-33.3038
G01 X29.0307 Y-33.3394
G01 X29.0494 Y-33.3733
G01 X29.0713 Y-33.4053
G01 X29.0834 Y-33.4205
G01 X29.1097 Y-33.4489
G01 X29.1387 Y-33.4747
G01 X29.1700 Y-33.4976
G01 X29.1865 Y-33.5078
G01 X29.2208 Y-33.5259
G01 X29.2567 Y-33.5406
G01 X29.2938 Y-33.5517
G01 X29.3319 Y-33.5592
G01 X29.3511 Y-33.5615
G01 X29.3899 Y-33.5634
G01 X63.6444 Y-33.5634
G01 X63.6832 Y-33.5615
G01 X63.7024 Y-33.5592
G01 X63.7215 Y-33.5559
G01 X63.7592 Y-33.5466
G01 X63.7957 Y-33.5337
G01 X63.8135 Y-33.5259
G01 X63.8478 Y-33.5078
G01 X63.8643 Y-33.4976
G01 X63.8956 Y-33.4747
G01 X63.9246 Y-33.4489
G01 X63.9509 Y-33.4205
G01 X63.9630 Y-33.4053
G01 X63.9849 Y-33.3733
G01 X64.0036 Y-33.3394
G01 X64.0118 Y-33.3218
G01 X64.0254 Y-33.2855
G01 X64.0308 Y-33.2669
G01 X64.0390 Y-33.2290
G01 X64.0417 Y-33.2097
G01 X64.0444 Y-33.1711
G01 X64.0432 Y-33.1323
G01 X64.0383 Y-33.0938
G01 X64.0345 Y-33.0748
G01 X64.0241 Y-33.0375
G01 X64.0077 Y-32.9948
G01 X64.0057 Y-32.9852
G01 X64.0054 Y-32.9754
G01 X64.0054 Y-22.1843
G01 X64.0034 Y-22.1449
G01 X63.9990 Y-22.1121
G01 X63.9986 Y-22.0998
G01 X64.0086 Y-21.6931
G01 X64.0368 Y-21.2991
G01 X64.0848 Y-20.8950
G01 X64.1520 Y-20.4936
G01 X64.2382 Y-20.0959
G01 X64.3433 Y-19.7028
G01 X64.4708 Y-19.3038
G01 X64.6133 Y-18.9226
G01 X64.7737 Y-18.5486
G01 X64.9518 Y-18.1827
G01 X65.1471 Y-17.8257
G01 X65.3591 Y-17.4784
G01 X65.5805 Y-17.1512
G01 X65.8242 Y-16.8253
G01 X66.0831 Y-16.5113
G01 X66.3648 Y-16.2013
G01 X66.6528 Y-15.9138
G01 X66.9541 Y-15.6403
G01 X67.2681 Y-15.3814
G01 X67.5940 Y-15.1377
G01 X67.9312 Y-14.9099
G01 X68.2788 Y-14.6983
G01 X68.6361 Y-14.5035
G01 X68.9914 Y-14.3309
G01 X69.3654 Y-14.1705
G01 X69.7579 Y-14.0241
G01 X70.1456 Y-13.9005
G01 X70.5387 Y-13.7954
G01 X70.9364 Y-13.7092
G01 X71.3260 Y-13.6437
G01 X71.7300 Y-13.5951
G01 X72.1359 Y-13.5658
G01 X72.5536 Y-13.5557
G01 X85.2182 Y-13.5589
G01 X85.2569 Y-13.5570
G01 X85.2762 Y-13.5547
G01 X85.3142 Y-13.5472
G01 X85.3513 Y-13.5361
G01 X85.3694 Y-13.5293
G01 X85.3872 Y-13.5215
G01 X85.4056 Y-13.5123
G01 X85.4437 Y-13.5292
G01 X85.4696 Y-13.5386
G01 X85.4954 Y-13.5466
G01 X85.5215 Y-13.5534
G01 X85.5479 Y-13.5588
G01 X85.5819 Y-13.5638
G01 X85.6088 Y-13.5663
G01 X85.6456 Y-13.5676
G01 X90.2097 Y-13.5676
G01 X90.2463 Y-13.5663
G01 X90.2804 Y-13.5630
G01 X90.3069 Y-13.5589
G01 X90.3522 Y-13.5488
G01 X90.3849 Y-13.5389
G01 X90.4102 Y-13.5297
G01 X90.4527 Y-13.5110
G01 X90.4767 Y-13.4984
G01 X90.5138 Y-13.5239
G01 X90.5544 Y-13.5468
G01 X90.5855 Y-13.5615
G01 X90.6290 Y-13.5783
G01 X90.6618 Y-13.5883
G01 X90.7054 Y-13.5982
G01 X90.7413 Y-13.6035
G01 X90.7829 Y-13.6068
G01 X92.7894 Y-13.6073
G01 X92.8335 Y-13.6055
G01 X92.8798 Y-13.5998
G01 X92.9135 Y-13.5931
G01 X92.9396 Y-13.5863
G01 X92.9654 Y-13.5783
G01 X93.0089 Y-13.5615
G01 X93.0334 Y-13.5502
G01 X93.0573 Y-13.5376
G01 X93.0806 Y-13.5239
G01 X93.1031 Y-13.5090
G01 X93.1331 Y-13.4866
G01 X93.1531 Y-13.4986
G01 X93.1903 Y-13.5173
G01 X93.2130 Y-13.5267
G01 X93.2526 Y-13.5398
G01 X93.2764 Y-13.5457
G01 X93.3175 Y-13.5529
G01 X93.3419 Y-13.5553
G01 X93.3738 Y-13.5564
G01 X99.4161 Y-13.5563
G01 X99.4382 Y-13.5553
G01 X99.4602 Y-13.5532
G01 X99.4844 Y-13.5496
G01 X99.5061 Y-13.5452
G01 X99.5275 Y-13.5398
G01 X99.5671 Y-13.5267
G01 X99.5875 Y-13.5183
G01 X99.6075 Y-13.5089
G01 X99.6292 Y-13.4973
G01 X99.6481 Y-13.4859
G01 X99.6664 Y-13.4736
G01 X99.6841 Y-13.4604
G01 X99.7012 Y-13.4463
G01 X99.7314 Y-13.4176
G01 X99.7462 Y-13.4013
G01 X99.7603 Y-13.3842
G01 X99.7807 Y-13.3561
G01 X99.7985 Y-13.3271
G01 X99.8088 Y-13.3076
G01 X99.8182 Y-13.2876
G01 X99.8266 Y-13.2672
G01 X99.8340 Y-13.2464
G01 X99.8403 Y-13.2252
G01 X99.8456 Y-13.2038
G01 X99.8528 Y-13.1627
G01 X99.8552 Y-13.1383
G01 X99.8563 Y-13.1064
G01 X99.8563 Y-7.3120
G01 X99.8552 Y-7.2801
G01 X99.8528 Y-7.2557
G01 X99.8495 Y-7.2339
G01 X99.8403 Y-7.1932
G01 X99.8329 Y-7.1687
G01 X99.8182 Y-7.1308
G01 X99.8077 Y-7.1086
G01 X99.7972 Y-7.0890
G01 X99.8145 Y-7.0609
G01 X99.8308 Y-7.0304
G01 X99.8495 Y-6.9883
G01 X99.8612 Y-6.9554
G01 X99.8737 Y-6.9105
G01 X99.8804 Y-6.8768
G01 X99.8861 Y-6.8305
G01 X99.8878 Y-6.7962
G01 X99.8876 Y0.2554
G01 X99.8861 Y0.2823
G01 X99.8832 Y0.3092
G01 X99.8753 Y0.3551
G01 X99.8689 Y0.3814
G01 X99.8612 Y0.4072
G01 X99.8496 Y0.4396
G01 X99.8308 Y0.4822
G01 X99.8182 Y0.5061
G01 X99.8045 Y0.5294
G01 X99.7907 Y0.5503
G01 X99.7752 Y0.5718
G01 X99.7567 Y0.5947
G01 X99.7421 Y0.6112
G01 X99.7144 Y0.6391
G01 X99.6943 Y0.6571
G01 X99.6733 Y0.6741
G01 X99.6352 Y0.7009
G01 X99.6121 Y0.7150
G01 X99.5884 Y0.7278
G01 X99.5641 Y0.7396
G01 X99.5397 Y0.7499
G01 X99.5068 Y0.7616
G01 X99.4810 Y0.7693
G01 X99.4547 Y0.7757
G01 X99.4088 Y0.7836
G01 X99.3746 Y0.7870
G01 X99.3378 Y0.7883
G01 X77.5494 Y0.7883
G01 X77.5053 Y0.7865
G01 X77.4784 Y0.7836
G01 X77.4517 Y0.7795
G01 X77.4062 Y0.7693
G01 X77.3804 Y0.7616
G01 X77.3557 Y0.7530
G01 X77.3333 Y0.7692
G01 X77.2996 Y0.7894
G01 X77.2642 Y0.8062
G01 X77.2458 Y0.8132
G01 X77.2083 Y0.8246
G01 X77.1698 Y0.8323
G01 X77.1503 Y0.8347
G01 X77.1111 Y0.8366
G01 X56.7382 Y0.8366
G01 X56.6986 Y0.8346
G01 X56.6593 Y0.8287
G01 X56.6208 Y0.8190
G01 X56.5863 Y0.8066
G01 X56.5659 Y0.8139
G01 X56.5355 Y0.8235
G01 X56.5046 Y0.8315
G01 X56.4734 Y0.8380
G01 X56.4443 Y0.8427
G01 X56.4134 Y0.8462
G01 X56.3832 Y0.8482
G01 X56.3562 Y0.8487
G01 X30.8372 Y0.8487
G01 X30.8151 Y0.8483
G01 X30.7833 Y0.8464
G01 X30.7515 Y0.8430
G01 X30.7200 Y0.8380
G01 X30.6888 Y0.8315
G01 X30.6579 Y0.8235
G01 X30.6275 Y0.8139
G01 X30.5983 Y0.8032
G01 X30.5732 Y0.8132
G01 X30.5546 Y0.8194
G01 X30.5165 Y0.8289
G01 X30.4777 Y0.8347
G01 X30.4385 Y0.8366
G01 X-0.3969 Y0.8366
G01 X-0.4361 Y0.8347
G01 X-0.4749 Y0.8289
G01 X-0.5130 Y0.8194
G01 X-0.5500 Y0.8062
G01 X-0.5855 Y0.7894
G01 X-0.6191 Y0.7692
G01 X-0.6507 Y0.7458
G01 X-0.6797 Y0.7194
G01 X-0.7061 Y0.6904
G01 X-0.7295 Y0.6588
G01 X-0.7497 Y0.6252
G01 X-0.7665 Y0.5897
G01 X-0.7797 Y0.5527
G01 X-0.7892 Y0.5146
G01 X-0.7950 Y0.4758
G01 X-0.7969 Y0.4366
G00 X-0.7969 Y0.4366
G01 F80.00
G01 Z-0.5500
G01 F50.00
G01 X-0.7969 Y-13.4458
G01 X-0.7950 Y-13.4849
G01 X-0.7926 Y-13.5043
G01 X-0.7850 Y-13.5427
G01 X-0.7736 Y-13.5802
G01 X-0.7666 Y-13.5985
G01 X-0.7587 Y-13.6164
G01 X-0.7403 Y-13.6509
G01 X-0.7186 Y-13.6835
G01 X-0.7066 Y-13.6990
G01 X-0.6804 Y-13.7280
G01 X-0.6514 Y-13.7544
G01 X-0.6360 Y-13.7665
G01 X-0.6035 Y-13.7883
G01 X-0.5691 Y-13.8069
G01 X-0.5329 Y-13.8220
G01 X-0.5144 Y-13.8282
G01 X-0.4764 Y-13.8378
G01 X-0.4377 Y-13.8437
G01 X-0.3987 Y-13.8458
G01 X-0.3595 Y-13.8441
G01 X-0.3401 Y-13.8417
G01 X-0.3017 Y-13.8343
G01 X-0.2642 Y-13.8231
G01 X-0.2279 Y-13.8084
G01 X-0.1808 Y-13.7844
G01 X-0.1634 Y-13.7743
G01 X-0.1466 Y-13.7634
G01 X-0.1304 Y-13.7516
G01 X-0.1148 Y-13.7391
G01 X-0.0998 Y-13.7257
G01 X-0.0856 Y-13.7117
G01 X-0.0720 Y-13.6969
G01 X-0.0592 Y-13.6815
G01 X-0.0472 Y-13.6655
G01 X-0.0360 Y-13.6488
G01 X-0.0256 Y-13.6317
G01 X-0.0162 Y-13.6140
G01 X-0.0045 Y-13.5892
G01 X0.0026 Y-13.5792
G01 X0.0099 Y-13.5726
G01 X0.0205 Y-13.5665
G01 X0.0323 Y-13.5632
G01 X0.0446 Y-13.5626
G01 X20.4004 Y-13.5626
G01 X20.4396 Y-13.5606
G01 X20.4787 Y-13.5557
G01 X20.8921 Y-13.5658
G01 X21.3106 Y-13.5964
G01 X21.7272 Y-13.6475
G01 X22.1407 Y-13.7189
G01 X22.5502 Y-13.8106
G01 X22.9548 Y-13.9222
G01 X23.3534 Y-14.0535
G01 X23.7450 Y-14.2043
G01 X24.1288 Y-14.3741
G01 X24.5038 Y-14.5625
G01 X24.8691 Y-14.7691
G01 X25.2238 Y-14.9933
G01 X25.5671 Y-15.2347
G01 X25.8981 Y-15.4927
G01 X26.2251 Y-15.7748
G01 X26.5289 Y-16.0644
G01 X26.8180 Y-16.3686
G01 X27.0919 Y-16.6865
G01 X27.3425 Y-17.0077
G01 X27.5913 Y-17.3608
G01 X27.8092 Y-17.7050
G01 X28.0163 Y-18.0700
G01 X28.2105 Y-18.4558
G01 X28.3756 Y-18.8282
G01 X28.5269 Y-19.2197
G01 X28.6624 Y-19.6298
G01 X28.7711 Y-20.0224
G01 X28.8633 Y-20.4318
G01 X28.9371 Y-20.8574
G01 X28.9882 Y-21.2740
G01 X29.0182 Y-21.6802
G01 X29.0289 Y-22.1108
G01 X29.0289 Y-32.9754
G01 X29.0286 Y-32.9852
G01 X29.0266 Y-32.9948
G01 X29.0102 Y-33.0375
G01 X28.9998 Y-33.0748
G01 X28.9960 Y-33.0938
G01 X28.9911 Y-33.1323
G01 X28.9899 Y-33.1711
G01 X28.9926 Y-33.2097
G01 X28.9953 Y-33.2290
G01 X29.0035 Y-33.2669
G01 X29.0153 Y-33.3038
G01 X29.0307 Y-33.3394
G01 X29.0494 Y-33.3733
G01 X29.0713 Y-33.4053
G01 X29.0834 Y-33.4205
G01 X29.1097 Y-33.4489
G01 X29.1387 Y-33.4747
G01 X29.1700 Y-33.4976
G01 X29.1865 Y-33.5078
G01 X29.2208 Y-33.5259
G01 X29.2567 Y-33.5406
G01 X29.2938 Y-33.5517
G01 X29.3319 Y-33.5592
G01 X29.3511 Y-33.5615
G01 X29.3899 Y-33.5634
G01 X63.6444 Y-33.5634
G01 X63.6832 Y-33.5615
G01 X63.7024 Y-33.5592
G01 X63.7215 Y-33.5559
G01 X63.7592 Y-33.5466
G01 X63.7957 Y-33.5337
G01 X63.8135 Y-33.5259
G01 X63.8478 Y-33.5078
G01 X63.8643 Y-33.4976
G01 X63.8956 Y-33.4747
G01 X63.9246 Y-33.4489
G01 X63.9509 Y-33.4205
G01 X63.9630 Y-33.4053
G01 X63.9849 Y-33.3733
G01 X64.0036 Y-33.3394
G01 X64.0118 Y-33.3218
G01 X64.0254 Y-33.2855
G01 X64.0308 Y-33.2669
G01 X64.0390 Y-33.2290
G01 X64.0417 Y-33.2097
G01 X64.0444 Y-33.1711
G01 X64.0432 Y-33.1323
G01 X64.0383 Y-33.0938
G01 X64.0345 Y-33.0748
G01 X64.0241 Y-33.0375
G01 X64.0077 Y-32.9948
G01 X64.0057 Y-32.9852
G01 X64.0054 Y-32.9754
G01 X64.0054 Y-22.1843
G01 X64.0034 Y-22.1449
G01 X63.9990 Y-22.1121
G01 X63.9986 Y-22.0998
G01 X64.0086 Y-21.6931
G01 X64.0368 Y-21.2991
G01 X64.0848 Y-20.8950
G01 X64.1520 Y-20.4936
G01 X64.2382 Y-20.0959
G01 X64.3433 Y-19.7028
G01 X64.4708 Y-19.3038
G01 X64.6133 Y-18.9226
G01 X64.7737 Y-18.5486
G01 X64.9518 Y-18.1827
G01 X65.1471 Y-17.8257
G01 X65.3591 Y-17.4784
G01 X65.5805 Y-17.1512
G01 X65.8242 Y-16.8253
G01 X66.0831 Y-16.5113
G01 X66.3648 Y-16.2013
G01 X66.6528 Y-15.9138
G01 X66.9541 Y-15.6403
G01 X67.2681 Y-15.3814
G01 X67.5940 Y-15.1377
G01 X67.9312 Y-14.9099
G01 X68.2788 Y-14.6983
G01 X68.6361 Y-14.5035
G01 X68.9914 Y-14.3309
G01 X69.3654 Y-14.1705
G01 X69.7579 Y-14.0241
G01 X70.1456 Y-13.9005
G01 X70.5387 Y-13.7954
G01 X70.9364 Y-13.7092
G01 X71.3260 Y-13.6437
G01 X71.7300 Y-13.5951
G01 X72.1359 Y-13.5658
G01 X72.5536 Y-13.5557
G01 X85.2182 Y-13.5589
G01 X85.2569 Y-13.5570
G01 X85.2762 Y-13.5547
G01 X85.3142 Y-13.5472
G01 X85.3513 Y-13.5361
G01 X85.3694 Y-13.5293
G01 X85.3872 Y-13.5215
G01 X85.4056 Y-13.5123
G01 X85.4437 Y-13.5292
G01 X85.4696 Y-13.5386
G01 X85.4954 Y-13.5466
G01 X85.5215 Y-13.5534
G01 X85.5479 Y-13.5588
G01 X85.5819 Y-13.5638
G01 X85.6088 Y-13.5663
G01 X85.6456 Y-13.5676
G01 X90.2097 Y-13.5676
G01 X90.2463 Y-13.5663
G01 X90.2804 Y-13.5630
G01 X90.3069 Y-13.5589
G01 X90.3522 Y-13.5488
G01 X90.3849 Y-13.5389
G01 X90.4102 Y-13.5297
G01 X90.4527 Y-13.5110
G01 X90.4767 Y-13.4984
G01 X90.5138 Y-13.5239
G01 X90.5544 Y-13.5468
G01 X90.5855 Y-13.5615
G01 X90.6290 Y-13.5783
G01 X90.6618 Y-13.5883
G01 X90.7054 Y-13.5982
G01 X90.7413 Y-13.6035
G01 X90.7829 Y-13.6068
G01 X92.7894 Y-13.6073
G01 X92.8335 Y-13.6055
G01 X92.8798 Y-13.5998
G01 X92.9135 Y-13.5931
G01 X92.9396 Y-13.5863
G01 X92.9654 Y-13.5783
G01 X93.0089 Y-13.5615
G01 X93.0334 Y-13.5502
G01 X93.0573 Y-13.5376
G01 X93.0806 Y-13.5239
G01 X93.1031 Y-13.5090
G01 X93.1331 Y-13.4866
G01 X93.1531 Y-13.4986
G01 X93.1903 Y-13.5173
G01 X93.2130 Y-13.5267
G01 X93.2526 Y-13.5398
G01 X93.2764 Y-13.5457
G01 X93.3175 Y-13.5529
G01 X93.3419 Y-13.5553
G01 X93.3738 Y-13.5564
G01 X99.4161 Y-13.5563
G01 X99.4382 Y-13.5553
G01 X99.4602 Y-13.5532
G01 X99.4844 Y-13.5496
G01 X99.5061 Y-13.5452
G01 X99.5275 Y-13.5398
G01 X99.5671 Y-13.5267
G01 X99.5875 Y-13.5183
G01 X99.6075 Y-13.5089
G01 X99.6292 Y-13.4973
G01 X99.6481 Y-13.4859
G01 X99.6664 Y-13.4736
G01 X99.6841 Y-13.4604
G01 X99.7012 Y-13.4463
G01 X99.7314 Y-13.4176
G01 X99.7462 Y-13.4013
G01 X99.7603 Y-13.3842
G01 X99.7807 Y-13.3561
G01 X99.7985 Y-13.3271
G01 X99.8088 Y-13.3076
G01 X99.8182 Y-13.2876
G01 X99.8266 Y-13.2672
G01 X99.8340 Y-13.2464
G01 X99.8403 Y-13.2252
G01 X99.8456 Y-13.2038
G01 X99.8528 Y-13.1627
G01 X99.8552 Y-13.1383
G01 X99.8563 Y-13.1064
G01 X99.8563 Y-7.3120
G01 X99.8552 Y-7.2801
G01 X99.8528 Y-7.2557
G01 X99.8495 Y-7.2339
G01 X99.8403 Y-7.1932
G01 X99.8329 Y-7.1687
G01 X99.8182 Y-7.1308
G01 X99.8077 Y-7.1086
G01 X99.7972 Y-7.0890
G01 X99.8145 Y-7.0609
G01 X99.8308 Y-7.0304
G01 X99.8495 Y-6.9883
G01 X99.8612 Y-6.9554
G01 X99.8737 Y-6.9105
G01 X99.8804 Y-6.8768
G01 X99.8861 Y-6.8305
G01 X99.8878 Y-6.7962
G01 X99.8876 Y0.2554
G01 X99.8861 Y0.2823
G01 X99.8832 Y0.3092
G01 X99.8753 Y0.3551
G01 X99.8689 Y0.3814
G01 X99.8612 Y0.4072
G01 X99.8496 Y0.4396
G01 X99.8308 Y0.4822
G01 X99.8182 Y0.5061
G01 X99.8045 Y0.5294
G01 X99.7907 Y0.5503
G01 X99.7752 Y0.5718
G01 X99.7567 Y0.5947
G01 X99.7421 Y0.6112
G01 X99.7144 Y0.6391
G01 X99.6943 Y0.6571
G01 X99.6733 Y0.6741
G01 X99.6352 Y0.7009
G01 X99.6121 Y0.7150
G01 X99.5884 Y0.7278
G01 X99.5641 Y0.7396
G01 X99.5397 Y0.7499
G01 X99.5068 Y0.7616
G01 X99.4810 Y0.7693
G01 X99.4547 Y0.7757
G01 X99.4088 Y0.7836
G01 X99.3746 Y0.7870
G01 X99.3378 Y0.7883
G01 X77.5494 Y0.7883
G01 X77.5053 Y0.7865
G01 X77.4784 Y0.7836
G01 X77.4517 Y0.7795
G01 X77.4062 Y0.7693
G01 X77.3804 Y0.7616
G01 X77.3557 Y0.7530
G01 X77.3333 Y0.7692
G01 X77.2996 Y0.7894
G01 X77.2642 Y0.8062
G01 X77.2458 Y0.8132
G01 X77.2083 Y0.8246
G01 X77.1698 Y0.8323
G01 X77.1503 Y0.8347
G01 X77.1111 Y0.8366
G01 X56.7382 Y0.8366
G01 X56.6986 Y0.8346
G01 X56.6593 Y0.8287
G01 X56.6208 Y0.8190
G01 X56.5863 Y0.8066
G01 X56.5659 Y0.8139
G01 X56.5355 Y0.8235
G01 X56.5046 Y0.8315
G01 X56.4734 Y0.8380
G01 X56.4443 Y0.8427
G01 X56.4134 Y0.8462
G01 X56.3832 Y0.8482
G01 X56.3562 Y0.8487
G01 X30.8372 Y0.8487
G01 X30.8151 Y0.8483
G01 X30.7833 Y0.8464
G01 X30.7515 Y0.8430
G01 X30.7200 Y0.8380
G01 X30.6888 Y0.8315
G01 X30.6579 Y0.8235
G01 X30.6275 Y0.8139
G01 X30.5983 Y0.8032
G01 X30.5732 Y0.8132
G01 X30.5546 Y0.8194
G01 X30.5165 Y0.8289
G01 X30.4777 Y0.8347
G01 X30.4385 Y0.8366
G01 X-0.3969 Y0.8366
G01 X-0.4361 Y0.8347
G01 X-0.4749 Y0.8289
G01 X-0.5130 Y0.8194
G01 X-0.5500 Y0.8062
G01 X-0.5855 Y0.7894
G01 X-0.6191 Y0.7692
G01 X-0.6507 Y0.7458
G01 X-0.6797 Y0.7194
G01 X-0.7061 Y0.6904
G01 X-0.7295 Y0.6588
G01 X-0.7497 Y0.6252
G01 X-0.7665 Y0.5897
G01 X-0.7797 Y0.5527
G01 X-0.7892 Y0.5146
G01 X-0.7950 Y0.4758
G01 X-0.7969 Y0.4366
G00 X-0.7969 Y0.4366
G01 F80.00
G01 Z-0.6000
G01 F50.00
G01 X-0.7969 Y-13.4458
G01 X-0.7950 Y-13.4849
G01 X-0.7926 Y-13.5043
G01 X-0.7850 Y-13.5427
G01 X-0.7736 Y-13.5802
G01 X-0.7666 Y-13.5985
G01 X-0.7587 Y-13.6164
G01 X-0.7403 Y-13.6509
G01 X-0.7186 Y-13.6835
G01 X-0.7066 Y-13.6990
G01 X-0.6804 Y-13.7280
G01 X-0.6514 Y-13.7544
G01 X-0.6360 Y-13.7665
G01 X-0.6035 Y-13.7883
G01 X-0.5691 Y-13.8069
G01 X-0.5329 Y-13.8220
G01 X-0.5144 Y-13.8282
G01 X-0.4764 Y-13.8378
G01 X-0.4377 Y-13.8437
G01 X-0.3987 Y-13.8458
G01 X-0.3595 Y-13.8441
G01 X-0.3401 Y-13.8417
G01 X-0.3017 Y-13.8343
G01 X-0.2642 Y-13.8231
G01 X-0.2279 Y-13.8084
G01 X-0.1808 Y-13.7844
G01 X-0.1634 Y-13.7743
G01 X-0.1466 Y-13.7634
G01 X-0.1304 Y-13.7516
G01 X-0.1148 Y-13.7391
G01 X-0.0998 Y-13.7257
G01 X-0.0856 Y-13.7117
G01 X-0.0720 Y-13.6969
G01 X-0.0592 Y-13.6815
G01 X-0.0472 Y-13.6655
G01 X-0.0360 Y-13.6488
G01 X-0.0256 Y-13.6317
G01 X-0.0162 Y-13.6140
G01 X-0.0045 Y-13.5892
G01 X0.0026 Y-13.5792
G01 X0.0099 Y-13.5726
G01 X0.0205 Y-13.5665
G01 X0.0323 Y-13.5632
G01 X0.0446 Y-13.5626
G01 X20.4004 Y-13.5626
G01 X20.4396 Y-13.5606
G01 X20.4787 Y-13.5557
G01 X20.8921 Y-13.5658
G01 X21.3106 Y-13.5964
G01 X21.7272 Y-13.6475
G01 X22.1407 Y-13.7189
G01 X22.5502 Y-13.8106
G01 X22.9548 Y-13.9222
G01 X23.3534 Y-14.0535
G01 X23.7450 Y-14.2043
G01 X24.1288 Y-14.3741
G01 X24.5038 Y-14.5625
G01 X24.8691 Y-14.7691
G01 X25.2238 Y-14.9933
G01 X25.5671 Y-15.2347
G01 X25.8981 Y-15.4927
G01 X26.2251 Y-15.7748
G01 X26.5289 Y-16.0644
G01 X26.8180 Y-16.3686
G01 X27.0919 Y-16.6865
G01 X27.3425 Y-17.0077
G01 X27.5913 Y-17.3608
G01 X27.8092 Y-17.7050
G01 X28.0163 Y-18.0700
G01 X28.2105 Y-18.4558
G01 X28.3756 Y-18.8282
G01 X28.5269 Y-19.2197
G01 X28.6624 Y-19.6298
G01 X28.7711 Y-20.0224
G01 X28.8633 Y-20.4318
G01 X28.9371 Y-20.8574
G01 X28.9882 Y-21.2740
G01 X29.0182 Y-21.6802
G01 X29.0289 Y-22.1108
G01 X29.0289 Y-32.9754
G01 X29.0286 Y-32.9852
G01 X29.0266 Y-32.9948
G01 X29.0102 Y-33.0375
G01 X28.9998 Y-33.0748
G01 X28.9960 Y-33.0938
G01 X28.9911 Y-33.1323
G01 X28.9899 Y-33.1711
G01 X28.9926 Y-33.2097
G01 X28.9953 Y-33.2290
G01 X29.0035 Y-33.2669
G01 X29.0153 Y-33.3038
G01 X29.0307 Y-33.3394
G01 X29.0494 Y-33.3733
G01 X29.0713 Y-33.4053
G01 X29.0834 Y-33.4205
G01 X29.1097 Y-33.4489
G01 X29.1387 Y-33.4747
G01 X29.1700 Y-33.4976
G01 X29.1865 Y-33.5078
G01 X29.2208 Y-33.5259
G01 X29.2567 Y-33.5406
G01 X29.2938 Y-33.5517
G01 X29.3319 Y-33.5592
G01 X29.3511 Y-33.5615
G01 X29.3899 Y-33.5634
G01 X63.6444 Y-33.5634
G01 X63.6832 Y-33.5615
G01 X63.7024 Y-33.5592
G01 X63.7215 Y-33.5559
G01 X63.7592 Y-33.5466
G01 X63.7957 Y-33.5337
G01 X63.8135 Y-33.5259
G01 X63.8478 Y-33.5078
G01 X63.8643 Y-33.4976
G01 X63.8956 Y-33.4747
G01 X63.9246 Y-33.4489
G01 X63.9509 Y-33.4205
G01 X63.9630 Y-33.4053
G01 X63.9849 Y-33.3733
G01 X64.0036 Y-33.3394
G01 X64.0118 Y-33.3218
G01 X64.0254 Y-33.2855
G01 X64.0308 Y-33.2669
G01 X64.0390 Y-33.2290
G01 X64.0417 Y-33.2097
G01 X64.0444 Y-33.1711
G01 X64.0432 Y-33.1323
G01 X64.0383 Y-33.0938
G01 X64.0345 Y-33.0748
G01 X64.0241 Y-33.0375
G01 X64.0077 Y-32.9948
G01 X64.0057 Y-32.9852
G01 X64.0054 Y-32.9754
G01 X64.0054 Y-22.1843
G01 X64.0034 Y-22.1449
G01 X63.9990 Y-22.1121
G01 X63.9986 Y-22.0998
G01 X64.0086 Y-21.6931
G01 X64.0368 Y-21.2991
G01 X64.0848 Y-20.8950
G01 X64.1520 Y-20.4936
G01 X64.2382 Y-20.0959
G01 X64.3433 Y-19.7028
G01 X64.4708 Y-19.3038
G01 X64.6133 Y-18.9226
G01 X64.7737 Y-18.5486
G01 X64.9518 Y-18.1827
G01 X65.1471 Y-17.8257
G01 X65.3591 Y-17.4784
G01 X65.5805 Y-17.1512
G01 X65.8242 Y-16.8253
G01 X66.0831 Y-16.5113
G01 X66.3648 Y-16.2013
G01 X66.6528 Y-15.9138
G01 X66.9541 Y-15.6403
G01 X67.2681 Y-15.3814
G01 X67.5940 Y-15.1377
G01 X67.9312 Y-14.9099
G01 X68.2788 Y-14.6983
G01 X68.6361 Y-14.5035
G01 X68.9914 Y-14.3309
G01 X69.3654 Y-14.1705
G01 X69.7579 Y-14.0241
G01 X70.1456 Y-13.9005
G01 X70.5387 Y-13.7954
G01 X70.9364 Y-13.7092
G01 X71.3260 Y-13.6437
G01 X71.7300 Y-13.5951
G01 X72.1359 Y-13.5658
G01 X72.5536 Y-13.5557
G01 X85.2182 Y-13.5589
G01 X85.2569 Y-13.5570
G01 X85.2762 Y-13.5547
G01 X85.3142 Y-13.5472
G01 X85.3513 Y-13.5361
G01 X85.3694 Y-13.5293
G01 X85.3872 Y-13.5215
G01 X85.4056 Y-13.5123
G01 X85.4437 Y-13.5292
G01 X85.4696 Y-13.5386
G01 X85.4954 Y-13.5466
G01 X85.5215 Y-13.5534
G01 X85.5479 Y-13.5588
G01 X85.5819 Y-13.5638
G01 X85.6088 Y-13.5663
G01 X85.6456 Y-13.5676
G01 X90.2097 Y-13.5676
G01 X90.2463 Y-13.5663
G01 X90.2804 Y-13.5630
G01 X90.3069 Y-13.5589
G01 X90.3522 Y-13.5488
G01 X90.3849 Y-13.5389
G01 X90.4102 Y-13.5297
G01 X90.4527 Y-13.5110
G01 X90.4767 Y-13.4984
G01 X90.5138 Y-13.5239
G01 X90.5544 Y-13.5468
G01 X90.5855 Y-13.5615
G01 X90.6290 Y-13.5783
G01 X90.6618 Y-13.5883
G01 X90.7054 Y-13.5982
G01 X90.7413 Y-13.6035
G01 X90.7829 Y-13.6068
G01 X92.7894 Y-13.6073
G01 X92.8335 Y-13.6055
G01 X92.8798 Y-13.5998
G01 X92.9135 Y-13.5931
G01 X92.9396 Y-13.5863
G01 X92.9654 Y-13.5783
G01 X93.0089 Y-13.5615
G01 X93.0334 Y-13.5502
G01 X93.0573 Y-13.5376
G01 X93.0806 Y-13.5239
G01 X93.1031 Y-13.5090
G01 X93.1331 Y-13.4866
G01 X93.1531 Y-13.4986
G01 X93.1903 Y-13.5173
G01 X93.2130 Y-13.5267
G01 X93.2526 Y-13.5398
G01 X93.2764 Y-13.5457
G01 X93.3175 Y-13.5529
G01 X93.3419 Y-13.5553
G01 X93.3738 Y-13.5564
G01 X99.4161 Y-13.5563
G01 X99.4382 Y-13.5553
G01 X99.4602 Y-13.5532
G01 X99.4844 Y-13.5496
G01 X99.5061 Y-13.5452
G01 X99.5275 Y-13.5398
G01 X99.5671 Y-13.5267
G01 X99.5875 Y-13.5183
G01 X99.6075 Y-13.5089
G01 X99.6292 Y-13.4973
G01 X99.6481 Y-13.4859
G01 X99.6664 Y-13.4736
G01 X99.6841 Y-13.4604
G01 X99.7012 Y-13.4463
G01 X99.7314 Y-13.4176
G01 X99.7462 Y-13.4013
G01 X99.7603 Y-13.3842
G01 X99.7807 Y-13.3561
G01 X99.7985 Y-13.3271
G01 X99.8088 Y-13.3076
G01 X99.8182 Y-13.2876
G01 X99.8266 Y-13.2672
G01 X99.8340 Y-13.2464
G01 X99.8403 Y-13.2252
G01 X99.8456 Y-13.2038
G01 X99.8528 Y-13.1627
G01 X99.8552 Y-13.1383
G01 X99.8563 Y-13.1064
G01 X99.8563 Y-7.3120
G01 X99.8552 Y-7.2801
G01 X99.8528 Y-7.2557
G01 X99.8495 Y-7.2339
G01 X99.8403 Y-7.1932
G01 X99.8329 Y-7.1687
G01 X99.8182 Y-7.1308
G01 X99.8077 Y-7.1086
G01 X99.7972 Y-7.0890
G01 X99.8145 Y-7.0609
G01 X99.8308 Y-7.0304
G01 X99.8495 Y-6.9883
G01 X99.8612 Y-6.9554
G01 X99.8737 Y-6.9105
G01 X99.8804 Y-6.8768
G01 X99.8861 Y-6.8305
G01 X99.8878 Y-6.7962
G01 X99.8876 Y0.2554
G01 X99.8861 Y0.2823
G01 X99.8832 Y0.3092
G01 X99.8753 Y0.3551
G01 X99.8689 Y0.3814
G01 X99.8612 Y0.4072
G01 X99.8496 Y0.4396
G01 X99.8308 Y0.4822
G01 X99.8182 Y0.5061
G01 X99.8045 Y0.5294
G01 X99.7907 Y0.5503
G01 X99.7752 Y0.5718
G01 X99.7567 Y0.5947
G01 X99.7421 Y0.6112
G01 X99.7144 Y0.6391
G01 X99.6943 Y0.6571
G01 X99.6733 Y0.6741
G01 X99.6352 Y0.7009
G01 X99.6121 Y0.7150
G01 X99.5884 Y0.7278
G01 X99.5641 Y0.7396
G01 X99.5397 Y0.7499
G01 X99.5068 Y0.7616
G01 X99.4810 Y0.7693
G01 X99.4547 Y0.7757
G01 X99.4088 Y0.7836
G01 X99.3746 Y0.7870
G01 X99.3378 Y0.7883
G01 X77.5494 Y0.7883
G01 X77.5053 Y0.7865
G01 X77.4784 Y0.7836
G01 X77.4517 Y0.7795
G01 X77.4062 Y0.7693
G01 X77.3804 Y0.7616
G01 X77.3557 Y0.7530
G01 X77.3333 Y0.7692
G01 X77.2996 Y0.7894
G01 X77.2642 Y0.8062
G01 X77.2458 Y0.8132
G01 X77.2083 Y0.8246
G01 X77.1698 Y0.8323
G01 X77.1503 Y0.8347
G01 X77.1111 Y0.8366
G01 X56.7382 Y0.8366
G01 X56.6986 Y0.8346
G01 X56.6593 Y0.8287
G01 X56.6208 Y0.8190
G01 X56.5863 Y0.8066
G01 X56.5659 Y0.8139
G01 X56.5355 Y0.8235
G01 X56.5046 Y0.8315
G01 X56.4734 Y0.8380
G01 X56.4443 Y0.8427
G01 X56.4134 Y0.8462
G01 X56.3832 Y0.8482
G01 X56.3562 Y0.8487
G01 X30.8372 Y0.8487
G01 X30.8151 Y0.8483
G01 X30.7833 Y0.8464
G01 X30.7515 Y0.8430
G01 X30.7200 Y0.8380
G01 X30.6888 Y0.8315
G01 X30.6579 Y0.8235
G01 X30.6275 Y0.8139
G01 X30.5983 Y0.8032
G01 X30.5732 Y0.8132
G01 X30.5546 Y0.8194
G01 X30.5165 Y0.8289
G01 X30.4777 Y0.8347
G01 X30.4385 Y0.8366
G01 X-0.3969 Y0.8366
G01 X-0.4361 Y0.8347
G01 X-0.4749 Y0.8289
G01 X-0.5130 Y0.8194
G01 X-0.5500 Y0.8062
G01 X-0.5855 Y0.7894
G01 X-0.6191 Y0.7692
G01 X-0.6507 Y0.7458
G01 X-0.6797 Y0.7194
G01 X-0.7061 Y0.6904
G01 X-0.7295 Y0.6588
G01 X-0.7497 Y0.6252
G01 X-0.7665 Y0.5897
G01 X-0.7797 Y0.5527
G01 X-0.7892 Y0.5146
G01 X-0.7950 Y0.4758
G01 X-0.7969 Y0.4366
G00 X-0.7969 Y0.4366
G01 F80.00
G01 Z-0.6500
G01 F50.00
G01 X-0.7969 Y-13.4458
G01 X-0.7950 Y-13.4849
G01 X-0.7926 Y-13.5043
G01 X-0.7850 Y-13.5427
G01 X-0.7736 Y-13.5802
G01 X-0.7666 Y-13.5985
G01 X-0.7587 Y-13.6164
G01 X-0.7403 Y-13.6509
G01 X-0.7186 Y-13.6835
G01 X-0.7066 Y-13.6990
G01 X-0.6804 Y-13.7280
G01 X-0.6514 Y-13.7544
G01 X-0.6360 Y-13.7665
G01 X-0.6035 Y-13.7883
G01 X-0.5691 Y-13.8069
G01 X-0.5329 Y-13.8220
G01 X-0.5144 Y-13.8282
G01 X-0.4764 Y-13.8378
G01 X-0.4377 Y-13.8437
G01 X-0.3987 Y-13.8458
G01 X-0.3595 Y-13.8441
G01 X-0.3401 Y-13.8417
G01 X-0.3017 Y-13.8343
G01 X-0.2642 Y-13.8231
G01 X-0.2279 Y-13.8084
G01 X-0.1808 Y-13.7844
G01 X-0.1634 Y-13.7743
G01 X-0.1466 Y-13.7634
G01 X-0.1304 Y-13.7516
G01 X-0.1148 Y-13.7391
G01 X-0.0998 Y-13.7257
G01 X-0.0856 Y-13.7117
G01 X-0.0720 Y-13.6969
G01 X-0.0592 Y-13.6815
G01 X-0.0472 Y-13.6655
G01 X-0.0360 Y-13.6488
G01 X-0.0256 Y-13.6317
G01 X-0.0162 Y-13.6140
G01 X-0.0045 Y-13.5892
G01 X0.0026 Y-13.5792
G01 X0.0099 Y-13.5726
G01 X0.0205 Y-13.5665
G01 X0.0323 Y-13.5632
G01 X0.0446 Y-13.5626
G01 X20.4004 Y-13.5626
G01 X20.4396 Y-13.5606
G01 X20.4787 Y-13.5557
G01 X20.8921 Y-13.5658
G01 X21.3106 Y-13.5964
G01 X21.7272 Y-13.6475
G01 X22.1407 Y-13.7189
G01 X22.5502 Y-13.8106
G01 X22.9548 Y-13.9222
G01 X23.3534 Y-14.0535
G01 X23.7450 Y-14.2043
G01 X24.1288 Y-14.3741
G01 X24.5038 Y-14.5625
G01 X24.8691 Y-14.7691
G01 X25.2238 Y-14.9933
G01 X25.5671 Y-15.2347
G01 X25.8981 Y-15.4927
G01 X26.2251 Y-15.7748
G01 X26.5289 Y-16.0644
G01 X26.8180 Y-16.3686
G01 X27.0919 Y-16.6865
G01 X27.3425 Y-17.0077
G01 X27.5913 Y-17.3608
G01 X27.8092 Y-17.7050
G01 X28.0163 Y-18.0700
G01 X28.2105 Y-18.4558
G01 X28.3756 Y-18.8282
G01 X28.5269 Y-19.2197
G01 X28.6624 Y-19.6298
G01 X28.7711 Y-20.0224
G01 X28.8633 Y-20.4318
G01 X28.9371 Y-20.8574
G01 X28.9882 Y-21.2740
G01 X29.0182 Y-21.6802
G01 X29.0289 Y-22.1108
G01 X29.0289 Y-32.9754
G01 X29.0286 Y-32.9852
G01 X29.0266 Y-32.9948
G01 X29.0102 Y-33.0375
G01 X28.9998 Y-33.0748
G01 X28.9960 Y-33.0938
G01 X28.9911 Y-33.1323
G01 X28.9899 Y-33.1711
G01 X28.9926 Y-33.2097
G01 X28.9953 Y-33.2290
G01 X29.0035 Y-33.2669
G01 X29.0153 Y-33.3038
G01 X29.0307 Y-33.3394
G01 X29.0494 Y-33.3733
G01 X29.0713 Y-33.4053
G01 X29.0834 Y-33.4205
G01 X29.1097 Y-33.4489
G01 X29.1387 Y-33.4747
G01 X29.1700 Y-33.4976
G01 X29.1865 Y-33.5078
G01 X29.2208 Y-33.5259
G01 X29.2567 Y-33.5406
G01 X29.2938 Y-33.5517
G01 X29.3319 Y-33.5592
G01 X29.3511 Y-33.5615
G01 X29.3899 Y-33.5634
G01 X63.6444 Y-33.5634
G01 X63.6832 Y-33.5615
G01 X63.7024 Y-33.5592
G01 X63.7215 Y-33.5559
G01 X63.7592 Y-33.5466
G01 X63.7957 Y-33.5337
G01 X63.8135 Y-33.5259
G01 X63.8478 Y-33.5078
G01 X63.8643 Y-33.4976
G01 X63.8956 Y-33.4747
G01 X63.9246 Y-33.4489
G01 X63.9509 Y-33.4205
G01 X63.9630 Y-33.4053
G01 X63.9849 Y-33.3733
G01 X64.0036 Y-33.3394
G01 X64.0118 Y-33.3218
G01 X64.0254 Y-33.2855
G01 X64.0308 Y-33.2669
G01 X64.0390 Y-33.2290
G01 X64.0417 Y-33.2097
G01 X64.0444 Y-33.1711
G01 X64.0432 Y-33.1323
G01 X64.0383 Y-33.0938
