(G-CODE GENERATED BY FLATCAM v8.95 - www.flatcam.org - Version Date: 2019/08/17)

(Name: Syntez2_Ф1_верх.gbr_iso_cnc)
(Type: G-code from Geometry)
(Units: MM)

(Created on Tuesday, 15 September 2020 at 01:27)

(TOOL DIAMETER: 0.14 mm)
(Feedrate: 60.0 mm/min)
(Feedrate_Z: 79.9998 mm/min)
(Feedrate rapids 79.9998 mm/min)

(Z_Cut: -0.0746 mm)
(Z_Move: 3.0 mm)
(Z Toolchange: 12.7 mm)
(X,Y Toolchange: 0.0000, 0.0000 mm)
(Z Start: None mm)
(Z End: 12.7 mm)
(Steps per circle: 128)
(Postprocessor Geometry: default)

(X range:   -0.4669 ...   99.5579  mm)
(Y range:  -33.2334 ...    0.5187  mm)

(Spindle Speed: None RPM)

G21
G90
G94

G01 F60.00
G00 Z3.0000

M03
G00 X0.5640 Y-0.1368
G01 F80.00
G01 Z-0.0746
G01 F60.00
G01 X0.2320 Y-0.4688
G01 X0.2295 Y-0.4721
G01 X0.2286 Y-0.4762
G01 X0.2302 Y-0.4815
G01 X0.2345 Y-0.4850
G01 X0.2400 Y-0.4855
G01 X0.2445 Y-0.4833
G01 X0.4424 Y-0.2854
G01 X0.4502 Y-0.2787
G01 X0.4589 Y-0.2732
G01 X0.4715 Y-0.2679
G01 X0.4816 Y-0.2657
G01 X0.4953 Y-0.2650
G01 X0.5089 Y-0.2670
G01 X0.5218 Y-0.2716
G01 X0.5336 Y-0.2787
G01 X0.5437 Y-0.2879
G01 X0.5519 Y-0.2989
G01 X0.5551 Y-0.3050
G01 X0.5588 Y-0.3146
G01 X0.5611 Y-0.3247
G01 X0.5619 Y-0.3349
G01 X0.5619 Y-1.0323
G01 X0.5628 Y-1.0359
G01 X0.5647 Y-1.0385
G01 X0.5678 Y-1.0406
G01 X0.5714 Y-1.0413
G01 X0.5755 Y-1.0404
G01 X0.5785 Y-1.0382
G01 X0.5804 Y-1.0350
G01 X0.5809 Y-1.0309
G01 X0.5809 Y-0.1438
G01 X0.5796 Y-0.1380
G01 X0.5750 Y-0.1341
G01 X0.5691 Y-0.1337
G01 X0.5640 Y-0.1368
G00 Z3.0000
G00 X0.9406 Y-0.1942
G01 F80.00
G01 Z-0.0746
G01 F60.00
G01 X0.8739 Y-0.3054
G01 X0.8730 Y-0.3090
G01 X0.8735 Y-0.3127
G01 X0.8754 Y-0.3159
G01 X0.8784 Y-0.3181
G01 X0.8816 Y-0.3190
G01 X0.8848 Y-0.3187
G01 X0.8878 Y-0.3174
G01 X0.8901 Y-0.3152
G01 X0.9457 Y-0.2229
G01 X0.9521 Y-0.2148
G01 X0.9595 Y-0.2077
G01 X0.9679 Y-0.2018
G01 X0.9770 Y-0.1972
G01 X1.0715 Y-0.1578
G01 X1.0847 Y-0.1538
G01 X1.0984 Y-0.1524
G01 X1.2000 Y-0.1524
G01 X1.2069 Y-0.1528
G01 X1.2171 Y-0.1546
G01 X1.2269 Y-0.1578
G01 X1.3245 Y-0.1985
G01 X1.3305 Y-0.2018
G01 X1.3389 Y-0.2077
G01 X1.3440 Y-0.2123
G01 X1.3507 Y-0.2201
G01 X1.3981 Y-0.2985
G01 X1.4023 Y-0.3079
G01 X1.4043 Y-0.3145
G01 X1.4060 Y-0.3247
G01 X1.4064 Y-0.3315
G01 X1.4063 Y-0.4020
G01 X1.4050 Y-0.4122
G01 X1.4010 Y-0.4254
G01 X1.3964 Y-0.4346
G01 X1.3527 Y-0.5073
G01 X1.3463 Y-0.5154
G01 X1.3389 Y-0.5225
G01 X1.3305 Y-0.5284
G01 X1.3214 Y-0.5331
G01 X1.2118 Y-0.5787
G01 X1.2075 Y-0.5828
G01 X1.2064 Y-0.5882
G01 X1.2082 Y-0.5930
G01 X1.2118 Y-0.5959
G01 X1.3276 Y-0.6446
G01 X1.3334 Y-0.6481
G01 X1.3415 Y-0.6544
G01 X1.3507 Y-0.6645
G01 X1.3964 Y-0.7400
G01 X1.4010 Y-0.7492
G01 X1.4033 Y-0.7557
G01 X1.4050 Y-0.7624
G01 X1.4063 Y-0.7726
G01 X1.4060 Y-0.8499
G01 X1.4050 Y-0.8567
G01 X1.4023 Y-0.8667
G01 X1.3964 Y-0.8791
G01 X1.3526 Y-0.9518
G01 X1.3463 Y-0.9598
G01 X1.3389 Y-0.9669
G01 X1.3305 Y-0.9728
G01 X1.3214 Y-0.9775
G01 X1.2269 Y-1.0169
G01 X1.2171 Y-1.0201
G01 X1.2034 Y-1.0222
G01 X1.0984 Y-1.0223
G01 X1.0847 Y-1.0209
G01 X1.0715 Y-1.0169
G01 X0.9739 Y-0.9761
G01 X0.9650 Y-0.9710
G01 X0.9595 Y-0.9669
G01 X0.9544 Y-0.9623
G01 X0.9477 Y-0.9546
G01 X0.8895 Y-0.8587
G01 X0.8870 Y-0.8567
G01 X0.8839 Y-0.8557
G01 X0.8802 Y-0.8559
G01 X0.8772 Y-0.8572
G01 X0.8749 Y-0.8594
G01 X0.8733 Y-0.8628
G01 X0.8731 Y-0.8665
G01 X0.8741 Y-0.8696
G01 X0.9406 Y-0.9804
G01 X0.9432 Y-0.9836
G01 X1.0802 Y-1.0410
G01 X1.2178 Y-1.0411
G01 X1.3537 Y-0.9846
G01 X1.3578 Y-0.9804
G01 X1.4236 Y-0.8707
G01 X1.4254 Y-0.8660
G01 X1.4250 Y-0.7512
G01 X1.3578 Y-0.6387
G01 X1.3509 Y-0.6304
G01 X1.3452 Y-0.6218
G01 X1.3421 Y-0.6157
G01 X1.3386 Y-0.6060
G01 X1.3366 Y-0.5959
G01 X1.3361 Y-0.5891
G01 X1.3363 Y-0.5822
G01 X1.3378 Y-0.5720
G01 X1.3408 Y-0.5622
G01 X1.3452 Y-0.5529
G01 X1.3509 Y-0.5443
G01 X1.3578 Y-0.5360
G01 X1.4250 Y-0.4234
G01 X1.4254 Y-0.3104
G01 X1.4243 Y-0.3050
G01 X1.3578 Y-0.1942
G01 X1.3552 Y-0.1910
G01 X1.2182 Y-0.1337
G01 X1.0806 Y-0.1336
G01 X0.9463 Y-0.1893
G01 X0.9428 Y-0.1913
G01 X0.9406 Y-0.1942
G00 Z3.0000
G00 X2.2408 Y-0.2955
G01 F80.00
G01 Z-0.0746
G01 F60.00
G01 X2.1971 Y-0.2229
G01 X2.1907 Y-0.2148
G01 X2.1806 Y-0.2056
G01 X2.1720 Y-0.2001
G01 X2.1658 Y-0.1972
G01 X2.0713 Y-0.1578
G01 X2.0615 Y-0.1546
G01 X2.0547 Y-0.1532
G01 X2.0444 Y-0.1524
G01 X1.9428 Y-0.1524
G01 X1.9359 Y-0.1528
G01 X1.9257 Y-0.1546
G01 X1.9159 Y-0.1578
G01 X1.8183 Y-0.1985
G01 X1.8094 Y-0.2036
G01 X1.8039 Y-0.2077
G01 X1.7965 Y-0.2148
G01 X1.7901 Y-0.2229
G01 X1.7447 Y-0.2985
G01 X1.7395 Y-0.3112
G01 X1.7368 Y-0.3247
G01 X1.7365 Y-0.8465
G01 X1.7378 Y-0.8567
G01 X1.7395 Y-0.8634
G01 X1.7418 Y-0.8699
G01 X1.7464 Y-0.8791
G01 X1.7902 Y-0.9518
G01 X1.7988 Y-0.9623
G01 X1.8094 Y-0.9710
G01 X1.8214 Y-0.9775
G01 X1.9159 Y-1.0169
G01 X1.9291 Y-1.0209
G01 X1.9428 Y-1.0223
G01 X2.0478 Y-1.0222
G01 X2.0581 Y-1.0209
G01 X2.0681 Y-1.0181
G01 X2.1689 Y-0.9761
G01 X2.1778 Y-0.9710
G01 X2.1859 Y-0.9647
G01 X2.1930 Y-0.9573
G01 X2.1970 Y-0.9518
G01 X2.2425 Y-0.8761
G01 X2.2477 Y-0.8634
G01 X2.2500 Y-0.8533
G01 X2.2507 Y-0.8465
G01 X2.2508 Y-0.3315
G01 X2.2500 Y-0.3213
G01 X2.2477 Y-0.3112
G01 X2.2440 Y-0.3016
G01 X2.2408 Y-0.2955
G00 Z3.0000
G00 X2.2681 Y-0.3039
G01 F80.00
G01 Z-0.0746
G01 F60.00
G01 X2.2022 Y-0.1942
G01 X2.1996 Y-0.1910
G01 X2.0626 Y-0.1337
G01 X1.9250 Y-0.1336
G01 X1.7907 Y-0.1893
G01 X1.7860 Y-0.1927
G01 X1.7192 Y-0.3039
G01 X1.7174 Y-0.3086
G01 X1.7174 Y-0.8642
G01 X1.7177 Y-0.8674
G01 X1.7192 Y-0.8707
G01 X1.7850 Y-0.9804
G01 X1.7883 Y-0.9841
G01 X1.9250 Y-1.0411
G01 X2.0594 Y-1.0413
G01 X2.0648 Y-1.0403
G01 X2.1965 Y-0.9853
G01 X2.2012 Y-0.9819
G01 X2.2680 Y-0.8707
G01 X2.2698 Y-0.8660
G01 X2.2698 Y-0.3103
G01 X2.2695 Y-0.3072
G01 X2.2681 Y-0.3039
G00 Z3.0000
G00 X2.9808 Y-1.0309
G01 F80.00
G01 Z-0.0746
G01 F60.00
G01 X2.9808 Y-0.5327
G01 X2.9804 Y-0.5290
G01 X2.9787 Y-0.5258
G01 X2.9741 Y-0.5227
G01 X2.9681 Y-0.5228
G01 X2.9637 Y-0.5261
G01 X2.9618 Y-0.5313
G01 X2.9618 Y-0.8941
G01 X2.9604 Y-0.9079
G01 X2.9564 Y-0.9211
G01 X2.9498 Y-0.9333
G01 X2.9141 Y-0.9809
G01 X2.9047 Y-0.9903
G01 X2.8937 Y-0.9978
G01 X2.8814 Y-1.0030
G01 X2.8717 Y-1.0053
G01 X2.7828 Y-1.0202
G01 X2.7696 Y-1.0211
G01 X2.7598 Y-1.0202
G01 X2.6677 Y-1.0047
G01 X2.6581 Y-1.0019
G01 X2.6490 Y-0.9978
G01 X2.6380 Y-0.9903
G01 X2.6286 Y-0.9809
G01 X2.5928 Y-0.9333
G01 X2.5863 Y-0.9211
G01 X2.5822 Y-0.9079
G01 X2.5808 Y-0.8941
G01 X2.5808 Y-0.5313
G01 X2.5789 Y-0.5261
G01 X2.5749 Y-0.5230
G01 X2.5699 Y-0.5224
G01 X2.5653 Y-0.5244
G01 X2.5625 Y-0.5282
G01 X2.5618 Y-0.5327
G01 X2.5619 Y-0.9220
G01 X2.5642 Y-0.9270
G01 X2.6307 Y-1.0156
G01 X2.6334 Y-1.0179
G01 X2.6372 Y-1.0190
G01 X2.7711 Y-1.0413
G01 X2.9106 Y-1.0185
G01 X2.9276 Y-1.0194
G01 X2.9407 Y-1.0231
G01 X2.9529 Y-1.0293
G01 X2.9656 Y-1.0394
G01 X2.9694 Y-1.0411
G01 X2.9741 Y-1.0409
G01 X2.9777 Y-1.0389
G01 X2.9801 Y-1.0354
G01 X2.9808 Y-1.0309
G00 Z3.0000
G00 X3.7963 Y-0.2955
G01 F80.00
G01 Z-0.0746
G01 F60.00
G01 X3.7526 Y-0.2229
G01 X3.7462 Y-0.2148
G01 X3.7361 Y-0.2056
G01 X3.7304 Y-0.2018
G01 X3.7213 Y-0.1972
G01 X3.6268 Y-0.1578
G01 X3.6203 Y-0.1555
G01 X3.6102 Y-0.1532
G01 X3.5999 Y-0.1524
G01 X3.4983 Y-0.1524
G01 X3.4880 Y-0.1532
G01 X3.4812 Y-0.1546
G01 X3.4714 Y-0.1578
G01 X3.3738 Y-0.1985
G01 X3.3649 Y-0.2036
G01 X3.3568 Y-0.2099
G01 X3.3520 Y-0.2148
G01 X3.3456 Y-0.2229
G01 X3.3002 Y-0.2985
G01 X3.2950 Y-0.3112
G01 X3.2923 Y-0.3247
G01 X3.2920 Y-0.8465
G01 X3.2927 Y-0.8533
G01 X3.2950 Y-0.8634
G01 X3.2973 Y-0.8699
G01 X3.3019 Y-0.8791
G01 X3.3457 Y-0.9518
G01 X3.3543 Y-0.9623
G01 X3.3649 Y-0.9710
G01 X3.3769 Y-0.9775
G01 X3.4714 Y-1.0169
G01 X3.4846 Y-1.0209
G01 X3.4983 Y-1.0223
G01 X3.6033 Y-1.0222
G01 X3.6136 Y-1.0209
G01 X3.6236 Y-1.0181
G01 X3.7244 Y-0.9761
G01 X3.7333 Y-0.9710
G01 X3.7414 Y-0.9647
G01 X3.7485 Y-0.9573
G01 X3.7525 Y-0.9518
G01 X3.7980 Y-0.8761
G01 X3.8032 Y-0.8634
G01 X3.8055 Y-0.8533
G01 X3.8062 Y-0.8465
G01 X3.8063 Y-0.3315
G01 X3.8055 Y-0.3213
G01 X3.8032 Y-0.3112
G01 X3.7995 Y-0.3016
G01 X3.7963 Y-0.2955
G00 Z3.0000
G00 X3.8236 Y-0.3039
G01 F80.00
G01 Z-0.0746
G01 F60.00
G01 X3.7577 Y-0.1942
G01 X3.7551 Y-0.1910
G01 X3.6181 Y-0.1337
G01 X3.4805 Y-0.1336
G01 X3.3462 Y-0.1893
G01 X3.3415 Y-0.1927
G01 X3.2747 Y-0.3039
G01 X3.2729 Y-0.3086
G01 X3.2729 Y-0.8642
G01 X3.2732 Y-0.8674
G01 X3.2747 Y-0.8707
G01 X3.3405 Y-0.9804
G01 X3.3438 Y-0.9841
G01 X3.4805 Y-1.0411
G01 X3.6149 Y-1.0413
G01 X3.6203 Y-1.0403
G01 X3.7520 Y-0.9853
G01 X3.7567 Y-0.9819
G01 X3.8235 Y-0.8707
G01 X3.8253 Y-0.8660
G01 X3.8253 Y-0.3103
G01 X3.8250 Y-0.3072
G01 X3.8236 Y-0.3039
G00 Z3.0000
G00 X4.1277 Y-1.0413
G01 F80.00
G01 Z-0.0746
G01 F60.00
G01 X4.6593 Y-1.0413
G01 X4.6647 Y-1.0402
G01 X4.6686 Y-1.0363
G01 X4.6697 Y-1.0318
G01 X4.6686 Y-1.0273
G01 X4.6655 Y-1.0239
G01 X4.6607 Y-1.0223
G01 X4.2339 Y-1.0223
G01 X4.2237 Y-1.0215
G01 X4.2136 Y-1.0192
G01 X4.2040 Y-1.0155
G01 X4.1950 Y-1.0105
G01 X4.1844 Y-1.0017
G01 X4.1757 Y-0.9911
G01 X4.1707 Y-0.9822
G01 X4.1660 Y-0.9692
G01 X4.1643 Y-0.9591
G01 X4.1640 Y-0.9488
G01 X4.1647 Y-0.9419
G01 X4.1670 Y-0.9319
G01 X4.1707 Y-0.9223
G01 X4.1965 Y-0.8787
G01 X4.2050 Y-0.8683
G01 X4.5999 Y-0.5388
G01 X4.6686 Y-0.4251
G01 X4.6697 Y-0.4197
G01 X4.6693 Y-0.3067
G01 X4.6021 Y-0.1942
G01 X4.5980 Y-0.1900
G01 X4.4621 Y-0.1336
G01 X4.3245 Y-0.1337
G01 X4.1875 Y-0.1910
G01 X4.1849 Y-0.1942
G01 X4.1184 Y-0.3050
G01 X4.1174 Y-0.3081
G01 X4.1176 Y-0.3118
G01 X4.1189 Y-0.3148
G01 X4.1211 Y-0.3171
G01 X4.1245 Y-0.3187
G01 X4.1277 Y-0.3190
G01 X4.1313 Y-0.3179
G01 X4.1338 Y-0.3159
G01 X4.1920 Y-0.2201
G01 X4.1987 Y-0.2123
G01 X4.2038 Y-0.2077
G01 X4.2122 Y-0.2018
G01 X4.2182 Y-0.1985
G01 X4.3158 Y-0.1578
G01 X4.3290 Y-0.1538
G01 X4.3427 Y-0.1524
G01 X4.4478 Y-0.1525
G01 X4.4614 Y-0.1546
G01 X4.4712 Y-0.1578
G01 X4.5688 Y-0.1985
G01 X4.5777 Y-0.2036
G01 X4.5858 Y-0.2099
G01 X4.5906 Y-0.2148
G01 X4.5970 Y-0.2229
G01 X4.6424 Y-0.2985
G01 X4.6453 Y-0.3047
G01 X4.6486 Y-0.3145
G01 X4.6503 Y-0.3247
G01 X4.6507 Y-0.3315
G01 X4.6506 Y-0.4020
G01 X4.6499 Y-0.4089
G01 X4.6476 Y-0.4189
G01 X4.6453 Y-0.4254
G01 X4.6407 Y-0.4346
G01 X4.5885 Y-0.5209
G01 X4.5770 Y-0.5331
G01 X4.1864 Y-0.8587
G01 X4.1177 Y-0.9734
G01 X4.1174 Y-1.0332
G01 X4.1184 Y-1.0363
G01 X4.1208 Y-1.0392
G01 X4.1240 Y-1.0409
G01 X4.1277 Y-1.0413
G00 Z3.0000
G00 X5.3086 Y-2.0793
G01 F80.00
G01 Z-0.0746
G01 F60.00
G01 X5.3904 Y-2.1109
G01 X5.5026 Y-2.1606
G01 X5.6153 Y-2.2173
G01 X5.7251 Y-2.2794
G01 X5.8317 Y-2.3468
G01 X5.9349 Y-2.4194
G01 X6.0343 Y-2.4969
G01 X6.1299 Y-2.5792
G01 X6.2213 Y-2.6661
G01 X6.3084 Y-2.7574
G01 X6.3908 Y-2.8529
G01 X6.4685 Y-2.9523
G01 X6.5431 Y-3.0582
G01 X6.6105 Y-3.1648
G01 X6.6726 Y-3.2746
G01 X6.7293 Y-3.3873
G01 X6.7790 Y-3.4996
G01 X6.8106 Y-3.5813
G01 X6.8749 Y-3.5813
G01 X6.8351 Y-3.4782
G01 X6.7828 Y-3.3601
G01 X6.7247 Y-3.2448
G01 X6.6611 Y-3.1325
G01 X6.5920 Y-3.0235
G01 X6.5177 Y-2.9179
G01 X6.4383 Y-2.8162
G01 X6.3540 Y-2.7184
G01 X6.2650 Y-2.6249
G01 X6.1715 Y-2.5359
G01 X6.0737 Y-2.4516
G01 X5.9720 Y-2.3722
G01 X5.8664 Y-2.2979
G01 X5.7574 Y-2.2288
G01 X5.6451 Y-2.1652
G01 X5.5298 Y-2.1071
G01 X5.4117 Y-2.0548
G01 X5.3086 Y-2.0150
G01 X5.3086 Y-2.0793
G00 Z3.0000
G00 X8.1569 Y-0.1224
G01 F80.00
G01 Z-0.0746
G01 F60.00
G01 X8.1090 Y-0.0428
G01 X8.1004 Y-0.0323
G01 X8.0926 Y-0.0256
G01 X8.0869 Y-0.0217
G01 X8.0778 Y-0.0171
G01 X7.9738 Y0.0262
G01 X7.9673 Y0.0285
G01 X7.9572 Y0.0308
G01 X7.9469 Y0.0316
G01 X7.8353 Y0.0316
G01 X7.8250 Y0.0308
G01 X7.8182 Y0.0294
G01 X7.8084 Y0.0262
G01 X7.6983 Y-0.0201
G01 X7.6896 Y-0.0256
G01 X7.6818 Y-0.0323
G01 X7.6751 Y-0.0400
G01 X7.6713 Y-0.0457
G01 X7.6236 Y-0.1254
G01 X7.6184 Y-0.1381
G01 X7.6157 Y-0.1516
G01 X7.6154 Y-0.7245
G01 X7.6161 Y-0.7313
G01 X7.6184 Y-0.7414
G01 X7.6207 Y-0.7479
G01 X7.6253 Y-0.7571
G01 X7.6732 Y-0.8367
G01 X7.6818 Y-0.8472
G01 X7.6896 Y-0.8539
G01 X7.6953 Y-0.8578
G01 X7.7044 Y-0.8624
G01 X7.8084 Y-0.9057
G01 X7.8216 Y-0.9097
G01 X7.8353 Y-0.9111
G01 X7.9503 Y-0.9110
G01 X7.9606 Y-0.9097
G01 X7.9706 Y-0.9069
G01 X8.0809 Y-0.8610
G01 X8.0898 Y-0.8559
G01 X8.0979 Y-0.8496
G01 X8.1050 Y-0.8422
G01 X8.1109 Y-0.8338
G01 X8.1586 Y-0.7541
G01 X8.1638 Y-0.7414
G01 X8.1655 Y-0.7347
G01 X8.1668 Y-0.7245
G01 X8.1669 Y-0.1584
G01 X8.1661 Y-0.1482
G01 X8.1638 Y-0.1381
G01 X8.1615 Y-0.1316
G01 X8.1569 Y-0.1224
G00 Z3.0000
G00 X8.1990 Y-0.1245
G01 F80.00
G01 Z-0.0746
G01 F60.00
G01 X8.1266 Y-0.0037
G01 X8.1222 Y0.0015
G01 X8.1171 Y0.0045
G01 X7.9687 Y0.0661
G01 X7.9635 Y0.0666
G01 X7.8144 Y0.0663
G01 X7.6651 Y0.0045
G01 X7.6606 Y0.0021
G01 X7.6570 Y-0.0016
G01 X7.5832 Y-0.1244
G01 X7.5813 Y-0.1283
G01 X7.5804 Y-0.1325
G01 X7.5803 Y-0.7444
G01 X7.5810 Y-0.7504
G01 X7.5832 Y-0.7551
G01 X7.6556 Y-0.8758
G01 X7.6606 Y-0.8816
G01 X7.6651 Y-0.8840
G01 X7.8144 Y-0.9458
G01 X7.9635 Y-0.9461
G01 X7.9719 Y-0.9445
G01 X8.1171 Y-0.8840
G01 X8.1216 Y-0.8816
G01 X8.1252 Y-0.8779
G01 X8.1990 Y-0.7551
G01 X8.2009 Y-0.7512
G01 X8.2018 Y-0.7470
G01 X8.2019 Y-0.1350
G01 X8.2014 Y-0.1299
G01 X8.1990 Y-0.1245
G00 Z3.0000
G00 X8.9842 Y-0.9277
G01 F80.00
G01 Z-0.0746
G01 F60.00
G01 X8.9842 Y-0.3795
G01 X8.9832 Y-0.3727
G01 X8.9802 Y-0.3675
G01 X8.9764 Y-0.3640
G01 X8.9718 Y-0.3618
G01 X8.9667 Y-0.3611
G01 X8.9616 Y-0.3618
G01 X8.9570 Y-0.3640
G01 X8.9532 Y-0.3675
G01 X8.9505 Y-0.3719
G01 X8.9493 Y-0.3769
G01 X8.9492 Y-0.7772
G01 X8.9478 Y-0.7910
G01 X8.9437 Y-0.8042
G01 X8.9372 Y-0.8164
G01 X8.8983 Y-0.8682
G01 X8.8888 Y-0.8776
G01 X8.8778 Y-0.8851
G01 X8.8687 Y-0.8892
G01 X8.8558 Y-0.8927
G01 X8.7582 Y-0.9089
G01 X8.7451 Y-0.9098
G01 X8.7352 Y-0.9089
G01 X8.6342 Y-0.8920
G01 X8.6246 Y-0.8892
G01 X8.6155 Y-0.8851
G01 X8.6045 Y-0.8776
G01 X8.5950 Y-0.8682
G01 X8.5562 Y-0.8164
G01 X8.5497 Y-0.8042
G01 X8.5456 Y-0.7910
G01 X8.5442 Y-0.7772
G01 X8.5441 Y-0.3769
G01 X8.5432 Y-0.3727
G01 X8.5408 Y-0.3682
G01 X8.5378 Y-0.3651
G01 X8.5334 Y-0.3624
G01 X8.5293 Y-0.3613
G01 X8.5241 Y-0.3613
G01 X8.5192 Y-0.3628
G01 X8.5156 Y-0.3651
G01 X8.5109 Y-0.3711
G01 X8.5095 Y-0.3752
G01 X8.5092 Y-0.3795
G01 X8.5094 Y-0.8090
G01 X8.5105 Y-0.8132
G01 X8.5132 Y-0.8176
G01 X8.5865 Y-0.9154
G01 X8.5909 Y-0.9192
G01 X8.5963 Y-0.9213
G01 X8.7463 Y-0.9461
G01 X8.8938 Y-0.9219
G01 X8.9040 Y-0.9210
G01 X8.9175 Y-0.9220
G01 X8.9307 Y-0.9257
G01 X8.9428 Y-0.9319
G01 X8.9584 Y-0.9441
G01 X8.9633 Y-0.9458
G01 X8.9684 Y-0.9460
G01 X8.9742 Y-0.9444
G01 X8.9797 Y-0.9404
G01 X8.9832 Y-0.9345
G01 X8.9842 Y-0.9277
G00 Z3.0000
G00 X9.4983 Y-0.8803
G01 F80.00
G01 Z-0.0746
G01 F60.00
G01 X9.4866 Y-0.8679
G01 X9.4797 Y-0.8562
G01 X9.4751 Y-0.8433
G01 X9.4731 Y-0.8299
G01 X9.4730 Y-0.4661
G01 X9.4734 Y-0.4593
G01 X9.4751 Y-0.4491
G01 X9.4798 Y-0.4362
G01 X9.4830 Y-0.4302
G01 X9.4889 Y-0.4217
G01 X9.4960 Y-0.4143
G01 X9.5013 Y-0.4099
G01 X9.5131 Y-0.4029
G01 X9.5260 Y-0.3982
G01 X9.5362 Y-0.3965
G01 X9.6065 Y-0.3956
G01 X9.6119 Y-0.3932
G01 X9.6163 Y-0.3890
G01 X9.6190 Y-0.3837
G01 X9.6197 Y-0.3777
G01 X9.6187 Y-0.3727
G01 X9.6157 Y-0.3675
G01 X9.6112 Y-0.3636
G01 X9.6056 Y-0.3614
G01 X9.5396 Y-0.3610
G01 X9.5294 Y-0.3597
G01 X9.5163 Y-0.3557
G01 X9.5100 Y-0.3528
G01 X9.5013 Y-0.3473
G01 X9.4912 Y-0.3381
G01 X9.4830 Y-0.3270
G01 X9.4771 Y-0.3146
G01 X9.4744 Y-0.3047
G01 X9.4730 Y-0.2911
G01 X9.4730 Y0.0500
G01 X9.4713 Y0.0566
G01 X9.4673 Y0.0621
G01 X9.4614 Y0.0656
G01 X9.4546 Y0.0666
G01 X9.4480 Y0.0649
G01 X9.4431 Y0.0615
G01 X9.4393 Y0.0558
G01 X9.4380 Y0.0500
G01 X9.4380 Y-0.2911
G01 X9.4372 Y-0.3013
G01 X9.4339 Y-0.3146
G01 X9.4280 Y-0.3270
G01 X9.4198 Y-0.3381
G01 X9.4097 Y-0.3473
G01 X9.3979 Y-0.3543
G01 X9.3850 Y-0.3590
G01 X9.3748 Y-0.3607
G01 X9.3046 Y-0.3616
G01 X9.2992 Y-0.3640
G01 X9.2948 Y-0.3682
G01 X9.2921 Y-0.3735
G01 X9.2914 Y-0.3795
G01 X9.2924 Y-0.3845
G01 X9.2954 Y-0.3897
G01 X9.2999 Y-0.3936
G01 X9.3055 Y-0.3958
G01 X9.3748 Y-0.3965
G01 X9.3850 Y-0.3982
G01 X9.3979 Y-0.4029
G01 X9.4097 Y-0.4099
G01 X9.4150 Y-0.4143
G01 X9.4221 Y-0.4217
G01 X9.4297 Y-0.4331
G01 X9.4349 Y-0.4458
G01 X9.4372 Y-0.4559
G01 X9.4380 Y-0.4661
G01 X9.4380 Y-0.8666
G01 X9.4385 Y-0.8717
G01 X9.4404 Y-0.8764
G01 X9.4449 Y-0.8815
G01 X9.5170 Y-0.9415
G01 X9.5212 Y-0.9444
G01 X9.5261 Y-0.9459
G01 X9.5303 Y-0.9461
G01 X9.5352 Y-0.9450
G01 X9.6085 Y-0.9205
G01 X9.6123 Y-0.9185
G01 X9.6155 Y-0.9156
G01 X9.6179 Y-0.9120
G01 X9.6193 Y-0.9080
G01 X9.6195 Y-0.9012
G01 X9.6170 Y-0.8948
G01 X9.6123 Y-0.8899
G01 X9.6060 Y-0.8871
G01 X9.6017 Y-0.8867
G01 X9.5975 Y-0.8873
G01 X9.5631 Y-0.8984
G01 X9.5530 Y-0.8999
G01 X9.5429 Y-0.9000
G01 X9.5295 Y-0.8978
G01 X9.5199 Y-0.8945
G01 X9.5081 Y-0.8880
G01 X9.4983 Y-0.8803
G00 Z3.0000
G00 X10.2838 Y-0.9277
G01 F80.00
G01 Z-0.0746
G01 F60.00
G01 X10.2848 Y-0.9345
G01 X10.2883 Y-0.9404
G01 X10.2938 Y-0.9444
G01 X10.3004 Y-0.9461
G01 X10.3064 Y-0.9454
G01 X10.3124 Y-0.9421
G01 X10.3168 Y-0.9369
G01 X10.3187 Y-0.9303
G01 X10.3189 Y-0.5239
G01 X10.3209 Y-0.5103
G01 X10.3242 Y-0.5006
G01 X10.3288 Y-0.4914
G01 X10.3370 Y-0.4803
G01 X10.3471 Y-0.4711
G01 X10.3589 Y-0.4641
G01 X10.3718 Y-0.4594
G01 X10.3854 Y-0.4574
G01 X10.6670 Y-0.4573
G01 X10.6738 Y-0.4563
G01 X10.8206 Y-0.3951
G01 X10.8257 Y-0.3921
G01 X10.8301 Y-0.3869
G01 X10.9025 Y-0.2662
G01 X10.9047 Y-0.2615
G01 X10.9054 Y-0.2555
G01 X10.9054 Y-0.1351
G01 X10.9047 Y-0.1291
G01 X10.9025 Y-0.1244
G01 X10.8301 Y-0.0037
G01 X10.8270 Y0.0004
G01 X10.8236 Y0.0030
G01 X10.6754 Y0.0650
G01 X10.6696 Y0.0665
G01 X10.3022 Y0.0666
G01 X10.2970 Y0.0661
G01 X10.2930 Y0.0646
G01 X10.2895 Y0.0621
G01 X10.2863 Y0.0581
G01 X10.2843 Y0.0534
G01 X10.2838 Y0.0482
G01 X10.2838 Y-0.9277
G00 Z3.0000
G00 X10.3888 Y-0.4223
G01 F80.00
G01 Z-0.0746
G01 F60.00
G01 X10.6504 Y-0.4223
G01 X10.6607 Y-0.4215
G01 X10.6675 Y-0.4201
G01 X10.6773 Y-0.4169
G01 X10.7813 Y-0.3735
G01 X10.7933 Y-0.3670
G01 X10.8014 Y-0.3607
G01 X10.8062 Y-0.3559
G01 X10.8125 Y-0.3478
G01 X10.8621 Y-0.2652
G01 X10.8650 Y-0.2590
G01 X10.8683 Y-0.2492
G01 X10.8700 Y-0.2390
G01 X10.8704 Y-0.2322
G01 X10.8703 Y-0.1550
G01 X10.8690 Y-0.1448
G01 X10.8673 Y-0.1381
G01 X10.8650 Y-0.1316
G01 X10.8604 Y-0.1224
G01 X10.8144 Y-0.0457
G01 X10.8062 Y-0.0347
G01 X10.7988 Y-0.0277
G01 X10.7933 Y-0.0236
G01 X10.7813 Y-0.0171
G01 X10.6773 Y0.0262
G01 X10.6675 Y0.0294
G01 X10.6573 Y0.0312
G01 X10.3854 Y0.0315
G01 X10.3752 Y0.0302
G01 X10.3621 Y0.0262
G01 X10.3500 Y0.0198
G01 X10.3418 Y0.0134
G01 X10.3326 Y0.0033
G01 X10.3256 Y-0.0085
G01 X10.3209 Y-0.0214
G01 X10.3189 Y-0.0350
G01 X10.3192 Y-0.3591
G01 X10.3219 Y-0.3726
G01 X10.3256 Y-0.3822
G01 X10.3326 Y-0.3940
G01 X10.3418 Y-0.4041
G01 X10.3529 Y-0.4123
G01 X10.3653 Y-0.4182
G01 X10.3786 Y-0.4215
G01 X10.3888 Y-0.4223
G00 Z3.0000
G00 X11.6527 Y-0.7577
G01 F80.00
G01 Z-0.0746
G01 F60.00
G01 X11.6527 Y-0.5618
G01 X11.6513 Y-0.5481
G01 X11.6486 Y-0.5381
G01 X11.6427 Y-0.5257
G01 X11.5986 Y-0.4525
G01 X11.5945 Y-0.4470
G01 X11.5874 Y-0.4395
G01 X11.5821 Y-0.4352
G01 X11.5734 Y-0.4297
G01 X11.5607 Y-0.4244
G01 X11.4672 Y-0.4009
G01 X11.4605 Y-0.3996
G01 X11.4502 Y-0.3988
G01 X11.4399 Y-0.3996
G01 X11.4332 Y-0.4009
G01 X11.3396 Y-0.4244
G01 X11.3300 Y-0.4281
G01 X11.3211 Y-0.4332
G01 X11.3155 Y-0.4373
G01 X11.3081 Y-0.4444
G01 X11.2999 Y-0.4554
G01 X11.2577 Y-0.5257
G01 X11.2531 Y-0.5349
G01 X11.2491 Y-0.5481
G01 X11.2477 Y-0.5617
G01 X11.2477 Y-0.7578
G01 X11.2481 Y-0.7646
G01 X11.2498 Y-0.7748
G01 X11.2531 Y-0.7846
G01 X11.2560 Y-0.7908
G01 X11.2995 Y-0.8633
G01 X11.3105 Y-0.8761
G01 X11.3241 Y-0.8859
G01 X11.3397 Y-0.8921
G01 X11.4453 Y-0.9097
G01 X11.4617 Y-0.9089
G01 X11.5541 Y-0.8935
G01 X11.5639 Y-0.8912
G01 X11.5762 Y-0.8859
G01 X11.5847 Y-0.8804
G01 X11.5923 Y-0.8738
G01 X11.6008 Y-0.8634
G01 X11.6459 Y-0.7877
G01 X11.6506 Y-0.7748
G01 X11.6523 Y-0.7646
G01 X11.6527 Y-0.7577
G00 Z3.0000
G00 X11.6848 Y-0.7917
G01 F80.00
G01 Z-0.0746
G01 F60.00
G01 X11.6870 Y-0.7871
G01 X11.6877 Y-0.7812
G01 X11.6874 Y-0.5341
G01 X11.6848 Y-0.5277
G01 X11.6123 Y-0.4070
G01 X11.6092 Y-0.4029
G01 X11.6051 Y-0.3998
G01 X11.6002 Y-0.3981
G01 X11.4553 Y-0.3618
G01 X11.4502 Y-0.3611
G01 X11.4451 Y-0.3618
G01 X11.3001 Y-0.3981
G01 X11.2952 Y-0.3998
G01 X11.2911 Y-0.4029
G01 X11.2880 Y-0.4070
G01 X11.2156 Y-0.5277
G01 X11.2134 Y-0.5324
G01 X11.2127 Y-0.5384
G01 X11.2130 Y-0.7854
G01 X11.2156 Y-0.7918
G01 X11.2880 Y-0.9125
G01 X11.2911 Y-0.9165
G01 X11.2958 Y-0.9200
G01 X11.3015 Y-0.9216
G01 X11.4498 Y-0.9461
G01 X11.6021 Y-0.9209
G01 X11.6073 Y-0.9182
G01 X11.6114 Y-0.9139
G01 X11.6848 Y-0.7917
G00 Z3.0000
G00 X12.2974 Y-0.7189
G01 F80.00
G01 Z-0.0746
G01 F60.00
G01 X12.2928 Y-0.7282
G01 X12.2869 Y-0.7368
G01 X12.2798 Y-0.7444
G01 X12.2745 Y-0.7488
G01 X12.2657 Y-0.7544
G01 X12.2595 Y-0.7574
G01 X12.2496 Y-0.7607
G01 X12.2428 Y-0.7621
G01 X12.2359 Y-0.7628
G01 X12.2255 Y-0.7625
G01 X12.2152 Y-0.7607
G01 X12.2086 Y-0.7587
G01 X12.1991 Y-0.7544
G01 X12.1932 Y-0.7508
G01 X12.1850 Y-0.7444
G01 X12.1779 Y-0.7368
G01 X12.1720 Y-0.7282
G01 X12.1674 Y-0.7189
G01 X12.0283 Y-0.3713
G01 X12.0261 Y-0.3676
G01 X12.0230 Y-0.3647
G01 X12.0160 Y-0.3615
G01 X12.0083 Y-0.3616
G01 X12.0014 Y-0.3649
G01 X11.9975 Y-0.3694
G01 X11.9955 Y-0.3741
G01 X11.9949 Y-0.3801
G01 X11.9964 Y-0.3859
G01 X12.2158 Y-0.9343
G01 X12.2188 Y-0.9396
G01 X12.2226 Y-0.9431
G01 X12.2273 Y-0.9454
G01 X12.2324 Y-0.9461
G01 X12.2367 Y-0.9456
G01 X12.2415 Y-0.9436
G01 X12.2455 Y-0.9403
G01 X12.2483 Y-0.9359
G01 X12.3903 Y-0.5820
G01 X12.3938 Y-0.5760
G01 X12.4001 Y-0.5678
G01 X12.4076 Y-0.5605
G01 X12.4161 Y-0.5545
G01 X12.4253 Y-0.5498
G01 X12.4352 Y-0.5465
G01 X12.4455 Y-0.5447
G01 X12.4524 Y-0.5443
G01 X12.4593 Y-0.5447
G01 X12.4696 Y-0.5465
G01 X12.4795 Y-0.5498
G01 X12.4857 Y-0.5528
G01 X12.4916 Y-0.5564
G01 X12.4998 Y-0.5628
G01 X12.5069 Y-0.5704
G01 X12.5128 Y-0.5790
G01 X12.5174 Y-0.5883
G01 X12.6565 Y-0.9359
G01 X12.6587 Y-0.9395
G01 X12.6618 Y-0.9425
G01 X12.6688 Y-0.9457
G01 X12.6730 Y-0.9461
G01 X12.6773 Y-0.9454
G01 X12.6812 Y-0.9438
G01 X12.6846 Y-0.9412
G01 X12.6877 Y-0.9371
G01 X12.6896 Y-0.9323
G01 X12.8357 Y-0.3839
G01 X12.8364 Y-0.3763
G01 X12.8337 Y-0.3691
G01 X12.8310 Y-0.3658
G01 X12.8267 Y-0.3629
G01 X12.8218 Y-0.3613
G01 X12.8167 Y-0.3612
G01 X12.8125 Y-0.3623
G01 X12.8081 Y-0.3649
G01 X12.8051 Y-0.3680
G01 X12.8026 Y-0.3724
G01 X12.7234 Y-0.6692
G01 X12.7186 Y-0.6821
G01 X12.7152 Y-0.6881
G01 X12.7092 Y-0.6964
G01 X12.7020 Y-0.7038
G01 X12.6938 Y-0.7100
G01 X12.6848 Y-0.7149
G01 X12.6751 Y-0.7185
G01 X12.6651 Y-0.7206
G01 X12.6548 Y-0.7212
G01 X12.6479 Y-0.7208
G01 X12.6378 Y-0.7189
G01 X12.6281 Y-0.7155
G01 X12.6190 Y-0.7108
G01 X12.6133 Y-0.7069
G01 X12.6056 Y-0.7001
G01 X12.6011 Y-0.6949
G01 X12.5953 Y-0.6865
G01 X12.5907 Y-0.6772
G01 X12.4683 Y-0.3713
G01 X12.4636 Y-0.3651
G01 X12.4567 Y-0.3616
G01 X12.4498 Y-0.3613
G01 X12.4426 Y-0.3641
G01 X12.4388 Y-0.3676
G01 X12.4358 Y-0.3729
G01 X12.2974 Y-0.7189
G00 Z3.0000
G00 X13.1438 Y-0.7445
G01 F80.00
G01 Z-0.0746
G01 F60.00
G01 X13.1444 Y-0.7502
G01 X13.1733 Y-0.8707
G01 X13.1751 Y-0.8756
G01 X13.1775 Y-0.8792
G01 X13.1808 Y-0.8820
G01 X13.1847 Y-0.8840
G01 X13.3322 Y-0.9454
G01 X13.3382 Y-0.9461
G01 X13.4831 Y-0.9461
G01 X13.4881 Y-0.9456
G01 X13.4927 Y-0.9438
G01 X13.6086 Y-0.8835
G01 X13.6142 Y-0.8794
G01 X13.6174 Y-0.8744
G01 X13.6188 Y-0.8686
G01 X13.6181 Y-0.8626
G01 X13.6155 Y-0.8572
G01 X13.6112 Y-0.8530
G01 X13.6057 Y-0.8506
G01 X13.5998 Y-0.8500
G01 X13.5924 Y-0.8523
G01 X13.4918 Y-0.9046
G01 X13.4758 Y-0.9098
G01 X13.4625 Y-0.9111
G01 X13.3514 Y-0.9110
G01 X13.3377 Y-0.9089
G01 X13.3279 Y-0.9057
G01 X13.2322 Y-0.8654
G01 X13.2234 Y-0.8599
G01 X13.2181 Y-0.8554
G01 X13.2089 Y-0.8451
G01 X13.2034 Y-0.8363
G01 X13.1982 Y-0.8235
G01 X13.1808 Y-0.7513
G01 X13.1789 Y-0.7382
G01 X13.1788 Y-0.7106
G01 X13.1796 Y-0.7004
G01 X13.1829 Y-0.6871
G01 X13.1888 Y-0.6747
G01 X13.1947 Y-0.6662
G01 X13.2044 Y-0.6565
G01 X13.2158 Y-0.6489
G01 X13.2285 Y-0.6437
G01 X13.2386 Y-0.6414
G01 X13.2488 Y-0.6406
G01 X13.6004 Y-0.6406
G01 X13.6047 Y-0.6403
G01 X13.6088 Y-0.6389
G01 X13.6124 Y-0.6366
G01 X13.6159 Y-0.6328
G01 X13.6181 Y-0.6282
G01 X13.6188 Y-0.6240
G01 X13.6188 Y-0.5018
G01 X13.6183 Y-0.4965
G01 X13.6166 Y-0.4924
G01 X13.5418 Y-0.4045
G01 X13.5368 Y-0.4002
G01 X13.5314 Y-0.3981
G01 X13.3864 Y-0.3618
G01 X13.3813 Y-0.3611
G01 X13.3762 Y-0.3618
G01 X13.2312 Y-0.3981
G01 X13.2263 Y-0.3998
G01 X13.2222 Y-0.4029
G01 X13.2191 Y-0.4070
G01 X13.1467 Y-0.5277
G01 X13.1443 Y-0.5332
G01 X13.1438 Y-0.5384
G01 X13.1438 Y-0.7445
G00 Z3.0000
G00 X13.2646 Y-0.6056
G01 F80.00
G01 Z-0.0746
G01 F60.00
G01 X13.5138 Y-0.6056
G01 X13.5240 Y-0.6048
G01 X13.5341 Y-0.6025
G01 X13.5468 Y-0.5973
G01 X13.5582 Y-0.5897
G01 X13.5679 Y-0.5800
G01 X13.5755 Y-0.5686
G01 X13.5807 Y-0.5559
G01 X13.5834 Y-0.5424
G01 X13.5834 Y-0.5262
G01 X13.5806 Y-0.5124
G01 X13.5750 Y-0.4993
G01 X13.5691 Y-0.4905
G01 X13.5305 Y-0.4454
G01 X13.5232 Y-0.4387
G01 X13.5150 Y-0.4331
G01 X13.4998 Y-0.4264
G01 X13.3983 Y-0.4009
G01 X13.3916 Y-0.3996
G01 X13.3813 Y-0.3988
G01 X13.3710 Y-0.3996
G01 X13.3643 Y-0.4009
G01 X13.2707 Y-0.4244
G01 X13.2580 Y-0.4297
G01 X13.2493 Y-0.4352
G01 X13.2415 Y-0.4419
G01 X13.2348 Y-0.4497
G01 X13.2013 Y-0.5056
G01 X13.1967 Y-0.5185
G01 X13.1946 Y-0.5321
G01 X13.1953 Y-0.5458
G01 X13.1986 Y-0.5591
G01 X13.2045 Y-0.5715
G01 X13.2083 Y-0.5772
G01 X13.2150 Y-0.5850
G01 X13.2257 Y-0.5938
G01 X13.2378 Y-0.6002
G01 X13.2509 Y-0.6042
G01 X13.2646 Y-0.6056
G00 Z3.0000
G00 X13.9260 Y-0.3795
G01 F80.00
G01 Z-0.0746
G01 F60.00
G01 X13.9260 Y-0.9295
G01 X13.9277 Y-0.9361
G01 X13.9317 Y-0.9416
G01 X13.9376 Y-0.9451
G01 X13.9444 Y-0.9461
G01 X13.9510 Y-0.9444
G01 X13.9559 Y-0.9410
G01 X13.9593 Y-0.9361
G01 X13.9610 Y-0.9295
G01 X13.9610 Y-0.5419
G01 X13.9631 Y-0.5250
G01 X13.9692 Y-0.5092
G01 X13.9767 Y-0.4978
G01 X13.9862 Y-0.4881
G01 X14.0770 Y-0.4124
G01 X14.0855 Y-0.4063
G01 X14.0916 Y-0.4030
G01 X14.1046 Y-0.3983
G01 X14.1183 Y-0.3962
G01 X14.2394 Y-0.3959
G01 X14.2451 Y-0.3941
G01 X14.2503 Y-0.3897
G01 X14.2533 Y-0.3845
G01 X14.2543 Y-0.3777
G01 X14.2530 Y-0.3719
G01 X14.2498 Y-0.3668
G01 X14.2451 Y-0.3631
G01 X14.2385 Y-0.3612
G01 X14.0884 Y-0.3612
G01 X14.0841 Y-0.3621
G01 X14.0803 Y-0.3641
G01 X14.0568 Y-0.3834
G01 X14.0452 Y-0.3905
G01 X14.0325 Y-0.3953
G01 X14.0156 Y-0.3976
G01 X13.9988 Y-0.3958
G01 X13.9828 Y-0.3899
G01 X13.9688 Y-0.3805
G01 X13.9546 Y-0.3651
G01 X13.9510 Y-0.3628
G01 X13.9469 Y-0.3614
G01 X13.9392 Y-0.3616
G01 X13.9324 Y-0.3651
G01 X13.9277 Y-0.3711
G01 X13.9263 Y-0.3752
G01 X13.9260 Y-0.3795
G00 Z3.0000
G00 X15.1997 Y-0.5445
G01 F80.00
G01 Z-0.0746
G01 F60.00
G01 X15.4054 Y-0.5445
G01 X15.4191 Y-0.5431
G01 X15.4258 Y-0.5414
G01 X15.4355 Y-0.5376
G01 X15.4445 Y-0.5325
G01 X15.4527 Y-0.5260
G01 X15.4598 Y-0.5185
G01 X15.4657 Y-0.5100
G01 X15.4689 Y-0.5038
G01 X15.4726 Y-0.4941
G01 X15.4747 Y-0.4839
G01 X15.4754 Y-0.4736
G01 X15.4745 Y-0.4632
G01 X15.4720 Y-0.4531
G01 X15.3668 Y-0.1724
G01 X15.3637 Y-0.1662
G01 X15.3580 Y-0.1575
G01 X15.3485 Y-0.1475
G01 X15.3431 Y-0.1432
G01 X15.3342 Y-0.1378
G01 X15.3213 Y-0.1328
G01 X15.3111 Y-0.1308
G01 X15.2973 Y-0.1304
G01 X15.2837 Y-0.1328
G01 X15.2739 Y-0.1363
G01 X15.2648 Y-0.1412
G01 X15.2565 Y-0.1475
G01 X15.2492 Y-0.1549
G01 X15.2413 Y-0.1662
G01 X15.2370 Y-0.1756
G01 X15.1330 Y-0.4532
G01 X15.1306 Y-0.4632
G01 X15.1298 Y-0.4701
G01 X15.1303 Y-0.4839
G01 X15.1316 Y-0.4908
G01 X15.1348 Y-0.5006
G01 X15.1377 Y-0.5069
G01 X15.1432 Y-0.5157
G01 X15.1524 Y-0.5260
G01 X15.1577 Y-0.5305
G01 X15.1664 Y-0.5361
G01 X15.1727 Y-0.5390
G01 X15.1825 Y-0.5423
G01 X15.1928 Y-0.5441
G01 X15.1997 Y-0.5445
G00 Z3.0000
G00 X15.4710 Y-0.5795
G01 F80.00
G01 Z-0.0746
G01 F60.00
G01 X15.4812 Y-0.5803
G01 X15.4911 Y-0.5825
G01 X15.5066 Y-0.5893
G01 X15.5201 Y-0.5996
G01 X15.5268 Y-0.6072
G01 X15.5323 Y-0.6157
G01 X15.5366 Y-0.6250
G01 X15.6531 Y-0.9356
G01 X15.6576 Y-0.9418
G01 X15.6635 Y-0.9452
G01 X15.6703 Y-0.9461
G01 X15.6777 Y-0.9439
G01 X15.6829 Y-0.9395
G01 X15.6858 Y-0.9343
G01 X15.6867 Y-0.9283
G01 X15.6853 Y-0.9216
G01 X15.3192 Y0.0545
G01 X15.3158 Y0.0605
G01 X15.3104 Y0.0647
G01 X15.3047 Y0.0665
G01 X15.2978 Y0.0660
G01 X15.2938 Y0.0643
G01 X15.2903 Y0.0617
G01 X15.2876 Y0.0584
G01 X15.2858 Y0.0544
G01 X14.9198 Y-0.9216
G01 X14.9186 Y-0.9258
G01 X14.9184 Y-0.9301
G01 X14.9193 Y-0.9343
G01 X14.9212 Y-0.9381
G01 X14.9246 Y-0.9420
G01 X14.9282 Y-0.9443
G01 X14.9331 Y-0.9459
G01 X14.9374 Y-0.9461
G01 X14.9416 Y-0.9452
G01 X14.9461 Y-0.9428
G01 X14.9493 Y-0.9399
G01 X14.9516 Y-0.9363
G01 X15.0698 Y-0.6218
G01 X15.0745 Y-0.6128
G01 X15.0804 Y-0.6045
G01 X15.0875 Y-0.5973
G01 X15.0956 Y-0.5911
G01 X15.1107 Y-0.5835
G01 X15.1205 Y-0.5809
G01 X15.1306 Y-0.5796
G01 X15.4710 Y-0.5795
G00 Z3.0000
G00 X16.0969 Y-1.1275
G01 F80.00
G01 Z-0.0746
G01 F60.00
G01 X16.0902 Y-1.1353
G01 X16.0824 Y-1.1419
G01 X16.0737 Y-1.1474
G01 X16.0611 Y-1.1526
G01 X16.0477 Y-1.1552
G01 X16.0105 Y-1.1556
G01 X16.0031 Y-1.1576
G01 X15.9979 Y-1.1620
G01 X15.9946 Y-1.1680
G01 X15.9940 Y-1.1748
G01 X15.9959 Y-1.1814
G01 X15.9984 Y-1.1849
G01 X16.0024 Y-1.1881
G01 X16.0063 Y-1.1899
G01 X16.0105 Y-1.1906
G01 X16.0856 Y-1.1906
G01 X16.0898 Y-1.1899
G01 X16.0937 Y-1.1882
G01 X16.0993 Y-1.1829
G01 X16.1715 Y-1.0865
G01 X16.1738 Y-1.0828
G01 X16.1752 Y-1.0787
G01 X16.1755 Y-0.3795
G01 X16.1745 Y-0.3727
G01 X16.1710 Y-0.3668
G01 X16.1655 Y-0.3628
G01 X16.1597 Y-0.3612
G01 X16.1529 Y-0.3618
G01 X16.1469 Y-0.3651
G01 X16.1425 Y-0.3703
G01 X16.1405 Y-0.3777
G01 X16.1401 Y-1.0530
G01 X16.1374 Y-1.0666
G01 X16.1350 Y-1.0731
G01 X16.1303 Y-1.0824
G01 X16.0969 Y-1.1275
G00 Z3.0000
G00 X22.9700 Y-1.5776
G01 F80.00
G01 Z-0.0746
G01 F60.00
G01 X22.9689 Y-1.6218
G01 X22.9700 Y-1.6694
G01 X22.9734 Y-1.7169
G01 X22.9792 Y-1.7641
G01 X22.9872 Y-1.8110
G01 X22.9976 Y-1.8575
G01 X23.0102 Y-1.9034
G01 X23.0250 Y-1.9487
G01 X23.0421 Y-1.9931
G01 X23.0613 Y-2.0367
G01 X23.0826 Y-2.0792
G01 X23.1060 Y-2.1207
G01 X23.1314 Y-2.1610
G01 X23.1588 Y-2.1999
G01 X23.1880 Y-2.2375
G01 X23.2190 Y-2.2736
G01 X23.2518 Y-2.3082
G01 X23.2862 Y-2.3411
G01 X23.3222 Y-2.3722
G01 X23.3597 Y-2.4016
G01 X23.4014 Y-2.4310
G01 X23.4417 Y-2.4564
G01 X23.4832 Y-2.4798
G01 X23.5256 Y-2.5010
G01 X23.5693 Y-2.5203
G01 X23.6137 Y-2.5374
G01 X23.6589 Y-2.5522
G01 X23.7049 Y-2.5648
G01 X23.7514 Y-2.5752
G01 X23.7978 Y-2.5832
G01 X23.8450 Y-2.5889
G01 X23.8922 Y-2.5924
G01 X23.9372 Y-2.5935
G01 X23.9848 Y-2.5924
G01 X24.0323 Y-2.5890
G01 X24.0829 Y-2.5827
G01 X24.1298 Y-2.5745
G01 X24.1763 Y-2.5640
G01 X24.2188 Y-2.5522
G01 X24.2641 Y-2.5374
G01 X24.3085 Y-2.5203
G01 X24.3521 Y-2.5011
G01 X24.3946 Y-2.4798
G01 X24.4361 Y-2.4564
G01 X24.4764 Y-2.4310
G01 X24.5153 Y-2.4036
G01 X24.5556 Y-2.3722
G01 X24.5916 Y-2.3411
G01 X24.6260 Y-2.3082
G01 X24.6588 Y-2.2736
G01 X24.6898 Y-2.2375
G01 X24.7190 Y-2.1999
G01 X24.7464 Y-2.1610
G01 X24.7718 Y-2.1207
G01 X24.7952 Y-2.0792
G01 X24.8164 Y-2.0368
G01 X24.8344 Y-1.9963
G01 X24.8516 Y-1.9519
G01 X24.8666 Y-1.9067
G01 X24.8794 Y-1.8609
G01 X24.8834 Y-1.8436
G01 X26.2888 Y-1.8436
G01 X26.9829 Y-2.5376
G01 X26.9735 Y-2.5526
G01 X26.9501 Y-2.5941
G01 X26.9289 Y-2.6365
G01 X26.9109 Y-2.6770
G01 X26.8925 Y-2.7246
G01 X26.8777 Y-2.7698
G01 X26.8659 Y-2.8124
G01 X26.8547 Y-2.8623
G01 X26.8467 Y-2.9087
G01 X26.8410 Y-2.9559
G01 X26.8375 Y-3.0039
G01 X26.8364 Y-3.0515
G01 X26.8375 Y-3.0957
G01 X26.8413 Y-3.1466
G01 X26.8467 Y-3.1904
G01 X26.8547 Y-3.2373
G01 X26.8659 Y-3.2872
G01 X26.8777 Y-3.3297
G01 X26.8925 Y-3.3750
G01 X26.9109 Y-3.4225
G01 X26.9288 Y-3.4630
G01 X26.9501 Y-3.5055
G01 X26.9753 Y-3.5499
G01 X26.9989 Y-3.5873
G01 X27.0263 Y-3.6262
G01 X27.0577 Y-3.6665
G01 X27.0888 Y-3.7025
G01 X27.1217 Y-3.7369
G01 X27.1537 Y-3.7674
G01 X27.1897 Y-3.7985
G01 X27.2272 Y-3.8279
G01 X27.2689 Y-3.8573
G01 X27.3092 Y-3.8827
G01 X27.3476 Y-3.9044
G01 X27.3901 Y-3.9259
G01 X27.4336 Y-3.9453
G01 X27.4812 Y-3.9637
G01 X27.5264 Y-3.9785
G01 X27.5690 Y-3.9903
G01 X27.6155 Y-4.0008
G01 X27.6653 Y-4.0095
G01 X27.7130 Y-4.0153
G01 X27.7605 Y-4.0187
G01 X27.8081 Y-4.0198
G01 X27.8523 Y-4.0187
G01 X27.8998 Y-4.0153
G01 X27.9504 Y-4.0090
G01 X27.9973 Y-4.0008
G01 X28.0404 Y-3.9911
G01 X28.0896 Y-3.9775
G01 X28.1316 Y-3.9637
G01 X28.1760 Y-3.9466
G01 X28.2227 Y-3.9259
G01 X28.2652 Y-3.9044
G01 X28.3036 Y-3.8827
G01 X28.3439 Y-3.8573
G01 X28.3855 Y-3.8279
G01 X28.4204 Y-3.8007
G01 X28.4565 Y-3.7697
G01 X28.4911 Y-3.7369
G01 X28.5263 Y-3.6999
G01 X28.5573 Y-3.6638
G01 X28.5845 Y-3.6290
G01 X28.6120 Y-3.5901
G01 X28.6393 Y-3.5470
G01 X28.6610 Y-3.5086
G01 X28.6825 Y-3.4661
G01 X28.7032 Y-3.4194
G01 X28.7203 Y-3.3750
G01 X28.7341 Y-3.3330
G01 X28.7477 Y-3.2838
G01 X28.7581 Y-3.2373
G01 X28.7661 Y-3.1909
G01 X28.7715 Y-3.1466
G01 X28.7753 Y-3.0965
G01 X28.7764 Y-3.0481
G01 X28.7753 Y-3.0039
G01 X28.7719 Y-2.9564
G01 X28.7656 Y-2.9058
G01 X28.7574 Y-2.8589
G01 X28.7477 Y-2.8158
G01 X28.7341 Y-2.7666
G01 X28.7191 Y-2.7214
G01 X28.7019 Y-2.6771
G01 X28.6840 Y-2.6366
G01 X28.6627 Y-2.5941
G01 X28.6375 Y-2.5497
G01 X28.6139 Y-2.5123
G01 X28.5995 Y-2.4919
G01 X30.9698 Y-0.1215
G01 X53.2729 Y-0.1215
G01 X48.7728 Y-4.6217
G01 X46.0771 Y-4.6217
G01 X46.0572 Y-4.6226
G01 X46.0359 Y-4.6256
G01 X46.0116 Y-4.6317
G01 X45.9846 Y-4.6421
G01 X45.9625 Y-4.6539
G01 X45.9474 Y-4.6640
G01 X45.9362 Y-4.6728
G01 X45.9215 Y-4.6862
G01 X45.7817 Y-4.8262
G01 X45.7724 Y-4.8370
G01 X45.7616 Y-4.8516
G01 X45.7487 Y-4.8731
G01 X45.7396 Y-4.8927
G01 X45.7325 Y-4.9131
G01 X45.7275 Y-4.9337
G01 X45.7244 Y-4.9554
G01 X45.7235 Y-4.9753
G01 X45.7235 Y-5.2111
G01 X39.6350 Y-5.2111
G01 X39.6014 Y-5.2127
G01 X39.5806 Y-5.2152
G01 X39.5492 Y-5.2213
G01 X39.5289 Y-5.2267
G01 X39.4987 Y-5.2372
G01 X39.4794 Y-5.2455
G01 X39.4636 Y-5.2533
G01 X39.4249 Y-5.2752
G01 X38.0448 Y-5.2755
G01 X38.0347 Y-5.2773
G01 X38.0249 Y-5.2805
G01 X38.0128 Y-5.2870
G01 X38.0047 Y-5.2933
G01 X37.9955 Y-5.3035
G01 X37.9900 Y-5.3122
G01 X37.9858 Y-5.3216
G01 X37.9825 Y-5.3349
G01 X37.9817 Y-5.3452
G01 X37.9817 Y-5.7138
G01 X37.5103 Y-5.7133
G01 X37.5103 Y-5.3325
G01 X37.5095 Y-5.3222
G01 X37.5073 Y-5.3122
G01 X37.5036 Y-5.3026
G01 X37.4985 Y-5.2936
G01 X37.4922 Y-5.2855
G01 X37.4847 Y-5.2784
G01 X37.4733 Y-5.2708
G01 X37.4639 Y-5.2666
G01 X37.4540 Y-5.2638
G01 X37.4403 Y-5.2625
G01 X36.1369 Y-5.2626
G01 X36.1266 Y-5.2638
G01 X36.1135 Y-5.2678
G01 X36.1043 Y-5.2725
G01 X36.0959 Y-5.2784
G01 X36.0884 Y-5.2855
G01 X36.0803 Y-5.2965
G01 X36.0744 Y-5.3089
G01 X36.0716 Y-5.3188
G01 X36.0703 Y-5.3325
G01 X36.0704 Y-6.7359
G01 X36.0716 Y-6.7462
G01 X36.0756 Y-6.7593
G01 X36.0821 Y-6.7714
G01 X36.0884 Y-6.7795
G01 X36.0959 Y-6.7866
G01 X36.1073 Y-6.7942
G01 X36.1200 Y-6.7995
G01 X36.1334 Y-6.8022
G01 X37.4403 Y-6.8025
G01 X37.4506 Y-6.8017
G01 X37.4606 Y-6.7995
G01 X37.4702 Y-6.7958
G01 X37.4792 Y-6.7907
G01 X37.4873 Y-6.7844
G01 X37.4944 Y-6.7769
G01 X37.5003 Y-6.7685
G01 X37.5050 Y-6.7593
G01 X37.5082 Y-6.7495
G01 X37.5100 Y-6.7394
G01 X37.5103 Y-6.3535
G01 X37.9817 Y-6.3541
G01 X37.9817 Y-6.6452
G01 X37.9825 Y-6.6555
G01 X37.9858 Y-6.6688
G01 X37.9900 Y-6.6782
G01 X37.9955 Y-6.6869
G01 X38.0022 Y-6.6947
G01 X38.0100 Y-6.7014
G01 X38.0187 Y-6.7069
G01 X38.0314 Y-6.7122
G01 X38.0414 Y-6.7144
G01 X38.0517 Y-6.7152
G01 X39.6517 Y-6.7152
G01 X39.6586 Y-6.7149
G01 X39.6687 Y-6.7131
G01 X39.6785 Y-6.7099
G01 X39.6877 Y-6.7052
G01 X39.6961 Y-6.6993
G01 X39.7036 Y-6.6922
G01 X39.7099 Y-6.6841
G01 X39.7150 Y-6.6751
G01 X39.7187 Y-6.6655
G01 X39.7214 Y-6.6521
G01 X39.7217 Y-5.9588
G01 X39.7344 Y-5.9515
G01 X45.7507 Y-5.9515
G01 X46.4504 Y-6.6513
G01 X46.4649 Y-6.6650
G01 X46.4903 Y-6.6859
G01 X46.5080 Y-6.6983
G01 X46.5362 Y-6.7152
G01 X46.5555 Y-6.7249
G01 X46.5859 Y-6.7375
G01 X46.6063 Y-6.7443
G01 X46.6383 Y-6.7523
G01 X46.6596 Y-6.7560
G01 X46.6923 Y-6.7592
G01 X46.7122 Y-6.7598
G01 X50.4451 Y-6.7598
G01 X50.4831 Y-6.7578
G01 X50.5011 Y-6.7555
G01 X50.5234 Y-6.7513
G01 X51.1300 Y-6.7512
G01 X51.1369 Y-6.7505
G01 X51.1469 Y-6.7483
G01 X51.1565 Y-6.7446
G01 X51.1655 Y-6.7395
G01 X51.1736 Y-6.7332
G01 X51.2011 Y-6.7058
G01 X51.5117 Y-6.7077
G01 X51.5118 Y-7.6580
G01 X51.2032 Y-7.6589
G01 X51.1738 Y-7.6296
G01 X51.1635 Y-7.6218
G01 X51.1546 Y-7.6172
G01 X51.1479 Y-7.6146
G01 X51.1374 Y-7.6121
G01 X51.1302 Y-7.6114
G01 X50.0230 Y-7.6115
G01 X50.0123 Y-7.6129
G01 X49.9986 Y-7.6173
G01 X49.9897 Y-7.6219
G01 X49.9795 Y-7.6296
G01 X49.8749 Y-7.7341
G01 X49.8689 Y-7.7417
G01 X49.8640 Y-7.7500
G01 X49.8611 Y-7.7566
G01 X49.8581 Y-7.7670
G01 X49.8566 Y-7.7813
G01 X49.8565 Y-8.1813
G01 X49.8569 Y-8.1885
G01 X49.8588 Y-8.1991
G01 X49.8610 Y-8.2060
G01 X49.8654 Y-8.2154
G01 X49.8748 Y-8.2285
G01 X49.9794 Y-8.3331
G01 X49.9897 Y-8.3409
G01 X49.9986 Y-8.3455
G01 X50.0123 Y-8.3499
G01 X50.0266 Y-8.3514
G01 X51.1302 Y-8.3513
G01 X51.1409 Y-8.3499
G01 X51.1479 Y-8.3481
G01 X51.1579 Y-8.3440
G01 X51.1662 Y-8.3391
G01 X51.1761 Y-8.3309
G01 X51.2078 Y-8.2992
G01 X51.8346 Y-8.2972
G01 X51.8659 Y-8.2954
G01 X51.8935 Y-8.2912
G01 X51.9088 Y-8.2878
G01 X51.9389 Y-8.2788
G01 X51.9710 Y-8.2654
G01 X51.9985 Y-8.2504
G01 X52.0117 Y-8.2420
G01 X52.0341 Y-8.2253
G01 X52.0598 Y-8.2019
G01 X52.0706 Y-8.1904
G01 X52.0882 Y-8.1688
G01 X52.1075 Y-8.1399
G01 X52.1221 Y-8.1121
G01 X52.1339 Y-8.0831
G01 X52.1420 Y-8.0564
G01 X52.1455 Y-8.0411
G01 X52.1503 Y-8.0101
G01 X52.1520 Y-7.9788
G01 X52.1519 Y-6.3895
G01 X52.1514 Y-6.3721
G01 X52.1487 Y-6.3444
G01 X52.1420 Y-6.3103
G01 X52.1339 Y-6.2837
G01 X52.1284 Y-6.2690
G01 X52.1136 Y-6.2376
G01 X52.0974 Y-6.2108
G01 X52.0787 Y-6.1857
G01 X52.0576 Y-6.1626
G01 X52.0370 Y-6.1438
G01 X52.0248 Y-6.1341
G01 X51.9989 Y-6.1165
G01 X51.9715 Y-6.1015
G01 X51.9395 Y-6.0880
G01 X51.9095 Y-6.0790
G01 X51.8788 Y-6.0729
G01 X51.8511 Y-6.0700
G01 X51.8354 Y-6.0694
G01 X51.2098 Y-6.0656
G01 X51.1760 Y-6.0318
G01 X51.1682 Y-6.0251
G01 X51.1595 Y-6.0196
G01 X51.1533 Y-6.0166
G01 X51.1435 Y-6.0134
G01 X51.1334 Y-6.0116
G01 X50.0266 Y-6.0113
G01 X50.0163 Y-6.0121
G01 X50.0096 Y-6.0134
G01 X49.9938 Y-6.0194
G01 X49.3123 Y-6.0194
G01 X49.2341 Y-5.9412
G01 X49.2341 Y-4.9244
G01 X54.0369 Y-0.1215
G01 X56.0361 Y-0.1215
G01 X56.0361 Y-7.7786
G01 X56.0366 Y-7.7960
G01 X56.0393 Y-7.8239
G01 X56.0426 Y-7.8427
G01 X56.0494 Y-7.8699
G01 X56.0611 Y-7.9027
G01 X56.0731 Y-7.9280
G01 X56.0808 Y-7.9417
G01 X56.1001 Y-7.9707
G01 X56.1179 Y-7.9923
G01 X56.1298 Y-8.0050
G01 X58.2954 Y-10.1704
G01 X58.2954 Y-11.2377
G01 X58.2962 Y-11.2480
G01 X58.2984 Y-11.2580
G01 X58.3021 Y-11.2676
G01 X58.3054 Y-11.2737
G01 X58.3092 Y-11.2794
G01 X58.3159 Y-11.2872
G01 X58.3210 Y-11.2918
G01 X58.3294 Y-11.2977
G01 X58.3386 Y-11.3024
G01 X58.3451 Y-11.3047
G01 X58.3517 Y-11.3064
G01 X58.3620 Y-11.3076
G01 X59.0722 Y-11.3077
G01 X59.6448 Y-12.5202
G01 X59.6448 Y-13.8303
G01 X58.1498 Y-16.1793
G01 X58.1412 Y-16.1937
G01 X58.1290 Y-16.2177
G01 X58.1218 Y-16.2346
G01 X58.1130 Y-16.2601
G01 X58.1083 Y-16.2779
G01 X58.1032 Y-16.3044
G01 X58.1001 Y-16.3378
G01 X58.0998 Y-16.8058
G01 X58.0700 Y-16.8058
G01 X58.0597 Y-16.8066
G01 X58.0497 Y-16.8088
G01 X58.0432 Y-16.8111
G01 X58.0311 Y-16.8176
G01 X58.0256 Y-16.8217
G01 X58.0181 Y-16.8288
G01 X58.0118 Y-16.8369
G01 X58.0083 Y-16.8428
G01 X58.0030 Y-16.8555
G01 X58.0013 Y-16.8621
G01 X58.0001 Y-16.8724
G01 X58.0000 Y-17.9434
G01 X56.6360 Y-19.3100
G01 X56.6235 Y-19.3245
G01 X56.6069 Y-19.3470
G01 X56.5890 Y-19.3769
G01 X56.5820 Y-19.3909
G01 X56.5713 Y-19.4168
G01 X56.5654 Y-19.4349
G01 X56.5586 Y-19.4620
G01 X56.5538 Y-19.4930
G01 X56.5521 Y-19.5261
G01 X56.5521 Y-26.8657
G01 X52.7979 Y-26.8657
G01 X51.7305 Y-25.7982
G01 X51.7085 Y-25.7782
G01 X51.6834 Y-25.7594
G01 X51.6535 Y-25.7415
G01 X51.6250 Y-25.7282
G01 X51.6103 Y-25.7226
G01 X51.5835 Y-25.7145
G01 X51.5498 Y-25.7078
G01 X51.5215 Y-25.7050
G01 X51.5041 Y-25.7045
G01 X51.2707 Y-25.7045
G01 X51.2706 Y-25.6221
G01 X51.2694 Y-25.6118
G01 X51.2666 Y-25.6019
G01 X51.2640 Y-25.5956
G01 X51.2589 Y-25.5866
G01 X51.2526 Y-25.5785
G01 X51.2451 Y-25.5714
G01 X51.2367 Y-25.5655
G01 X51.2306 Y-25.5622
G01 X51.2210 Y-25.5585
G01 X51.2144 Y-25.5568
G01 X51.2007 Y-25.5555
G01 X50.5523 Y-25.5555
G01 X49.7816 Y-24.7847
G01 X50.1681 Y-24.3980
G01 X50.1819 Y-24.3814
G01 X50.1941 Y-24.3635
G01 X50.2044 Y-24.3445
G01 X50.2128 Y-24.3247
G01 X50.2192 Y-24.3040
G01 X50.2236 Y-24.2829
G01 X50.2260 Y-24.2588
G01 X50.2259 Y-24.2364
G01 X50.2224 Y-24.2077
G01 X50.2173 Y-24.1867
G01 X50.2102 Y-24.1663
G01 X50.2011 Y-24.1467
G01 X50.1901 Y-24.1281
G01 X50.1752 Y-24.1080
G01 X50.1606 Y-24.0921
G01 X50.1445 Y-24.0777
G01 X50.1270 Y-24.0650
G01 X50.1084 Y-24.0540
G01 X50.0820 Y-24.0423
G01 X50.0613 Y-24.0359
G01 X50.0368 Y-24.0310
G01 X50.0079 Y-24.0288
G01 X49.9829 Y-24.0301
G01 X49.9616 Y-24.0334
G01 X49.9337 Y-24.0411
G01 X49.9106 Y-24.0507
G01 X49.8854 Y-24.0650
G01 X49.8679 Y-24.0777
G01 X49.8506 Y-24.0933
G01 X49.3593 Y-24.5845
G01 X48.3817 Y-24.5845
G01 X48.3722 Y-24.5791
G01 X48.3626 Y-24.5754
G01 X48.3526 Y-24.5732
G01 X48.3423 Y-24.5724
G01 X47.7423 Y-24.5724
G01 X47.7286 Y-24.5737
G01 X47.7155 Y-24.5777
G01 X47.7063 Y-24.5824
G01 X47.6979 Y-24.5883
G01 X47.6904 Y-24.5954
G01 X47.6841 Y-24.6035
G01 X47.6790 Y-24.6125
G01 X47.6753 Y-24.6221
G01 X47.6731 Y-24.6321
G01 X47.6723 Y-24.6424
G01 X47.6723 Y-26.2556
G01 X47.6681 Y-26.2724
G01 X47.6657 Y-26.2864
G01 X47.6639 Y-26.3045
G01 X47.6635 Y-26.3170
G01 X47.6635 Y-27.9623
G01 X46.3754 Y-27.9623
G01 X46.3521 Y-27.9636
G01 X46.3342 Y-27.9662
G01 X46.3132 Y-27.9713
G01 X46.2996 Y-27.9758
G01 X46.2829 Y-27.9827
G01 X46.2703 Y-27.9890
G01 X46.2546 Y-27.9985
G01 X46.2430 Y-28.0066
G01 X46.2289 Y-28.0182
G01 X46.2135 Y-28.0334
G01 X46.2042 Y-28.0441
G01 X46.1934 Y-28.0587
G01 X46.1858 Y-28.0708
G01 X46.1772 Y-28.0868
G01 X46.1714 Y-28.0998
G01 X46.1653 Y-28.1169
G01 X46.1615 Y-28.1306
G01 X46.1566 Y-28.1591
G01 X46.1553 Y-28.1824
G01 X46.1554 Y-29.0952
G01 X46.1558 Y-29.1077
G01 X46.1576 Y-29.1258
G01 X46.1600 Y-29.1398
G01 X46.1636 Y-29.1545
G01 X46.1636 Y-31.0477
G01 X46.1649 Y-31.0614
G01 X46.1677 Y-31.0713
G01 X46.1736 Y-31.0837
G01 X46.1817 Y-31.0947
G01 X46.1919 Y-31.1039
G01 X46.2037 Y-31.1110
G01 X46.2166 Y-31.1156
G01 X46.2302 Y-31.1176
G01 X46.5336 Y-31.1177
G01 X46.5439 Y-31.1169
G01 X46.5539 Y-31.1147
G01 X46.5666 Y-31.1094
G01 X46.5753 Y-31.1039
G01 X46.5831 Y-31.0972
G01 X46.5918 Y-31.0866
G01 X46.5969 Y-31.0776
G01 X46.6006 Y-31.0680
G01 X46.6028 Y-31.0580
G01 X46.6036 Y-31.0477
G01 X46.6036 Y-29.0477
G01 X46.6033 Y-29.0408
G01 X46.6015 Y-29.0307
G01 X46.5956 Y-29.0152
G01 X46.5955 Y-28.4025
G01 X47.8961 Y-28.4021
G01 X47.9176 Y-28.3998
G01 X47.9387 Y-28.3954
G01 X47.9594 Y-28.3890
G01 X47.9792 Y-28.3806
G01 X47.9982 Y-28.3703
G01 X48.0161 Y-28.3581
G01 X48.0327 Y-28.3443
G01 X48.0478 Y-28.3289
G01 X48.0614 Y-28.3121
G01 X48.0715 Y-28.2970
G01 X48.0818 Y-28.2780
G01 X48.0876 Y-28.2650
G01 X48.0947 Y-28.2447
G01 X48.0991 Y-28.2270
G01 X48.1015 Y-28.2130
G01 X48.1034 Y-28.1923
G01 X48.1037 Y-26.7124
G01 X48.3423 Y-26.7124
G01 X48.3588 Y-26.7104
G01 X49.5307 Y-26.7104
G01 X49.5307 Y-26.9255
G01 X49.5320 Y-26.9392
G01 X49.5348 Y-26.9491
G01 X49.5390 Y-26.9585
G01 X49.5445 Y-26.9672
G01 X49.5537 Y-26.9774
G01 X49.5647 Y-26.9855
G01 X49.5739 Y-26.9902
G01 X49.5837 Y-26.9934
G01 X49.5938 Y-26.9952
G01 X51.2076 Y-26.9952
G01 X51.2210 Y-26.9925
G01 X51.2306 Y-26.9888
G01 X51.2424 Y-26.9817
G01 X51.2502 Y-26.9750
G01 X51.2589 Y-26.9644
G01 X51.2640 Y-26.9554
G01 X51.2677 Y-26.9458
G01 X51.2704 Y-26.9324
G01 X51.2707 Y-26.3447
G01 X51.3715 Y-26.3447
G01 X52.4491 Y-27.4218
G01 X52.4636 Y-27.4343
G01 X52.4860 Y-27.4510
G01 X52.5022 Y-27.4612
G01 X52.5269 Y-27.4744
G01 X52.5591 Y-27.4878
G01 X52.5859 Y-27.4959
G01 X52.6045 Y-27.5001
G01 X52.6351 Y-27.5045
G01 X52.6653 Y-27.5059
G01 X56.8739 Y-27.5059
G01 X56.9053 Y-27.5042
G01 X56.9330 Y-27.5001
G01 X56.9516 Y-27.4959
G01 X56.9817 Y-27.4866
G01 X57.0103 Y-27.4746
G01 X57.0353 Y-27.4612
G01 X57.0515 Y-27.4510
G01 X57.0766 Y-27.4322
G01 X57.0998 Y-27.4109
G01 X57.1186 Y-27.3902
G01 X57.1283 Y-27.3779
G01 X57.1459 Y-27.3518
G01 X57.1623 Y-27.3211
G01 X57.1742 Y-27.2920
G01 X57.1831 Y-27.2619
G01 X57.1886 Y-27.2345
G01 X57.1906 Y-27.2189
G01 X57.1923 Y-27.1875
G01 X57.1923 Y-19.6585
G01 X58.0000 Y-18.8496
G01 X58.0000 Y-19.0758
G01 X58.0008 Y-19.0861
G01 X58.0030 Y-19.0961
G01 X58.0067 Y-19.1057
G01 X58.0118 Y-19.1147
G01 X58.0181 Y-19.1228
G01 X58.0256 Y-19.1299
G01 X58.0340 Y-19.1358
G01 X58.0432 Y-19.1405
G01 X58.0497 Y-19.1428
G01 X58.0597 Y-19.1450
G01 X58.0700 Y-19.1458
G01 X58.7734 Y-19.1457
G01 X58.7803 Y-19.1450
G01 X58.7903 Y-19.1428
G01 X58.7968 Y-19.1405
G01 X58.8060 Y-19.1358
G01 X58.8144 Y-19.1299
G01 X58.8219 Y-19.1228
G01 X58.8282 Y-19.1147
G01 X58.8317 Y-19.1088
G01 X58.8359 Y-19.0994
G01 X58.8379 Y-19.0928
G01 X58.8397 Y-19.0827
G01 X58.8400 Y-19.0758
G01 X58.8399 Y-16.8724
G01 X58.8387 Y-16.8621
G01 X58.8370 Y-16.8555
G01 X58.8317 Y-16.8428
G01 X58.8282 Y-16.8369
G01 X58.8219 Y-16.8288
G01 X58.8144 Y-16.8217
G01 X58.8089 Y-16.8176
G01 X58.7968 Y-16.8111
G01 X58.7903 Y-16.8088
G01 X58.7803 Y-16.8066
G01 X58.7700 Y-16.8058
G01 X58.7401 Y-16.8058
G01 X58.7400 Y-16.4444
G01 X60.1906 Y-14.1652
G01 X61.0148 Y-14.1652
G01 X61.0217 Y-14.1649
G01 X61.0318 Y-14.1631
G01 X61.0416 Y-14.1599
G01 X61.0508 Y-14.1552
G01 X61.0592 Y-14.1493
G01 X61.0667 Y-14.1422
G01 X61.0730 Y-14.1341
G01 X61.0765 Y-14.1282
G01 X61.0807 Y-14.1188
G01 X61.0835 Y-14.1089
G01 X61.0848 Y-14.0952
G01 X61.0848 Y-13.9241
G01 X66.2384 Y-13.9242
G01 X66.2628 Y-13.9235
G01 X66.3047 Y-13.9195
G01 X66.3304 Y-13.9151
G01 X66.3712 Y-13.9050
G01 X66.3961 Y-13.8970
G01 X66.4173 Y-13.8888
G01 X66.4554 Y-13.8711
G01 X66.4768 Y-13.8593
G01 X71.6090 Y-10.8405
G01 X71.6504 Y-10.8666
G01 X71.6931 Y-10.8908
G01 X71.7430 Y-10.9159
G01 X71.7879 Y-10.9359
G01 X71.8369 Y-10.9549
G01 X71.8900 Y-10.9724
G01 X71.9407 Y-10.9863
G01 X71.9886 Y-10.9971
G01 X72.0437 Y-11.0067
G01 X72.0953 Y-11.0130
G01 X72.1448 Y-11.0166
G01 X72.2007 Y-11.0180
G01 X72.2498 Y-11.0168
G01 X72.3022 Y-11.0130
G01 X72.3577 Y-11.0061
G01 X72.4094 Y-10.9971
G01 X72.4573 Y-10.9863
G01 X72.5112 Y-10.9714
G01 X72.5611 Y-10.9549
G01 X72.6101 Y-10.9359
G01 X72.6549 Y-10.9160
G01 X72.7049 Y-10.8908
G01 X72.7476 Y-10.8666
G01 X72.7920 Y-10.8386
G01 X72.8378 Y-10.8064
G01 X72.8791 Y-10.7740
G01 X72.9165 Y-10.7418
G01 X72.9568 Y-10.7034
G01 X72.9928 Y-10.6655
G01 X73.0250 Y-10.6281
G01 X73.0574 Y-10.5868
G01 X73.0877 Y-10.5439
G01 X73.1176 Y-10.4966
G01 X73.1418 Y-10.4539
G01 X73.1655 Y-10.4070
G01 X73.1882 Y-10.3559
G01 X73.2070 Y-10.3068
G01 X73.2224 Y-10.2602
G01 X73.2373 Y-10.2063
G01 X73.2481 Y-10.1584
G01 X73.2571 Y-10.1067
G01 X73.2640 Y-10.0517
G01 X73.2676 Y-10.0022
G01 X73.2690 Y-9.9497
G01 X73.2676 Y-9.8938
G01 X73.2640 Y-9.8448
G01 X73.2577 Y-9.7927
G01 X73.2488 Y-9.7409
G01 X73.2398 Y-9.7005
G01 X74.1107 Y-8.8115
G01 X74.5775 Y-8.7009
G01 X74.6094 Y-8.7312
G01 X74.6494 Y-8.7656
G01 X74.6909 Y-8.7978
G01 X74.7339 Y-8.8280
G01 X74.7753 Y-8.8543
G01 X74.8210 Y-8.8802
G01 X74.8679 Y-8.9039
G01 X74.9158 Y-8.9253
G01 X74.9681 Y-8.9454
G01 X75.0179 Y-8.9618
G01 X75.0686 Y-8.9757
G01 X75.1198 Y-8.9872
G01 X75.1716 Y-8.9961
G01 X75.2232 Y-9.0024
G01 X75.2761 Y-9.0062
G01 X75.3286 Y-9.0074
G01 X75.3811 Y-9.0060
G01 X75.4301 Y-9.0024
G01 X75.4822 Y-8.9961
G01 X75.5340 Y-8.9872
G01 X75.5852 Y-8.9757
G01 X75.6359 Y-8.9618
G01 X75.6683 Y-8.9512
G01 X78.1844 Y-8.9512
G01 X78.1969 Y-8.9508
G01 X78.2150 Y-8.9490
G01 X78.2395 Y-8.9441
G01 X78.2670 Y-8.9351
G01 X78.2800 Y-8.9293
G01 X78.2961 Y-8.9207
G01 X78.3169 Y-8.9068
G01 X78.3309 Y-8.8953
G01 X78.3400 Y-8.8867
G01 X79.8084 Y-7.4183
G01 X79.8240 Y-7.4010
G01 X79.8367 Y-7.3835
G01 X79.8477 Y-7.3649
G01 X79.8568 Y-7.3453
G01 X79.8639 Y-7.3250
G01 X79.8689 Y-7.3043
G01 X79.8720 Y-7.2826
G01 X79.8729 Y-7.2627
G01 X79.8729 Y-3.0676
G01 X81.0537 Y-1.8869
G01 X84.4432 Y-1.8869
G01 X85.5049 Y-2.9487
G01 X85.5051 Y-6.7956
G01 X85.5076 Y-6.8205
G01 X85.5111 Y-6.8383
G01 X85.5149 Y-6.8520
G01 X85.5253 Y-6.8790
G01 X85.5371 Y-6.9011
G01 X85.5538 Y-6.9248
G01 X85.5706 Y-6.9433
G01 X85.5841 Y-6.9555
G01 X85.5953 Y-6.9643
G01 X85.6198 Y-6.9798
G01 X85.6424 Y-6.9905
G01 X85.6699 Y-6.9995
G01 X85.6944 Y-7.0044
G01 X85.7125 Y-7.0062
G01 X85.7250 Y-7.0066
G01 X90.5849 Y-7.0065
G01 X90.5851 Y-13.0663
G01 X90.5862 Y-13.0805
G01 X90.5888 Y-13.0984
G01 X90.5939 Y-13.1194
G01 X90.5984 Y-13.1330
G01 X90.6053 Y-13.1497
G01 X90.6117 Y-13.1624
G01 X90.6211 Y-13.1780
G01 X90.6338 Y-13.1955
G01 X90.6431 Y-13.2063
G01 X90.6559 Y-13.2191
G01 X90.6667 Y-13.2284
G01 X90.6842 Y-13.2411
G01 X90.6998 Y-13.2505
G01 X90.7125 Y-13.2569
G01 X90.7292 Y-13.2638
G01 X90.7499 Y-13.2702
G01 X90.7744 Y-13.2751
G01 X90.7925 Y-13.2769
G01 X90.8050 Y-13.2773
G01 X92.8019 Y-13.2769
G01 X92.8200 Y-13.2751
G01 X92.8340 Y-13.2727
G01 X92.8516 Y-13.2683
G01 X92.8652 Y-13.2638
G01 X92.8819 Y-13.2569
G01 X92.8946 Y-13.2505
G01 X92.9102 Y-13.2411
G01 X92.9215 Y-13.2332
G01 X92.9438 Y-13.2140
G01 X92.9536 Y-13.2037
G01 X92.9651 Y-13.1897
G01 X92.9733 Y-13.1780
G01 X92.9827 Y-13.1624
G01 X92.9891 Y-13.1497
G01 X92.9960 Y-13.1330
G01 X93.0005 Y-13.1194
G01 X93.0055 Y-13.0988
G01 X93.0086 Y-13.0771
G01 X93.0095 Y-13.0572
G01 X93.0095 Y-7.0065
G01 X99.3469 Y-7.0063
G01 X99.3611 Y-7.0052
G01 X99.3824 Y-7.0019
G01 X99.4033 Y-6.9965
G01 X99.4236 Y-6.9890
G01 X99.4430 Y-6.9797
G01 X99.4586 Y-6.9703
G01 X99.4761 Y-6.9576
G01 X99.4922 Y-6.9432
G01 X99.5068 Y-6.9273
G01 X99.5156 Y-6.9161
G01 X99.5274 Y-6.8981
G01 X99.5374 Y-6.8790
G01 X99.5444 Y-6.8622
G01 X99.5508 Y-6.8415
G01 X99.5552 Y-6.8204
G01 X99.5575 Y-6.7989
G01 X99.5579 Y0.2399
G01 X99.5570 Y0.2581
G01 X99.5540 Y0.2794
G01 X99.5508 Y0.2933
G01 X99.5456 Y0.3107
G01 X99.5404 Y0.3240
G01 X99.5327 Y0.3404
G01 X99.5257 Y0.3528
G01 X99.5138 Y0.3703
G01 X99.5020 Y0.3847
G01 X99.4922 Y0.3950
G01 X99.4787 Y0.4072
G01 X99.4675 Y0.4160
G01 X99.4524 Y0.4261
G01 X99.4400 Y0.4331
G01 X99.4236 Y0.4408
G01 X99.4033 Y0.4483
G01 X99.3896 Y0.4521
G01 X99.3718 Y0.4556
G01 X99.3577 Y0.4574
G01 X99.3378 Y0.4583
G01 X77.5494 Y0.4583
G01 X77.5295 Y0.4574
G01 X77.5154 Y0.4556
G01 X77.4976 Y0.4521
G01 X77.4769 Y0.4460
G01 X77.4636 Y0.4408
G01 X77.4472 Y0.4331
G01 X77.4348 Y0.4261
G01 X77.4197 Y0.4160
G01 X77.4085 Y0.4072
G01 X77.3938 Y0.3938
G01 X76.4747 Y-0.5255
G01 X76.4654 Y-0.5363
G01 X76.4546 Y-0.5509
G01 X76.4470 Y-0.5629
G01 X76.4384 Y-0.5790
G01 X76.4326 Y-0.5920
G01 X76.4265 Y-0.6091
G01 X76.4227 Y-0.6228
G01 X76.4192 Y-0.6406
G01 X76.4174 Y-0.6547
G01 X76.4165 Y-0.6746
G01 X76.4165 Y-6.3151
G01 X75.5862 Y-6.8993
G01 X75.5340 Y-6.8876
G01 X75.4822 Y-6.8787
G01 X75.4306 Y-6.8724
G01 X75.3777 Y-6.8686
G01 X75.3252 Y-6.8674
G01 X75.2727 Y-6.8688
G01 X75.2203 Y-6.8727
G01 X75.1682 Y-6.8793
G01 X75.1165 Y-6.8883
G01 X75.0652 Y-6.8999
G01 X75.0147 Y-6.9140
G01 X74.9648 Y-6.9305
G01 X74.9158 Y-6.9495
G01 X74.8679 Y-6.9709
G01 X74.8210 Y-6.9946
G01 X74.7753 Y-7.0205
G01 X74.7339 Y-7.0468
G01 X74.6909 Y-7.0770
G01 X74.6494 Y-7.1092
G01 X74.6096 Y-7.1434
G01 X74.5715 Y-7.1796
G01 X74.5353 Y-7.2176
G01 X74.4987 Y-7.2599
G01 X74.4665 Y-7.3014
G01 X74.4363 Y-7.3444
G01 X74.4100 Y-7.3858
G01 X74.3841 Y-7.4315
G01 X74.3604 Y-7.4784
G01 X74.3390 Y-7.5263
G01 X74.3200 Y-7.5753
G01 X74.3147 Y-7.5911
G01 X73.6874 Y-7.7397
G01 X73.6609 Y-7.7467
G01 X73.6297 Y-7.7567
G01 X73.6024 Y-7.7670
G01 X73.5761 Y-7.7786
G01 X73.5496 Y-7.7919
G01 X73.5273 Y-7.8045
G01 X73.5026 Y-7.8201
G01 X73.4787 Y-7.8369
G01 X73.4558 Y-7.8549
G01 X73.4326 Y-7.8750
G01 X73.4115 Y-7.8955
G01 X72.4250 Y-8.9024
G01 X72.4061 Y-8.8982
G01 X72.3577 Y-8.8899
G01 X72.3056 Y-8.8833
G01 X72.2498 Y-8.8792
G01 X72.1973 Y-8.8780
G01 X72.1482 Y-8.8792
G01 X72.0958 Y-8.8830
G01 X72.0437 Y-8.8893
G01 X71.9886 Y-8.8989
G01 X71.9373 Y-8.9105
G01 X71.8868 Y-8.9246
G01 X71.8402 Y-8.9400
G01 X71.7911 Y-8.9588
G01 X71.7431 Y-8.9800
G01 X71.6931 Y-9.0052
G01 X71.6474 Y-9.0311
G01 X71.6060 Y-9.0574
G01 X71.5630 Y-9.0876
G01 X71.5189 Y-9.1220
G01 X71.4792 Y-9.1564
G01 X71.4436 Y-9.1902
G01 X71.4074 Y-9.2282
G01 X71.3730 Y-9.2679
G01 X71.3406 Y-9.3092
G01 X71.3103 Y-9.3521
G01 X71.2821 Y-9.3964
G01 X71.2562 Y-9.4421
G01 X71.2311 Y-9.4920
G01 X71.2098 Y-9.5401
G01 X71.1910 Y-9.5892
G01 X71.1756 Y-9.6358
G01 X71.1615 Y-9.6863
G01 X71.1499 Y-9.7376
G01 X71.1409 Y-9.7893
G01 X71.1340 Y-9.8443
G01 X71.1302 Y-9.8972
G01 X71.1290 Y-9.9497
G01 X71.1302 Y-9.9988
G01 X71.1324 Y-10.0298
G01 X66.1104 Y-12.9838
G01 X61.0848 Y-12.9837
G01 X61.0847 Y-12.4918
G01 X61.0835 Y-12.4815
G01 X61.0807 Y-12.4716
G01 X61.0765 Y-12.4622
G01 X61.0710 Y-12.4535
G01 X61.0667 Y-12.4482
G01 X61.0592 Y-12.4411
G01 X61.0478 Y-12.4335
G01 X61.0351 Y-12.4282
G01 X61.0251 Y-12.4260
G01 X61.0182 Y-12.4253
G01 X60.3080 Y-12.4252
G01 X59.7354 Y-11.2127
G01 X59.7354 Y-9.6377
G01 X59.7351 Y-9.6308
G01 X59.7333 Y-9.6207
G01 X59.7301 Y-9.6109
G01 X59.7254 Y-9.6017
G01 X59.7195 Y-9.5933
G01 X59.7124 Y-9.5858
G01 X59.7043 Y-9.5795
G01 X59.6953 Y-9.5744
G01 X59.6857 Y-9.5707
G01 X59.6757 Y-9.5685
G01 X59.6654 Y-9.5677
G01 X59.3355 Y-9.5677
G01 X59.3354 Y-6.5509
G01 X59.6684 Y-6.5509
G01 X59.6684 Y-6.5808
G01 X59.6692 Y-6.5911
G01 X59.6725 Y-6.6044
G01 X59.6767 Y-6.6138
G01 X59.6802 Y-6.6197
G01 X59.6865 Y-6.6278
G01 X59.6914 Y-6.6327
G01 X59.7024 Y-6.6408
G01 X59.7116 Y-6.6455
G01 X59.7181 Y-6.6478
G01 X59.7247 Y-6.6495
G01 X59.7350 Y-6.6507
G01 X61.9384 Y-6.6508
G01 X61.9453 Y-6.6505
G01 X61.9554 Y-6.6487
G01 X61.9652 Y-6.6455
G01 X61.9773 Y-6.6390
G01 X61.9854 Y-6.6327
G01 X61.9925 Y-6.6252
G01 X62.0001 Y-6.6138
G01 X62.0043 Y-6.6044
G01 X62.0071 Y-6.5945
G01 X62.0083 Y-6.5842
G01 X62.0084 Y-5.8808
G01 X62.0071 Y-5.8671
G01 X62.0043 Y-5.8572
G01 X62.0001 Y-5.8478
G01 X61.9946 Y-5.8391
G01 X61.9879 Y-5.8313
G01 X61.9801 Y-5.8246
G01 X61.9714 Y-5.8191
G01 X61.9587 Y-5.8138
G01 X61.9487 Y-5.8116
G01 X61.9384 Y-5.8108
G01 X59.7350 Y-5.8109
G01 X59.7214 Y-5.8129
G01 X59.7116 Y-5.8161
G01 X59.7054 Y-5.8191
G01 X59.6967 Y-5.8246
G01 X59.6914 Y-5.8289
G01 X59.6865 Y-5.8338
G01 X59.6802 Y-5.8419
G01 X59.6767 Y-5.8478
G01 X59.6725 Y-5.8572
G01 X59.6692 Y-5.8705
G01 X59.6684 Y-5.8808
G01 X59.6684 Y-5.9107
G01 X59.0153 Y-5.9107
G01 X58.9822 Y-5.9124
G01 X58.9512 Y-5.9172
G01 X58.9207 Y-5.9250
G01 X58.8912 Y-5.9357
G01 X58.8659 Y-5.9477
G01 X58.8389 Y-5.9637
G01 X58.8136 Y-5.9823
G01 X58.7902 Y-6.0032
G01 X58.7770 Y-6.0171
G01 X58.7592 Y-6.0387
G01 X58.7416 Y-6.0648
G01 X58.7267 Y-6.0924
G01 X58.7189 Y-6.1099
G01 X58.7085 Y-6.1395
G01 X58.7017 Y-6.1667
G01 X58.6969 Y-6.1977
G01 X58.6952 Y-6.2291
G01 X58.6953 Y-9.5677
G01 X58.5981 Y-9.5677
G01 X56.6763 Y-7.6460
G01 X56.6760 Y0.2126
G01 X56.6746 Y0.2317
G01 X56.6698 Y0.2627
G01 X56.6630 Y0.2899
G01 X56.6570 Y0.3081
G01 X56.6450 Y0.3367
G01 X56.6316 Y0.3617
G01 X56.6214 Y0.3779
G01 X56.6047 Y0.4003
G01 X56.5922 Y0.4148
G01 X56.5724 Y0.4346
G01 X56.5579 Y0.4471
G01 X56.5355 Y0.4638
G01 X56.5193 Y0.4740
G01 X56.4915 Y0.4887
G01 X56.4657 Y0.4994
G01 X56.4475 Y0.5054
G01 X56.4203 Y0.5122
G01 X56.4019 Y0.5154
G01 X56.3736 Y0.5182
G01 X56.3562 Y0.5187
G01 X30.8198 Y0.5182
G01 X30.7885 Y0.5150
G01 X30.7578 Y0.5087
G01 X30.7310 Y0.5006
G01 X30.7019 Y0.4887
G01 X30.6741 Y0.4740
G01 X30.6579 Y0.4638
G01 X30.6355 Y0.4471
G01 X30.6121 Y0.4262
G01 X28.0695 Y-2.1164
G01 X28.0404 Y-2.1085
G01 X27.9973 Y-2.0988
G01 X27.9504 Y-2.0906
G01 X27.9003 Y-2.0844
G01 X27.8557 Y-2.0811
G01 X27.8081 Y-2.0798
G01 X27.7605 Y-2.0809
G01 X27.7130 Y-2.0843
G01 X27.6658 Y-2.0901
G01 X27.6189 Y-2.0981
G01 X27.5690 Y-2.1093
G01 X27.5232 Y-2.1221
G01 X27.4780 Y-2.1371
G01 X27.4337 Y-2.1543
G01 X27.3901 Y-2.1737
G01 X27.3476 Y-2.1952
G01 X27.3092 Y-2.2169
G01 X27.2942 Y-2.2264
G01 X26.5290 Y-1.4616
G01 X26.5183 Y-1.4523
G01 X26.5037 Y-1.4415
G01 X26.4822 Y-1.4286
G01 X26.4557 Y-1.4169
G01 X26.4422 Y-1.4124
G01 X26.4246 Y-1.4080
G01 X26.4033 Y-1.4047
G01 X26.3800 Y-1.4034
G01 X24.8834 Y-1.4034
G01 X24.8794 Y-1.3861
G01 X24.8666 Y-1.3403
G01 X24.8528 Y-1.2983
G01 X24.8357 Y-1.2539
G01 X24.8150 Y-1.2072
G01 X24.7935 Y-1.1647
G01 X24.7718 Y-1.1263
G01 X24.7464 Y-1.0860
G01 X24.7190 Y-1.0471
G01 X24.6876 Y-1.0068
G01 X24.6565 Y-0.9708
G01 X24.6260 Y-0.9388
G01 X24.5890 Y-0.9036
G01 X24.5529 Y-0.8726
G01 X24.5181 Y-0.8454
G01 X24.4764 Y-0.8160
G01 X24.4361 Y-0.7906
G01 X24.3946 Y-0.7672
G01 X24.3522 Y-0.7460
G01 X24.3117 Y-0.7280
G01 X24.2641 Y-0.7096
G01 X24.2221 Y-0.6958
G01 X24.1763 Y-0.6830
G01 X24.1264 Y-0.6718
G01 X24.0800 Y-0.6638
G01 X24.0357 Y-0.6584
G01 X23.9856 Y-0.6546
G01 X23.9406 Y-0.6535
G01 X23.8930 Y-0.6546
G01 X23.8455 Y-0.6580
G01 X23.7983 Y-0.6638
G01 X23.7514 Y-0.6718
G01 X23.7015 Y-0.6830
G01 X23.6557 Y-0.6958
G01 X23.6137 Y-0.7096
G01 X23.5693 Y-0.7267
G01 X23.5257 Y-0.7459
G01 X23.4832 Y-0.7672
G01 X23.4417 Y-0.7906
G01 X23.4014 Y-0.8160
G01 X23.3625 Y-0.8434
G01 X23.3249 Y-0.8726
G01 X23.2888 Y-0.9036
G01 X23.2542 Y-0.9364
G01 X23.2213 Y-0.9708
G01 X23.1902 Y-1.0068
G01 X23.1608 Y-1.0443
G01 X23.1333 Y-1.0832
G01 X23.1078 Y-1.1234
G01 X23.0843 Y-1.1647
G01 X23.0614 Y-1.2102
G01 X23.0421 Y-1.2539
G01 X23.0250 Y-1.2983
G01 X23.0102 Y-1.3435
G01 X22.9976 Y-1.3895
G01 X22.9872 Y-1.4360
G01 X22.9792 Y-1.4824
G01 X22.9735 Y-1.5296
G01 X22.9700 Y-1.5776
G00 Z3.0000
G00 X22.9700 Y-4.1176
G01 F80.00
G01 Z-0.0746
G01 F60.00
G01 X22.9689 Y-4.1618
G01 X22.9700 Y-4.2094
G01 X22.9734 Y-4.2569
G01 X22.9792 Y-4.3041
G01 X22.9872 Y-4.3510
G01 X22.9976 Y-4.3975
G01 X23.0102 Y-4.4434
G01 X23.0250 Y-4.4887
G01 X23.0421 Y-4.5331
G01 X23.0613 Y-4.5767
G01 X23.0826 Y-4.6192
G01 X23.1060 Y-4.6607
G01 X23.1314 Y-4.7010
G01 X23.1588 Y-4.7399
G01 X23.1880 Y-4.7775
G01 X23.2190 Y-4.8136
G01 X23.2518 Y-4.8482
G01 X23.2862 Y-4.8811
G01 X23.3222 Y-4.9122
G01 X23.3597 Y-4.9416
G01 X23.4014 Y-4.9710
G01 X23.4417 Y-4.9964
G01 X23.4832 Y-5.0198
G01 X23.5256 Y-5.0410
G01 X23.5693 Y-5.0603
G01 X23.6137 Y-5.0774
G01 X23.6589 Y-5.0922
G01 X23.7049 Y-5.1048
G01 X23.7514 Y-5.1152
G01 X23.7978 Y-5.1232
G01 X23.8450 Y-5.1289
G01 X23.8922 Y-5.1324
G01 X23.9372 Y-5.1335
G01 X23.9848 Y-5.1324
G01 X24.0323 Y-5.1290
G01 X24.0829 Y-5.1227
G01 X24.1298 Y-5.1145
G01 X24.1763 Y-5.1040
G01 X24.2188 Y-5.0922
G01 X24.2641 Y-5.0774
G01 X24.3085 Y-5.0603
G01 X24.3521 Y-5.0411
G01 X24.3946 Y-5.0198
G01 X24.4361 Y-4.9964
G01 X24.4764 Y-4.9710
G01 X24.5153 Y-4.9436
G01 X24.5556 Y-4.9122
G01 X24.5916 Y-4.8811
G01 X24.6260 Y-4.8482
G01 X24.6588 Y-4.8136
G01 X24.6898 Y-4.7775
G01 X24.7190 Y-4.7399
G01 X24.7464 Y-4.7010
G01 X24.7718 Y-4.6607
G01 X24.7952 Y-4.6192
G01 X24.8164 Y-4.5768
G01 X24.8344 Y-4.5363
G01 X24.8516 Y-4.4919
G01 X24.8666 Y-4.4467
G01 X24.8794 Y-4.4009
G01 X24.8834 Y-4.3836
G01 X26.2888 Y-4.3836
G01 X26.8363 Y-4.9310
G01 X26.8363 Y-6.4898
G01 X26.8376 Y-6.5035
G01 X26.8416 Y-6.5166
G01 X26.8446 Y-6.5228
G01 X26.8501 Y-6.5315
G01 X26.8593 Y-6.5417
G01 X26.8703 Y-6.5498
G01 X26.8827 Y-6.5557
G01 X26.8926 Y-6.5585
G01 X26.9063 Y-6.5598
G01 X28.7097 Y-6.5597
G01 X28.7233 Y-6.5577
G01 X28.7362 Y-6.5531
G01 X28.7452 Y-6.5480
G01 X28.7558 Y-6.5393
G01 X28.7645 Y-6.5287
G01 X28.7710 Y-6.5166
G01 X28.7750 Y-6.5035
G01 X28.7762 Y-6.4932
G01 X28.7763 Y-4.8603
G01 X29.1407 Y-4.4959
G01 X30.9562 Y-4.4959
G01 X30.9794 Y-4.4942
G01 X31.0039 Y-4.4890
G01 X31.0228 Y-4.4823
G01 X31.0421 Y-4.4725
G01 X31.0588 Y-4.4614
G01 X31.0752 Y-4.4472
G01 X31.7511 Y-3.7713
G01 X31.7612 Y-3.7603
G01 X31.7713 Y-3.7470
G01 X31.7839 Y-3.7253
G01 X31.7931 Y-3.7021
G01 X31.7988 Y-3.6777
G01 X31.8009 Y-3.6528
G01 X31.8010 Y-1.8959
G01 X32.0585 Y-1.6384
G01 X42.8715 Y-1.6384
G01 X43.2839 Y-2.0509
G01 X43.2757 Y-2.4332
G01 X43.0748 Y-2.6341
G01 X43.0670 Y-2.6444
G01 X43.0624 Y-2.6533
G01 X43.0580 Y-2.6670
G01 X43.0566 Y-2.6777
G01 X43.0569 Y-3.7886
G01 X43.0588 Y-3.7992
G01 X43.0624 Y-3.8095
G01 X43.0670 Y-3.8184
G01 X43.0727 Y-3.8262
G01 X43.1772 Y-3.9308
G01 X43.1849 Y-3.9376
G01 X43.1967 Y-3.9446
G01 X43.2096 Y-3.9492
G01 X43.2197 Y-3.9510
G01 X43.6266 Y-3.9513
G01 X43.6338 Y-3.9509
G01 X43.6444 Y-3.9490
G01 X43.6513 Y-3.9468
G01 X43.6608 Y-3.9424
G01 X43.6738 Y-3.9330
G01 X43.7782 Y-3.8284
G01 X43.7860 Y-3.8182
G01 X43.7906 Y-3.8093
G01 X43.7950 Y-3.7956
G01 X43.7965 Y-3.7813
G01 X43.7965 Y-2.6777
G01 X43.7943 Y-2.6635
G01 X43.7907 Y-2.6533
G01 X43.7861 Y-2.6444
G01 X43.7783 Y-2.6341
G01 X43.6151 Y-2.4709
G01 X43.6255 Y-1.9788
G01 X43.6239 Y-1.9582
G01 X43.6184 Y-1.9331
G01 X43.6106 Y-1.9124
G01 X43.6010 Y-1.8941
G01 X43.5883 Y-1.8759
G01 X43.5758 Y-1.8618
G01 X43.0574 Y-1.3435
G01 X43.0378 Y-1.3279
G01 X43.0278 Y-1.3216
G01 X43.0131 Y-1.3139
G01 X42.9896 Y-1.3051
G01 X42.9737 Y-1.3013
G01 X42.9603 Y-1.2993
G01 X42.9419 Y-1.2982
G01 X31.9780 Y-1.2986
G01 X31.9649 Y-1.2999
G01 X31.9485 Y-1.3029
G01 X31.9371 Y-1.3061
G01 X31.9215 Y-1.3118
G01 X31.9095 Y-1.3175
G01 X31.8951 Y-1.3260
G01 X31.8816 Y-1.3358
G01 X31.8726 Y-1.3435
G01 X31.5061 Y-1.7100
G01 X31.4933 Y-1.7256
G01 X31.4818 Y-1.7438
G01 X31.4714 Y-1.7666
G01 X31.4655 Y-1.7859
G01 X31.4619 Y-1.8071
G01 X31.4608 Y-1.8255
G01 X31.4608 Y-3.5807
G01 X30.8858 Y-4.1557
G01 X29.0703 Y-4.1557
G01 X29.0471 Y-4.1574
G01 X29.0226 Y-4.1626
G01 X28.9992 Y-4.1714
G01 X28.9773 Y-4.1835
G01 X28.9574 Y-4.1987
G01 X28.5358 Y-4.6198
G01 X27.1475 Y-4.6198
G01 X26.5344 Y-4.0067
G01 X26.5183 Y-3.9923
G01 X26.5037 Y-3.9815
G01 X26.4852 Y-3.9702
G01 X26.4725 Y-3.9638
G01 X26.4525 Y-3.9557
G01 X26.4246 Y-3.9480
G01 X26.4033 Y-3.9447
G01 X26.3817 Y-3.9434
G01 X24.8834 Y-3.9434
G01 X24.8794 Y-3.9261
G01 X24.8666 Y-3.8803
G01 X24.8528 Y-3.8383
G01 X24.8357 Y-3.7939
G01 X24.8150 Y-3.7472
G01 X24.7935 Y-3.7047
G01 X24.7700 Y-3.6634
G01 X24.7445 Y-3.6232
G01 X24.7170 Y-3.5844
G01 X24.6898 Y-3.5495
G01 X24.6588 Y-3.5134
G01 X24.6236 Y-3.4764
G01 X24.5890 Y-3.4436
G01 X24.5529 Y-3.4126
G01 X24.5153 Y-3.3834
G01 X24.4764 Y-3.3560
G01 X24.4390 Y-3.3324
G01 X24.3977 Y-3.3089
G01 X24.3552 Y-3.2874
G01 X24.3117 Y-3.2680
G01 X24.2641 Y-3.2496
G01 X24.2189 Y-3.2348
G01 X24.1763 Y-3.2230
G01 X24.1298 Y-3.2125
G01 X24.0829 Y-3.2043
G01 X24.0323 Y-3.1980
G01 X23.9856 Y-3.1946
G01 X23.9406 Y-3.1935
G01 X23.8930 Y-3.1946
G01 X23.8455 Y-3.1980
G01 X23.7983 Y-3.2038
G01 X23.7514 Y-3.2118
G01 X23.7049 Y-3.2222
G01 X23.6590 Y-3.2348
G01 X23.6137 Y-3.2496
G01 X23.5693 Y-3.2667
G01 X23.5257 Y-3.2859
G01 X23.4832 Y-3.3072
G01 X23.4417 Y-3.3306
G01 X23.4014 Y-3.3560
G01 X23.3625 Y-3.3834
G01 X23.3249 Y-3.4126
G01 X23.2888 Y-3.4436
G01 X23.2542 Y-3.4764
G01 X23.2213 Y-3.5108
G01 X23.1902 Y-3.5468
G01 X23.1608 Y-3.5843
G01 X23.1333 Y-3.6232
G01 X23.1078 Y-3.6634
G01 X23.0843 Y-3.7047
G01 X23.0628 Y-3.7472
G01 X23.0434 Y-3.7907
G01 X23.0262 Y-3.8351
G01 X23.0112 Y-3.8803
G01 X22.9984 Y-3.9261
G01 X22.9879 Y-3.9726
G01 X22.9792 Y-4.0224
G01 X22.9738 Y-4.0667
G01 X22.9700 Y-4.1176
G00 Z3.0000
G00 X23.5689 Y-5.6735
G01 F80.00
G01 Z-0.0746
G01 F60.00
G01 X22.9089 Y-5.6735
G01 X22.9089 Y-6.3335
G01 X22.9689 Y-6.3335
G01 X22.9690 Y-5.8001
G01 X22.9702 Y-5.7898
G01 X22.9742 Y-5.7767
G01 X22.9807 Y-5.7646
G01 X22.9894 Y-5.7540
G01 X23.0000 Y-5.7453
G01 X23.0090 Y-5.7402
G01 X23.0219 Y-5.7356
G01 X23.0355 Y-5.7336
G01 X23.5689 Y-5.7335
G01 X23.5689 Y-5.6735
G00 Z3.0000
G00 X24.9689 Y-6.3335
G01 F80.00
G01 Z-0.0746
G01 F60.00
G01 X24.9689 Y-5.6735
G01 X24.3089 Y-5.6735
G01 X24.3089 Y-5.7335
G01 X24.8423 Y-5.7336
G01 X24.8559 Y-5.7356
G01 X24.8688 Y-5.7402
G01 X24.8778 Y-5.7453
G01 X24.8884 Y-5.7540
G01 X24.8971 Y-5.7646
G01 X24.9036 Y-5.7767
G01 X24.9076 Y-5.7898
G01 X24.9088 Y-5.8001
G01 X24.9089 Y-6.3335
G01 X24.9689 Y-6.3335
G00 Z3.0000
G00 X24.3089 Y-7.7335
G01 F80.00
G01 Z-0.0746
G01 F60.00
G01 X24.9689 Y-7.7335
G01 X24.9689 Y-7.0735
G01 X24.9089 Y-7.0735
G01 X24.9088 Y-7.6069
G01 X24.9076 Y-7.6172
G01 X24.9036 Y-7.6303
G01 X24.8971 Y-7.6424
G01 X24.8884 Y-7.6530
G01 X24.8778 Y-7.6617
G01 X24.8688 Y-7.6668
G01 X24.8559 Y-7.6714
G01 X24.8423 Y-7.6734
G01 X24.3089 Y-7.6735
G01 X24.3089 Y-7.7335
G00 Z3.0000
G00 X22.9089 Y-7.7335
G01 F80.00
G01 Z-0.0746
G01 F60.00
G01 X23.5689 Y-7.7335
G01 X23.5689 Y-7.6735
G01 X23.0355 Y-7.6734
G01 X23.0219 Y-7.6714
G01 X23.0121 Y-7.6682
G01 X23.0029 Y-7.6635
G01 X22.9919 Y-7.6554
G01 X22.9827 Y-7.6452
G01 X22.9756 Y-7.6334
G01 X22.9710 Y-7.6205
G01 X22.9690 Y-7.6069
G01 X22.9689 Y-7.0735
G01 X22.9089 Y-7.0735
G01 X22.9089 Y-7.7335
G00 Z3.0000
G00 X24.5464 Y-11.0886
G01 F80.00
G01 Z-0.0746
G01 F60.00
G01 X25.8464 Y-11.0886
G01 X25.8533 Y-11.0883
G01 X25.8634 Y-11.0865
G01 X25.8732 Y-11.0833
G01 X25.8824 Y-11.0786
G01 X25.8908 Y-11.0727
G01 X25.8983 Y-11.0656
G01 X25.9046 Y-11.0575
G01 X25.9097 Y-11.0485
G01 X25.9134 Y-11.0389
G01 X25.9156 Y-11.0289
G01 X25.9164 Y-11.0186
G01 X25.9164 Y-10.7352
G01 X27.3503 Y-11.1117
G01 X29.4116 Y-13.1730
G01 X29.4207 Y-13.1816
G01 X29.4347 Y-13.1931
G01 X29.4464 Y-13.2013
G01 X29.4620 Y-13.2107
G01 X29.4747 Y-13.2171
G01 X29.4914 Y-13.2240
G01 X29.5050 Y-13.2285
G01 X29.5226 Y-13.2329
G01 X29.5439 Y-13.2362
G01 X29.5672 Y-13.2375
G01 X34.9743 Y-13.2373
G01 X34.9970 Y-13.2351
G01 X35.0118 Y-13.2324
G01 X35.0337 Y-13.2263
G01 X35.0533 Y-13.2188
G01 X36.9954 Y-12.3644
G01 X40.2034 Y-12.3644
G01 X40.2233 Y-12.3635
G01 X40.2446 Y-12.3605
G01 X40.2656 Y-12.3554
G01 X40.2860 Y-12.3483
G01 X40.3056 Y-12.3392
G01 X40.3242 Y-12.3282
G01 X40.3417 Y-12.3155
G01 X40.3590 Y-12.2999
G01 X41.9076 Y-10.7513
G01 X42.4302 Y-10.7512
G01 X42.4409 Y-10.7498
G01 X42.4547 Y-10.7454
G01 X42.4635 Y-10.7408
G01 X42.4738 Y-10.7330
G01 X42.5782 Y-10.6284
G01 X42.5842 Y-10.6209
G01 X42.5891 Y-10.6126
G01 X42.5920 Y-10.6060
G01 X42.5950 Y-10.5956
G01 X42.5965 Y-10.5813
G01 X42.5965 Y-10.1777
G01 X42.5951 Y-10.1670
G01 X42.5907 Y-10.1533
G01 X42.5843 Y-10.1417
G01 X42.5761 Y-10.1318
G01 X42.4712 Y-10.0274
G01 X42.4634 Y-10.0218
G01 X42.4545 Y-10.0172
G01 X42.4443 Y-10.0136
G01 X42.4337 Y-10.0117
G01 X41.3266 Y-10.0113
G01 X41.3158 Y-10.0121
G01 X41.3053 Y-10.0146
G01 X41.2953 Y-10.0187
G01 X41.2870 Y-10.0236
G01 X41.2771 Y-10.0318
G01 X41.0771 Y-10.2319
G01 X41.0689 Y-10.2418
G01 X41.0640 Y-10.2501
G01 X41.0589 Y-10.2636
G01 X41.0567 Y-10.2778
G01 X41.0566 Y-10.4813
G01 X41.0574 Y-10.4921
G01 X41.0611 Y-10.5060
G01 X41.0671 Y-10.5182
G01 X41.0749 Y-10.5285
G01 X41.2771 Y-10.7309
G01 X41.2844 Y-10.7372
G01 X41.2934 Y-10.7430
G01 X40.1122 Y-11.9242
G01 X36.9491 Y-11.9242
G01 X36.9281 Y-11.9252
G01 X36.9132 Y-11.9272
G01 X36.8835 Y-11.9342
G01 X36.8605 Y-11.9429
G01 X34.9184 Y-12.7973
G01 X29.6584 Y-12.7973
G01 X27.6194 Y-10.7584
G01 X27.6025 Y-10.7431
G01 X27.5854 Y-10.7306
G01 X27.5673 Y-10.7198
G01 X27.5512 Y-10.7121
G01 X27.5383 Y-10.7069
G01 X27.5197 Y-10.7011
G01 X25.9164 Y-10.2801
G01 X25.9161 Y-9.6117
G01 X25.9143 Y-9.6016
G01 X25.9111 Y-9.5918
G01 X25.9064 Y-9.5826
G01 X25.8983 Y-9.5716
G01 X25.8908 Y-9.5645
G01 X25.8794 Y-9.5569
G01 X25.8667 Y-9.5516
G01 X25.8567 Y-9.5494
G01 X25.8464 Y-9.5486
G01 X24.5464 Y-9.5486
G01 X24.5327 Y-9.5499
G01 X24.5261 Y-9.5516
G01 X24.5165 Y-9.5553
G01 X24.5075 Y-9.5604
G01 X24.5020 Y-9.5645
G01 X24.4923 Y-9.5742
G01 X24.4847 Y-9.5856
G01 X24.4805 Y-9.5950
G01 X24.4772 Y-9.6083
G01 X24.4764 Y-9.6186
G01 X24.4765 Y-11.0220
G01 X24.4785 Y-11.0356
G01 X24.4831 Y-11.0485
G01 X24.4902 Y-11.0603
G01 X24.4994 Y-11.0705
G01 X24.5104 Y-11.0786
G01 X24.5228 Y-11.0845
G01 X24.5361 Y-11.0878
G01 X24.5464 Y-11.0886
G00 Z3.0000
G00 X24.3950 Y-12.5399
G01 F80.00
G01 Z-0.0746
G01 F60.00
G01 X24.3958 Y-12.5297
G01 X24.3981 Y-12.5196
G01 X24.4033 Y-12.5069
G01 X24.4088 Y-12.4982
G01 X24.4180 Y-12.4881
G01 X24.4262 Y-12.4817
G01 X24.4351 Y-12.4767
G01 X24.4447 Y-12.4730
G01 X24.4548 Y-12.4707
G01 X24.4650 Y-12.4699
G01 X24.6725 Y-12.4698
G01 X24.6798 Y-12.4674
G01 X24.6854 Y-12.4621
G01 X24.6881 Y-12.4550
G01 X24.6876 Y-12.4473
G01 X24.6854 Y-12.4427
G01 X24.6812 Y-12.4383
G01 X24.6759 Y-12.4356
G01 X24.6699 Y-12.4349
G01 X24.0851 Y-12.4349
G01 X24.0791 Y-12.4356
G01 X24.0738 Y-12.4383
G01 X24.0701 Y-12.4420
G01 X24.0674 Y-12.4473
G01 X24.0669 Y-12.4550
G01 X24.0696 Y-12.4621
G01 X24.0752 Y-12.4674
G01 X24.0825 Y-12.4698
G01 X24.2900 Y-12.4699
G01 X24.2968 Y-12.4703
G01 X24.3070 Y-12.4720
G01 X24.3135 Y-12.4740
G01 X24.3230 Y-12.4782
G01 X24.3288 Y-12.4817
G01 X24.3370 Y-12.4881
G01 X24.3441 Y-12.4955
G01 X24.3500 Y-12.5040
G01 X24.3546 Y-12.5132
G01 X24.3569 Y-12.5196
G01 X24.3592 Y-12.5297
G01 X24.3600 Y-12.5399
G01 X24.3600 Y-13.4293
G01 X24.3613 Y-13.4369
G01 X24.3651 Y-13.4426
G01 X24.3708 Y-13.4464
G01 X24.3775 Y-13.4477
G01 X24.3842 Y-13.4464
G01 X24.3899 Y-13.4426
G01 X24.3937 Y-13.4369
G01 X24.3950 Y-13.4293
G01 X24.3950 Y-12.5399
G00 Z3.0000
G00 X23.4661 Y-13.2460
G01 F80.00
G01 Z-0.0746
G01 F60.00
G01 X23.4665 Y-13.0831
G01 X23.4692 Y-13.0696
G01 X23.4744 Y-13.0569
G01 X23.4820 Y-13.0455
G01 X23.4917 Y-13.0358
G01 X23.5002 Y-13.0299
G01 X23.5126 Y-13.0240
G01 X23.5225 Y-13.0213
G01 X23.5327 Y-13.0200
G01 X23.7445 Y-13.0197
G01 X23.7509 Y-13.0174
G01 X23.7554 Y-13.0135
G01 X23.7587 Y-13.0075
G01 X23.7594 Y-13.0015
G01 X23.7577 Y-12.9949
G01 X23.7543 Y-12.9900
G01 X23.7494 Y-12.9866
G01 X23.7436 Y-12.9850
G01 X23.5327 Y-12.9848
G01 X23.5225 Y-12.9835
G01 X23.5126 Y-12.9808
G01 X23.5002 Y-12.9749
G01 X23.4917 Y-12.9690
G01 X23.4843 Y-12.9619
G01 X23.4761 Y-12.9508
G01 X23.4715 Y-12.9416
G01 X23.4675 Y-12.9285
G01 X23.4661 Y-12.9149
G01 X23.4660 Y-12.7563
G01 X23.4644 Y-12.7505
G01 X23.4604 Y-12.7450
G01 X23.4545 Y-12.7415
G01 X23.4477 Y-12.7405
G01 X23.4419 Y-12.7418
G01 X23.4368 Y-12.7450
G01 X23.4328 Y-12.7505
G01 X23.4312 Y-12.7563
G01 X23.4311 Y-12.9149
G01 X23.4297 Y-12.9285
G01 X23.4257 Y-12.9416
G01 X23.4211 Y-12.9508
G01 X23.4129 Y-12.9619
G01 X23.4055 Y-12.9690
G01 X23.3970 Y-12.9749
G01 X23.3846 Y-12.9808
G01 X23.3747 Y-12.9835
G01 X23.3645 Y-12.9848
G01 X23.1527 Y-12.9851
G01 X23.1470 Y-12.9869
G01 X23.1418 Y-12.9913
G01 X23.1385 Y-12.9973
G01 X23.1378 Y-13.0033
G01 X23.1395 Y-13.0099
G01 X23.1429 Y-13.0148
G01 X23.1478 Y-13.0182
G01 X23.1536 Y-13.0198
G01 X23.3645 Y-13.0200
G01 X23.3747 Y-13.0213
G01 X23.3846 Y-13.0240
G01 X23.3941 Y-13.0282
G01 X23.4028 Y-13.0337
G01 X23.4129 Y-13.0429
G01 X23.4211 Y-13.0540
G01 X23.4270 Y-13.0664
G01 X23.4303 Y-13.0797
G01 X23.4311 Y-13.0899
G01 X23.4311 Y-13.2460
G01 X23.4318 Y-13.2520
G01 X23.4351 Y-13.2580
G01 X23.4396 Y-13.2619
G01 X23.4452 Y-13.2641
G01 X23.4512 Y-13.2642
G01 X23.4576 Y-13.2619
G01 X23.4621 Y-13.2580
G01 X23.4651 Y-13.2528
G01 X23.4661 Y-13.2460
G00 Z3.0000
G00 X25.7599 Y-13.4190
G01 F80.00
G01 Z-0.0746
G01 F60.00
G01 X25.4332 Y-12.9833
G01 X25.4276 Y-12.9746
G01 X25.4222 Y-12.9618
G01 X25.4199 Y-12.9517
G01 X25.4192 Y-12.9413
G01 X25.4199 Y-12.9309
G01 X25.4233 Y-12.9175
G01 X25.4276 Y-12.9080
G01 X25.4332 Y-12.8993
G01 X25.7609 Y-12.4622
G01 X25.7634 Y-12.4567
G01 X25.7639 Y-12.4516
G01 X25.7626 Y-12.4458
G01 X25.7600 Y-12.4414
G01 X25.7540 Y-12.4366
G01 X25.7465 Y-12.4349
G01 X25.7390 Y-12.4365
G01 X25.7329 Y-12.4412
G01 X25.4314 Y-12.8426
G01 X25.4212 Y-12.8518
G01 X25.4095 Y-12.8587
G01 X25.3933 Y-12.8641
G01 X25.3798 Y-12.8654
G01 X25.3662 Y-12.8641
G01 X25.3500 Y-12.8587
G01 X25.3383 Y-12.8518
G01 X25.3281 Y-12.8426
G01 X25.0266 Y-12.4412
G01 X25.0213 Y-12.4369
G01 X25.0156 Y-12.4351
G01 X25.0088 Y-12.4354
G01 X25.0026 Y-12.4384
G01 X24.9980 Y-12.4435
G01 X24.9959 Y-12.4491
G01 X24.9959 Y-12.4559
G01 X24.9986 Y-12.4622
G01 X25.3263 Y-12.8993
G01 X25.3319 Y-12.9080
G01 X25.3362 Y-12.9175
G01 X25.3396 Y-12.9309
G01 X25.3403 Y-12.9413
G01 X25.3396 Y-12.9517
G01 X25.3362 Y-12.9651
G01 X25.3319 Y-12.9746
G01 X25.3263 Y-12.9833
G01 X24.9986 Y-13.4204
G01 X24.9961 Y-13.4259
G01 X24.9956 Y-13.4310
G01 X24.9969 Y-13.4368
G01 X24.9995 Y-13.4412
G01 X25.0055 Y-13.4460
G01 X25.0130 Y-13.4477
G01 X25.0205 Y-13.4461
G01 X25.0266 Y-13.4414
G01 X25.3281 Y-13.0400
G01 X25.3383 Y-13.0308
G01 X25.3500 Y-13.0239
G01 X25.3628 Y-13.0193
G01 X25.3763 Y-13.0173
G01 X25.3933 Y-13.0185
G01 X25.4095 Y-13.0239
G01 X25.4212 Y-13.0308
G01 X25.4336 Y-13.0425
G01 X25.7335 Y-13.4420
G01 X25.7390 Y-13.4461
G01 X25.7456 Y-13.4477
G01 X25.7524 Y-13.4467
G01 X25.7576 Y-13.4437
G01 X25.7619 Y-13.4384
G01 X25.7638 Y-13.4318
G01 X25.7631 Y-13.4250
G01 X25.7599 Y-13.4190
G00 Z3.0000
G00 X26.2070 Y-13.5168
G01 F80.00
G01 Z-0.0746
G01 F60.00
G01 X26.2032 Y-13.5692
G01 X26.2020 Y-13.6217
G01 X26.2034 Y-13.6742
G01 X26.2073 Y-13.7266
G01 X26.2138 Y-13.7787
G01 X26.2229 Y-13.8305
G01 X26.2345 Y-13.8818
G01 X26.2486 Y-13.9324
G01 X26.2652 Y-13.9823
G01 X26.2842 Y-14.0312
G01 X26.3055 Y-14.0792
G01 X26.3291 Y-14.1259
G01 X26.3552 Y-14.1718
G01 X26.3834 Y-14.2162
G01 X26.4137 Y-14.2591
G01 X26.4461 Y-14.3004
G01 X26.4805 Y-14.3402
G01 X26.5155 Y-14.3770
G01 X27.9297 Y-15.7912
G01 X27.9665 Y-15.8262
G01 X28.0063 Y-15.8606
G01 X28.0476 Y-15.8930
G01 X28.0934 Y-15.9252
G01 X28.1378 Y-15.9533
G01 X28.1836 Y-15.9791
G01 X28.2306 Y-16.0026
G01 X28.2755 Y-16.0225
G01 X28.3244 Y-16.0415
G01 X28.3743 Y-16.0581
G01 X28.4283 Y-16.0730
G01 X28.4795 Y-16.0844
G01 X28.5313 Y-16.0933
G01 X28.5801 Y-16.0994
G01 X28.6325 Y-16.1033
G01 X28.6850 Y-16.1047
G01 X28.7409 Y-16.1033
G01 X28.7899 Y-16.0997
G01 X28.8421 Y-16.0933
G01 X28.8972 Y-16.0838
G01 X28.9451 Y-16.0730
G01 X28.9958 Y-16.0591
G01 X29.0490 Y-16.0415
G01 X29.0979 Y-16.0225
G01 X29.1428 Y-16.0026
G01 X29.1898 Y-15.9791
G01 X29.2385 Y-15.9515
G01 X29.2829 Y-15.9233
G01 X29.3258 Y-15.8930
G01 X29.3645 Y-15.8628
G01 X29.4069 Y-15.8262
G01 X29.4449 Y-15.7899
G01 X29.4787 Y-15.7544
G01 X29.5131 Y-15.7146
G01 X29.5475 Y-15.6705
G01 X29.5758 Y-15.6304
G01 X29.6040 Y-15.5860
G01 X29.6300 Y-15.5403
G01 X29.6551 Y-15.4903
G01 X29.6750 Y-15.4454
G01 X29.6940 Y-15.3965
G01 X29.7106 Y-15.3466
G01 X29.7255 Y-15.2926
G01 X29.7369 Y-15.2414
G01 X29.7453 Y-15.1930
G01 X29.7519 Y-15.1408
G01 X29.7560 Y-15.0850
G01 X29.7572 Y-15.0359
G01 X29.7560 Y-14.9834
G01 X29.7522 Y-14.9310
G01 X29.7454 Y-14.8755
G01 X29.7347 Y-14.8167
G01 X30.2659 Y-14.8527
G01 X30.2662 Y-15.3412
G01 X30.2680 Y-15.3513
G01 X30.2712 Y-15.3611
G01 X30.2759 Y-15.3703
G01 X30.2840 Y-15.3813
G01 X30.2915 Y-15.3884
G01 X30.2999 Y-15.3943
G01 X30.3091 Y-15.3990
G01 X30.3189 Y-15.4022
G01 X30.3290 Y-15.4040
G01 X30.3359 Y-15.4043
G01 X31.7393 Y-15.4042
G01 X31.7496 Y-15.4030
G01 X31.7595 Y-15.4002
G01 X31.7719 Y-15.3943
G01 X31.7803 Y-15.3884
G01 X31.7878 Y-15.3813
G01 X31.7941 Y-15.3732
G01 X31.7992 Y-15.3642
G01 X31.8029 Y-15.3546
G01 X31.8051 Y-15.3446
G01 X31.8059 Y-15.3343
G01 X31.8059 Y-14.0343
G01 X31.8051 Y-14.0240
G01 X31.8038 Y-14.0173
G01 X31.8006 Y-14.0075
G01 X31.7976 Y-14.0013
G01 X31.7921 Y-13.9926
G01 X31.7878 Y-13.9873
G01 X31.7829 Y-13.9824
G01 X31.7748 Y-13.9761
G01 X31.7658 Y-13.9710
G01 X31.7562 Y-13.9673
G01 X31.7462 Y-13.9651
G01 X31.7359 Y-13.9643
G01 X30.3359 Y-13.9643
G01 X30.3256 Y-13.9651
G01 X30.3156 Y-13.9673
G01 X30.3060 Y-13.9710
G01 X30.2970 Y-13.9761
G01 X30.2864 Y-13.9848
G01 X30.2797 Y-13.9926
G01 X30.2742 Y-14.0013
G01 X30.2689 Y-14.0140
G01 X30.2667 Y-14.0240
G01 X30.2659 Y-14.0343
G01 X30.2659 Y-14.4115
G01 X29.5188 Y-14.3609
G01 X29.4810 Y-14.3166
G01 X29.4437 Y-14.2772
G01 X28.0295 Y-12.8630
G01 X27.9927 Y-12.8280
G01 X27.9529 Y-12.7936
G01 X27.9116 Y-12.7612
G01 X27.8658 Y-12.7290
G01 X27.8214 Y-12.7009
G01 X27.7756 Y-12.6751
G01 X27.7286 Y-12.6516
G01 X27.6837 Y-12.6317
G01 X27.6348 Y-12.6127
G01 X27.5849 Y-12.5961
G01 X27.5309 Y-12.5812
G01 X27.4797 Y-12.5698
G01 X27.4279 Y-12.5609
G01 X27.3757 Y-12.5545
G01 X27.3233 Y-12.5507
G01 X27.2742 Y-12.5495
G01 X27.2217 Y-12.5507
G01 X27.1693 Y-12.5545
G01 X27.1138 Y-12.5613
G01 X27.0620 Y-12.5704
G01 X27.0107 Y-12.5820
G01 X26.9601 Y-12.5961
G01 X26.9135 Y-12.6115
G01 X26.8644 Y-12.6303
G01 X26.8164 Y-12.6516
G01 X26.7666 Y-12.6766
G01 X26.7207 Y-12.7027
G01 X26.6763 Y-12.7309
G01 X26.6334 Y-12.7612
G01 X26.5921 Y-12.7936
G01 X26.5549 Y-12.8257
G01 X26.5168 Y-12.8618
G01 X26.4805 Y-12.8998
G01 X26.4461 Y-12.9396
G01 X26.4137 Y-12.9809
G01 X26.3815 Y-13.0267
G01 X26.3534 Y-13.0711
G01 X26.3276 Y-13.1169
G01 X26.3041 Y-13.1639
G01 X26.2842 Y-13.2088
G01 X26.2652 Y-13.2577
G01 X26.2486 Y-13.3076
G01 X26.2337 Y-13.3616
G01 X26.2223 Y-13.4128
G01 X26.2134 Y-13.4646
G01 X26.2070 Y-13.5168
G00 Z3.0000
G00 X29.4722 Y-11.4210
G01 F80.00
G01 Z-0.0746
G01 F60.00
G01 X30.8722 Y-11.4210
G01 X30.8825 Y-11.4202
G01 X30.8958 Y-11.4169
G01 X30.9052 Y-11.4127
G01 X30.9139 Y-11.4072
G01 X30.9217 Y-11.4005
G01 X30.9284 Y-11.3927
G01 X30.9339 Y-11.3840
G01 X30.9369 Y-11.3778
G01 X30.9401 Y-11.3680
G01 X30.9419 Y-11.3579
G01 X30.9422 Y-10.9228
G01 X31.7039 Y-10.9245
G01 X31.7039 Y-11.3561
G01 X31.7047 Y-11.3664
G01 X31.7069 Y-11.3764
G01 X31.7122 Y-11.3891
G01 X31.7177 Y-11.3978
G01 X31.7269 Y-11.4080
G01 X31.7379 Y-11.4161
G01 X31.7503 Y-11.4220
G01 X31.7636 Y-11.4253
G01 X31.7739 Y-11.4261
G01 X33.1739 Y-11.4261
G01 X33.1842 Y-11.4253
G01 X33.1975 Y-11.4220
G01 X33.2069 Y-11.4178
G01 X33.2156 Y-11.4123
G01 X33.2234 Y-11.4056
G01 X33.2301 Y-11.3978
G01 X33.2356 Y-11.3891
G01 X33.2398 Y-11.3797
G01 X33.2426 Y-11.3698
G01 X33.2436 Y-11.3630
G01 X33.2439 Y-10.9133
G01 X34.0248 Y-10.9003
G01 X34.0248 Y-11.3560
G01 X34.0256 Y-11.3663
G01 X34.0289 Y-11.3796
G01 X34.0331 Y-11.3890
G01 X34.0407 Y-11.4004
G01 X34.0504 Y-11.4101
G01 X34.0588 Y-11.4160
G01 X34.0712 Y-11.4219
G01 X34.0845 Y-11.4252
G01 X34.0948 Y-11.4260
G01 X35.6948 Y-11.4260
G01 X35.7051 Y-11.4252
G01 X35.7151 Y-11.4230
G01 X35.7247 Y-11.4193
G01 X35.7337 Y-11.4142
G01 X35.7418 Y-11.4079
G01 X35.7489 Y-11.4004
G01 X35.7548 Y-11.3920
G01 X35.7595 Y-11.3828
G01 X35.7627 Y-11.3730
G01 X35.7645 Y-11.3629
G01 X35.7648 Y-10.9261
G01 X36.7053 Y-10.9261
G01 X36.7054 Y-10.9427
G01 X36.7074 Y-10.9563
G01 X36.7094 Y-10.9629
G01 X36.7136 Y-10.9723
G01 X36.7212 Y-10.9837
G01 X36.7309 Y-10.9934
G01 X36.7423 Y-11.0010
G01 X36.7517 Y-11.0052
G01 X36.7583 Y-11.0072
G01 X36.7719 Y-11.0092
G01 X38.0753 Y-11.0093
G01 X38.0890 Y-11.0080
G01 X38.0989 Y-11.0052
G01 X38.1083 Y-11.0010
G01 X38.1197 Y-10.9934
G01 X38.1272 Y-10.9863
G01 X38.1335 Y-10.9782
G01 X38.1400 Y-10.9661
G01 X38.1440 Y-10.9530
G01 X38.1452 Y-10.9427
G01 X38.1453 Y-9.5393
G01 X38.1440 Y-9.5256
G01 X38.1412 Y-9.5157
G01 X38.1353 Y-9.5033
G01 X38.1272 Y-9.4923
G01 X38.1197 Y-9.4852
G01 X38.1113 Y-9.4793
G01 X38.0989 Y-9.4734
G01 X38.0890 Y-9.4706
G01 X38.0787 Y-9.4694
G01 X36.7753 Y-9.4693
G01 X36.7650 Y-9.4701
G01 X36.7550 Y-9.4723
G01 X36.7454 Y-9.4760
G01 X36.7364 Y-9.4811
G01 X36.7309 Y-9.4852
G01 X36.7234 Y-9.4923
G01 X36.7171 Y-9.5004
G01 X36.7136 Y-9.5063
G01 X36.7083 Y-9.5190
G01 X36.7066 Y-9.5256
G01 X36.7054 Y-9.5359
G01 X36.7053 Y-10.4859
G01 X35.7648 Y-10.4859
G01 X35.7648 Y-10.0560
G01 X35.7640 Y-10.0457
G01 X35.7607 Y-10.0324
G01 X35.7565 Y-10.0230
G01 X35.7510 Y-10.0143
G01 X35.7418 Y-10.0041
G01 X35.7308 Y-9.9960
G01 X35.7216 Y-9.9913
G01 X35.7118 Y-9.9881
G01 X35.6982 Y-9.9861
G01 X34.0948 Y-9.9860
G01 X34.0811 Y-9.9873
G01 X34.0712 Y-9.9901
G01 X34.0618 Y-9.9943
G01 X34.0504 Y-10.0019
G01 X34.0429 Y-10.0090
G01 X34.0366 Y-10.0171
G01 X34.0315 Y-10.0261
G01 X34.0278 Y-10.0357
G01 X34.0251 Y-10.0491
G01 X34.0248 Y-10.4601
G01 X33.2439 Y-10.4731
G01 X33.2436 Y-10.0492
G01 X33.2418 Y-10.0391
G01 X33.2386 Y-10.0293
G01 X33.2339 Y-10.0201
G01 X33.2280 Y-10.0117
G01 X33.2209 Y-10.0042
G01 X33.2128 Y-9.9979
G01 X33.2038 Y-9.9928
G01 X33.1942 Y-9.9891
G01 X33.1842 Y-9.9869
G01 X33.1739 Y-9.9861
G01 X31.7739 Y-9.9861
G01 X31.7636 Y-9.9869
G01 X31.7536 Y-9.9891
G01 X31.7440 Y-9.9928
G01 X31.7350 Y-9.9979
G01 X31.7244 Y-10.0066
G01 X31.7177 Y-10.0144
G01 X31.7106 Y-10.0262
G01 X31.7069 Y-10.0358
G01 X31.7042 Y-10.0492
G01 X31.7039 Y-10.4843
G01 X30.9422 Y-10.4826
G01 X30.9419 Y-10.0441
G01 X30.9401 Y-10.0340
G01 X30.9369 Y-10.0242
G01 X30.9322 Y-10.0150
G01 X30.9241 Y-10.0040
G01 X30.9166 Y-9.9969
G01 X30.9082 Y-9.9910
G01 X30.8958 Y-9.9851
G01 X30.8859 Y-9.9823
G01 X30.8722 Y-9.9810
G01 X29.4722 Y-9.9810
G01 X29.4585 Y-9.9823
G01 X29.4486 Y-9.9851
G01 X29.4362 Y-9.9910
G01 X29.4278 Y-9.9969
G01 X29.4203 Y-10.0040
G01 X29.4122 Y-10.0150
G01 X29.4075 Y-10.0242
G01 X29.4035 Y-10.0373
G01 X29.4023 Y-10.0476
G01 X29.4022 Y-11.3510
G01 X29.4035 Y-11.3647
G01 X29.4075 Y-11.3778
G01 X29.4140 Y-11.3899
G01 X29.4227 Y-11.4005
G01 X29.4333 Y-11.4092
G01 X29.4454 Y-11.4157
G01 X29.4585 Y-11.4197
G01 X29.4722 Y-11.4210
G00 Z3.0000
G00 X30.2059 Y-14.2723
G01 F80.00
G01 Z-0.0746
G01 F60.00
G01 X30.2045 Y-14.2861
G01 X30.2005 Y-14.2994
G01 X30.1938 Y-14.3116
G01 X30.1849 Y-14.3223
G01 X30.1741 Y-14.3310
G01 X30.1650 Y-14.3360
G01 X30.1519 Y-14.3405
G01 X30.1381 Y-14.3423
G01 X29.5775 Y-14.3047
G01 X29.5672 Y-14.3032
G01 X29.5605 Y-14.3014
G01 X29.5541 Y-14.2989
G01 X29.5449 Y-14.2940
G01 X29.5392 Y-14.2901
G01 X29.5315 Y-14.2831
G01 X29.4855 Y-14.2341
G01 X28.0726 Y-12.8212
G01 X28.0318 Y-12.7823
G01 X27.9897 Y-12.7461
G01 X27.9460 Y-12.7119
G01 X27.9006 Y-12.6800
G01 X27.8537 Y-12.6503
G01 X27.8055 Y-12.6229
G01 X27.7559 Y-12.5980
G01 X27.7052 Y-12.5755
G01 X27.6534 Y-12.5555
G01 X27.6007 Y-12.5381
G01 X27.5472 Y-12.5233
G01 X27.4931 Y-12.5111
G01 X27.4384 Y-12.5017
G01 X27.3833 Y-12.4949
G01 X27.3280 Y-12.4908
G01 X27.2725 Y-12.4894
G01 X27.2170 Y-12.4908
G01 X27.1617 Y-12.4949
G01 X27.1066 Y-12.5017
G01 X27.0519 Y-12.5111
G01 X26.9978 Y-12.5233
G01 X26.9443 Y-12.5381
G01 X26.8916 Y-12.5555
G01 X26.8398 Y-12.5755
G01 X26.7891 Y-12.5980
G01 X26.7395 Y-12.6229
G01 X26.6913 Y-12.6503
G01 X26.6444 Y-12.6800
G01 X26.5990 Y-12.7119
G01 X26.5553 Y-12.7461
G01 X26.5132 Y-12.7823
G01 X26.4731 Y-12.8206
G01 X26.4348 Y-12.8607
G01 X26.3986 Y-12.9028
G01 X26.3644 Y-12.9465
G01 X26.3325 Y-12.9919
G01 X26.3028 Y-13.0388
G01 X26.2754 Y-13.0870
G01 X26.2505 Y-13.1366
G01 X26.2280 Y-13.1873
G01 X26.2080 Y-13.2391
G01 X26.1906 Y-13.2918
G01 X26.1758 Y-13.3453
G01 X26.1636 Y-13.3994
G01 X26.1542 Y-13.4541
G01 X26.1474 Y-13.5092
G01 X26.1433 Y-13.5645
G01 X26.1419 Y-13.6200
G01 X26.1433 Y-13.6755
G01 X26.1474 Y-13.7308
G01 X26.1542 Y-13.7859
G01 X26.1636 Y-13.8406
G01 X26.1758 Y-13.8947
G01 X26.1906 Y-13.9482
G01 X26.2080 Y-14.0009
G01 X26.2280 Y-14.0527
G01 X26.2505 Y-14.1034
G01 X26.2754 Y-14.1530
G01 X26.3028 Y-14.2012
G01 X26.3325 Y-14.2481
G01 X26.3644 Y-14.2935
G01 X26.3986 Y-14.3372
G01 X26.4348 Y-14.3793
G01 X26.4737 Y-14.4201
G01 X27.8866 Y-15.8330
G01 X27.9274 Y-15.8719
G01 X27.9695 Y-15.9081
G01 X28.0132 Y-15.9423
G01 X28.0586 Y-15.9742
G01 X28.1055 Y-16.0039
G01 X28.1537 Y-16.0313
G01 X28.2033 Y-16.0562
G01 X28.2540 Y-16.0787
G01 X28.3058 Y-16.0987
G01 X28.3585 Y-16.1161
G01 X28.4120 Y-16.1309
G01 X28.4661 Y-16.1431
G01 X28.5208 Y-16.1525
G01 X28.5759 Y-16.1593
G01 X28.6312 Y-16.1634
G01 X28.6867 Y-16.1648
G01 X28.7422 Y-16.1634
G01 X28.7975 Y-16.1593
G01 X28.8526 Y-16.1525
G01 X28.9073 Y-16.1431
G01 X28.9614 Y-16.1309
G01 X29.0149 Y-16.1161
G01 X29.0676 Y-16.0987
G01 X29.1194 Y-16.0787
G01 X29.1701 Y-16.0562
G01 X29.2197 Y-16.0313
G01 X29.2679 Y-16.0039
G01 X29.3148 Y-15.9742
G01 X29.3602 Y-15.9423
G01 X29.4039 Y-15.9081
G01 X29.4460 Y-15.8719
G01 X29.4861 Y-15.8336
G01 X29.5244 Y-15.7935
G01 X29.5606 Y-15.7514
G01 X29.5948 Y-15.7077
G01 X29.6267 Y-15.6623
G01 X29.6564 Y-15.6154
G01 X29.6838 Y-15.5672
G01 X29.7087 Y-15.5176
G01 X29.7312 Y-15.4669
G01 X29.7512 Y-15.4151
G01 X29.7686 Y-15.3624
G01 X29.7834 Y-15.3089
G01 X29.7956 Y-15.2548
G01 X29.8050 Y-15.2001
G01 X29.8118 Y-15.1450
G01 X29.8159 Y-15.0897
G01 X29.8173 Y-15.0342
G01 X29.8159 Y-14.9787
G01 X29.8145 Y-14.9556
G01 X29.8162 Y-14.9420
G01 X29.8192 Y-14.9322
G01 X29.8235 Y-14.9229
G01 X29.8292 Y-14.9143
G01 X29.8361 Y-14.9067
G01 X29.8440 Y-14.9002
G01 X29.8528 Y-14.8949
G01 X29.8623 Y-14.8909
G01 X29.8722 Y-14.8883
G01 X29.8790 Y-14.8875
G01 X29.8893 Y-14.8874
G01 X30.1474 Y-14.9052
G01 X30.1605 Y-14.9087
G01 X30.1755 Y-14.9166
G01 X30.1882 Y-14.9277
G01 X30.1962 Y-14.9387
G01 X30.2007 Y-14.9478
G01 X30.2039 Y-14.9575
G01 X30.2059 Y-14.9743
G01 X30.2059 Y-15.4643
G01 X31.8659 Y-15.4643
G01 X31.8659 Y-13.9043
G01 X30.2059 Y-13.9043
G01 X30.2059 Y-14.2723
G00 Z3.0000
G00 X32.6350 Y-15.4068
G01 F80.00
G01 Z-0.0746
G01 F60.00
G01 X34.0350 Y-15.4068
G01 X34.0453 Y-15.4060
G01 X34.0553 Y-15.4038
G01 X34.0649 Y-15.4001
G01 X34.0739 Y-15.3950
G01 X34.0820 Y-15.3887
G01 X34.0891 Y-15.3812
G01 X34.0950 Y-15.3728
G01 X34.0997 Y-15.3636
G01 X34.1029 Y-15.3538
G01 X34.1047 Y-15.3437
G01 X34.1050 Y-14.9543
G01 X34.9647 Y-14.9543
G01 X34.9803 Y-14.9538
G01 X35.0043 Y-14.9514
G01 X35.0344 Y-14.9451
G01 X35.0595 Y-14.9371
G01 X37.2362 Y-14.1209
G01 X41.3940 Y-14.1209
G01 X41.4188 Y-14.1197
G01 X41.4450 Y-14.1160
G01 X41.4708 Y-14.1097
G01 X41.4866 Y-14.1045
G01 X41.5110 Y-14.0942
G01 X41.5228 Y-14.0882
G01 X41.5426 Y-14.0763
G01 X41.5640 Y-14.0607
G01 X41.5850 Y-14.0418
G01 X43.0865 Y-12.5402
G01 X43.2771 Y-12.7308
G01 X43.2849 Y-12.7375
G01 X43.2967 Y-12.7446
G01 X43.3096 Y-12.7492
G01 X43.3231 Y-12.7512
G01 X43.5266 Y-12.7514
G01 X43.5374 Y-12.7506
G01 X43.5513 Y-12.7469
G01 X43.5635 Y-12.7409
G01 X43.5738 Y-12.7331
G01 X43.7804 Y-12.5260
G01 X43.7877 Y-12.5154
G01 X43.7921 Y-12.5060
G01 X43.7951 Y-12.4956
G01 X43.7966 Y-12.4813
G01 X43.7965 Y-11.3813
G01 X43.7957 Y-11.3705
G01 X43.7920 Y-11.3566
G01 X43.7860 Y-11.3444
G01 X43.7782 Y-11.3341
G01 X43.6737 Y-11.2296
G01 X43.6661 Y-11.2236
G01 X43.6578 Y-11.2187
G01 X43.6478 Y-11.2146
G01 X43.6408 Y-11.2128
G01 X43.6265 Y-11.2113
G01 X43.2230 Y-11.2114
G01 X43.2123 Y-11.2128
G01 X43.1986 Y-11.2172
G01 X43.1897 Y-11.2218
G01 X43.1794 Y-11.2296
G01 X43.0749 Y-11.3341
G01 X43.0689 Y-11.3417
G01 X43.0640 Y-11.3500
G01 X43.0599 Y-11.3600
G01 X43.0581 Y-11.3670
G01 X43.0566 Y-11.3813
G01 X43.0566 Y-11.8062
G01 X41.2821 Y-13.5807
G01 X37.1872 Y-13.5807
G01 X37.1716 Y-13.5812
G01 X37.1476 Y-13.5836
G01 X37.1205 Y-13.5891
G01 X37.0924 Y-13.5979
G01 X34.9157 Y-14.4141
G01 X34.1050 Y-14.4141
G01 X34.1050 Y-14.0368
G01 X34.1042 Y-14.0265
G01 X34.1020 Y-14.0165
G01 X34.0983 Y-14.0069
G01 X34.0932 Y-13.9979
G01 X34.0869 Y-13.9898
G01 X34.0794 Y-13.9827
G01 X34.0710 Y-13.9768
G01 X34.0586 Y-13.9709
G01 X34.0487 Y-13.9681
G01 X34.0350 Y-13.9668
G01 X32.6350 Y-13.9668
G01 X32.6213 Y-13.9681
G01 X32.6114 Y-13.9709
G01 X32.6020 Y-13.9751
G01 X32.5933 Y-13.9806
G01 X32.5855 Y-13.9873
G01 X32.5788 Y-13.9951
G01 X32.5733 Y-14.0038
G01 X32.5691 Y-14.0132
G01 X32.5663 Y-14.0231
G01 X32.5651 Y-14.0334
G01 X32.5650 Y-15.3368
G01 X32.5663 Y-15.3505
G01 X32.5703 Y-15.3636
G01 X32.5768 Y-15.3757
G01 X32.5855 Y-15.3863
G01 X32.5961 Y-15.3950
G01 X32.6082 Y-15.4015
G01 X32.6213 Y-15.4055
G01 X32.6350 Y-15.4068
G00 Z3.0000
G00 X34.8242 Y-18.2073
G01 F80.00
G01 Z-0.0746
G01 F60.00
G01 X34.8240 Y-24.7252
G01 X34.8253 Y-24.7485
G01 X34.8302 Y-24.7770
G01 X34.8375 Y-24.8010
G01 X34.8444 Y-24.8177
G01 X34.8508 Y-24.8304
G01 X34.8602 Y-24.8460
G01 X34.8684 Y-24.8577
G01 X34.8799 Y-24.8717
G01 X34.8885 Y-24.8808
G01 X36.7935 Y-26.7858
G01 X36.8026 Y-26.7944
G01 X36.8166 Y-26.8059
G01 X36.8283 Y-26.8141
G01 X36.8469 Y-26.8251
G01 X36.8633 Y-26.8328
G01 X36.8766 Y-26.8380
G01 X36.8973 Y-26.8441
G01 X36.9151 Y-26.8476
G01 X36.9292 Y-26.8494
G01 X36.9491 Y-26.8503
G01 X39.7272 Y-26.8503
G01 X39.7397 Y-26.8499
G01 X39.7578 Y-26.8481
G01 X39.7718 Y-26.8457
G01 X39.7894 Y-26.8413
G01 X39.8130 Y-26.8328
G01 X39.8389 Y-26.8198
G01 X39.8597 Y-26.8059
G01 X39.8816 Y-26.7870
G01 X41.0884 Y-25.5803
G01 X42.9156 Y-25.5803
G01 X42.9159 Y-26.1171
G01 X42.9186 Y-26.1305
G01 X42.9223 Y-26.1401
G01 X42.9294 Y-26.1519
G01 X42.9386 Y-26.1621
G01 X42.9496 Y-26.1702
G01 X42.9588 Y-26.1749
G01 X42.9719 Y-26.1789
G01 X42.9856 Y-26.1802
G01 X44.4856 Y-26.1802
G01 X44.4959 Y-26.1794
G01 X44.5026 Y-26.1781
G01 X44.5124 Y-26.1749
G01 X44.5216 Y-26.1702
G01 X44.5300 Y-26.1643
G01 X44.5375 Y-26.1572
G01 X44.5438 Y-26.1491
G01 X44.5489 Y-26.1401
G01 X44.5526 Y-26.1305
G01 X44.5553 Y-26.1171
G01 X44.5556 Y-25.5803
G01 X45.3704 Y-25.5803
G01 X45.3704 Y-26.6424
G01 X45.3712 Y-26.6527
G01 X45.3734 Y-26.6627
G01 X45.3771 Y-26.6723
G01 X45.3822 Y-26.6813
G01 X45.3885 Y-26.6894
G01 X45.3934 Y-26.6943
G01 X45.3987 Y-26.6986
G01 X45.4074 Y-26.7041
G01 X45.4136 Y-26.7071
G01 X45.4234 Y-26.7103
G01 X45.4301 Y-26.7116
G01 X45.4404 Y-26.7124
G01 X46.0438 Y-26.7123
G01 X46.0507 Y-26.7116
G01 X46.0607 Y-26.7094
G01 X46.0734 Y-26.7041
G01 X46.0848 Y-26.6965
G01 X46.0923 Y-26.6894
G01 X46.0966 Y-26.6841
G01 X46.1021 Y-26.6754
G01 X46.1063 Y-26.6660
G01 X46.1091 Y-26.6561
G01 X46.1104 Y-26.6424
G01 X46.1104 Y-24.6424
G01 X46.1091 Y-24.6287
G01 X46.1063 Y-24.6188
G01 X46.1021 Y-24.6094
G01 X46.0945 Y-24.5980
G01 X46.0848 Y-24.5883
G01 X46.0764 Y-24.5824
G01 X46.0672 Y-24.5777
G01 X46.0541 Y-24.5737
G01 X46.0404 Y-24.5724
G01 X45.4404 Y-24.5724
G01 X45.4267 Y-24.5737
G01 X45.4168 Y-24.5765
G01 X45.4074 Y-24.5807
G01 X45.3960 Y-24.5883
G01 X45.3885 Y-24.5954
G01 X45.3842 Y-24.6007
G01 X45.3771 Y-24.6125
G01 X45.3725 Y-24.6254
G01 X45.3705 Y-24.6390
G01 X45.3704 Y-25.1401
G01 X44.5556 Y-25.1401
G01 X44.5553 Y-24.6033
G01 X44.5543 Y-24.5965
G01 X44.5515 Y-24.5866
G01 X44.5473 Y-24.5772
G01 X44.5418 Y-24.5685
G01 X44.5351 Y-24.5607
G01 X44.5273 Y-24.5540
G01 X44.5186 Y-24.5485
G01 X44.5092 Y-24.5443
G01 X44.4993 Y-24.5415
G01 X44.4856 Y-24.5402
G01 X42.9856 Y-24.5402
G01 X42.9753 Y-24.5410
G01 X42.9653 Y-24.5432
G01 X42.9557 Y-24.5469
G01 X42.9467 Y-24.5520
G01 X42.9386 Y-24.5583
G01 X42.9315 Y-24.5658
G01 X42.9256 Y-24.5742
G01 X42.9209 Y-24.5834
G01 X42.9177 Y-24.5932
G01 X42.9159 Y-24.6033
G01 X42.9156 Y-25.1401
G01 X40.9972 Y-25.1401
G01 X40.9773 Y-25.1410
G01 X40.9560 Y-25.1440
G01 X40.9350 Y-25.1491
G01 X40.9146 Y-25.1562
G01 X40.8950 Y-25.1653
G01 X40.8764 Y-25.1763
G01 X40.8589 Y-25.1890
G01 X40.8416 Y-25.2046
G01 X39.6360 Y-26.4101
G01 X37.0403 Y-26.4101
G01 X35.2642 Y-24.6340
G01 X35.2642 Y-18.3076
G01 X37.6356 Y-15.9362
G01 X42.7832 Y-15.9362
G01 X42.8030 Y-15.9353
G01 X42.8171 Y-15.9335
G01 X42.8348 Y-15.9300
G01 X42.8485 Y-15.9262
G01 X42.8656 Y-15.9202
G01 X42.8851 Y-15.9112
G01 X42.8974 Y-15.9042
G01 X42.9125 Y-15.8942
G01 X42.9237 Y-15.8855
G01 X42.9372 Y-15.8733
G01 X42.9466 Y-15.8635
G01 X42.9595 Y-15.8478
G01 X45.1819 Y-12.8713
G01 X45.1945 Y-12.8525
G01 X45.2044 Y-12.8340
G01 X45.2124 Y-12.8147
G01 X45.2203 Y-12.7878
G01 X45.2229 Y-12.7743
G01 X45.2252 Y-12.7535
G01 X45.2271 Y-12.6798
G01 X45.3760 Y-12.5309
G01 X45.3842 Y-12.5210
G01 X45.3891 Y-12.5127
G01 X45.3920 Y-12.5061
G01 X45.3950 Y-12.4957
G01 X45.3965 Y-12.4814
G01 X45.3962 Y-11.3741
G01 X45.3943 Y-11.3635
G01 X45.3907 Y-11.3533
G01 X45.3861 Y-11.3444
G01 X45.3804 Y-11.3365
G01 X45.2761 Y-11.2319
G01 X45.2688 Y-11.2256
G01 X45.2607 Y-11.2203
G01 X45.2513 Y-11.2159
G01 X45.2409 Y-11.2129
G01 X45.2302 Y-11.2115
G01 X44.8266 Y-11.2113
G01 X44.8123 Y-11.2128
G01 X44.8019 Y-11.2158
G01 X44.7953 Y-11.2187
G01 X44.7870 Y-11.2236
G01 X44.7794 Y-11.2296
G01 X44.6771 Y-11.3318
G01 X44.6671 Y-11.3444
G01 X44.6625 Y-11.3533
G01 X44.6589 Y-11.3635
G01 X44.6570 Y-11.3741
G01 X44.6566 Y-11.3813
G01 X44.6570 Y-12.4885
G01 X44.6589 Y-12.4991
G01 X44.6625 Y-12.5093
G01 X44.6671 Y-12.5182
G01 X44.6728 Y-12.5260
G01 X44.7877 Y-12.6415
G01 X44.7872 Y-12.6642
G01 X42.6729 Y-15.4960
G01 X37.5444 Y-15.4960
G01 X37.5245 Y-15.4969
G01 X37.5104 Y-15.4987
G01 X37.4926 Y-15.5022
G01 X37.4719 Y-15.5083
G01 X37.4519 Y-15.5164
G01 X37.4298 Y-15.5282
G01 X37.4061 Y-15.5449
G01 X37.3888 Y-15.5605
G01 X34.8885 Y-18.0608
G01 X34.8751 Y-18.0755
G01 X34.8621 Y-18.0927
G01 X34.8508 Y-18.1112
G01 X34.8415 Y-18.1306
G01 X34.8340 Y-18.1509
G01 X34.8286 Y-18.1718
G01 X34.8253 Y-18.1931
G01 X34.8242 Y-18.2073
G00 Z3.0000
G00 X34.1675 Y-19.5175
G01 F80.00
G01 Z-0.0746
G01 F60.00
G01 X34.1675 Y-17.9575
G01 X33.6833 Y-17.9574
G01 X33.6697 Y-17.9554
G01 X33.6599 Y-17.9522
G01 X33.6507 Y-17.9476
G01 X33.6397 Y-17.9394
G01 X33.6305 Y-17.9292
G01 X33.6234 Y-17.9175
G01 X33.6188 Y-17.9046
G01 X33.6168 Y-17.8910
G01 X33.6162 Y-17.4369
G01 X33.6175 Y-17.4232
G01 X33.6202 Y-17.4133
G01 X33.6261 Y-17.4009
G01 X33.6343 Y-17.3898
G01 X33.6417 Y-17.3827
G01 X33.6531 Y-17.3751
G01 X33.6626 Y-17.3709
G01 X33.6759 Y-17.3676
G01 X33.6862 Y-17.3668
G01 X34.1650 Y-17.3668
G01 X34.1650 Y-15.8068
G01 X32.5050 Y-15.8068
G01 X32.5050 Y-17.3668
G01 X32.9892 Y-17.3669
G01 X33.0028 Y-17.3689
G01 X33.0126 Y-17.3721
G01 X33.0247 Y-17.3786
G01 X33.0353 Y-17.3873
G01 X33.0440 Y-17.3979
G01 X33.0505 Y-17.4100
G01 X33.0545 Y-17.4231
G01 X33.0557 Y-17.4333
G01 X33.0563 Y-17.8874
G01 X33.0550 Y-17.9011
G01 X33.0523 Y-17.9110
G01 X33.0481 Y-17.9204
G01 X33.0405 Y-17.9319
G01 X33.0334 Y-17.9393
G01 X33.0253 Y-17.9457
G01 X33.0163 Y-17.9508
G01 X33.0034 Y-17.9554
G01 X32.9932 Y-17.9572
G01 X32.5075 Y-17.9575
G01 X32.5074 Y-18.4048
G01 X32.5045 Y-18.4216
G01 X32.4977 Y-18.4371
G01 X32.4919 Y-18.4455
G01 X32.4849 Y-18.4529
G01 X32.4712 Y-18.4628
G01 X32.4554 Y-18.4691
G01 X32.4386 Y-18.4714
G01 X31.9574 Y-18.4790
G01 X31.9436 Y-18.4779
G01 X31.9303 Y-18.4740
G01 X31.9180 Y-18.4676
G01 X31.9097 Y-18.4613
G01 X31.9003 Y-18.4511
G01 X31.8947 Y-18.4423
G01 X31.8905 Y-18.4328
G01 X31.8871 Y-18.4194
G01 X31.8863 Y-18.4090
G01 X31.8863 Y-17.9574
G01 X31.2998 Y-17.9571
G01 X31.2863 Y-17.9544
G01 X31.2767 Y-17.9507
G01 X31.2677 Y-17.9456
G01 X31.2571 Y-17.9369
G01 X31.2484 Y-17.9263
G01 X31.2433 Y-17.9173
G01 X31.2387 Y-17.9044
G01 X31.2367 Y-17.8908
G01 X31.2368 Y-17.4308
G01 X31.2389 Y-17.4173
G01 X31.2421 Y-17.4075
G01 X31.2450 Y-17.4013
G01 X31.2526 Y-17.3899
G01 X31.2624 Y-17.3802
G01 X31.2738 Y-17.3726
G01 X31.2832 Y-17.3684
G01 X31.2931 Y-17.3656
G01 X31.3033 Y-17.3644
G01 X31.8659 Y-17.3643
G01 X31.8659 Y-15.8043
G01 X30.2059 Y-15.8043
G01 X30.2059 Y-17.3643
G01 X30.6098 Y-17.3644
G01 X30.6234 Y-17.3664
G01 X30.6363 Y-17.3710
G01 X30.6481 Y-17.3781
G01 X30.6583 Y-17.3873
G01 X30.6646 Y-17.3954
G01 X30.6711 Y-17.4075
G01 X30.6743 Y-17.4173
G01 X30.6763 Y-17.4309
G01 X30.6762 Y-17.8909
G01 X30.6742 Y-17.9044
G01 X30.6709 Y-17.9142
G01 X30.6645 Y-17.9263
G01 X30.6581 Y-17.9344
G01 X30.6480 Y-17.9436
G01 X30.6393 Y-17.9491
G01 X30.6266 Y-17.9544
G01 X30.6131 Y-17.9571
G01 X30.0263 Y-17.9574
G01 X30.0263 Y-19.5174
G01 X31.8863 Y-19.5174
G01 X31.8864 Y-19.1061
G01 X31.8884 Y-19.0926
G01 X31.8929 Y-19.0798
G01 X31.8998 Y-19.0681
G01 X31.9089 Y-19.0580
G01 X31.9197 Y-19.0498
G01 X31.9288 Y-19.0451
G01 X31.9384 Y-19.0418
G01 X31.9518 Y-19.0396
G01 X32.4364 Y-19.0319
G01 X32.4468 Y-19.0325
G01 X32.4603 Y-19.0357
G01 X32.4729 Y-19.0415
G01 X32.4814 Y-19.0474
G01 X32.4913 Y-19.0571
G01 X32.4991 Y-19.0686
G01 X32.5044 Y-19.0814
G01 X32.5067 Y-19.0915
G01 X32.5075 Y-19.1019
G01 X32.5075 Y-19.5175
G01 X34.1675 Y-19.5175
G00 Z3.0000
G00 X34.1675 Y-20.3508
G01 F80.00
G01 Z-0.0746
G01 F60.00
G01 X34.1675 Y-19.8575
G01 X32.5075 Y-19.8575
G01 X32.5075 Y-20.3508
G01 X32.5675 Y-20.3508
G01 X32.5675 Y-19.9875
G01 X32.5683 Y-19.9772
G01 X32.5716 Y-19.9639
G01 X32.5758 Y-19.9545
G01 X32.5834 Y-19.9431
G01 X32.5931 Y-19.9334
G01 X32.6045 Y-19.9258
G01 X32.6139 Y-19.9216
G01 X32.6238 Y-19.9188
G01 X32.6375 Y-19.9175
G01 X34.0375 Y-19.9175
G01 X34.0478 Y-19.9183
G01 X34.0578 Y-19.9205
G01 X34.0674 Y-19.9242
G01 X34.0764 Y-19.9293
G01 X34.0845 Y-19.9356
G01 X34.0916 Y-19.9431
G01 X34.0975 Y-19.9515
G01 X34.1022 Y-19.9607
G01 X34.1054 Y-19.9705
G01 X34.1072 Y-19.9806
G01 X34.1075 Y-20.3508
G01 X34.1675 Y-20.3508
G00 Z3.0000
G00 X34.1675 Y-21.4175
G01 F80.00
G01 Z-0.0746
G01 F60.00
G01 X34.1675 Y-20.9241
G01 X34.1075 Y-20.9241
G01 X34.1074 Y-21.2909
G01 X34.1054 Y-21.3045
G01 X34.1008 Y-21.3174
G01 X34.0937 Y-21.3292
G01 X34.0894 Y-21.3345
G01 X34.0819 Y-21.3416
G01 X34.0735 Y-21.3475
G01 X34.0643 Y-21.3522
G01 X34.0512 Y-21.3562
G01 X34.0409 Y-21.3574
G01 X33.6242 Y-21.3575
G01 X33.6242 Y-21.4175
G01 X34.1675 Y-21.4175
G00 Z3.0000
G00 X33.8052 Y-22.4442
G01 F80.00
G01 Z-0.0746
G01 F60.00
G01 X33.1118 Y-22.4442
G01 X33.1118 Y-23.2876
G01 X33.3718 Y-23.2876
G01 X33.3718 Y-22.7742
G01 X33.3726 Y-22.7639
G01 X33.3739 Y-22.7572
G01 X33.3759 Y-22.7506
G01 X33.3801 Y-22.7412
G01 X33.3836 Y-22.7353
G01 X33.3899 Y-22.7272
G01 X33.3974 Y-22.7201
G01 X33.4029 Y-22.7160
G01 X33.4088 Y-22.7125
G01 X33.4182 Y-22.7083
G01 X33.4281 Y-22.7055
G01 X33.4349 Y-22.7045
G01 X33.8052 Y-22.7042
G01 X33.8052 Y-22.4442
G00 Z3.0000
G00 X33.1118 Y-23.8609
G01 F80.00
G01 Z-0.0746
G01 F60.00
G01 X33.1118 Y-24.7042
G01 X33.8051 Y-24.7042
G01 X33.8051 Y-24.4442
G01 X33.4349 Y-24.4439
G01 X33.4281 Y-24.4429
G01 X33.4182 Y-24.4401
G01 X33.4088 Y-24.4359
G01 X33.4029 Y-24.4324
G01 X33.3974 Y-24.4283
G01 X33.3899 Y-24.4212
G01 X33.3836 Y-24.4131
G01 X33.3801 Y-24.4072
G01 X33.3759 Y-24.3978
G01 X33.3739 Y-24.3912
G01 X33.3721 Y-24.3811
G01 X33.3718 Y-24.3742
G01 X33.3718 Y-23.8609
G01 X33.1118 Y-23.8609
G00 Z3.0000
G00 X31.9563 Y-22.9774
G01 F80.00
G01 Z-0.0746
G01 F60.00
G01 X31.7514 Y-22.9774
G01 X31.7378 Y-22.9760
G01 X31.7279 Y-22.9733
G01 X31.7184 Y-22.9691
G01 X31.7097 Y-22.9636
G01 X31.7044 Y-22.9592
G01 X31.6996 Y-22.9544
G01 X31.6932 Y-22.9462
G01 X31.6882 Y-22.9373
G01 X31.6845 Y-22.9277
G01 X31.6822 Y-22.9176
G01 X31.6814 Y-22.9074
G01 X31.6814 Y-22.1046
G01 X31.6822 Y-22.0944
G01 X31.6845 Y-22.0843
G01 X31.6882 Y-22.0747
G01 X31.6952 Y-22.0629
G01 X31.7019 Y-22.0551
G01 X31.7097 Y-22.0484
G01 X31.7184 Y-22.0429
G01 X31.7279 Y-22.0387
G01 X31.7412 Y-22.0354
G01 X31.7514 Y-22.0346
G01 X31.9598 Y-22.0344
G01 X31.9639 Y-22.0333
G01 X31.9676 Y-22.0312
G01 X31.9707 Y-22.0282
G01 X31.9730 Y-22.0246
G01 X31.9744 Y-22.0205
G01 X31.9747 Y-22.0162
G01 X31.9740 Y-22.0120
G01 X31.9722 Y-22.0081
G01 X31.9690 Y-22.0041
G01 X31.9655 Y-22.0016
G01 X31.9615 Y-22.0001
G01 X31.9563 Y-21.9996
G01 X31.3715 Y-21.9996
G01 X31.3663 Y-22.0001
G01 X31.3616 Y-22.0021
G01 X31.3571 Y-22.0060
G01 X31.3544 Y-22.0104
G01 X31.3532 Y-22.0154
G01 X31.3534 Y-22.0205
G01 X31.3551 Y-22.0254
G01 X31.3582 Y-22.0295
G01 X31.3631 Y-22.0329
G01 X31.3680 Y-22.0344
G01 X31.5764 Y-22.0346
G01 X31.5866 Y-22.0354
G01 X31.5967 Y-22.0377
G01 X31.6031 Y-22.0400
G01 X31.6123 Y-22.0446
G01 X31.6181 Y-22.0484
G01 X31.6259 Y-22.0551
G01 X31.6326 Y-22.0629
G01 X31.6364 Y-22.0687
G01 X31.6410 Y-22.0779
G01 X31.6433 Y-22.0843
G01 X31.6456 Y-22.0944
G01 X31.6464 Y-22.1046
G01 X31.6464 Y-22.9074
G01 X31.6456 Y-22.9176
G01 X31.6433 Y-22.9277
G01 X31.6396 Y-22.9373
G01 X31.6326 Y-22.9491
G01 X31.6259 Y-22.9569
G01 X31.6181 Y-22.9636
G01 X31.6094 Y-22.9691
G01 X31.5999 Y-22.9733
G01 X31.5866 Y-22.9766
G01 X31.5764 Y-22.9774
G01 X31.3680 Y-22.9776
G01 X31.3639 Y-22.9787
G01 X31.3602 Y-22.9808
G01 X31.3571 Y-22.9838
G01 X31.3548 Y-22.9874
G01 X31.3534 Y-22.9915
G01 X31.3531 Y-22.9958
G01 X31.3538 Y-23.0000
G01 X31.3556 Y-23.0039
G01 X31.3588 Y-23.0079
G01 X31.3623 Y-23.0104
G01 X31.3663 Y-23.0119
G01 X31.3715 Y-23.0124
G01 X31.9581 Y-23.0124
G01 X31.9647 Y-23.0107
G01 X31.9702 Y-23.0067
G01 X31.9737 Y-23.0008
G01 X31.9747 Y-22.9940
G01 X31.9730 Y-22.9874
G01 X31.9690 Y-22.9819
G01 X31.9631 Y-22.9784
G01 X31.9563 Y-22.9774
G00 Z3.0000
G00 X32.2820 Y-22.0180
G01 F80.00
G01 Z-0.0746
G01 F60.00
G01 X32.2820 Y-22.9940
G01 X32.2833 Y-23.0016
G01 X32.2871 Y-23.0073
G01 X32.2928 Y-23.0111
G01 X32.2995 Y-23.0124
G01 X32.3054 Y-23.0114
G01 X32.3113 Y-23.0079
G01 X32.3153 Y-23.0024
G01 X32.3170 Y-22.9958
G01 X32.3174 Y-22.5867
G01 X32.3201 Y-22.5732
G01 X32.3238 Y-22.5636
G01 X32.3288 Y-22.5547
G01 X32.3375 Y-22.5440
G01 X32.3453 Y-22.5373
G01 X32.3571 Y-22.5303
G01 X32.3667 Y-22.5266
G01 X32.3802 Y-22.5239
G01 X32.8137 Y-22.5235
G01 X32.8203 Y-22.5218
G01 X32.8252 Y-22.5184
G01 X32.8290 Y-22.5127
G01 X32.8303 Y-22.5069
G01 X32.8293 Y-22.5001
G01 X32.8258 Y-22.4942
G01 X32.8203 Y-22.4902
G01 X32.8137 Y-22.4885
G01 X32.3836 Y-22.4884
G01 X32.3734 Y-22.4871
G01 X32.3603 Y-22.4831
G01 X32.3511 Y-22.4785
G01 X32.3426 Y-22.4726
G01 X32.3352 Y-22.4655
G01 X32.3308 Y-22.4602
G01 X32.3238 Y-22.4484
G01 X32.3191 Y-22.4355
G01 X32.3171 Y-22.4219
G01 X32.3170 Y-22.1046
G01 X32.3174 Y-22.0978
G01 X32.3191 Y-22.0876
G01 X32.3211 Y-22.0811
G01 X32.3253 Y-22.0716
G01 X32.3288 Y-22.0658
G01 X32.3352 Y-22.0576
G01 X32.3426 Y-22.0505
G01 X32.3482 Y-22.0464
G01 X32.3540 Y-22.0429
G01 X32.3635 Y-22.0387
G01 X32.3734 Y-22.0360
G01 X32.3802 Y-22.0350
G01 X32.8137 Y-22.0346
G01 X32.8203 Y-22.0329
G01 X32.8258 Y-22.0289
G01 X32.8290 Y-22.0238
G01 X32.8303 Y-22.0171
G01 X32.8290 Y-22.0104
G01 X32.8258 Y-22.0053
G01 X32.8203 Y-22.0013
G01 X32.8137 Y-21.9996
G01 X32.3004 Y-21.9996
G01 X32.2928 Y-22.0009
G01 X32.2871 Y-22.0047
G01 X32.2833 Y-22.0104
G01 X32.2820 Y-22.0180
G00 Z3.0000
G00 X31.8862 Y-21.4174
G01 F80.00
G01 Z-0.0746
G01 F60.00
G01 X31.8862 Y-20.9240
G01 X31.8262 Y-20.9240
G01 X31.8259 Y-21.2943
G01 X31.8232 Y-21.3077
G01 X31.8209 Y-21.3142
G01 X31.8162 Y-21.3234
G01 X31.8081 Y-21.3344
G01 X31.8032 Y-21.3393
G01 X31.7951 Y-21.3456
G01 X31.7861 Y-21.3507
G01 X31.7765 Y-21.3544
G01 X31.7665 Y-21.3566
G01 X31.7562 Y-21.3574
G01 X31.2429 Y-21.3574
G01 X31.2429 Y-21.4174
G01 X31.8862 Y-21.4174
G00 Z3.0000
G00 X32.5075 Y-20.9241
G01 F80.00
G01 Z-0.0746
G01 F60.00
G01 X32.5075 Y-21.4175
G01 X33.0509 Y-21.4175
G01 X33.0509 Y-21.3575
G01 X32.6341 Y-21.3574
G01 X32.6238 Y-21.3562
G01 X32.6107 Y-21.3522
G01 X32.6015 Y-21.3475
G01 X32.5905 Y-21.3394
G01 X32.5813 Y-21.3292
G01 X32.5742 Y-21.3174
G01 X32.5696 Y-21.3045
G01 X32.5676 Y-21.2909
G01 X32.5675 Y-20.9241
G01 X32.5075 Y-20.9241
G00 Z3.0000
G00 X31.8862 Y-20.3507
G01 F80.00
G01 Z-0.0746
G01 F60.00
G01 X31.8862 Y-19.8574
