(G-CODE GENERATED BY FLATCAM v8.95 - www.flatcam.org - Version Date: 2019/08/17)

(Name: Syntez2_Ф1_верх.gbr_iso_cnc)
(Type: G-code from Geometry)
(Units: MM)

(Created on Sunday, 20 September 2020 at 14:51)

(TOOL DIAMETER: 0.11 mm)
(Feedrate: 50.0 mm/min)
(Feedrate_Z: 79.9998 mm/min)
(Feedrate rapids 79.9998 mm/min)

(Z_Cut: -0.07 mm)
(Z_Move: 3.0 mm)
(Z Toolchange: 25.0 mm)
(X,Y Toolchange: 0.0000, 0.0000 mm)
(Z Start: None mm)
(Z End: 25.0 mm)
(Steps per circle: 128)
(Postprocessor Geometry: default)

(X range:    0.6926 ...   98.5614  mm)
(Y range:  -33.1563 ...   -0.6573  mm)

(Spindle Speed: None RPM)

G21
G90
G94

G01 F50.00
G00 Z3.0000

M03
G00 X1.1885 Y-1.0784
G01 F80.00
G01 Z-0.0700
G01 F50.00
G01 X0.8561 Y-1.4109
G01 X0.8526 Y-1.4151
G01 X0.8503 Y-1.4193
G01 X0.8485 Y-1.4287
G01 X0.8492 Y-1.4347
G01 X0.8520 Y-1.4413
G01 X0.8557 Y-1.4460
G01 X0.8614 Y-1.4503
G01 X0.8670 Y-1.4525
G01 X0.8742 Y-1.4532
G01 X0.8813 Y-1.4518
G01 X0.8876 Y-1.4484
G01 X1.0879 Y-1.2485
G01 X1.0940 Y-1.2432
G01 X1.1008 Y-1.2389
G01 X1.1108 Y-1.2347
G01 X1.1214 Y-1.2326
G01 X1.1295 Y-1.2324
G01 X1.1401 Y-1.2340
G01 X1.1503 Y-1.2376
G01 X1.1595 Y-1.2432
G01 X1.1675 Y-1.2504
G01 X1.1739 Y-1.2591
G01 X1.1794 Y-1.2714
G01 X1.1812 Y-1.2793
G01 X1.1818 Y-1.2874
G01 X1.1818 Y-1.9854
G01 X1.1841 Y-1.9947
G01 X1.1890 Y-2.0015
G01 X1.1969 Y-2.0069
G01 X1.2063 Y-2.0087
G01 X1.2157 Y-2.0069
G01 X1.2236 Y-2.0015
G01 X1.2285 Y-1.9947
G01 X1.2308 Y-1.9854
G01 X1.2308 Y-1.0960
G01 X1.2298 Y-1.0882
G01 X1.2267 Y-1.0817
G01 X1.2219 Y-1.0763
G01 X1.2157 Y-1.0726
G01 X1.2087 Y-1.0709
G01 X1.2015 Y-1.0712
G01 X1.1947 Y-1.0737
G01 X1.1885 Y-1.0784
G00 Z3.0000
G00 X1.5626 Y-1.1389
G01 F80.00
G01 Z-0.0700
G01 F50.00
G01 X1.4943 Y-1.2537
G01 X1.4929 Y-1.2632
G01 X1.4952 Y-1.2725
G01 X1.5009 Y-1.2802
G01 X1.5091 Y-1.2851
G01 X1.5162 Y-1.2865
G01 X1.5234 Y-1.2858
G01 X1.5310 Y-1.2824
G01 X1.5364 Y-1.2776
G01 X1.5930 Y-1.1837
G01 X1.5980 Y-1.1773
G01 X1.6059 Y-1.1701
G01 X1.6176 Y-1.1635
G01 X1.7122 Y-1.1241
G01 X1.7225 Y-1.1209
G01 X1.7333 Y-1.1198
G01 X1.8348 Y-1.1198
G01 X1.8482 Y-1.1215
G01 X1.8559 Y-1.1241
G01 X1.9529 Y-1.1646
G01 X1.9599 Y-1.1686
G01 X1.9662 Y-1.1735
G01 X1.9750 Y-1.1837
G01 X2.0183 Y-1.2557
G01 X2.0220 Y-1.2630
G01 X2.0245 Y-1.2707
G01 X2.0262 Y-1.2840
G01 X2.0261 Y-1.3538
G01 X2.0251 Y-1.3618
G01 X2.0220 Y-1.3721
G01 X2.0183 Y-1.3794
G01 X1.9764 Y-1.4492
G01 X1.9718 Y-1.4557
G01 X1.9662 Y-1.4616
G01 X1.9599 Y-1.4665
G01 X1.9529 Y-1.4705
G01 X1.8380 Y-1.5188
G01 X1.8325 Y-1.5234
G01 X1.8291 Y-1.5283
G01 X1.8266 Y-1.5350
G01 X1.8263 Y-1.5422
G01 X1.8272 Y-1.5469
G01 X1.8297 Y-1.5524
G01 X1.8333 Y-1.5571
G01 X1.8381 Y-1.5608
G01 X1.9529 Y-1.6090
G01 X1.9642 Y-1.6162
G01 X1.9734 Y-1.6259
G01 X2.0183 Y-1.7001
G01 X2.0238 Y-1.7125
G01 X2.0256 Y-1.7204
G01 X2.0262 Y-1.7284
G01 X2.0259 Y-1.8009
G01 X2.0238 Y-1.8114
G01 X2.0183 Y-1.8238
G01 X1.9750 Y-1.8959
G01 X1.9700 Y-1.9023
G01 X1.9642 Y-1.9078
G01 X1.9576 Y-1.9125
G01 X1.9504 Y-1.9161
G01 X1.8559 Y-1.9554
G01 X1.8456 Y-1.9586
G01 X1.8375 Y-1.9596
G01 X1.7333 Y-1.9597
G01 X1.7225 Y-1.9586
G01 X1.7122 Y-1.9554
G01 X1.6128 Y-1.9138
G01 X1.6018 Y-1.9061
G01 X1.5946 Y-1.8981
G01 X1.5378 Y-1.8039
G01 X1.5330 Y-1.7985
G01 X1.5257 Y-1.7944
G01 X1.5186 Y-1.7930
G01 X1.5114 Y-1.7937
G01 X1.5048 Y-1.7965
G01 X1.4992 Y-1.8010
G01 X1.4947 Y-1.8081
G01 X1.4930 Y-1.8151
G01 X1.4933 Y-1.8223
G01 X1.4958 Y-1.8291
G01 X1.5626 Y-1.9407
G01 X1.5684 Y-1.9476
G01 X1.5752 Y-1.9516
G01 X1.7114 Y-2.0080
G01 X1.7181 Y-2.0087
G01 X1.8555 Y-2.0082
G01 X1.9956 Y-1.9503
G01 X2.0013 Y-1.9460
G01 X2.0054 Y-1.9407
G01 X2.0714 Y-1.8307
G01 X2.0738 Y-1.8258
G01 X2.0751 Y-1.8199
G01 X2.0752 Y-1.7071
G01 X2.0742 Y-1.6993
G01 X2.0714 Y-1.6932
G01 X2.0054 Y-1.5832
G01 X1.9930 Y-1.5669
G01 X1.9879 Y-1.5544
G01 X1.9859 Y-1.5411
G01 X1.9872 Y-1.5277
G01 X1.9896 Y-1.5200
G01 X1.9930 Y-1.5127
G01 X2.0054 Y-1.4963
G01 X2.0714 Y-1.3863
G01 X2.0742 Y-1.3802
G01 X2.0752 Y-1.3724
G01 X2.0752 Y-1.2627
G01 X2.0745 Y-1.2560
G01 X2.0723 Y-1.2504
G01 X2.0054 Y-1.1388
G01 X1.9996 Y-1.1320
G01 X1.9928 Y-1.1280
G01 X1.8555 Y-1.0713
G01 X1.7181 Y-1.0708
G01 X1.7114 Y-1.0715
G01 X1.5735 Y-1.1288
G01 X1.5675 Y-1.1327
G01 X1.5626 Y-1.1389
G00 Z3.0000
G00 X2.8627 Y-1.2557
G01 F80.00
G01 Z-0.0700
G01 F50.00
G01 X2.8194 Y-1.1837
G01 X2.8126 Y-1.1754
G01 X2.8065 Y-1.1701
G01 X2.7948 Y-1.1635
G01 X2.7003 Y-1.1241
G01 X2.6873 Y-1.1204
G01 X2.6792 Y-1.1198
G01 X2.5777 Y-1.1198
G01 X2.5643 Y-1.1215
G01 X2.5566 Y-1.1241
G01 X2.4595 Y-1.1646
G01 X2.4525 Y-1.1686
G01 X2.4462 Y-1.1735
G01 X2.4406 Y-1.1794
G01 X2.4360 Y-1.1860
G01 X2.3928 Y-1.2581
G01 X2.3887 Y-1.2680
G01 X2.3866 Y-1.2786
G01 X2.3864 Y-1.7982
G01 X2.3887 Y-1.8115
G01 X2.3942 Y-1.8238
G01 X2.4374 Y-1.8959
G01 X2.4442 Y-1.9042
G01 X2.4548 Y-1.9125
G01 X2.4620 Y-1.9161
G01 X2.5566 Y-1.9554
G01 X2.5669 Y-1.9586
G01 X2.5777 Y-1.9597
G01 X2.6819 Y-1.9596
G01 X2.6900 Y-1.9586
G01 X2.6978 Y-1.9564
G01 X2.7973 Y-1.9150
G01 X2.8043 Y-1.9110
G01 X2.8106 Y-1.9061
G01 X2.8162 Y-1.9002
G01 X2.8208 Y-1.8936
G01 X2.8641 Y-1.8214
G01 X2.8682 Y-1.8114
G01 X2.8705 Y-1.7982
G01 X2.8706 Y-1.2840
G01 X2.8689 Y-1.2707
G01 X2.8664 Y-1.2630
G01 X2.8627 Y-1.2557
G00 Z3.0000
G00 X2.9158 Y-1.2488
G01 F80.00
G01 Z-0.0700
G01 F50.00
G01 X2.8498 Y-1.1388
G01 X2.8440 Y-1.1320
G01 X2.8372 Y-1.1280
G01 X2.6999 Y-1.0713
G01 X2.5570 Y-1.0713
G01 X2.4196 Y-1.1280
G01 X2.4138 Y-1.1312
G01 X2.4087 Y-1.1363
G01 X2.3411 Y-1.2488
G01 X2.3387 Y-1.2537
G01 X2.3374 Y-1.2596
G01 X2.3373 Y-1.8168
G01 X2.3383 Y-1.8246
G01 X2.3411 Y-1.8307
G01 X2.4070 Y-1.9407
G01 X2.4102 Y-1.9452
G01 X2.4138 Y-1.9484
G01 X2.4196 Y-1.9516
G01 X2.5570 Y-2.0082
G01 X2.6944 Y-2.0087
G01 X2.6999 Y-2.0082
G01 X2.7052 Y-2.0066
G01 X2.8372 Y-1.9516
G01 X2.8430 Y-1.9484
G01 X2.8481 Y-1.9433
G01 X2.9158 Y-1.8307
G01 X2.9182 Y-1.8258
G01 X2.9195 Y-1.8199
G01 X2.9196 Y-1.2626
G01 X2.9189 Y-1.2560
G01 X2.9158 Y-1.2488
G00 Z3.0000
G00 X3.6307 Y-1.9835
G01 F80.00
G01 Z-0.0700
G01 F50.00
G01 X3.6307 Y-1.4849
G01 X3.6293 Y-1.4759
G01 X3.6252 Y-1.4686
G01 X3.6198 Y-1.4638
G01 X3.6133 Y-1.4607
G01 X3.6062 Y-1.4597
G01 X3.5991 Y-1.4607
G01 X3.5926 Y-1.4638
G01 X3.5872 Y-1.4686
G01 X3.5835 Y-1.4748
G01 X3.5818 Y-1.4818
G01 X3.5817 Y-1.8466
G01 X3.5800 Y-1.8601
G01 X3.5763 Y-1.8703
G01 X3.5707 Y-1.8796
G01 X3.5374 Y-1.9238
G01 X3.5300 Y-1.9312
G01 X3.5213 Y-1.9371
G01 X3.5141 Y-1.9403
G01 X3.5040 Y-1.9430
G01 X3.4152 Y-1.9578
G01 X3.4049 Y-1.9586
G01 X3.3972 Y-1.9578
G01 X3.3083 Y-1.9430
G01 X3.3007 Y-1.9412
G01 X3.2910 Y-1.9371
G01 X3.2823 Y-1.9312
G01 X3.2749 Y-1.9238
G01 X3.2417 Y-1.8796
G01 X3.2350 Y-1.8678
G01 X3.2318 Y-1.8574
G01 X3.2307 Y-1.8466
G01 X3.2306 Y-1.4818
G01 X3.2289 Y-1.4748
G01 X3.2259 Y-1.4696
G01 X3.2218 Y-1.4652
G01 X3.2156 Y-1.4615
G01 X3.2098 Y-1.4599
G01 X3.2026 Y-1.4599
G01 X3.1957 Y-1.4620
G01 X3.1906 Y-1.4652
G01 X3.1872 Y-1.4686
G01 X3.1840 Y-1.4737
G01 X3.1821 Y-1.4794
G01 X3.1817 Y-1.4849
G01 X3.1818 Y-1.8755
G01 X3.1831 Y-1.8814
G01 X3.1859 Y-1.8868
G01 X3.2539 Y-1.9776
G01 X3.2601 Y-1.9830
G01 X3.2676 Y-1.9860
G01 X3.4056 Y-2.0087
G01 X3.5413 Y-1.9866
G01 X3.5493 Y-1.9858
G01 X3.5600 Y-1.9867
G01 X3.5703 Y-1.9896
G01 X3.5799 Y-1.9944
G01 X3.5916 Y-2.0039
G01 X3.5957 Y-2.0064
G01 X3.6026 Y-2.0085
G01 X3.6086 Y-2.0086
G01 X3.6167 Y-2.0064
G01 X3.6244 Y-2.0007
G01 X3.6293 Y-1.9925
G01 X3.6307 Y-1.9835
G00 Z3.0000
G00 X4.4182 Y-1.2557
G01 F80.00
G01 Z-0.0700
G01 F50.00
G01 X4.3749 Y-1.1837
G01 X4.3699 Y-1.1773
G01 X4.3620 Y-1.1701
G01 X4.3503 Y-1.1635
G01 X4.2558 Y-1.1241
G01 X4.2428 Y-1.1204
G01 X4.2347 Y-1.1198
G01 X4.1332 Y-1.1198
G01 X4.1198 Y-1.1215
G01 X4.1121 Y-1.1241
G01 X4.0150 Y-1.1646
G01 X4.0080 Y-1.1686
G01 X4.0017 Y-1.1735
G01 X3.9961 Y-1.1794
G01 X3.9915 Y-1.1860
G01 X3.9483 Y-1.2581
G01 X3.9442 Y-1.2680
G01 X3.9421 Y-1.2786
G01 X3.9419 Y-1.7982
G01 X3.9442 Y-1.8115
G01 X3.9497 Y-1.8238
G01 X3.9929 Y-1.8959
G01 X4.0017 Y-1.9061
G01 X4.0103 Y-1.9125
G01 X4.0175 Y-1.9161
G01 X4.1121 Y-1.9554
G01 X4.1224 Y-1.9586
G01 X4.1332 Y-1.9597
G01 X4.2374 Y-1.9596
G01 X4.2455 Y-1.9586
G01 X4.2533 Y-1.9564
G01 X4.3528 Y-1.9150
G01 X4.3598 Y-1.9110
G01 X4.3661 Y-1.9061
G01 X4.3717 Y-1.9002
G01 X4.3763 Y-1.8936
G01 X4.4196 Y-1.8214
G01 X4.4244 Y-1.8088
G01 X4.4260 Y-1.7982
G01 X4.4261 Y-1.2840
G01 X4.4255 Y-1.2760
G01 X4.4237 Y-1.2681
G01 X4.4182 Y-1.2557
G00 Z3.0000
G00 X4.4713 Y-1.2488
G01 F80.00
G01 Z-0.0700
G01 F50.00
G01 X4.4053 Y-1.1388
G01 X4.3995 Y-1.1320
G01 X4.3927 Y-1.1280
G01 X4.2554 Y-1.0713
G01 X4.1125 Y-1.0713
G01 X3.9751 Y-1.1280
G01 X3.9693 Y-1.1312
G01 X3.9642 Y-1.1363
G01 X3.8966 Y-1.2488
G01 X3.8942 Y-1.2537
G01 X3.8929 Y-1.2596
G01 X3.8928 Y-1.8168
G01 X3.8938 Y-1.8246
G01 X3.8966 Y-1.8307
G01 X3.9625 Y-1.9407
G01 X3.9657 Y-1.9452
G01 X3.9693 Y-1.9484
G01 X3.9751 Y-1.9516
G01 X4.1125 Y-2.0082
G01 X4.2499 Y-2.0087
G01 X4.2554 Y-2.0082
G01 X4.2607 Y-2.0066
G01 X4.3927 Y-1.9516
G01 X4.3985 Y-1.9484
G01 X4.4036 Y-1.9433
G01 X4.4713 Y-1.8307
G01 X4.4737 Y-1.8258
G01 X4.4750 Y-1.8199
G01 X4.4751 Y-1.2626
G01 X4.4744 Y-1.2560
G01 X4.4713 Y-1.2488
G00 Z3.0000
G00 X4.7624 Y-2.0087
G01 F80.00
G01 Z-0.0700
G01 F50.00
G01 X5.2943 Y-2.0087
G01 X5.3010 Y-2.0080
G01 X5.3076 Y-2.0052
G01 X5.3123 Y-2.0015
G01 X5.3166 Y-1.9958
G01 X5.3188 Y-1.9902
G01 X5.3195 Y-1.9842
G01 X5.3188 Y-1.9782
G01 X5.3166 Y-1.9726
G01 X5.3132 Y-1.9677
G01 X5.3086 Y-1.9638
G01 X5.3033 Y-1.9611
G01 X5.2974 Y-1.9598
G01 X4.8688 Y-1.9597
G01 X4.8607 Y-1.9591
G01 X4.8528 Y-1.9573
G01 X4.8429 Y-1.9532
G01 X4.8339 Y-1.9472
G01 X4.8281 Y-1.9416
G01 X4.8216 Y-1.9329
G01 X4.8180 Y-1.9257
G01 X4.8155 Y-1.9180
G01 X4.8141 Y-1.9101
G01 X4.8144 Y-1.8966
G01 X4.8162 Y-1.8887
G01 X4.8191 Y-1.8812
G01 X4.8438 Y-1.8395
G01 X4.8524 Y-1.8294
G01 X5.2457 Y-1.5015
G01 X5.2497 Y-1.4963
G01 X5.3166 Y-1.3847
G01 X5.3188 Y-1.3791
G01 X5.3195 Y-1.3724
G01 X5.3195 Y-1.2627
G01 X5.3185 Y-1.2549
G01 X5.3157 Y-1.2488
G01 X5.2497 Y-1.1388
G01 X5.2456 Y-1.1336
G01 X5.2399 Y-1.1293
G01 X5.0998 Y-1.0713
G01 X4.9624 Y-1.0708
G01 X4.9557 Y-1.0715
G01 X4.8195 Y-1.1280
G01 X4.8127 Y-1.1320
G01 X4.8069 Y-1.1389
G01 X4.7401 Y-1.2504
G01 X4.7374 Y-1.2584
G01 X4.7374 Y-1.2656
G01 X4.7395 Y-1.2725
G01 X4.7435 Y-1.2785
G01 X4.7491 Y-1.2830
G01 X4.7557 Y-1.2858
G01 X4.7629 Y-1.2865
G01 X4.7700 Y-1.2851
G01 X4.7773 Y-1.2810
G01 X4.7821 Y-1.2756
G01 X4.8389 Y-1.1815
G01 X4.8461 Y-1.1735
G01 X4.8570 Y-1.1658
G01 X4.9565 Y-1.1241
G01 X4.9668 Y-1.1209
G01 X4.9776 Y-1.1198
G01 X5.0818 Y-1.1199
G01 X5.0899 Y-1.1209
G01 X5.1002 Y-1.1241
G01 X5.1947 Y-1.1635
G01 X5.2019 Y-1.1671
G01 X5.2085 Y-1.1718
G01 X5.2143 Y-1.1773
G01 X5.2193 Y-1.1837
G01 X5.2639 Y-1.2581
G01 X5.2681 Y-1.2681
G01 X5.2704 Y-1.2813
G01 X5.2704 Y-1.3538
G01 X5.2694 Y-1.3618
G01 X5.2672 Y-1.3696
G01 X5.2626 Y-1.3794
G01 X5.2142 Y-1.4600
G01 X5.2079 Y-1.4685
G01 X5.2022 Y-1.4740
G01 X4.8131 Y-1.7982
G01 X4.8079 Y-1.8039
G01 X4.7410 Y-1.9155
G01 X4.7376 Y-1.9239
G01 X4.7372 Y-1.9835
G01 X4.7382 Y-1.9913
G01 X4.7413 Y-1.9978
G01 X4.7471 Y-2.0039
G01 X4.7546 Y-2.0077
G01 X4.7624 Y-2.0087
G00 Z3.0000
G00 X5.9285 Y-3.0421
G01 F80.00
G01 Z-0.0700
G01 F50.00
G01 X6.0192 Y-3.0771
G01 X6.1337 Y-3.1279
G01 X6.2458 Y-3.1844
G01 X6.3549 Y-3.2463
G01 X6.4608 Y-3.3135
G01 X6.5633 Y-3.3857
G01 X6.6621 Y-3.4629
G01 X6.7570 Y-3.5449
G01 X6.8469 Y-3.6304
G01 X6.9342 Y-3.7223
G01 X7.0161 Y-3.8173
G01 X7.0918 Y-3.9143
G01 X7.1638 Y-4.0165
G01 X7.2311 Y-4.1226
G01 X7.2941 Y-4.2339
G01 X7.3505 Y-4.3459
G01 X7.4002 Y-4.4582
G01 X7.4352 Y-4.5487
G01 X7.5314 Y-4.5487
G01 X7.4838 Y-4.4249
G01 X7.4312 Y-4.3062
G01 X7.3729 Y-4.1903
G01 X7.3089 Y-4.0773
G01 X7.2394 Y-3.9676
G01 X7.1647 Y-3.8615
G01 X7.0848 Y-3.7591
G01 X7.0000 Y-3.6608
G01 X6.9105 Y-3.5668
G01 X6.8165 Y-3.4773
G01 X6.7182 Y-3.3925
G01 X6.6158 Y-3.3126
G01 X6.5097 Y-3.2379
G01 X6.4000 Y-3.1684
G01 X6.2870 Y-3.1044
G01 X6.1711 Y-3.0461
G01 X6.0524 Y-2.9935
G01 X5.9285 Y-2.9458
G01 X5.9285 Y-3.0421
G00 Z3.0000
G00 X8.7789 Y-1.0827
G01 F80.00
G01 Z-0.0700
G01 F50.00
G01 X8.7315 Y-1.0036
G01 X8.7265 Y-0.9972
G01 X8.7185 Y-0.9900
G01 X8.7069 Y-0.9834
G01 X8.6029 Y-0.9401
G01 X8.5899 Y-0.9364
G01 X8.5818 Y-0.9358
G01 X8.4701 Y-0.9358
G01 X8.4567 Y-0.9375
G01 X8.4490 Y-0.9401
G01 X8.3426 Y-0.9845
G01 X8.3356 Y-0.9884
G01 X8.3293 Y-0.9934
G01 X8.3237 Y-0.9992
G01 X8.3191 Y-1.0058
G01 X8.2717 Y-1.0850
G01 X8.2675 Y-1.0950
G01 X8.2654 Y-1.1056
G01 X8.2651 Y-1.6735
G01 X8.2668 Y-1.6869
G01 X8.2693 Y-1.6946
G01 X8.2730 Y-1.7018
G01 X8.3205 Y-1.7808
G01 X8.3273 Y-1.7891
G01 X8.3379 Y-1.7974
G01 X8.3451 Y-1.8010
G01 X8.4490 Y-1.8443
G01 X8.4593 Y-1.8475
G01 X8.4701 Y-1.8486
G01 X8.5845 Y-1.8485
G01 X8.5952 Y-1.8469
G01 X8.6029 Y-1.8443
G01 X8.7093 Y-1.7999
G01 X8.7164 Y-1.7960
G01 X8.7227 Y-1.7910
G01 X8.7283 Y-1.7851
G01 X8.7329 Y-1.7786
G01 X8.7803 Y-1.6995
G01 X8.7851 Y-1.6869
G01 X8.7867 Y-1.6763
G01 X8.7868 Y-1.1109
G01 X8.7851 Y-1.0976
G01 X8.7826 Y-1.0899
G01 X8.7789 Y-1.0827
G00 Z3.0000
G00 X8.8480 Y-1.0714
G01 F80.00
G01 Z-0.0700
G01 F50.00
G01 X8.7743 Y-0.9482
G01 X8.7712 Y-0.9438
G01 X8.7667 Y-0.9393
G01 X8.7579 Y-0.9341
G01 X8.6124 Y-0.8735
G01 X8.6057 Y-0.8714
G01 X8.5986 Y-0.8708
G01 X8.4533 Y-0.8708
G01 X8.4447 Y-0.8718
G01 X8.2941 Y-0.9341
G01 X8.2866 Y-0.9383
G01 X8.2799 Y-0.9450
G01 X8.2050 Y-1.0694
G01 X8.2020 Y-1.0757
G01 X8.2002 Y-1.0835
G01 X8.2001 Y-1.6971
G01 X8.2011 Y-1.7057
G01 X8.2051 Y-1.7151
G01 X8.2778 Y-1.8362
G01 X8.2819 Y-1.8418
G01 X8.2866 Y-1.8461
G01 X8.2941 Y-1.8503
G01 X8.4395 Y-1.9109
G01 X8.4462 Y-1.9130
G01 X8.4533 Y-1.9136
G01 X8.5986 Y-1.9136
G01 X8.6057 Y-1.9130
G01 X8.6124 Y-1.9109
G01 X8.7579 Y-1.8503
G01 X8.7654 Y-1.8461
G01 X8.7721 Y-1.8394
G01 X8.8469 Y-1.7151
G01 X8.8499 Y-1.7088
G01 X8.8517 Y-1.7010
G01 X8.8518 Y-1.0874
G01 X8.8509 Y-1.0788
G01 X8.8480 Y-1.0714
G00 Z3.0000
G00 X9.6340 Y-1.8804
G01 F80.00
G01 Z-0.0700
G01 F50.00
G01 X9.6340 Y-1.3318
G01 X9.6337 Y-1.3263
G01 X9.6321 Y-1.3201
G01 X9.6266 Y-1.3105
G01 X9.6196 Y-1.3041
G01 X9.6109 Y-1.3000
G01 X9.6015 Y-1.2986
G01 X9.5921 Y-1.3000
G01 X9.5848 Y-1.3032
G01 X9.5774 Y-1.3093
G01 X9.5721 Y-1.3172
G01 X9.5693 Y-1.3263
G01 X9.5690 Y-1.7297
G01 X9.5679 Y-1.7405
G01 X9.5636 Y-1.7534
G01 X9.5580 Y-1.7627
G01 X9.5216 Y-1.8111
G01 X9.5121 Y-1.8202
G01 X9.5032 Y-1.8256
G01 X9.4959 Y-1.8285
G01 X9.4882 Y-1.8304
G01 X9.3905 Y-1.8466
G01 X9.3802 Y-1.8473
G01 X9.3725 Y-1.8466
G01 X9.2748 Y-1.8304
G01 X9.2672 Y-1.8285
G01 X9.2576 Y-1.8244
G01 X9.2489 Y-1.8186
G01 X9.2415 Y-1.8112
G01 X9.2051 Y-1.7627
G01 X9.1983 Y-1.7509
G01 X9.1951 Y-1.7405
G01 X9.1940 Y-1.7297
G01 X9.1937 Y-1.3263
G01 X9.1909 Y-1.3172
G01 X9.1866 Y-1.3105
G01 X9.1796 Y-1.3041
G01 X9.1725 Y-1.3005
G01 X9.1631 Y-1.2986
G01 X9.1552 Y-1.2992
G01 X9.1476 Y-1.3017
G01 X9.1409 Y-1.3060
G01 X9.1364 Y-1.3105
G01 X9.1321 Y-1.3172
G01 X9.1299 Y-1.3232
G01 X9.1290 Y-1.3295
G01 X9.1291 Y-1.7621
G01 X9.1309 Y-1.7700
G01 X9.1346 Y-1.7771
G01 X9.2098 Y-1.8774
G01 X9.2180 Y-1.8845
G01 X9.2280 Y-1.8885
G01 X9.3807 Y-1.9136
G01 X9.3875 Y-1.9131
G01 X9.5311 Y-1.8892
G01 X9.5391 Y-1.8885
G01 X9.5524 Y-1.8899
G01 X9.5625 Y-1.8932
G01 X9.5718 Y-1.8985
G01 X9.5834 Y-1.9081
G01 X9.5905 Y-1.9117
G01 X9.5983 Y-1.9135
G01 X9.6063 Y-1.9133
G01 X9.6125 Y-1.9117
G01 X9.6182 Y-1.9090
G01 X9.6266 Y-1.9017
G01 X9.6321 Y-1.8921
G01 X9.6337 Y-1.8859
G01 X9.6340 Y-1.8804
G00 Z3.0000
G00 X10.1427 Y-1.8213
G01 F80.00
G01 Z-0.0700
G01 F50.00
G01 X10.1352 Y-1.8136
G01 X10.1281 Y-1.8023
G01 X10.1246 Y-1.7923
G01 X10.1230 Y-1.7817
G01 X10.1229 Y-1.4186
G01 X10.1246 Y-1.4053
G01 X10.1294 Y-1.3927
G01 X10.1372 Y-1.3817
G01 X10.1474 Y-1.3729
G01 X10.1594 Y-1.3669
G01 X10.1672 Y-1.3647
G01 X10.1752 Y-1.3637
G01 X10.2403 Y-1.3635
G01 X10.2465 Y-1.3622
G01 X10.2524 Y-1.3598
G01 X10.2601 Y-1.3541
G01 X10.2650 Y-1.3478
G01 X10.2687 Y-1.3390
G01 X10.2696 Y-1.3295
G01 X10.2682 Y-1.3217
G01 X10.2641 Y-1.3130
G01 X10.2589 Y-1.3070
G01 X10.2510 Y-1.3017
G01 X10.2450 Y-1.2995
G01 X10.2387 Y-1.2986
G01 X10.1752 Y-1.2985
G01 X10.1620 Y-1.2962
G01 X10.1520 Y-1.2921
G01 X10.1410 Y-1.2843
G01 X10.1322 Y-1.2741
G01 X10.1271 Y-1.2646
G01 X10.1240 Y-1.2543
G01 X10.1229 Y-1.2436
G01 X10.1228 Y-0.9001
G01 X10.1198 Y-0.8894
G01 X10.1165 Y-0.8839
G01 X10.1122 Y-0.8792
G01 X10.1071 Y-0.8754
G01 X10.1014 Y-0.8727
G01 X10.0952 Y-0.8711
G01 X10.0888 Y-0.8708
G01 X10.0825 Y-0.8717
G01 X10.0765 Y-0.8739
G01 X10.0674 Y-0.8803
G01 X10.0610 Y-0.8894
G01 X10.0580 Y-0.9001
G01 X10.0579 Y-1.2436
G01 X10.0568 Y-1.2543
G01 X10.0546 Y-1.2621
G01 X10.0486 Y-1.2741
G01 X10.0398 Y-1.2843
G01 X10.0311 Y-1.2907
G01 X10.0188 Y-1.2962
G01 X10.0056 Y-1.2985
G01 X9.9421 Y-1.2986
G01 X9.9358 Y-1.2995
G01 X9.9298 Y-1.3017
G01 X9.9219 Y-1.3070
G01 X9.9158 Y-1.3144
G01 X9.9121 Y-1.3232
G01 X9.9112 Y-1.3327
G01 X9.9131 Y-1.3421
G01 X9.9186 Y-1.3517
G01 X9.9256 Y-1.3581
G01 X9.9343 Y-1.3622
G01 X9.9444 Y-1.3636
G01 X10.0056 Y-1.3637
G01 X10.0162 Y-1.3653
G01 X10.0264 Y-1.3689
G01 X10.0356 Y-1.3745
G01 X10.0454 Y-1.3838
G01 X10.0514 Y-1.3927
G01 X10.0555 Y-1.4027
G01 X10.0573 Y-1.4106
G01 X10.0579 Y-1.4186
G01 X10.0579 Y-1.8193
G01 X10.0592 Y-1.8294
G01 X10.0633 Y-1.8379
G01 X10.0701 Y-1.8454
G01 X10.1441 Y-1.9071
G01 X10.1509 Y-1.9110
G01 X10.1584 Y-1.9132
G01 X10.1647 Y-1.9136
G01 X10.1725 Y-1.9124
G01 X10.2489 Y-1.8870
G01 X10.2559 Y-1.8833
G01 X10.2607 Y-1.8791
G01 X10.2646 Y-1.8741
G01 X10.2675 Y-1.8683
G01 X10.2692 Y-1.8622
G01 X10.2696 Y-1.8558
G01 X10.2688 Y-1.8495
G01 X10.2668 Y-1.8435
G01 X10.2637 Y-1.8379
G01 X10.2595 Y-1.8331
G01 X10.2545 Y-1.8292
G01 X10.2487 Y-1.8263
G01 X10.2410 Y-1.8244
G01 X10.2315 Y-1.8247
G01 X10.1946 Y-1.8363
G01 X10.1867 Y-1.8375
G01 X10.1787 Y-1.8375
G01 X10.1682 Y-1.8358
G01 X10.1607 Y-1.8332
G01 X10.1514 Y-1.8281
G01 X10.1427 Y-1.8213
G00 Z3.0000
G00 X10.9036 Y-1.8804
G01 F80.00
G01 Z-0.0700
G01 F50.00
G01 X10.9039 Y-1.8859
G01 X10.9055 Y-1.8921
G01 X10.9082 Y-1.8978
G01 X10.9120 Y-1.9029
G01 X10.9167 Y-1.9072
G01 X10.9222 Y-1.9105
G01 X10.9329 Y-1.9135
G01 X10.9393 Y-1.9135
G01 X10.9455 Y-1.9122
G01 X10.9555 Y-1.9072
G01 X10.9602 Y-1.9029
G01 X10.9640 Y-1.8978
G01 X10.9680 Y-1.8874
G01 X10.9686 Y-1.8804
G01 X10.9687 Y-1.4770
G01 X10.9703 Y-1.4664
G01 X10.9728 Y-1.4587
G01 X10.9779 Y-1.4492
G01 X10.9848 Y-1.4409
G01 X10.9931 Y-1.4340
G01 X11.0026 Y-1.4289
G01 X11.0129 Y-1.4258
G01 X11.0209 Y-1.4248
G01 X11.3021 Y-1.4247
G01 X11.3076 Y-1.4244
G01 X11.3138 Y-1.4228
G01 X11.4614 Y-1.3614
G01 X11.4702 Y-1.3562
G01 X11.4746 Y-1.3517
G01 X11.4778 Y-1.3473
G01 X11.5504 Y-1.2262
G01 X11.5539 Y-1.2183
G01 X11.5553 Y-1.2082
G01 X11.5553 Y-1.0874
G01 X11.5539 Y-1.0773
G01 X11.5504 Y-1.0694
G01 X11.4778 Y-0.9482
G01 X11.4725 Y-0.9414
G01 X11.4663 Y-0.9365
G01 X11.3159 Y-0.8735
G01 X11.3060 Y-0.8709
G01 X10.9345 Y-0.8708
G01 X10.9267 Y-0.8722
G01 X10.9194 Y-0.8754
G01 X10.9131 Y-0.8803
G01 X10.9082 Y-0.8866
G01 X10.9045 Y-0.8954
G01 X10.9036 Y-0.9040
G01 X10.9036 Y-1.8804
G00 Z3.0000
G00 X11.0236 Y-1.3597
G01 F80.00
G01 Z-0.0700
G01 F50.00
G01 X11.2853 Y-1.3597
G01 X11.2934 Y-1.3591
G01 X11.3064 Y-1.3554
G01 X11.4104 Y-1.3121
G01 X11.4176 Y-1.3085
G01 X11.4262 Y-1.3021
G01 X11.4318 Y-1.2962
G01 X11.4364 Y-1.2897
G01 X11.4838 Y-1.2106
G01 X11.4886 Y-1.1980
G01 X11.4903 Y-1.1847
G01 X11.4902 Y-1.1082
G01 X11.4879 Y-1.0950
G01 X11.4824 Y-1.0827
G01 X11.4364 Y-1.0059
G01 X11.4300 Y-0.9972
G01 X11.4198 Y-0.9884
G01 X11.4104 Y-0.9834
G01 X11.3064 Y-0.9401
G01 X11.2987 Y-0.9375
G01 X11.2907 Y-0.9361
G01 X11.0209 Y-0.9359
G01 X11.0129 Y-0.9369
G01 X11.0026 Y-0.9400
G01 X10.9954 Y-0.9437
G01 X10.9867 Y-0.9501
G01 X10.9795 Y-0.9581
G01 X10.9739 Y-0.9673
G01 X10.9703 Y-0.9775
G01 X10.9687 Y-0.9881
G01 X10.9689 Y-1.3100
G01 X10.9703 Y-1.3180
G01 X10.9739 Y-1.3282
G01 X10.9795 Y-1.3374
G01 X10.9867 Y-1.3454
G01 X10.9954 Y-1.3518
G01 X11.0051 Y-1.3564
G01 X11.0129 Y-1.3586
G01 X11.0236 Y-1.3597
G00 Z3.0000
G00 X12.2725 Y-1.7102
G01 F80.00
G01 Z-0.0700
G01 F50.00
G01 X12.2725 Y-1.5142
G01 X12.2714 Y-1.5035
G01 X12.2692 Y-1.4957
G01 X12.2646 Y-1.4860
G01 X12.2224 Y-1.4156
G01 X12.2142 Y-1.4050
G01 X12.2035 Y-1.3967
G01 X12.1912 Y-1.3913
G01 X12.0984 Y-1.3680
G01 X12.0850 Y-1.3663
G01 X12.0717 Y-1.3680
G01 X11.9788 Y-1.3913
G01 X11.9665 Y-1.3967
G01 X11.9559 Y-1.4050
G01 X11.9476 Y-1.4156
G01 X11.9041 Y-1.4883
G01 X11.8992 Y-1.5009
G01 X11.8975 Y-1.5143
G01 X11.8975 Y-1.7101
G01 X11.8986 Y-1.7209
G01 X11.9017 Y-1.7312
G01 X11.9054 Y-1.7384
G01 X11.9455 Y-1.8053
G01 X11.9536 Y-1.8157
G01 X11.9639 Y-1.8239
G01 X11.9710 Y-1.8275
G01 X11.9785 Y-1.8301
G01 X12.0811 Y-1.8472
G01 X12.0940 Y-1.8466
G01 X12.1864 Y-1.8312
G01 X12.1941 Y-1.8294
G01 X12.2039 Y-1.8252
G01 X12.2105 Y-1.8209
G01 X12.2183 Y-1.8138
G01 X12.2232 Y-1.8075
G01 X12.2660 Y-1.7361
G01 X12.2708 Y-1.7235
G01 X12.2725 Y-1.7102
G00 Z3.0000
G00 X12.3333 Y-1.7504
G01 F80.00
G01 Z-0.0700
G01 F50.00
G01 X12.3366 Y-1.7423
G01 X12.3375 Y-1.7337
G01 X12.3375 Y-1.4907
G01 X12.3369 Y-1.4837
G01 X12.3350 Y-1.4775
G01 X12.3326 Y-1.4727
G01 X12.2600 Y-1.3516
G01 X12.2547 Y-1.3448
G01 X12.2470 Y-1.3391
G01 X12.2389 Y-1.3361
G01 X12.0936 Y-1.2997
G01 X12.0850 Y-1.2986
G01 X12.0764 Y-1.2997
G01 X11.9312 Y-1.3361
G01 X11.9231 Y-1.3391
G01 X11.9154 Y-1.3448
G01 X11.9102 Y-1.3516
G01 X11.8375 Y-1.4727
G01 X11.8335 Y-1.4821
G01 X11.8325 Y-1.4907
G01 X11.8325 Y-1.7337
G01 X11.8331 Y-1.7408
G01 X11.8350 Y-1.7469
G01 X11.8374 Y-1.7517
G01 X11.9102 Y-1.8729
G01 X11.9153 Y-1.8796
G01 X11.9228 Y-1.8852
G01 X11.9315 Y-1.8885
G01 X12.0842 Y-1.9136
G01 X12.0910 Y-1.9131
G01 X12.2416 Y-1.8877
G01 X12.2513 Y-1.8827
G01 X12.2588 Y-1.8747
G01 X12.3333 Y-1.7504
G00 Z3.0000
G00 X12.9183 Y-1.6658
G01 F80.00
G01 Z-0.0700
G01 F50.00
G01 X12.9117 Y-1.6777
G01 X12.9064 Y-1.6840
G01 X12.9003 Y-1.6893
G01 X12.8885 Y-1.6961
G01 X12.8754 Y-1.6998
G01 X12.8618 Y-1.7001
G01 X12.8485 Y-1.6971
G01 X12.8364 Y-1.6909
G01 X12.8300 Y-1.6859
G01 X12.8244 Y-1.6799
G01 X12.8197 Y-1.6732
G01 X12.8161 Y-1.6658
G01 X12.6761 Y-1.3161
G01 X12.6726 Y-1.3108
G01 X12.6669 Y-1.3052
G01 X12.6615 Y-1.3019
G01 X12.6539 Y-1.2993
G01 X12.6460 Y-1.2986
G01 X12.6397 Y-1.2995
G01 X12.6337 Y-1.3015
G01 X12.6269 Y-1.3057
G01 X12.6204 Y-1.3127
G01 X12.6157 Y-1.3228
G01 X12.6148 Y-1.3339
G01 X12.6172 Y-1.3438
G01 X12.8376 Y-1.8947
G01 X12.8429 Y-1.9027
G01 X12.8503 Y-1.9089
G01 X12.8592 Y-1.9126
G01 X12.8672 Y-1.9136
G01 X12.8752 Y-1.9126
G01 X12.8841 Y-1.9089
G01 X12.8915 Y-1.9027
G01 X12.8968 Y-1.8947
G01 X13.0384 Y-1.5414
G01 X13.0427 Y-1.5345
G01 X13.0480 Y-1.5282
G01 X13.0587 Y-1.5198
G01 X13.0711 Y-1.5142
G01 X13.0790 Y-1.5124
G01 X13.0872 Y-1.5118
G01 X13.0954 Y-1.5124
G01 X13.1033 Y-1.5142
G01 X13.1157 Y-1.5198
G01 X13.1264 Y-1.5282
G01 X13.1317 Y-1.5345
G01 X13.1360 Y-1.5414
G01 X13.2767 Y-1.8926
G01 X13.2799 Y-1.8988
G01 X13.2851 Y-1.9049
G01 X13.2901 Y-1.9088
G01 X13.2958 Y-1.9116
G01 X13.3036 Y-1.9134
G01 X13.3099 Y-1.9135
G01 X13.3177 Y-1.9119
G01 X13.3235 Y-1.9092
G01 X13.3299 Y-1.9044
G01 X13.3357 Y-1.8969
G01 X13.3388 Y-1.8888
G01 X13.4852 Y-1.3401
G01 X13.4864 Y-1.3332
G01 X13.4861 Y-1.3268
G01 X13.4847 Y-1.3206
G01 X13.4812 Y-1.3134
G01 X13.4761 Y-1.3073
G01 X13.4697 Y-1.3027
G01 X13.4607 Y-1.2993
G01 X13.4528 Y-1.2986
G01 X13.4434 Y-1.3003
G01 X13.4362 Y-1.3038
G01 X13.4301 Y-1.3089
G01 X13.4255 Y-1.3153
G01 X13.4223 Y-1.3234
G01 X13.3421 Y-1.6231
G01 X13.3387 Y-1.6304
G01 X13.3343 Y-1.6372
G01 X13.3289 Y-1.6432
G01 X13.3227 Y-1.6484
G01 X13.3158 Y-1.6527
G01 X13.3058 Y-1.6566
G01 X13.2979 Y-1.6583
G01 X13.2898 Y-1.6588
G01 X13.2765 Y-1.6570
G01 X13.2688 Y-1.6543
G01 X13.2617 Y-1.6506
G01 X13.2512 Y-1.6422
G01 X13.2460 Y-1.6360
G01 X13.2417 Y-1.6291
G01 X13.1153 Y-1.3147
G01 X13.1115 Y-1.3095
G01 X13.1067 Y-1.3051
G01 X13.1012 Y-1.3018
G01 X13.0952 Y-1.2996
G01 X13.0888 Y-1.2986
G01 X13.0824 Y-1.2989
G01 X13.0761 Y-1.3005
G01 X13.0703 Y-1.3033
G01 X13.0619 Y-1.3107
G01 X13.0567 Y-1.3196
G01 X12.9183 Y-1.6658
G00 Z3.0000
G00 X13.7636 Y-1.6972
G01 F80.00
G01 Z-0.0700
G01 F50.00
G01 X13.7646 Y-1.7060
G01 X13.7943 Y-1.8292
G01 X13.7993 Y-1.8392
G01 X13.8035 Y-1.8440
G01 X13.8087 Y-1.8478
G01 X13.9590 Y-1.9109
G01 X13.9657 Y-1.9130
G01 X13.9728 Y-1.9136
G01 X14.1181 Y-1.9136
G01 X14.1265 Y-1.9127
G01 X14.1344 Y-1.9097
G01 X14.2505 Y-1.8492
G01 X14.2577 Y-1.8443
G01 X14.2620 Y-1.8397
G01 X14.2654 Y-1.8342
G01 X14.2676 Y-1.8282
G01 X14.2686 Y-1.8219
G01 X14.2683 Y-1.8156
G01 X14.2668 Y-1.8094
G01 X14.2642 Y-1.8036
G01 X14.2604 Y-1.7984
G01 X14.2531 Y-1.7923
G01 X14.2443 Y-1.7885
G01 X14.2349 Y-1.7875
G01 X14.2255 Y-1.7893
G01 X14.1204 Y-1.8435
G01 X14.1130 Y-1.8463
G01 X14.1053 Y-1.8480
G01 X14.0974 Y-1.8486
G01 X13.9896 Y-1.8486
G01 X13.9788 Y-1.8475
G01 X13.9710 Y-1.8453
G01 X13.8766 Y-1.8060
G01 X13.8651 Y-1.7987
G01 X13.8558 Y-1.7888
G01 X13.8515 Y-1.7819
G01 X13.8474 Y-1.7718
G01 X13.8296 Y-1.6977
G01 X13.8287 Y-1.6900
G01 X13.8287 Y-1.6603
G01 X13.8310 Y-1.6471
G01 X13.8339 Y-1.6395
G01 X13.8379 Y-1.6325
G01 X13.8429 Y-1.6261
G01 X13.8488 Y-1.6205
G01 X13.8554 Y-1.6159
G01 X13.8626 Y-1.6122
G01 X13.8703 Y-1.6097
G01 X13.8783 Y-1.6083
G01 X14.2354 Y-1.6080
G01 X14.2424 Y-1.6074
G01 X14.2500 Y-1.6049
G01 X14.2579 Y-1.5996
G01 X14.2631 Y-1.5936
G01 X14.2667 Y-1.5865
G01 X14.2685 Y-1.5787
G01 X14.2686 Y-1.4540
G01 X14.2680 Y-1.4468
G01 X14.2653 Y-1.4390
G01 X14.2604 Y-1.4316
G01 X14.1879 Y-1.3471
G01 X14.1792 Y-1.3397
G01 X14.1701 Y-1.3361
G01 X14.0247 Y-1.2997
G01 X14.0161 Y-1.2986
G01 X14.0075 Y-1.2997
G01 X13.8623 Y-1.3361
G01 X13.8542 Y-1.3391
G01 X13.8465 Y-1.3448
G01 X13.8413 Y-1.3516
G01 X13.7686 Y-1.4727
G01 X13.7646 Y-1.4821
G01 X13.7636 Y-1.4907
G01 X13.7636 Y-1.6972
G00 Z3.0000
G00 X13.8994 Y-1.5430
G01 F80.00
G01 Z-0.0700
G01 F50.00
G01 X14.1486 Y-1.5430
G01 X14.1619 Y-1.5413
G01 X14.1721 Y-1.5377
G01 X14.1813 Y-1.5321
G01 X14.1893 Y-1.5249
G01 X14.1957 Y-1.5162
G01 X14.2003 Y-1.5065
G01 X14.2030 Y-1.4960
G01 X14.2036 Y-1.4857
G01 X14.2024 Y-1.4746
G01 X14.1979 Y-1.4615
G01 X14.1921 Y-1.4521
G01 X14.1545 Y-1.4082
G01 X14.1467 Y-1.4013
G01 X14.1400 Y-1.3972
G01 X14.1278 Y-1.3926
G01 X14.0268 Y-1.3674
G01 X14.0161 Y-1.3663
G01 X14.0028 Y-1.3680
G01 X13.9125 Y-1.3906
G01 X13.9049 Y-1.3931
G01 X13.8976 Y-1.3967
G01 X13.8890 Y-1.4032
G01 X13.8817 Y-1.4111
G01 X13.8523 Y-1.4596
G01 X13.8468 Y-1.4719
G01 X13.8445 Y-1.4852
G01 X13.8447 Y-1.4933
G01 X13.8461 Y-1.5013
G01 X13.8509 Y-1.5139
G01 X13.8553 Y-1.5207
G01 X13.8605 Y-1.5268
G01 X13.8712 Y-1.5351
G01 X13.8784 Y-1.5388
G01 X13.8861 Y-1.5413
G01 X13.8994 Y-1.5430
G00 Z3.0000
G00 X14.5458 Y-1.3318
G01 F80.00
G01 Z-0.0700
G01 F50.00
G01 X14.5458 Y-1.8827
G01 X14.5467 Y-1.8890
G01 X14.5489 Y-1.8950
G01 X14.5522 Y-1.9005
G01 X14.5565 Y-1.9052
G01 X14.5616 Y-1.9090
G01 X14.5673 Y-1.9117
G01 X14.5735 Y-1.9133
G01 X14.5799 Y-1.9136
G01 X14.5862 Y-1.9127
G01 X14.5922 Y-1.9105
G01 X14.6013 Y-1.9041
G01 X14.6077 Y-1.8950
G01 X14.6107 Y-1.8843
G01 X14.6108 Y-1.4943
G01 X14.6125 Y-1.4811
G01 X14.6172 Y-1.4686
G01 X14.6231 Y-1.4597
G01 X14.6306 Y-1.4521
G01 X14.7215 Y-1.3764
G01 X14.7329 Y-1.3690
G01 X14.7432 Y-1.3653
G01 X14.7540 Y-1.3637
G01 X14.8710 Y-1.3636
G01 X14.8796 Y-1.3627
G01 X14.8898 Y-1.3581
G01 X14.8978 Y-1.3505
G01 X14.9028 Y-1.3405
G01 X14.9042 Y-1.3295
G01 X14.9018 Y-1.3187
G01 X14.8958 Y-1.3093
G01 X14.8870 Y-1.3024
G01 X14.8765 Y-1.2989
G01 X14.7257 Y-1.2986
G01 X14.7170 Y-1.2996
G01 X14.7081 Y-1.3033
G01 X14.6825 Y-1.3240
G01 X14.6710 Y-1.3307
G01 X14.6582 Y-1.3344
G01 X14.6449 Y-1.3349
G01 X14.6318 Y-1.3322
G01 X14.6221 Y-1.3278
G01 X14.6114 Y-1.3199
G01 X14.6013 Y-1.3081
G01 X14.5964 Y-1.3041
G01 X14.5877 Y-1.3000
G01 X14.5783 Y-1.2986
G01 X14.5720 Y-1.2992
G01 X14.5659 Y-1.3010
G01 X14.5602 Y-1.3041
G01 X14.5553 Y-1.3081
G01 X14.5513 Y-1.3130
G01 X14.5482 Y-1.3187
G01 X14.5464 Y-1.3248
G01 X14.5458 Y-1.3318
G00 Z3.0000
G00 X15.8346 Y-1.4819
G01 F80.00
G01 Z-0.0700
G01 F50.00
G01 X16.0402 Y-1.4819
G01 X16.0484 Y-1.4813
G01 X16.0563 Y-1.4795
G01 X16.0639 Y-1.4765
G01 X16.0710 Y-1.4724
G01 X16.0774 Y-1.4674
G01 X16.0830 Y-1.4614
G01 X16.0877 Y-1.4547
G01 X16.0930 Y-1.4423
G01 X16.0947 Y-1.4343
G01 X16.0952 Y-1.4262
G01 X16.0945 Y-1.4180
G01 X16.0926 Y-1.4101
G01 X15.9879 Y-1.1308
G01 X15.9826 Y-1.1213
G01 X15.9736 Y-1.1112
G01 X15.9647 Y-1.1049
G01 X15.9548 Y-1.1004
G01 X15.9442 Y-1.0980
G01 X15.9360 Y-1.0976
G01 X15.9279 Y-1.0984
G01 X15.9175 Y-1.1014
G01 X15.9078 Y-1.1063
G01 X15.9012 Y-1.1112
G01 X15.8955 Y-1.1170
G01 X15.8893 Y-1.1259
G01 X15.8859 Y-1.1333
G01 X15.7822 Y-1.4101
G01 X15.7799 Y-1.4207
G01 X15.7801 Y-1.4343
G01 X15.7835 Y-1.4474
G01 X15.7901 Y-1.4593
G01 X15.7994 Y-1.4692
G01 X15.8084 Y-1.4753
G01 X15.8211 Y-1.4802
G01 X15.8346 Y-1.4819
G00 Z3.0000
G00 X16.1059 Y-1.5469
G01 F80.00
G01 Z-0.0700
G01 F50.00
G01 X16.1139 Y-1.5475
G01 X16.1217 Y-1.5493
G01 X16.1292 Y-1.5521
G01 X16.1361 Y-1.5560
G01 X16.1425 Y-1.5609
G01 X16.1480 Y-1.5666
G01 X16.1553 Y-1.5777
G01 X16.2734 Y-1.8919
G01 X16.2765 Y-1.8982
G01 X16.2803 Y-1.9033
G01 X16.2851 Y-1.9075
G01 X16.2906 Y-1.9107
G01 X16.2967 Y-1.9128
G01 X16.3030 Y-1.9136
G01 X16.3094 Y-1.9132
G01 X16.3155 Y-1.9116
G01 X16.3212 Y-1.9087
G01 X16.3296 Y-1.9014
G01 X16.3349 Y-1.8916
G01 X16.3366 Y-1.8806
G01 X16.3359 Y-1.8743
G01 X16.3343 Y-1.8690
G01 X15.9681 Y-0.8925
G01 X15.9658 Y-0.8875
G01 X15.9622 Y-0.8822
G01 X15.9575 Y-0.8778
G01 X15.9521 Y-0.8743
G01 X15.9414 Y-0.8710
G01 X15.9350 Y-0.8709
G01 X15.9287 Y-0.8720
G01 X15.9213 Y-0.8751
G01 X15.9148 Y-0.8799
G01 X15.9098 Y-0.8861
G01 X15.9067 Y-0.8925
G01 X15.5405 Y-1.8690
G01 X15.5386 Y-1.8758
G01 X15.5383 Y-1.8838
G01 X15.5399 Y-1.8916
G01 X15.5434 Y-1.8988
G01 X15.5485 Y-1.9049
G01 X15.5563 Y-1.9103
G01 X15.5639 Y-1.9129
G01 X15.5718 Y-1.9136
G01 X15.5797 Y-1.9124
G01 X15.5870 Y-1.9093
G01 X15.5933 Y-1.9044
G01 X15.5992 Y-1.8969
G01 X15.7184 Y-1.5802
G01 X15.7221 Y-1.5731
G01 X15.7268 Y-1.5666
G01 X15.7323 Y-1.5609
G01 X15.7387 Y-1.5560
G01 X15.7456 Y-1.5521
G01 X15.7531 Y-1.5493
G01 X15.7662 Y-1.5470
G01 X16.1059 Y-1.5469
G00 Z3.0000
G00 X16.7198 Y-2.0710
G01 F80.00
G01 Z-0.0700
G01 F50.00
G01 X16.7126 Y-2.0789
G01 X16.7062 Y-2.0838
G01 X16.6992 Y-2.0877
G01 X16.6917 Y-2.0906
G01 X16.6785 Y-2.0929
G01 X16.6414 Y-2.0933
G01 X16.6338 Y-2.0954
G01 X16.6268 Y-2.0994
G01 X16.6221 Y-2.1037
G01 X16.6183 Y-2.1088
G01 X16.6156 Y-2.1145
G01 X16.6140 Y-2.1207
G01 X16.6137 Y-2.1271
G01 X16.6146 Y-2.1334
G01 X16.6168 Y-2.1394
G01 X16.6201 Y-2.1449
G01 X16.6256 Y-2.1506
G01 X16.6309 Y-2.1542
G01 X16.6368 Y-2.1566
G01 X16.6430 Y-2.1579
G01 X16.7212 Y-2.1580
G01 X16.7290 Y-2.1566
G01 X16.7348 Y-2.1542
G01 X16.7413 Y-2.1497
G01 X16.7460 Y-2.1445
G01 X16.8185 Y-2.0479
G01 X16.8223 Y-2.0418
G01 X16.8248 Y-2.0342
G01 X16.8254 Y-2.0271
G01 X16.8254 Y-1.3295
G01 X16.8245 Y-1.3232
G01 X16.8223 Y-1.3172
G01 X16.8159 Y-1.3081
G01 X16.8068 Y-1.3017
G01 X16.7961 Y-1.2987
G01 X16.7897 Y-1.2987
G01 X16.7819 Y-1.3005
G01 X16.7762 Y-1.3032
G01 X16.7711 Y-1.3070
G01 X16.7668 Y-1.3117
G01 X16.7635 Y-1.3172
G01 X16.7613 Y-1.3232
G01 X16.7604 Y-1.3295
G01 X16.7601 Y-2.0040
G01 X16.7579 Y-2.0147
G01 X16.7524 Y-2.0271
G01 X16.7198 Y-2.0710
G00 Z3.0000
G00 X23.1436 Y-3.6417
G01 F80.00
G01 Z-0.0700
G01 F50.00
G01 X23.1425 Y-3.6872
G01 X23.1436 Y-3.7327
G01 X23.1470 Y-3.7795
G01 X23.1527 Y-3.8260
G01 X23.1611 Y-3.8748
G01 X23.1715 Y-3.9205
G01 X23.1840 Y-3.9657
G01 X23.1988 Y-4.0102
G01 X23.2157 Y-4.0538
G01 X23.2347 Y-4.0966
G01 X23.2546 Y-4.1362
G01 X23.2777 Y-4.1770
G01 X23.3027 Y-4.2166
G01 X23.3313 Y-4.2572
G01 X23.3601 Y-4.2941
G01 X23.3903 Y-4.3290
G01 X23.4222 Y-4.3625
G01 X23.4552 Y-4.3939
G01 X23.4906 Y-4.4246
G01 X23.5275 Y-4.4534
G01 X23.5681 Y-4.4820
G01 X23.6077 Y-4.5070
G01 X23.6485 Y-4.5300
G01 X23.6881 Y-4.5500
G01 X23.7308 Y-4.5690
G01 X23.7745 Y-4.5859
G01 X23.8190 Y-4.6007
G01 X23.8668 Y-4.6139
G01 X23.9125 Y-4.6241
G01 X23.9587 Y-4.6320
G01 X24.0052 Y-4.6377
G01 X24.0513 Y-4.6411
G01 X24.0975 Y-4.6422
G01 X24.1430 Y-4.6411
G01 X24.1898 Y-4.6377
G01 X24.2363 Y-4.6320
G01 X24.2825 Y-4.6241
G01 X24.3282 Y-4.6139
G01 X24.3734 Y-4.6015
G01 X24.4180 Y-4.5868
G01 X24.4617 Y-4.5700
G01 X24.5046 Y-4.5511
G01 X24.5489 Y-4.5288
G01 X24.5896 Y-4.5056
G01 X24.6292 Y-4.4805
G01 X24.6653 Y-4.4551
G01 X24.7023 Y-4.4263
G01 X24.7393 Y-4.3944
G01 X24.7728 Y-4.3625
G01 X24.8042 Y-4.3295
G01 X24.8349 Y-4.2941
G01 X24.8637 Y-4.2572
G01 X24.8908 Y-4.2189
G01 X24.9159 Y-4.1793
G01 X24.9391 Y-4.1386
G01 X24.9603 Y-4.0966
G01 X24.9793 Y-4.0539
G01 X24.9962 Y-4.0102
G01 X25.0023 Y-3.9918
G01 X25.5551 Y-3.9915
G01 X25.5552 Y-4.7825
G01 X25.5575 Y-4.7958
G01 X25.5629 Y-4.8081
G01 X25.5712 Y-4.8187
G01 X25.5818 Y-4.8270
G01 X25.5891 Y-4.8306
G01 X25.5967 Y-4.8332
G01 X25.6101 Y-4.8348
G01 X27.0101 Y-4.8348
G01 X27.0182 Y-4.8342
G01 X27.0286 Y-4.8316
G01 X27.0360 Y-4.8283
G01 X27.0450 Y-4.8223
G01 X27.0509 Y-4.8167
G01 X27.0573 Y-4.8081
G01 X27.0609 Y-4.8008
G01 X27.0635 Y-4.7932
G01 X27.0650 Y-4.7825
G01 X27.0651 Y-3.9906
G01 X27.4865 Y-3.9904
G01 X27.4873 Y-4.0477
G01 X27.4907 Y-4.0945
G01 X27.4964 Y-4.1410
G01 X27.5043 Y-4.1872
G01 X27.5152 Y-4.2355
G01 X27.5277 Y-4.2807
G01 X27.5425 Y-4.3252
G01 X27.5594 Y-4.3688
G01 X27.5784 Y-4.4116
G01 X27.5996 Y-4.4536
G01 X27.6228 Y-4.4943
G01 X27.6479 Y-4.5339
G01 X27.6733 Y-4.5700
G01 X27.7021 Y-4.6070
G01 X27.7327 Y-4.6425
G01 X27.7659 Y-4.6775
G01 X27.7989 Y-4.7089
G01 X27.8343 Y-4.7396
G01 X27.8712 Y-4.7684
G01 X27.9095 Y-4.7955
G01 X27.9491 Y-4.8206
G01 X27.9898 Y-4.8438
G01 X28.0318 Y-4.8650
G01 X28.0745 Y-4.8840
G01 X28.1206 Y-4.9018
G01 X28.1653 Y-4.9165
G01 X28.2105 Y-4.9289
G01 X28.2562 Y-4.9391
G01 X28.3024 Y-4.9470
G01 X28.3489 Y-4.9527
G01 X28.3957 Y-4.9561
G01 X28.4412 Y-4.9572
G01 X28.4867 Y-4.9561
G01 X28.5335 Y-4.9527
G01 X28.5826 Y-4.9467
G01 X28.6288 Y-4.9386
G01 X28.6719 Y-4.9289
G01 X28.7197 Y-4.9157
G01 X28.7618 Y-4.9018
G01 X28.8054 Y-4.8850
G01 X28.8506 Y-4.8650
G01 X28.8902 Y-4.8451
G01 X28.9310 Y-4.8220
G01 X28.9729 Y-4.7955
G01 X29.0090 Y-4.7701
G01 X29.0460 Y-4.7413
G01 X29.0835 Y-4.7089
G01 X29.1165 Y-4.6775
G01 X29.1479 Y-4.6445
G01 X29.1803 Y-4.6070
G01 X29.2074 Y-4.5722
G01 X29.2345 Y-4.5339
G01 X29.2610 Y-4.4920
G01 X29.2840 Y-4.4512
G01 X29.3040 Y-4.4116
G01 X29.3240 Y-4.3664
G01 X29.3408 Y-4.3228
G01 X29.3547 Y-4.2807
G01 X29.3672 Y-4.2356
G01 X29.3776 Y-4.1898
G01 X29.3860 Y-4.1410
G01 X29.3917 Y-4.0945
G01 X29.3951 Y-4.0484
G01 X29.3962 Y-4.0022
G01 X29.3950 Y-3.9540
G01 X29.3915 Y-3.9073
G01 X29.3857 Y-3.8608
G01 X29.3776 Y-3.8146
G01 X29.3672 Y-3.7689
G01 X29.3547 Y-3.7237
G01 X29.3408 Y-3.6816
G01 X29.3240 Y-3.6380
G01 X29.3051 Y-3.5951
G01 X29.2841 Y-3.5532
G01 X29.2610 Y-3.5124
G01 X29.2345 Y-3.4705
G01 X29.2074 Y-3.4322
G01 X29.1786 Y-3.3953
G01 X29.1484 Y-3.3604
G01 X29.1165 Y-3.3269
G01 X29.0815 Y-3.2937
G01 X29.0460 Y-3.2631
G01 X29.0090 Y-3.2343
G01 X28.9706 Y-3.2074
G01 X28.9310 Y-3.1824
G01 X28.8902 Y-3.1594
G01 X28.8483 Y-3.1383
G01 X28.8054 Y-3.1194
G01 X28.7618 Y-3.1026
G01 X28.7213 Y-3.0892
G01 X28.7213 Y-2.9188
G01 X29.0689 Y-2.9187
G01 X29.0822 Y-2.9164
G01 X29.0945 Y-2.9110
G01 X29.1051 Y-2.9027
G01 X29.1134 Y-2.8921
G01 X29.1170 Y-2.8848
G01 X29.1196 Y-2.8772
G01 X29.1212 Y-2.8638
G01 X29.1212 Y-1.8613
G01 X29.6403 Y-1.4163
G01 X51.6559 Y-1.4163
G01 X51.6560 Y-3.3860
G01 X49.4301 Y-5.5891
G01 X46.7120 Y-5.5891
G01 X46.6932 Y-5.5900
G01 X46.6733 Y-5.5928
G01 X46.6512 Y-5.5984
G01 X46.6348 Y-5.6042
G01 X46.6232 Y-5.6093
G01 X46.5992 Y-5.6230
G01 X46.5890 Y-5.6301
G01 X46.5753 Y-5.6414
G01 X46.4275 Y-5.7890
G01 X46.4191 Y-5.7987
G01 X46.4088 Y-5.8127
G01 X46.3970 Y-5.8322
G01 X46.3859 Y-5.8573
G01 X46.3799 Y-5.8766
G01 X46.3759 Y-5.8963
G01 X46.3738 Y-5.9163
G01 X46.3734 Y-6.1788
G01 X43.0819 Y-6.1828
G01 X43.0721 Y-6.1799
G01 X43.0614 Y-6.1788
G01 X41.9614 Y-6.1788
G01 X41.9480 Y-6.1804
G01 X41.9378 Y-6.1841
G01 X39.4824 Y-6.1871
G01 X39.4462 Y-6.1890
G01 X39.4144 Y-6.1937
G01 X39.3974 Y-6.1975
G01 X39.3640 Y-6.2075
G01 X39.3295 Y-6.2218
G01 X39.3138 Y-6.2298
G01 X39.2923 Y-6.2426
G01 X39.0013 Y-6.2427
G01 X38.9906 Y-6.2442
G01 X38.9805 Y-6.2479
G01 X38.9734 Y-6.2519
G01 X38.9651 Y-6.2587
G01 X38.9598 Y-6.2648
G01 X38.9543 Y-6.2741
G01 X38.9506 Y-6.2842
G01 X38.9491 Y-6.2949
G01 X38.9490 Y-6.6814
G01 X38.1301 Y-6.6805
G01 X38.1298 Y-6.2795
G01 X38.1277 Y-6.2689
G01 X38.1248 Y-6.2614
G01 X38.1208 Y-6.2543
G01 X38.1159 Y-6.2480
G01 X38.1100 Y-6.2424
G01 X38.1010 Y-6.2364
G01 X38.0936 Y-6.2331
G01 X38.0858 Y-6.2310
G01 X38.0751 Y-6.2299
G01 X36.7751 Y-6.2299
G01 X36.7670 Y-6.2305
G01 X36.7591 Y-6.2323
G01 X36.7492 Y-6.2364
G01 X36.7402 Y-6.2424
G01 X36.7343 Y-6.2480
G01 X36.7279 Y-6.2566
G01 X36.7243 Y-6.2639
G01 X36.7217 Y-6.2715
G01 X36.7202 Y-6.2822
G01 X36.7201 Y-7.6849
G01 X36.7212 Y-7.6956
G01 X36.7243 Y-7.7059
G01 X36.7294 Y-7.7155
G01 X36.7362 Y-7.7238
G01 X36.7445 Y-7.7306
G01 X36.7516 Y-7.7346
G01 X36.7617 Y-7.7383
G01 X36.7724 Y-7.7398
G01 X38.0751 Y-7.7399
G01 X38.0832 Y-7.7393
G01 X38.0911 Y-7.7375
G01 X38.0986 Y-7.7346
G01 X38.1057 Y-7.7306
G01 X38.1120 Y-7.7257
G01 X38.1176 Y-7.7198
G01 X38.1223 Y-7.7132
G01 X38.1259 Y-7.7059
G01 X38.1285 Y-7.6983
G01 X38.1298 Y-7.6903
G01 X38.1301 Y-7.2908
G01 X38.9490 Y-7.2917
G01 X38.9490 Y-7.5976
G01 X38.9496 Y-7.6057
G01 X38.9514 Y-7.6136
G01 X38.9543 Y-7.6211
G01 X38.9598 Y-7.6304
G01 X38.9651 Y-7.6365
G01 X38.9734 Y-7.6433
G01 X38.9805 Y-7.6473
G01 X38.9880 Y-7.6502
G01 X38.9959 Y-7.6520
G01 X39.0040 Y-7.6526
G01 X40.6040 Y-7.6526
G01 X40.6147 Y-7.6515
G01 X40.6225 Y-7.6494
G01 X40.6323 Y-7.6448
G01 X40.6389 Y-7.6401
G01 X40.6465 Y-7.6325
G01 X40.6525 Y-7.6235
G01 X40.6558 Y-7.6161
G01 X40.6579 Y-7.6083
G01 X40.6589 Y-7.6003
G01 X40.6590 Y-6.8960
G01 X46.3919 Y-6.8891
G01 X47.0959 Y-7.5931
G01 X47.1095 Y-7.6060
G01 X47.1344 Y-7.6264
G01 X47.1508 Y-7.6380
G01 X47.1784 Y-7.6546
G01 X47.1964 Y-7.6636
G01 X47.2261 Y-7.6759
G01 X47.2452 Y-7.6822
G01 X47.2764 Y-7.6900
G01 X47.2959 Y-7.6934
G01 X47.3282 Y-7.6966
G01 X47.3470 Y-7.6972
G01 X51.0800 Y-7.6972
G01 X51.1162 Y-7.6953
G01 X51.1334 Y-7.6931
G01 X51.1562 Y-7.6888
G01 X51.7641 Y-7.6887
G01 X51.7774 Y-7.6864
G01 X51.7849 Y-7.6835
G01 X51.7920 Y-7.6795
G01 X51.8003 Y-7.6727
G01 X51.8297 Y-7.6433
G01 X52.1616 Y-7.6453
G01 X52.1616 Y-8.6253
G01 X51.8318 Y-8.6264
G01 X51.8003 Y-8.5949
G01 X51.7920 Y-8.5881
G01 X51.7849 Y-8.5841
G01 X51.7774 Y-8.5812
G01 X51.7641 Y-8.5789
G01 X50.6587 Y-8.5789
G01 X50.6480 Y-8.5804
G01 X50.6404 Y-8.5830
G01 X50.6331 Y-8.5866
G01 X50.6245 Y-8.5930
G01 X50.5206 Y-8.6969
G01 X50.5129 Y-8.7079
G01 X50.5080 Y-8.7204
G01 X50.5064 Y-8.7338
G01 X50.5064 Y-9.1338
G01 X50.5080 Y-9.1472
G01 X50.5129 Y-9.1597
G01 X50.5172 Y-9.1666
G01 X50.5225 Y-9.1727
G01 X50.6225 Y-9.2727
G01 X50.6286 Y-9.2780
G01 X50.6379 Y-9.2835
G01 X50.6480 Y-9.2872
G01 X50.6614 Y-9.2888
G01 X51.7641 Y-9.2887
G01 X51.7721 Y-9.2877
G01 X51.7799 Y-9.2856
G01 X51.7873 Y-9.2823
G01 X51.7942 Y-9.2780
G01 X51.8003 Y-9.2727
G01 X51.8364 Y-9.2366
G01 X52.4690 Y-9.2346
G01 X52.4988 Y-9.2329
G01 X52.5257 Y-9.2288
G01 X52.5403 Y-9.2256
G01 X52.5714 Y-9.2161
G01 X52.5854 Y-9.2106
G01 X52.6099 Y-9.1989
G01 X52.6356 Y-9.1836
G01 X52.6617 Y-9.1641
G01 X52.6818 Y-9.1459
G01 X52.6922 Y-9.1351
G01 X52.7112 Y-9.1120
G01 X52.7279 Y-9.0872
G01 X52.7432 Y-9.0585
G01 X52.7536 Y-9.0334
G01 X52.7583 Y-9.0192
G01 X52.7657 Y-8.9902
G01 X52.7702 Y-8.9607
G01 X52.7718 Y-8.9308
G01 X52.7718 Y-7.3420
G01 X52.7714 Y-7.3257
G01 X52.7687 Y-7.2987
G01 X52.7624 Y-7.2668
G01 X52.7584 Y-7.2525
G01 X52.7493 Y-7.2269
G01 X52.7354 Y-7.1975
G01 X52.7200 Y-7.1719
G01 X52.7039 Y-7.1501
G01 X52.6943 Y-7.1387
G01 X52.6733 Y-7.1175
G01 X52.6504 Y-7.0984
G01 X52.6257 Y-7.0816
G01 X52.5971 Y-7.0662
G01 X52.5835 Y-7.0601
G01 X52.5580 Y-7.0509
G01 X52.5291 Y-7.0433
G01 X52.4997 Y-7.0387
G01 X52.4685 Y-7.0369
G01 X51.8384 Y-7.0331
G01 X51.8003 Y-6.9949
G01 X51.7942 Y-6.9896
G01 X51.7873 Y-6.9853
G01 X51.7799 Y-6.9820
G01 X51.7668 Y-6.9791
G01 X50.6614 Y-6.9788
G01 X50.6533 Y-6.9794
G01 X50.6454 Y-6.9812
G01 X50.6328 Y-6.9868
G01 X49.9409 Y-6.9868
G01 X49.8539 Y-6.8998
G01 X49.8539 Y-5.8875
G01 X52.0908 Y-3.6735
G01 X52.1067 Y-3.6562
G01 X52.1162 Y-3.6441
G01 X52.1287 Y-3.6255
G01 X52.1363 Y-3.6122
G01 X52.1460 Y-3.5919
G01 X52.1506 Y-3.5801
G01 X52.1587 Y-3.5537
G01 X52.1636 Y-3.5287
G01 X52.1651 Y-3.5162
G01 X52.1662 Y-3.4937
G01 X52.1661 Y-1.4163
G01 X56.6860 Y-1.4163
G01 X56.6860 Y-8.7312
G01 X56.6864 Y-8.7475
G01 X56.6891 Y-8.7746
G01 X56.6921 Y-8.7920
G01 X56.6987 Y-8.8185
G01 X56.7097 Y-8.8491
G01 X56.7159 Y-8.8629
G01 X56.7287 Y-8.8869
G01 X56.7468 Y-8.9140
G01 X56.7641 Y-8.9351
G01 X56.7753 Y-8.9470
G01 X58.9452 Y-11.1169
G01 X58.9452 Y-12.1901
G01 X58.9458 Y-12.1982
G01 X58.9476 Y-12.2061
G01 X58.9530 Y-12.2184
G01 X58.9613 Y-12.2290
G01 X58.9719 Y-12.2373
G01 X58.9842 Y-12.2427
G01 X58.9975 Y-12.2450
G01 X59.7165 Y-12.2451
G01 X60.2946 Y-13.4692
G01 X60.2946 Y-14.7871
G01 X58.7974 Y-17.1398
G01 X58.7829 Y-17.1652
G01 X58.7709 Y-17.1919
G01 X58.7622 Y-17.2170
G01 X58.7554 Y-17.2450
G01 X58.7512 Y-17.2735
G01 X58.7500 Y-17.2905
G01 X58.7497 Y-17.7733
G01 X58.6994 Y-17.7736
G01 X58.6888 Y-17.7757
G01 X58.6789 Y-17.7798
G01 X58.6720 Y-17.7841
G01 X58.6659 Y-17.7894
G01 X58.6576 Y-17.8000
G01 X58.6522 Y-17.8123
G01 X58.6499 Y-17.8256
G01 X58.6498 Y-18.9020
G01 X57.2901 Y-20.2640
G01 X57.2719 Y-20.2842
G01 X57.2610 Y-20.2981
G01 X57.2459 Y-20.3207
G01 X57.2385 Y-20.3337
G01 X57.2306 Y-20.3494
G01 X57.2201 Y-20.3746
G01 X57.2146 Y-20.3914
G01 X57.2080 Y-20.4178
G01 X57.2035 Y-20.4474
G01 X57.2019 Y-20.4786
G01 X57.2019 Y-27.8332
G01 X53.4266 Y-27.8332
G01 X52.3547 Y-26.7612
G01 X52.3335 Y-26.7420
G01 X52.3095 Y-26.7241
G01 X52.2839 Y-26.7086
G01 X52.2544 Y-26.6946
G01 X52.2288 Y-26.6854
G01 X52.2143 Y-26.6814
G01 X52.1823 Y-26.6750
G01 X52.1552 Y-26.6723
G01 X52.1389 Y-26.6719
G01 X51.8906 Y-26.6719
G01 X51.8906 Y-26.5779
G01 X51.8900 Y-26.5698
G01 X51.8882 Y-26.5619
G01 X51.8828 Y-26.5496
G01 X51.8781 Y-26.5430
G01 X51.8725 Y-26.5371
G01 X51.8662 Y-26.5322
G01 X51.8591 Y-26.5282
G01 X51.8463 Y-26.5240
G01 X51.8356 Y-26.5229
G01 X51.1809 Y-26.5229
G01 X50.3952 Y-25.7372
G01 X50.7921 Y-25.3400
G01 X50.8050 Y-25.3245
G01 X50.8123 Y-25.3141
G01 X50.8226 Y-25.2968
G01 X50.8310 Y-25.2787
G01 X50.8377 Y-25.2595
G01 X50.8425 Y-25.2400
G01 X50.8458 Y-25.2127
G01 X50.8460 Y-25.1926
G01 X50.8441 Y-25.1725
G01 X50.8403 Y-25.1528
G01 X50.8337 Y-25.1309
G01 X50.8259 Y-25.1124
G01 X50.8163 Y-25.0947
G01 X50.8005 Y-25.0723
G01 X50.7861 Y-25.0563
G01 X50.7722 Y-25.0436
G01 X50.7561 Y-25.0316
G01 X50.7366 Y-25.0198
G01 X50.7115 Y-25.0087
G01 X50.6922 Y-25.0027
G01 X50.6725 Y-24.9987
G01 X50.6498 Y-24.9964
G01 X50.6223 Y-24.9971
G01 X50.5998 Y-25.0004
G01 X50.5733 Y-25.0078
G01 X50.5523 Y-25.0164
G01 X50.5345 Y-25.0261
G01 X50.5121 Y-25.0419
G01 X50.4961 Y-25.0563
G01 X50.0004 Y-25.5520
G01 X49.0116 Y-25.5520
G01 X49.0031 Y-25.5464
G01 X48.9957 Y-25.5431
G01 X48.9853 Y-25.5405
G01 X48.9772 Y-25.5399
G01 X48.3772 Y-25.5399
G01 X48.3665 Y-25.5410
G01 X48.3562 Y-25.5441
G01 X48.3489 Y-25.5477
G01 X48.3423 Y-25.5524
G01 X48.3364 Y-25.5580
G01 X48.3315 Y-25.5643
G01 X48.3275 Y-25.5714
G01 X48.3246 Y-25.5789
G01 X48.3228 Y-25.5868
G01 X48.3222 Y-25.5949
G01 X48.3221 Y-27.2102
G01 X48.3175 Y-27.2282
G01 X48.3154 Y-27.2407
G01 X48.3133 Y-27.2695
G01 X48.3133 Y-28.9297
G01 X47.0103 Y-28.9297
G01 X46.9889 Y-28.9309
G01 X46.9716 Y-28.9334
G01 X46.9592 Y-28.9362
G01 X46.9425 Y-28.9413
G01 X46.9306 Y-28.9459
G01 X46.9124 Y-28.9546
G01 X46.8975 Y-28.9636
G01 X46.8873 Y-28.9707
G01 X46.8736 Y-28.9820
G01 X46.8643 Y-28.9908
G01 X46.8526 Y-29.0037
G01 X46.8448 Y-29.0137
G01 X46.8351 Y-29.0282
G01 X46.8288 Y-29.0393
G01 X46.8204 Y-29.0574
G01 X46.8145 Y-29.0740
G01 X46.8111 Y-29.0861
G01 X46.8064 Y-29.1134
G01 X46.8052 Y-29.1348
G01 X46.8052 Y-30.0476
G01 X46.8073 Y-30.0764
G01 X46.8094 Y-30.0889
G01 X46.8134 Y-30.1048
G01 X46.8134 Y-32.0001
G01 X46.8145 Y-32.0108
G01 X46.8176 Y-32.0211
G01 X46.8227 Y-32.0307
G01 X46.8295 Y-32.0390
G01 X46.8356 Y-32.0443
G01 X46.8449 Y-32.0498
G01 X46.8550 Y-32.0535
G01 X46.8657 Y-32.0550
G01 X47.1684 Y-32.0551
G01 X47.1765 Y-32.0545
G01 X47.1844 Y-32.0527
G01 X47.1919 Y-32.0498
G01 X47.2012 Y-32.0443
G01 X47.2073 Y-32.0390
G01 X47.2126 Y-32.0329
G01 X47.2181 Y-32.0236
G01 X47.2210 Y-32.0161
G01 X47.2228 Y-32.0082
G01 X47.2234 Y-32.0001
G01 X47.2234 Y-30.0001
G01 X47.2228 Y-29.9920
G01 X47.2210 Y-29.9841
G01 X47.2154 Y-29.9715
G01 X47.2154 Y-29.3399
G01 X48.5271 Y-29.3397
G01 X48.5472 Y-29.3378
G01 X48.5669 Y-29.3340
G01 X48.5862 Y-29.3283
G01 X48.6072 Y-29.3197
G01 X48.6250 Y-29.3100
G01 X48.6414 Y-29.2989
G01 X48.6566 Y-29.2863
G01 X48.6712 Y-29.2715
G01 X48.6839 Y-29.2559
G01 X48.6936 Y-29.2414
G01 X48.6999 Y-29.2303
G01 X48.7083 Y-29.2122
G01 X48.7142 Y-29.1956
G01 X48.7193 Y-29.1761
G01 X48.7214 Y-29.1636
G01 X48.7233 Y-29.1442
G01 X48.7235 Y-27.6499
G01 X48.9772 Y-27.6499
G01 X48.9917 Y-27.6479
G01 X50.1806 Y-27.6479
G01 X50.1806 Y-27.8779
G01 X50.1817 Y-27.8886
G01 X50.1838 Y-27.8964
G01 X50.1871 Y-27.9038
G01 X50.1931 Y-27.9128
G01 X50.1987 Y-27.9187
G01 X50.2050 Y-27.9236
G01 X50.2146 Y-27.9287
G01 X50.2222 Y-27.9313
G01 X50.2302 Y-27.9326
G01 X51.8410 Y-27.9326
G01 X51.8490 Y-27.9313
G01 X51.8591 Y-27.9276
G01 X51.8662 Y-27.9236
G01 X51.8745 Y-27.9168
G01 X51.8798 Y-27.9107
G01 X51.8853 Y-27.9014
G01 X51.8882 Y-27.8939
G01 X51.8903 Y-27.8833
G01 X51.8906 Y-27.2821
G01 X52.0125 Y-27.2821
G01 X53.0943 Y-28.3635
G01 X53.1077 Y-28.3750
G01 X53.1296 Y-28.3912
G01 X53.1576 Y-28.4080
G01 X53.1822 Y-28.4197
G01 X53.1985 Y-28.4260
G01 X53.2248 Y-28.4339
G01 X53.2417 Y-28.4378
G01 X53.2712 Y-28.4420
G01 X53.3002 Y-28.4434
G01 X57.5083 Y-28.4434
G01 X57.5382 Y-28.4418
G01 X57.5652 Y-28.4378
G01 X57.5943 Y-28.4307
G01 X57.6111 Y-28.4251
G01 X57.6385 Y-28.4136
G01 X57.6627 Y-28.4007
G01 X57.6877 Y-28.3842
G01 X57.7016 Y-28.3733
G01 X57.7129 Y-28.3635
G01 X57.7322 Y-28.3442
G01 X57.7513 Y-28.3211
G01 X57.7680 Y-28.2963
G01 X57.7823 Y-28.2698
G01 X57.7947 Y-28.2400
G01 X57.8033 Y-28.2111
G01 X57.8086 Y-28.1844
G01 X57.8105 Y-28.1695
G01 X57.8121 Y-28.1396
G01 X57.8121 Y-20.6048
G01 X58.6499 Y-19.7657
G01 X58.6502 Y-20.0337
G01 X58.6531 Y-20.0468
G01 X58.6564 Y-20.0542
G01 X58.6607 Y-20.0611
G01 X58.6660 Y-20.0672
G01 X58.6721 Y-20.0725
G01 X58.6790 Y-20.0768
G01 X58.6864 Y-20.0801
G01 X58.6942 Y-20.0822
G01 X58.7049 Y-20.0833
G01 X59.4076 Y-20.0832
G01 X59.4156 Y-20.0822
G01 X59.4234 Y-20.0801
G01 X59.4355 Y-20.0740
G01 X59.4457 Y-20.0652
G01 X59.4534 Y-20.0542
G01 X59.4583 Y-20.0417
G01 X59.4599 Y-20.0283
G01 X59.4597 Y-17.8256
G01 X59.4587 Y-17.8176
G01 X59.4566 Y-17.8098
G01 X59.4505 Y-17.7977
G01 X59.4417 Y-17.7875
G01 X59.4307 Y-17.7798
G01 X59.4208 Y-17.7757
G01 X59.4102 Y-17.7736
G01 X59.3599 Y-17.7733
G01 X59.3599 Y-17.3925
G01 X60.8172 Y-15.1026
G01 X61.6496 Y-15.1026
G01 X61.6630 Y-15.1010
G01 X61.6706 Y-15.0984
G01 X61.6779 Y-15.0948
G01 X61.6885 Y-15.0865
G01 X61.6938 Y-15.0804
G01 X61.6981 Y-15.0735
G01 X61.7014 Y-15.0661
G01 X61.7035 Y-15.0583
G01 X61.7046 Y-15.0476
G01 X61.7046 Y-14.8616
G01 X66.8733 Y-14.8616
G01 X66.8966 Y-14.8610
G01 X66.9378 Y-14.8570
G01 X66.9621 Y-14.8528
G01 X67.0022 Y-14.8430
G01 X67.0235 Y-14.8361
G01 X67.0462 Y-14.8275
G01 X67.0837 Y-14.8101
G01 X67.1041 Y-14.7988
G01 X72.2444 Y-11.7752
G01 X72.2927 Y-11.8060
G01 X72.3378 Y-11.8314
G01 X72.3817 Y-11.8536
G01 X72.4314 Y-11.8756
G01 X72.4798 Y-11.8942
G01 X72.5264 Y-11.9096
G01 X72.5789 Y-11.9241
G01 X72.6291 Y-11.9353
G01 X72.6778 Y-11.9438
G01 X72.7318 Y-11.9504
G01 X72.7835 Y-11.9542
G01 X72.8339 Y-11.9554
G01 X72.8870 Y-11.9540
G01 X72.9360 Y-11.9504
G01 X72.9874 Y-11.9442
G01 X73.0410 Y-11.9348
G01 X73.0889 Y-11.9241
G01 X73.1389 Y-11.9103
G01 X73.1906 Y-11.8933
G01 X73.2388 Y-11.8746
G01 X73.2861 Y-11.8536
G01 X73.3324 Y-11.8302
G01 X73.3751 Y-11.8060
G01 X73.4189 Y-11.7783
G01 X73.4634 Y-11.7470
G01 X73.5021 Y-11.7168
G01 X73.5414 Y-11.6830
G01 X73.5808 Y-11.6454
G01 X73.6147 Y-11.6099
G01 X73.6486 Y-11.5707
G01 X73.6821 Y-11.5278
G01 X73.7103 Y-11.4876
G01 X73.7381 Y-11.4439
G01 X73.7637 Y-11.3989
G01 X73.7870 Y-11.3527
G01 X73.8091 Y-11.3029
G01 X73.8277 Y-11.2545
G01 X73.8431 Y-11.2079
G01 X73.8575 Y-11.1557
G01 X73.8688 Y-11.1052
G01 X73.8773 Y-11.0565
G01 X73.8839 Y-11.0025
G01 X73.8875 Y-10.9535
G01 X73.8889 Y-10.9017
G01 X73.8875 Y-10.8473
G01 X73.8839 Y-10.7983
G01 X73.8777 Y-10.7469
G01 X73.8689 Y-10.6959
G01 X73.8582 Y-10.6482
G01 X74.7379 Y-9.7503
G01 X75.2169 Y-9.6368
G01 X75.2543 Y-9.6724
G01 X75.2936 Y-9.7062
G01 X75.3344 Y-9.7380
G01 X75.3768 Y-9.7677
G01 X75.4206 Y-9.7954
G01 X75.4657 Y-9.8208
G01 X75.5096 Y-9.8430
G01 X75.5593 Y-9.8650
G01 X75.6077 Y-9.8836
G01 X75.6568 Y-9.8997
G01 X75.7065 Y-9.9134
G01 X75.7570 Y-9.9247
G01 X75.8083 Y-9.9336
G01 X75.8593 Y-9.9398
G01 X75.9114 Y-9.9436
G01 X75.9618 Y-9.9448
G01 X76.0149 Y-9.9434
G01 X76.0639 Y-9.9398
G01 X76.1153 Y-9.9336
G01 X76.1689 Y-9.9242
G01 X76.2168 Y-9.9135
G01 X76.2668 Y-9.8997
G01 X76.3184 Y-9.8827
G01 X76.3667 Y-9.8640
G01 X76.4116 Y-9.8441
G01 X76.4603 Y-9.8196
G01 X76.5135 Y-9.7888
G01 X78.7399 Y-9.7888
G01 X78.7539 Y-9.7879
G01 X78.7690 Y-9.7847
G01 X78.7811 Y-9.7804
G01 X78.7948 Y-9.7733
G01 X78.8102 Y-9.7619
G01 X80.3977 Y-8.3331
G01 X80.4059 Y-8.3248
G01 X80.4138 Y-8.3147
G01 X80.4193 Y-8.3059
G01 X80.4249 Y-8.2941
G01 X80.4306 Y-8.2745
G01 X80.4324 Y-8.2550
G01 X80.4324 Y-4.0087
G01 X81.6446 Y-2.6450
G01 X85.0464 Y-2.6450
G01 X86.2549 Y-3.8535
G01 X86.2549 Y-7.7788
G01 X86.2558 Y-7.7929
G01 X86.2584 Y-7.8056
G01 X86.2624 Y-7.8177
G01 X86.2679 Y-7.8295
G01 X86.2748 Y-7.8403
G01 X86.2825 Y-7.8498
G01 X86.2922 Y-7.8591
G01 X86.3027 Y-7.8669
G01 X86.3162 Y-7.8743
G01 X86.3307 Y-7.8797
G01 X86.3455 Y-7.8828
G01 X86.3599 Y-7.8838
G01 X89.9062 Y-7.8838
G01 X89.9062 Y-12.8601
G01 X89.9075 Y-12.8755
G01 X89.9119 Y-12.8929
G01 X89.9180 Y-12.9071
G01 X89.9261 Y-12.9203
G01 X89.9369 Y-12.9331
G01 X89.9497 Y-12.9439
G01 X89.9651 Y-12.9531
G01 X89.9794 Y-12.9589
G01 X89.9945 Y-12.9625
G01 X90.0112 Y-12.9638
G01 X91.9200 Y-12.9637
G01 X91.9354 Y-12.9621
G01 X91.9503 Y-12.9581
G01 X91.9645 Y-12.9520
G01 X91.9757 Y-12.9454
G01 X91.9872 Y-12.9362
G01 X91.9982 Y-12.9244
G01 X92.0070 Y-12.9116
G01 X92.0137 Y-12.8977
G01 X92.0194 Y-12.8782
G01 X92.0212 Y-12.8588
G01 X92.0212 Y-7.8838
G01 X98.2675 Y-7.8838
G01 X98.2778 Y-7.8832
G01 X98.2880 Y-7.8815
G01 X98.2979 Y-7.8789
G01 X98.3076 Y-7.8753
G01 X98.3234 Y-7.8669
G01 X98.3318 Y-7.8608
G01 X98.3395 Y-7.8540
G01 X98.3513 Y-7.8403
G01 X98.3570 Y-7.8316
G01 X98.3617 Y-7.8225
G01 X98.3655 Y-7.8129
G01 X98.3684 Y-7.8030
G01 X98.3711 Y-7.7833
G01 X98.3712 Y-0.9525
G01 X98.3699 Y-0.9358
G01 X98.3663 Y-0.9208
G01 X98.3605 Y-0.9064
G01 X98.3513 Y-0.8910
G01 X98.3405 Y-0.8782
G01 X98.3277 Y-0.8674
G01 X98.3145 Y-0.8593
G01 X98.3003 Y-0.8532
G01 X98.2829 Y-0.8488
G01 X98.2662 Y-0.8475
G01 X77.7874 Y-0.8475
G01 X77.7708 Y-0.8488
G01 X77.7510 Y-0.8540
G01 X77.7327 Y-0.8629
G01 X77.7166 Y-0.8749
G01 X77.7042 Y-0.8884
G01 X77.2264 Y-1.5256
G01 X77.2194 Y-1.5364
G01 X77.2129 Y-1.5506
G01 X77.2091 Y-1.5629
G01 X77.2066 Y-1.5780
G01 X77.2062 Y-6.9415
G01 X76.2675 Y-7.8801
G01 X76.2171 Y-7.8662
G01 X76.1666 Y-7.8549
G01 X76.1179 Y-7.8464
G01 X76.0665 Y-7.8400
G01 X76.0149 Y-7.8362
G01 X75.9631 Y-7.8348
G01 X75.9087 Y-7.8362
G01 X75.8597 Y-7.8398
G01 X75.8083 Y-7.8460
G01 X75.7573 Y-7.8548
G01 X75.7068 Y-7.8661
G01 X75.6543 Y-7.8806
G01 X75.6052 Y-7.8969
G01 X75.5569 Y-7.9156
G01 X75.5096 Y-7.9366
G01 X75.4633 Y-7.9600
G01 X75.4185 Y-7.9855
G01 X75.3746 Y-8.0134
G01 X75.3323 Y-8.0432
G01 X75.2915 Y-8.0751
G01 X75.2543 Y-8.1072
G01 X75.2168 Y-8.1429
G01 X75.1810 Y-8.1803
G01 X75.1471 Y-8.2195
G01 X75.1136 Y-8.2624
G01 X75.0839 Y-8.3048
G01 X75.0562 Y-8.3486
G01 X75.0308 Y-8.3937
G01 X75.0075 Y-8.4400
G01 X74.9866 Y-8.4873
G01 X74.9689 Y-8.5331
G01 X74.9613 Y-8.5562
G01 X74.3256 Y-8.7067
G01 X74.2995 Y-8.7136
G01 X74.2698 Y-8.7231
G01 X74.2432 Y-8.7332
G01 X74.2175 Y-8.7444
G01 X74.1918 Y-8.7574
G01 X74.1671 Y-8.7714
G01 X74.1454 Y-8.7851
G01 X74.1222 Y-8.8015
G01 X74.0998 Y-8.8191
G01 X74.0784 Y-8.8377
G01 X74.0574 Y-8.8580
G01 X73.0648 Y-9.8713
G01 X73.0387 Y-9.8655
G01 X72.9900 Y-9.8570
G01 X72.9386 Y-9.8506
G01 X72.8870 Y-9.8468
G01 X72.8326 Y-9.8454
G01 X72.7808 Y-9.8468
G01 X72.7318 Y-9.8504
G01 X72.6804 Y-9.8566
G01 X72.6268 Y-9.8660
G01 X72.5763 Y-9.8774
G01 X72.5264 Y-9.8912
G01 X72.4773 Y-9.9075
G01 X72.4314 Y-9.9252
G01 X72.3817 Y-9.9472
G01 X72.3354 Y-9.9706
G01 X72.2927 Y-9.9948
G01 X72.2489 Y-10.0225
G01 X72.2065 Y-10.0522
G01 X72.1657 Y-10.0840
G01 X72.1249 Y-10.1192
G01 X72.0879 Y-10.1544
G01 X72.0513 Y-10.1929
G01 X72.0192 Y-10.2301
G01 X71.9873 Y-10.2709
G01 X71.9575 Y-10.3132
G01 X71.9297 Y-10.3569
G01 X71.9041 Y-10.4019
G01 X71.8807 Y-10.4482
G01 X71.8587 Y-10.4979
G01 X71.8401 Y-10.5463
G01 X71.8247 Y-10.5929
G01 X71.8109 Y-10.6428
G01 X71.7990 Y-10.6956
G01 X71.7905 Y-10.7443
G01 X71.7839 Y-10.7979
G01 X71.7801 Y-10.8500
G01 X71.7789 Y-10.9017
G01 X71.7801 Y-10.9508
G01 X71.7830 Y-10.9904
G01 X66.7494 Y-13.9512
G01 X61.7046 Y-13.9512
G01 X61.7046 Y-13.4476
G01 X61.7040 Y-13.4395
G01 X61.7014 Y-13.4291
G01 X61.6981 Y-13.4217
G01 X61.6938 Y-13.4148
G01 X61.6845 Y-13.4051
G01 X61.6755 Y-13.3991
G01 X61.6656 Y-13.3950
G01 X61.6523 Y-13.3927
G01 X60.9333 Y-13.3926
G01 X60.3552 Y-12.1685
G01 X60.3552 Y-10.5901
G01 X60.3536 Y-10.5767
G01 X60.3510 Y-10.5691
G01 X60.3474 Y-10.5618
G01 X60.3427 Y-10.5552
G01 X60.3351 Y-10.5476
G01 X60.3285 Y-10.5429
G01 X60.3212 Y-10.5393
G01 X60.3136 Y-10.5367
G01 X60.3056 Y-10.5354
G01 X59.9553 Y-10.5351
G01 X59.9553 Y-7.4884
G01 X60.3183 Y-7.4884
G01 X60.3186 Y-7.5387
G01 X60.3207 Y-7.5493
G01 X60.3248 Y-7.5592
G01 X60.3325 Y-7.5702
G01 X60.3427 Y-7.5790
G01 X60.3498 Y-7.5830
G01 X60.3573 Y-7.5859
G01 X60.3706 Y-7.5882
G01 X62.5733 Y-7.5883
G01 X62.5867 Y-7.5867
G01 X62.5968 Y-7.5830
G01 X62.6039 Y-7.5790
G01 X62.6102 Y-7.5741
G01 X62.6158 Y-7.5682
G01 X62.6218 Y-7.5592
G01 X62.6251 Y-7.5518
G01 X62.6272 Y-7.5440
G01 X62.6282 Y-7.5360
G01 X62.6283 Y-6.8333
G01 X62.6277 Y-6.8252
G01 X62.6251 Y-6.8148
G01 X62.6218 Y-6.8074
G01 X62.6158 Y-6.7984
G01 X62.6102 Y-6.7925
G01 X62.6039 Y-6.7876
G01 X62.5968 Y-6.7836
G01 X62.5893 Y-6.7807
G01 X62.5814 Y-6.7789
G01 X62.5733 Y-6.7783
G01 X60.3706 Y-6.7784
G01 X60.3573 Y-6.7807
G01 X60.3498 Y-6.7836
G01 X60.3427 Y-6.7876
G01 X60.3325 Y-6.7964
G01 X60.3248 Y-6.8074
G01 X60.3207 Y-6.8173
G01 X60.3186 Y-6.8279
G01 X60.3183 Y-6.8782
G01 X59.6502 Y-6.8782
G01 X59.6190 Y-6.8798
G01 X59.5894 Y-6.8843
G01 X59.5603 Y-6.8917
G01 X59.5322 Y-6.9019
G01 X59.5076 Y-6.9136
G01 X59.4818 Y-6.9289
G01 X59.4577 Y-6.9466
G01 X59.4443 Y-6.9581
G01 X59.4232 Y-6.9794
G01 X59.4059 Y-7.0005
G01 X59.3892 Y-7.0253
G01 X59.3750 Y-7.0516
G01 X59.3678 Y-7.0678
G01 X59.3579 Y-7.0958
G01 X59.3507 Y-7.1248
G01 X59.3465 Y-7.1543
G01 X59.3451 Y-7.1820
G01 X59.3451 Y-10.5351
G01 X59.2264 Y-10.5351
G01 X57.2962 Y-8.6048
G01 X57.2959 Y-1.0976
G01 X57.2946 Y-1.0800
G01 X57.2901 Y-1.0504
G01 X57.2835 Y-1.0239
G01 X57.2779 Y-1.0071
G01 X57.2664 Y-0.9797
G01 X57.2535 Y-0.9555
G01 X57.2440 Y-0.9406
G01 X57.2278 Y-0.9187
G01 X57.2163 Y-0.9053
G01 X57.1970 Y-0.8860
G01 X57.1836 Y-0.8745
G01 X57.1595 Y-0.8568
G01 X57.1361 Y-0.8428
G01 X57.1091 Y-0.8298
G01 X57.0928 Y-0.8235
G01 X57.0665 Y-0.8156
G01 X57.0345 Y-0.8092
G01 X57.0074 Y-0.8065
G01 X56.9911 Y-0.8061
G01 X29.5274 Y-0.8061
G01 X29.4979 Y-0.8075
G01 X29.4647 Y-0.8126
G01 X29.4375 Y-0.8196
G01 X29.4205 Y-0.8254
G01 X29.4059 Y-0.8313
G01 X29.3807 Y-0.8437
G01 X29.3521 Y-0.8615
G01 X29.3288 Y-0.8795
G01 X28.9447 Y-1.2088
G01 X27.7662 Y-1.2088
G01 X27.7528 Y-1.2104
G01 X27.7403 Y-1.2153
G01 X27.7293 Y-1.2230
G01 X27.7205 Y-1.2332
G01 X27.7165 Y-1.2403
G01 X27.7136 Y-1.2478
G01 X27.7118 Y-1.2557
G01 X27.7112 Y-1.2638
G01 X27.7112 Y-2.8638
G01 X27.7123 Y-2.8745
G01 X27.7144 Y-2.8823
G01 X27.7177 Y-2.8897
G01 X27.7220 Y-2.8966
G01 X27.7293 Y-2.9046
G01 X27.7356 Y-2.9095
G01 X27.7452 Y-2.9146
G01 X27.7528 Y-2.9172
G01 X27.7608 Y-2.9185
G01 X28.1110 Y-2.9188
G01 X28.1110 Y-3.1063
G01 X28.0746 Y-3.1204
G01 X28.0341 Y-3.1383
G01 X27.9922 Y-3.1593
G01 X27.9514 Y-3.1824
G01 X27.9095 Y-3.2089
G01 X27.8734 Y-3.2343
G01 X27.8364 Y-3.2631
G01 X27.8009 Y-3.2937
G01 X27.7650 Y-3.3279
G01 X27.7345 Y-3.3599
G01 X27.7171 Y-3.3800
G01 X25.0020 Y-3.3816
G01 X24.9962 Y-3.3642
G01 X24.9793 Y-3.3206
G01 X24.9603 Y-3.2778
G01 X24.9404 Y-3.2382
G01 X24.9173 Y-3.1974
G01 X24.8923 Y-3.1578
G01 X24.8637 Y-3.1172
G01 X24.8366 Y-3.0824
G01 X24.8060 Y-3.0469
G01 X24.7718 Y-3.0110
G01 X24.7378 Y-2.9787
G01 X24.7023 Y-2.9481
G01 X24.6675 Y-2.9210
G01 X24.6292 Y-2.8939
G01 X24.5873 Y-2.8674
G01 X24.5465 Y-2.8444
G01 X24.5069 Y-2.8244
G01 X24.4642 Y-2.8054
G01 X24.4205 Y-2.7885
G01 X24.3734 Y-2.7729
G01 X24.3282 Y-2.7605
G01 X24.2825 Y-2.7503
G01 X24.2390 Y-2.7428
G01 X24.1924 Y-2.7369
G01 X24.1430 Y-2.7333
G01 X24.0975 Y-2.7322
G01 X24.0493 Y-2.7334
G01 X24.0026 Y-2.7369
G01 X23.9561 Y-2.7427
G01 X23.9099 Y-2.7508
G01 X23.8642 Y-2.7612
G01 X23.8190 Y-2.7737
G01 X23.7769 Y-2.7876
G01 X23.7333 Y-2.8044
G01 X23.6904 Y-2.8233
G01 X23.6461 Y-2.8456
G01 X23.6054 Y-2.8688
G01 X23.5658 Y-2.8939
G01 X23.5275 Y-2.9210
G01 X23.4906 Y-2.9498
G01 X23.4557 Y-2.9800
G01 X23.4222 Y-3.0119
G01 X23.3908 Y-3.0449
G01 X23.3601 Y-3.0803
G01 X23.3313 Y-3.1172
G01 X23.3042 Y-3.1555
G01 X23.2791 Y-3.1951
G01 X23.2559 Y-3.2358
G01 X23.2347 Y-3.2778
G01 X23.2157 Y-3.3205
G01 X23.1988 Y-3.3642
G01 X23.1840 Y-3.4087
G01 X23.1715 Y-3.4538
G01 X23.1611 Y-3.4996
G01 X23.1531 Y-3.5457
G01 X23.1472 Y-3.5923
G01 X23.1436 Y-3.6417
G00 Z3.0000
G00 X23.1436 Y-6.1817
G01 F80.00
G01 Z-0.0700
G01 F50.00
G01 X23.1425 Y-6.2272
G01 X23.1436 Y-6.2727
G01 X23.1470 Y-6.3195
G01 X23.1527 Y-6.3660
G01 X23.1611 Y-6.4148
G01 X23.1715 Y-6.4605
G01 X23.1840 Y-6.5057
G01 X23.1988 Y-6.5502
G01 X23.2157 Y-6.5938
G01 X23.2347 Y-6.6366
G01 X23.2546 Y-6.6762
G01 X23.2777 Y-6.7170
G01 X23.3027 Y-6.7566
G01 X23.3313 Y-6.7972
G01 X23.3601 Y-6.8341
G01 X23.3903 Y-6.8690
G01 X23.4222 Y-6.9025
G01 X23.4552 Y-6.9339
G01 X23.4906 Y-6.9646
G01 X23.5275 Y-6.9934
G01 X23.5658 Y-7.0205
G01 X23.6054 Y-7.0456
G01 X23.6461 Y-7.0688
G01 X23.6880 Y-7.0899
G01 X23.7333 Y-7.1100
G01 X23.7769 Y-7.1268
G01 X23.8216 Y-7.1415
G01 X23.8668 Y-7.1539
G01 X23.9099 Y-7.1636
G01 X23.9587 Y-7.1720
G01 X24.0052 Y-7.1777
G01 X24.0520 Y-7.1811
G01 X24.0975 Y-7.1822
G01 X24.1457 Y-7.1810
G01 X24.1924 Y-7.1775
G01 X24.2389 Y-7.1717
G01 X24.2851 Y-7.1636
G01 X24.3308 Y-7.1532
G01 X24.3760 Y-7.1407
G01 X24.4181 Y-7.1268
G01 X24.4641 Y-7.1090
G01 X24.5069 Y-7.0900
G01 X24.5465 Y-7.0701
G01 X24.5873 Y-7.0470
G01 X24.6269 Y-7.0220
G01 X24.6653 Y-6.9951
G01 X24.7023 Y-6.9663
G01 X24.7378 Y-6.9357
G01 X24.7737 Y-6.9015
G01 X24.8060 Y-6.8675
G01 X24.8366 Y-6.8320
G01 X24.8637 Y-6.7972
G01 X24.8908 Y-6.7589
G01 X24.9159 Y-6.7193
G01 X24.9391 Y-6.6786
G01 X24.9603 Y-6.6366
G01 X24.9793 Y-6.5939
G01 X24.9962 Y-6.5502
G01 X25.0023 Y-6.5318
G01 X25.5551 Y-6.5315
G01 X25.5551 Y-6.6798
G01 X25.5567 Y-6.6932
G01 X25.5593 Y-6.7008
G01 X25.5629 Y-6.7081
G01 X25.5676 Y-6.7147
G01 X25.5732 Y-6.7206
G01 X25.5795 Y-6.7255
G01 X25.5866 Y-6.7295
G01 X25.5967 Y-6.7332
G01 X25.6047 Y-6.7345
G01 X27.0101 Y-6.7348
G01 X27.0208 Y-6.7337
G01 X27.0286 Y-6.7316
G01 X27.0360 Y-6.7283
G01 X27.0450 Y-6.7223
G01 X27.0509 Y-6.7167
G01 X27.0573 Y-6.7081
G01 X27.0609 Y-6.7008
G01 X27.0635 Y-6.6932
G01 X27.0651 Y-6.6798
G01 X27.0651 Y-6.5306
G01 X27.4862 Y-6.5304
G01 X27.4863 Y-7.4449
G01 X27.4886 Y-7.4582
G01 X27.4940 Y-7.4705
G01 X27.5023 Y-7.4811
G01 X27.5084 Y-7.4864
G01 X27.5153 Y-7.4907
G01 X27.5278 Y-7.4956
G01 X27.5412 Y-7.4972
G01 X29.3412 Y-7.4972
G01 X29.3519 Y-7.4961
G01 X29.3597 Y-7.4940
G01 X29.3671 Y-7.4907
G01 X29.3761 Y-7.4847
G01 X29.3820 Y-7.4791
G01 X29.3869 Y-7.4728
G01 X29.3909 Y-7.4657
G01 X29.3938 Y-7.4582
G01 X29.3956 Y-7.4503
G01 X29.3962 Y-7.4422
G01 X29.3962 Y-5.8065
G01 X29.7694 Y-5.4334
G01 X31.5911 Y-5.4334
G01 X31.6125 Y-5.4319
G01 X31.6348 Y-5.4270
G01 X31.6516 Y-5.4210
G01 X31.6696 Y-5.4120
G01 X31.6843 Y-5.4022
G01 X31.6998 Y-5.3889
G01 X32.3754 Y-4.7132
G01 X32.3848 Y-4.7030
G01 X32.3940 Y-4.6909
G01 X32.4054 Y-4.6710
G01 X32.4138 Y-4.6499
G01 X32.4190 Y-4.6277
G01 X32.4208 Y-4.6049
G01 X32.4209 Y-2.8422
G01 X32.6872 Y-2.5759
G01 X43.5125 Y-2.5759
G01 X43.9340 Y-2.9972
G01 X43.9255 Y-3.3922
G01 X43.7206 Y-3.5969
G01 X43.7142 Y-3.6055
G01 X43.7106 Y-3.6128
G01 X43.7075 Y-3.6231
G01 X43.7065 Y-3.6311
G01 X43.7067 Y-4.7392
G01 X43.7080 Y-4.7472
G01 X43.7117 Y-4.7573
G01 X43.7172 Y-4.7666
G01 X43.7225 Y-4.7727
G01 X43.8245 Y-4.8746
G01 X43.8308 Y-4.8795
G01 X43.8379 Y-4.8835
G01 X43.8480 Y-4.8872
G01 X43.8560 Y-4.8885
G01 X44.2614 Y-4.8888
G01 X44.2748 Y-4.8872
G01 X44.2873 Y-4.8823
G01 X44.2942 Y-4.8780
G01 X44.3003 Y-4.8727
G01 X44.4003 Y-4.7727
G01 X44.4056 Y-4.7666
G01 X44.4111 Y-4.7573
G01 X44.4148 Y-4.7472
G01 X44.4164 Y-4.7338
G01 X44.4161 Y-3.6284
G01 X44.4148 Y-3.6204
G01 X44.4122 Y-3.6128
G01 X44.4086 Y-3.6055
G01 X44.4022 Y-3.5969
G01 X44.2348 Y-3.4295
G01 X44.2454 Y-2.9313
G01 X44.2439 Y-2.9130
G01 X44.2397 Y-2.8927
G01 X44.2337 Y-2.8753
G01 X44.2232 Y-2.8544
G01 X44.2114 Y-2.8374
G01 X44.2000 Y-2.8248
G01 X43.6818 Y-2.3068
G01 X43.6639 Y-2.2926
G01 X43.6552 Y-2.2871
G01 X43.6418 Y-2.2801
G01 X43.6204 Y-2.2720
G01 X43.6083 Y-2.2690
G01 X43.5932 Y-2.2666
G01 X43.5767 Y-2.2657
G01 X32.6230 Y-2.2657
G01 X32.6065 Y-2.2666
G01 X32.5915 Y-2.2690
G01 X32.5793 Y-2.2721
G01 X32.5556 Y-2.2812
G01 X32.5357 Y-2.2926
G01 X32.5257 Y-2.3001
G01 X32.5143 Y-2.3102
G01 X32.1518 Y-2.6729
G01 X32.1376 Y-2.6907
G01 X32.1284 Y-2.7061
G01 X32.1194 Y-2.7269
G01 X32.1140 Y-2.7464
G01 X32.1116 Y-2.7615
G01 X32.1107 Y-2.7780
G01 X32.1107 Y-4.5394
G01 X31.5269 Y-5.1232
G01 X29.7052 Y-5.1232
G01 X29.6913 Y-5.1239
G01 X29.6763 Y-5.1260
G01 X29.6542 Y-5.1319
G01 X29.6377 Y-5.1387
G01 X29.6182 Y-5.1500
G01 X29.6006 Y-5.1639
G01 X29.1770 Y-5.5872
G01 X27.5412 Y-5.5872
G01 X27.5305 Y-5.5883
G01 X27.5227 Y-5.5904
G01 X27.5153 Y-5.5937
G01 X27.5084 Y-5.5980
G01 X27.5023 Y-5.6033
G01 X27.4970 Y-5.6094
G01 X27.4927 Y-5.6163
G01 X27.4894 Y-5.6237
G01 X27.4865 Y-5.6368
G01 X27.4862 Y-5.9201
G01 X27.0651 Y-5.9204
G01 X27.0648 Y-5.3744
G01 X27.0635 Y-5.3664
G01 X27.0609 Y-5.3588
G01 X27.0573 Y-5.3515
G01 X27.0509 Y-5.3429
G01 X27.0450 Y-5.3373
G01 X27.0360 Y-5.3313
G01 X27.0286 Y-5.3280
G01 X27.0208 Y-5.3259
G01 X27.0101 Y-5.3248
G01 X25.6101 Y-5.3248
G01 X25.6020 Y-5.3254
G01 X25.5941 Y-5.3272
G01 X25.5866 Y-5.3301
G01 X25.5795 Y-5.3341
G01 X25.5712 Y-5.3409
G01 X25.5659 Y-5.3470
G01 X25.5616 Y-5.3539
G01 X25.5583 Y-5.3613
G01 X25.5562 Y-5.3691
G01 X25.5552 Y-5.3771
G01 X25.5551 Y-5.9212
G01 X25.0020 Y-5.9216
G01 X24.9962 Y-5.9042
G01 X24.9793 Y-5.8606
G01 X24.9603 Y-5.8178
G01 X24.9391 Y-5.7758
G01 X24.9159 Y-5.7351
G01 X24.8908 Y-5.6955
G01 X24.8654 Y-5.6594
G01 X24.8366 Y-5.6224
G01 X24.8047 Y-5.5854
G01 X24.7737 Y-5.5529
G01 X24.7378 Y-5.5187
G01 X24.7044 Y-5.4898
G01 X24.6675 Y-5.4610
G01 X24.6292 Y-5.4339
G01 X24.5896 Y-5.4088
G01 X24.5489 Y-5.3856
G01 X24.5070 Y-5.3645
G01 X24.4617 Y-5.3444
G01 X24.4181 Y-5.3276
G01 X24.3734 Y-5.3129
G01 X24.3282 Y-5.3005
G01 X24.2851 Y-5.2908
G01 X24.2363 Y-5.2824
G01 X24.1898 Y-5.2767
G01 X24.1430 Y-5.2733
G01 X24.0975 Y-5.2722
G01 X24.0520 Y-5.2733
G01 X24.0052 Y-5.2767
G01 X23.9587 Y-5.2824
G01 X23.9125 Y-5.2903
G01 X23.8668 Y-5.3005
G01 X23.8216 Y-5.3129
G01 X23.7770 Y-5.3276
G01 X23.7333 Y-5.3444
G01 X23.6904 Y-5.3633
G01 X23.6461 Y-5.3856
G01 X23.6054 Y-5.4088
G01 X23.5658 Y-5.4339
G01 X23.5297 Y-5.4593
G01 X23.4927 Y-5.4881
G01 X23.4572 Y-5.5187
G01 X23.4232 Y-5.5510
G01 X23.3890 Y-5.5869
G01 X23.3601 Y-5.6203
G01 X23.3313 Y-5.6572
G01 X23.3042 Y-5.6955
G01 X23.2791 Y-5.7351
G01 X23.2559 Y-5.7758
G01 X23.2348 Y-5.8177
G01 X23.2147 Y-5.8630
G01 X23.1979 Y-5.9066
G01 X23.1832 Y-5.9513
G01 X23.1708 Y-5.9965
G01 X23.1611 Y-6.0396
G01 X23.1531 Y-6.0857
G01 X23.1472 Y-6.1323
G01 X23.1436 Y-6.1817
G00 Z3.0000
G00 X23.7425 Y-7.7222
G01 F80.00
G01 Z-0.0700
G01 F50.00
G01 X23.0525 Y-7.7222
G01 X23.0525 Y-8.4122
G01 X23.1425 Y-8.4122
G01 X23.1426 Y-7.8645
G01 X23.1441 Y-7.8538
G01 X23.1467 Y-7.8462
G01 X23.1518 Y-7.8366
G01 X23.1586 Y-7.8283
G01 X23.1669 Y-7.8215
G01 X23.1740 Y-7.8175
G01 X23.1841 Y-7.8138
G01 X23.1948 Y-7.8123
G01 X23.7425 Y-7.8122
G01 X23.7425 Y-7.7222
G00 Z3.0000
G00 X25.1425 Y-8.4122
G01 F80.00
G01 Z-0.0700
G01 F50.00
G01 X25.1425 Y-7.7222
G01 X24.4525 Y-7.7222
G01 X24.4525 Y-7.8122
G01 X25.0002 Y-7.8123
G01 X25.0109 Y-7.8138
G01 X25.0210 Y-7.8175
G01 X25.0281 Y-7.8215
G01 X25.0364 Y-7.8283
G01 X25.0432 Y-7.8366
G01 X25.0483 Y-7.8462
G01 X25.0509 Y-7.8538
G01 X25.0524 Y-7.8645
G01 X25.0525 Y-8.4122
G01 X25.1425 Y-8.4122
G00 Z3.0000
G00 X24.4525 Y-9.8122
G01 F80.00
G01 Z-0.0700
G01 F50.00
G01 X25.1425 Y-9.8122
G01 X25.1425 Y-9.1222
G01 X25.0525 Y-9.1222
G01 X25.0524 Y-9.6699
G01 X25.0514 Y-9.6779
G01 X25.0483 Y-9.6882
G01 X25.0432 Y-9.6978
G01 X25.0364 Y-9.7061
G01 X25.0303 Y-9.7114
G01 X25.0210 Y-9.7169
G01 X25.0109 Y-9.7206
G01 X25.0002 Y-9.7221
G01 X24.4525 Y-9.7222
G01 X24.4525 Y-9.8122
G00 Z3.0000
G00 X23.0525 Y-9.8122
G01 F80.00
G01 Z-0.0700
G01 F50.00
G01 X23.7425 Y-9.8122
G01 X23.7425 Y-9.7222
G01 X23.1975 Y-9.7222
G01 X23.1868 Y-9.7211
G01 X23.1765 Y-9.7180
G01 X23.1692 Y-9.7144
G01 X23.1606 Y-9.7080
G01 X23.1533 Y-9.7000
G01 X23.1478 Y-9.6907
G01 X23.1441 Y-9.6806
G01 X23.1426 Y-9.6699
G01 X23.1425 Y-9.1222
G01 X23.0525 Y-9.1222
G01 X23.0525 Y-9.8122
G00 Z3.0000
G00 X25.1813 Y-12.0261
G01 F80.00
G01 Z-0.0700
G01 F50.00
G01 X26.4813 Y-12.0261
G01 X26.4947 Y-12.0245
G01 X26.5023 Y-12.0219
G01 X26.5096 Y-12.0183
G01 X26.5162 Y-12.0136
G01 X26.5221 Y-12.0080
G01 X26.5285 Y-11.9994
G01 X26.5321 Y-11.9921
G01 X26.5347 Y-11.9845
G01 X26.5360 Y-11.9765
G01 X26.5363 Y-11.4763
G01 X27.2234 Y-11.4763
G01 X30.0216 Y-14.1191
G01 X30.0304 Y-14.1269
G01 X30.0446 Y-14.1378
G01 X30.0645 Y-14.1502
G01 X30.0902 Y-14.1619
G01 X30.1026 Y-14.1661
G01 X30.1199 Y-14.1706
G01 X30.1427 Y-14.1741
G01 X30.1624 Y-14.1751
G01 X35.0931 Y-14.1748
G01 X35.1148 Y-14.1727
G01 X35.1376 Y-14.1678
G01 X38.6037 Y-13.2226
G01 X40.7986 Y-13.2226
G01 X40.8174 Y-13.2217
G01 X40.8373 Y-13.2189
G01 X40.8497 Y-13.2161
G01 X40.8690 Y-13.2101
G01 X40.8941 Y-13.1990
G01 X40.9114 Y-13.1887
G01 X40.9294 Y-13.1754
G01 X40.9436 Y-13.1625
G01 X42.4173 Y-11.6888
G01 X43.0614 Y-11.6888
G01 X43.0721 Y-11.6877
G01 X43.0824 Y-11.6846
G01 X43.0897 Y-11.6810
G01 X43.0983 Y-11.6746
G01 X43.2022 Y-11.5707
G01 X43.2071 Y-11.5644
G01 X43.2111 Y-11.5573
G01 X43.2153 Y-11.5445
G01 X43.2164 Y-11.5338
G01 X43.2163 Y-11.1311
G01 X43.2153 Y-11.1231
G01 X43.2122 Y-11.1128
G01 X43.2071 Y-11.1032
G01 X43.2003 Y-11.0949
G01 X43.0983 Y-10.9930
G01 X43.0897 Y-10.9866
G01 X43.0824 Y-10.9830
G01 X43.0748 Y-10.9804
G01 X43.0668 Y-10.9791
G01 X41.9614 Y-10.9788
G01 X41.9533 Y-10.9794
G01 X41.9454 Y-10.9812
G01 X41.9379 Y-10.9841
G01 X41.9308 Y-10.9881
G01 X41.9225 Y-10.9949
G01 X41.7206 Y-11.1969
G01 X41.7142 Y-11.2055
G01 X41.7106 Y-11.2128
G01 X41.7075 Y-11.2231
G01 X41.7065 Y-11.2311
G01 X41.7064 Y-11.4338
G01 X41.7075 Y-11.4445
G01 X41.7117 Y-11.4573
G01 X41.7172 Y-11.4666
G01 X41.7225 Y-11.4727
G01 X41.8879 Y-11.6381
G01 X40.7137 Y-12.8124
G01 X38.5762 Y-12.8124
G01 X38.5559 Y-12.8135
G01 X38.5425 Y-12.8152
G01 X38.5222 Y-12.8197
G01 X35.0561 Y-13.7649
G01 X30.2439 Y-13.7649
G01 X27.4457 Y-11.1221
G01 X27.4369 Y-11.1143
G01 X27.4227 Y-11.1034
G01 X27.4028 Y-11.0910
G01 X27.3867 Y-11.0832
G01 X27.3745 Y-11.0783
G01 X27.3574 Y-11.0730
G01 X27.3446 Y-11.0700
G01 X27.3269 Y-11.0673
G01 X27.3145 Y-11.0664
G01 X26.5363 Y-11.0661
G01 X26.5360 Y-10.5657
G01 X26.5347 Y-10.5577
G01 X26.5321 Y-10.5501
G01 X26.5285 Y-10.5428
G01 X26.5221 Y-10.5342
G01 X26.5162 Y-10.5286
G01 X26.5096 Y-10.5239
G01 X26.4998 Y-10.5193
G01 X26.4920 Y-10.5172
G01 X26.4813 Y-10.5161
G01 X25.1813 Y-10.5161
G01 X25.1679 Y-10.5177
G01 X25.1578 Y-10.5214
G01 X25.1485 Y-10.5269
G01 X25.1405 Y-10.5342
G01 X25.1341 Y-10.5428
G01 X25.1305 Y-10.5501
G01 X25.1274 Y-10.5604
G01 X25.1263 Y-10.5711
G01 X25.1264 Y-11.9738
G01 X25.1274 Y-11.9818
G01 X25.1305 Y-11.9921
G01 X25.1356 Y-12.0017
G01 X25.1424 Y-12.0100
G01 X25.1507 Y-12.0168
G01 X25.1603 Y-12.0219
G01 X25.1706 Y-12.0250
G01 X25.1813 Y-12.0261
G00 Z3.0000
G00 X25.0449 Y-13.4924
G01 F80.00
G01 Z-0.0700
G01 F50.00
G01 X25.0455 Y-13.4844
G01 X25.0482 Y-13.4739
G01 X25.0514 Y-13.4665
G01 X25.0558 Y-13.4597
G01 X25.0611 Y-13.4536
G01 X25.0672 Y-13.4483
G01 X25.0740 Y-13.4439
G01 X25.0814 Y-13.4407
G01 X25.0892 Y-13.4385
G01 X25.0999 Y-13.4374
G01 X25.3050 Y-13.4374
G01 X25.3120 Y-13.4368
G01 X25.3196 Y-13.4343
G01 X25.3251 Y-13.4310
G01 X25.3298 Y-13.4267
G01 X25.3336 Y-13.4216
G01 X25.3368 Y-13.4143
G01 X25.3381 Y-13.4081
G01 X25.3381 Y-13.4017
G01 X25.3363 Y-13.3939
G01 X25.3318 Y-13.3855
G01 X25.3251 Y-13.3788
G01 X25.3167 Y-13.3743
G01 X25.3073 Y-13.3724
G01 X24.7197 Y-13.3724
G01 X24.7096 Y-13.3738
G01 X24.6996 Y-13.3788
G01 X24.6920 Y-13.3868
G01 X24.6874 Y-13.3970
G01 X24.6865 Y-13.4033
G01 X24.6868 Y-13.4097
G01 X24.6884 Y-13.4159
G01 X24.6911 Y-13.4216
G01 X24.6949 Y-13.4267
G01 X24.6996 Y-13.4310
G01 X24.7051 Y-13.4343
G01 X24.7111 Y-13.4365
G01 X24.7197 Y-13.4374
G01 X24.9249 Y-13.4374
G01 X24.9329 Y-13.4380
G01 X24.9408 Y-13.4398
G01 X24.9484 Y-13.4427
G01 X24.9597 Y-13.4499
G01 X24.9656 Y-13.4555
G01 X24.9706 Y-13.4619
G01 X24.9746 Y-13.4689
G01 X24.9775 Y-13.4765
G01 X24.9793 Y-13.4844
G01 X24.9799 Y-13.4924
G01 X24.9799 Y-14.3843
G01 X24.9808 Y-14.3906
G01 X24.9830 Y-14.3966
G01 X24.9894 Y-14.4057
G01 X24.9985 Y-14.4121
G01 X25.0045 Y-14.4143
G01 X25.0108 Y-14.4152
G01 X25.0172 Y-14.4149
G01 X25.0234 Y-14.4133
G01 X25.0291 Y-14.4106
G01 X25.0342 Y-14.4068
G01 X25.0385 Y-14.4021
G01 X25.0418 Y-14.3966
G01 X25.0440 Y-14.3906
G01 X25.0449 Y-14.3843
G01 X25.0449 Y-13.4924
G00 Z3.0000
G00 X24.3761 Y-13.9224
G01 F80.00
G01 Z-0.0700
G01 F50.00
G01 X24.1683 Y-13.9223
G01 X24.1577 Y-13.9207
G01 X24.1500 Y-13.9182
G01 X24.1428 Y-13.9145
G01 X24.1362 Y-13.9099
G01 X24.1285 Y-13.9022
G01 X24.1225 Y-13.8933
G01 X24.1184 Y-13.8833
G01 X24.1163 Y-13.8727
G01 X24.1160 Y-13.7111
G01 X24.1151 Y-13.7025
G01 X24.1105 Y-13.6923
G01 X24.1029 Y-13.6843
G01 X24.0929 Y-13.6793
G01 X24.0819 Y-13.6779
G01 X24.0725 Y-13.6798
G01 X24.0629 Y-13.6853
G01 X24.0556 Y-13.6937
G01 X24.0516 Y-13.7041
G01 X24.0510 Y-13.7111
G01 X24.0507 Y-13.8727
G01 X24.0486 Y-13.8833
G01 X24.0445 Y-13.8933
G01 X24.0385 Y-13.9022
G01 X24.0308 Y-13.9099
G01 X24.0242 Y-13.9145
G01 X24.0145 Y-13.9191
G01 X24.0067 Y-13.9213
G01 X23.9987 Y-13.9223
G01 X23.7853 Y-13.9227
G01 X23.7791 Y-13.9243
G01 X23.7734 Y-13.9270
G01 X23.7650 Y-13.9343
G01 X23.7595 Y-13.9439
G01 X23.7579 Y-13.9501
G01 X23.7576 Y-13.9565
G01 X23.7600 Y-13.9673
G01 X23.7660 Y-13.9767
G01 X23.7748 Y-13.9836
G01 X23.7853 Y-13.9871
G01 X23.9987 Y-13.9875
G01 X24.0067 Y-13.9885
G01 X24.0145 Y-13.9907
G01 X24.0242 Y-13.9953
G01 X24.0308 Y-13.9999
G01 X24.0385 Y-14.0076
G01 X24.0445 Y-14.0165
G01 X24.0486 Y-14.0265
G01 X24.0507 Y-14.0371
G01 X24.0510 Y-14.1986
G01 X24.0519 Y-14.2072
G01 X24.0565 Y-14.2174
G01 X24.0641 Y-14.2254
G01 X24.0741 Y-14.2304
G01 X24.0851 Y-14.2318
G01 X24.0945 Y-14.2299
G01 X24.1041 Y-14.2244
G01 X24.1114 Y-14.2160
G01 X24.1154 Y-14.2056
G01 X24.1160 Y-14.1986
G01 X24.1163 Y-14.0371
G01 X24.1177 Y-14.0291
G01 X24.1202 Y-14.0214
G01 X24.1239 Y-14.0142
G01 X24.1303 Y-14.0055
G01 X24.1383 Y-13.9983
G01 X24.1475 Y-13.9927
G01 X24.1577 Y-13.9891
G01 X24.1657 Y-13.9877
G01 X24.3761 Y-13.9874
G01 X24.3816 Y-13.9871
G01 X24.3878 Y-13.9855
G01 X24.3974 Y-13.9800
G01 X24.4047 Y-13.9716
G01 X24.4087 Y-13.9612
G01 X24.4093 Y-13.9549
G01 X24.4087 Y-13.9486
G01 X24.4047 Y-13.9382
G01 X24.3974 Y-13.9298
G01 X24.3878 Y-13.9243
G01 X24.3816 Y-13.9227
G01 X24.3761 Y-13.9224
G00 Z3.0000
G00 X26.4069 Y-14.3626
G01 F80.00
G01 Z-0.0700
G01 F50.00
G01 X26.0800 Y-13.9268
G01 X26.0744 Y-13.9175
G01 X26.0714 Y-13.9099
G01 X26.0696 Y-13.9019
G01 X26.0690 Y-13.8938
G01 X26.0696 Y-13.8857
G01 X26.0714 Y-13.8777
G01 X26.0744 Y-13.8701
G01 X26.0800 Y-13.8608
G01 X26.4082 Y-13.4231
G01 X26.4124 Y-13.4145
G01 X26.4138 Y-13.4035
G01 X26.4114 Y-13.3926
G01 X26.4066 Y-13.3844
G01 X26.4008 Y-13.3789
G01 X26.3954 Y-13.3756
G01 X26.3878 Y-13.3730
G01 X26.3815 Y-13.3724
G01 X26.3751 Y-13.3730
G01 X26.3690 Y-13.3748
G01 X26.3621 Y-13.3787
G01 X26.3573 Y-13.3829
G01 X26.0569 Y-13.7830
G01 X26.0472 Y-13.7922
G01 X26.0380 Y-13.7977
G01 X26.0279 Y-13.8013
G01 X26.0146 Y-13.8029
G01 X26.0013 Y-13.8013
G01 X25.9912 Y-13.7977
G01 X25.9820 Y-13.7922
G01 X25.9723 Y-13.7830
G01 X25.6719 Y-13.3829
G01 X25.6671 Y-13.3787
G01 X25.6616 Y-13.3754
G01 X25.6509 Y-13.3725
G01 X25.6445 Y-13.3725
G01 X25.6383 Y-13.3738
G01 X25.6324 Y-13.3763
G01 X25.6271 Y-13.3799
G01 X25.6226 Y-13.3844
G01 X25.6191 Y-13.3897
G01 X25.6157 Y-13.4003
G01 X25.6160 Y-13.4114
G01 X25.6179 Y-13.4175
G01 X25.6210 Y-13.4231
G01 X25.9492 Y-13.8608
G01 X25.9548 Y-13.8701
G01 X25.9578 Y-13.8777
G01 X25.9596 Y-13.8857
G01 X25.9602 Y-13.8938
G01 X25.9596 Y-13.9019
G01 X25.9578 Y-13.9099
G01 X25.9548 Y-13.9175
G01 X25.9492 Y-13.9268
G01 X25.6210 Y-14.3645
G01 X25.6168 Y-14.3731
G01 X25.6154 Y-14.3841
G01 X25.6178 Y-14.3950
G01 X25.6226 Y-14.4032
G01 X25.6284 Y-14.4087
G01 X25.6338 Y-14.4120
G01 X25.6414 Y-14.4146
G01 X25.6477 Y-14.4152
G01 X25.6541 Y-14.4146
G01 X25.6602 Y-14.4128
G01 X25.6671 Y-14.4089
G01 X25.6719 Y-14.4047
G01 X25.9723 Y-14.0046
G01 X25.9820 Y-13.9954
G01 X25.9912 Y-13.9899
G01 X26.0013 Y-13.9863
G01 X26.0119 Y-13.9848
G01 X26.0253 Y-13.9857
G01 X26.0380 Y-13.9899
G01 X26.0472 Y-13.9954
G01 X26.0569 Y-14.0046
G01 X26.3584 Y-14.4058
G01 X26.3634 Y-14.4098
G01 X26.3690 Y-14.4128
G01 X26.3799 Y-14.4152
G01 X26.3862 Y-14.4148
G01 X26.3924 Y-14.4133
G01 X26.3982 Y-14.4105
G01 X26.4033 Y-14.4067
G01 X26.4075 Y-14.4019
G01 X26.4108 Y-14.3964
G01 X26.4137 Y-14.3857
G01 X26.4137 Y-14.3793
G01 X26.4124 Y-14.3731
G01 X26.4099 Y-14.3672
G01 X26.4069 Y-14.3626
G00 Z3.0000
G00 X26.8531 Y-14.5221
G01 F80.00
G01 Z-0.0700
G01 F50.00
G01 X26.8518 Y-14.5725
G01 X26.8532 Y-14.6257
G01 X26.8570 Y-14.6773
G01 X26.8634 Y-14.7287
G01 X26.8724 Y-14.7798
G01 X26.8838 Y-14.8303
G01 X26.8977 Y-14.8802
G01 X26.9140 Y-14.9293
G01 X26.9327 Y-14.9776
G01 X26.9537 Y-15.0249
G01 X26.9758 Y-15.0689
G01 X27.0013 Y-15.1140
G01 X27.0290 Y-15.1578
G01 X27.0587 Y-15.2002
G01 X27.0906 Y-15.2411
G01 X27.1244 Y-15.2803
G01 X27.1610 Y-15.3189
G01 X28.5753 Y-16.7331
G01 X28.6118 Y-16.7679
G01 X28.6510 Y-16.8018
G01 X28.6918 Y-16.8337
G01 X28.7341 Y-16.8636
G01 X28.7802 Y-16.8927
G01 X28.8253 Y-16.9182
G01 X28.8693 Y-16.9404
G01 X28.9165 Y-16.9613
G01 X28.9648 Y-16.9800
G01 X29.0140 Y-16.9964
G01 X29.0665 Y-17.0109
G01 X29.1170 Y-17.0222
G01 X29.1681 Y-17.0310
G01 X29.2168 Y-17.0370
G01 X29.2685 Y-17.0408
G01 X29.3230 Y-17.0422
G01 X29.3721 Y-17.0410
G01 X29.4237 Y-17.0372
G01 X29.4752 Y-17.0310
G01 X29.5289 Y-17.0216
G01 X29.5768 Y-17.0109
G01 X29.6267 Y-16.9971
G01 X29.6784 Y-16.9800
G01 X29.7268 Y-16.9613
G01 X29.7740 Y-16.9403
G01 X29.8180 Y-16.9182
G01 X29.8654 Y-16.8913
G01 X29.9069 Y-16.8650
G01 X29.9493 Y-16.8353
G01 X29.9902 Y-16.8034
G01 X30.0314 Y-16.7678
G01 X30.0670 Y-16.7340
G01 X30.1028 Y-16.6965
G01 X30.1367 Y-16.6573
G01 X30.1702 Y-16.6143
G01 X30.1985 Y-16.5742
G01 X30.2262 Y-16.5305
G01 X30.2518 Y-16.4854
G01 X30.2763 Y-16.4367
G01 X30.2973 Y-16.3893
G01 X30.3159 Y-16.3410
G01 X30.3313 Y-16.2943
G01 X30.3458 Y-16.2418
G01 X30.3565 Y-16.1939
G01 X30.3655 Y-16.1429
G01 X30.3719 Y-16.0915
G01 X30.3759 Y-16.0371
G01 X30.3771 Y-15.9853
G01 X30.3759 Y-15.9362
G01 X30.3721 Y-15.8846
G01 X30.3655 Y-15.8305
G01 X30.3571 Y-15.7821
G01 X30.3505 Y-15.7528
G01 X30.9157 Y-15.7911
G01 X30.9160 Y-16.2921
G01 X30.9173 Y-16.3001
G01 X30.9199 Y-16.3077
G01 X30.9235 Y-16.3150
G01 X30.9299 Y-16.3236
G01 X30.9358 Y-16.3292
G01 X30.9424 Y-16.3339
G01 X30.9497 Y-16.3375
G01 X30.9573 Y-16.3401
G01 X30.9707 Y-16.3417
G01 X32.3734 Y-16.3416
G01 X32.3814 Y-16.3406
G01 X32.3892 Y-16.3385
G01 X32.3966 Y-16.3352
G01 X32.4035 Y-16.3309
G01 X32.4096 Y-16.3256
G01 X32.4149 Y-16.3195
G01 X32.4204 Y-16.3102
G01 X32.4233 Y-16.3027
G01 X32.4251 Y-16.2948
G01 X32.4257 Y-16.2867
G01 X32.4257 Y-14.9867
G01 X32.4241 Y-14.9733
G01 X32.4192 Y-14.9608
G01 X32.4115 Y-14.9498
G01 X32.4013 Y-14.9410
G01 X32.3942 Y-14.9370
G01 X32.3867 Y-14.9341
G01 X32.3788 Y-14.9323
G01 X32.3707 Y-14.9317
G01 X30.9707 Y-14.9317
G01 X30.9626 Y-14.9323
G01 X30.9547 Y-14.9341
G01 X30.9472 Y-14.9370
G01 X30.9379 Y-14.9425
G01 X30.9318 Y-14.9478
G01 X30.9265 Y-14.9539
G01 X30.9210 Y-14.9632
G01 X30.9173 Y-14.9733
G01 X30.9160 Y-14.9813
G01 X30.9157 Y-15.3800
G01 X30.1459 Y-15.3278
G01 X30.1366 Y-15.3160
G01 X30.1045 Y-15.2789
G01 X30.0679 Y-15.2403
G01 X28.6536 Y-13.8261
G01 X28.6171 Y-13.7913
G01 X28.5779 Y-13.7574
G01 X28.5371 Y-13.7255
G01 X28.4948 Y-13.6956
G01 X28.4487 Y-13.6665
G01 X28.4036 Y-13.6410
G01 X28.3596 Y-13.6188
G01 X28.3124 Y-13.5979
G01 X28.2641 Y-13.5792
G01 X28.2149 Y-13.5628
G01 X28.1624 Y-13.5483
G01 X28.1119 Y-13.5370
G01 X28.0608 Y-13.5282
G01 X28.0121 Y-13.5222
G01 X27.9604 Y-13.5184
G01 X27.9073 Y-13.5170
G01 X27.8541 Y-13.5184
G01 X27.8025 Y-13.5222
G01 X27.7511 Y-13.5286
G01 X27.7000 Y-13.5376
G01 X27.6521 Y-13.5483
G01 X27.6022 Y-13.5621
G01 X27.5505 Y-13.5792
G01 X27.5022 Y-13.5979
G01 X27.4549 Y-13.6189
G01 X27.4085 Y-13.6423
G01 X27.3658 Y-13.6665
G01 X27.3220 Y-13.6942
G01 X27.2796 Y-13.7239
G01 X27.2387 Y-13.7558
G01 X27.1975 Y-13.7914
G01 X27.1619 Y-13.8252
G01 X27.1261 Y-13.8627
G01 X27.0922 Y-13.9019
G01 X27.0603 Y-13.9427
G01 X27.0304 Y-13.9850
G01 X27.0013 Y-14.0311
G01 X26.9758 Y-14.0762
G01 X26.9537 Y-14.1202
G01 X26.9316 Y-14.1699
G01 X26.9130 Y-14.2182
G01 X26.8976 Y-14.2649
G01 X26.8838 Y-14.3148
G01 X26.8724 Y-14.3653
G01 X26.8630 Y-14.4190
G01 X26.8568 Y-14.4704
G01 X26.8531 Y-14.5221
G00 Z3.0000
G00 X30.1070 Y-12.3584
G01 F80.00
G01 Z-0.0700
G01 F50.00
G01 X31.5070 Y-12.3584
G01 X31.5151 Y-12.3578
G01 X31.5230 Y-12.3560
G01 X31.5305 Y-12.3531
G01 X31.5376 Y-12.3491
G01 X31.5439 Y-12.3442
G01 X31.5495 Y-12.3383
G01 X31.5542 Y-12.3317
G01 X31.5578 Y-12.3244
G01 X31.5604 Y-12.3168
G01 X31.5617 Y-12.3088
G01 X31.5620 Y-11.8939
G01 X32.3538 Y-11.8939
G01 X32.3541 Y-12.3140
G01 X32.3562 Y-12.3246
G01 X32.3591 Y-12.3321
G01 X32.3646 Y-12.3414
G01 X32.3719 Y-12.3494
G01 X32.3805 Y-12.3558
G01 X32.3903 Y-12.3604
G01 X32.3981 Y-12.3625
G01 X32.4088 Y-12.3636
G01 X33.8088 Y-12.3636
G01 X33.8169 Y-12.3630
G01 X33.8248 Y-12.3612
G01 X33.8323 Y-12.3583
G01 X33.8394 Y-12.3543
G01 X33.8457 Y-12.3494
G01 X33.8513 Y-12.3435
G01 X33.8560 Y-12.3369
G01 X33.8596 Y-12.3296
G01 X33.8622 Y-12.3220
G01 X33.8635 Y-12.3140
G01 X33.8638 Y-11.8939
G01 X34.6746 Y-11.8939
G01 X34.6749 Y-12.3139
G01 X34.6770 Y-12.3245
G01 X34.6799 Y-12.3320
G01 X34.6854 Y-12.3413
G01 X34.6927 Y-12.3493
G01 X34.7013 Y-12.3557
G01 X34.7111 Y-12.3603
G01 X34.7189 Y-12.3624
G01 X34.7296 Y-12.3635
G01 X36.3296 Y-12.3635
G01 X36.3430 Y-12.3619
G01 X36.3531 Y-12.3582
G01 X36.3602 Y-12.3542
G01 X36.3665 Y-12.3493
G01 X36.3721 Y-12.3434
G01 X36.3768 Y-12.3368
G01 X36.3804 Y-12.3295
G01 X36.3830 Y-12.3219
G01 X36.3843 Y-12.3139
G01 X36.3846 Y-11.9636
G01 X37.5935 Y-11.9636
G01 X37.6221 Y-11.9623
G01 X37.6396 Y-11.9601
G01 X37.6663 Y-11.9548
G01 X37.6933 Y-11.9468
G01 X38.7102 Y-11.9468
G01 X38.7209 Y-11.9457
G01 X38.7287 Y-11.9436
G01 X38.7385 Y-11.9390
G01 X38.7451 Y-11.9343
G01 X38.7527 Y-11.9267
G01 X38.7587 Y-11.9177
G01 X38.7620 Y-11.9103
G01 X38.7641 Y-11.9025
G01 X38.7651 Y-11.8945
G01 X38.7651 Y-10.4918
G01 X38.7640 Y-10.4811
G01 X38.7619 Y-10.4733
G01 X38.7586 Y-10.4659
G01 X38.7543 Y-10.4590
G01 X38.7470 Y-10.4510
G01 X38.7384 Y-10.4446
G01 X38.7311 Y-10.4410
G01 X38.7235 Y-10.4384
G01 X38.7128 Y-10.4369
G01 X37.4101 Y-10.4368
G01 X37.4020 Y-10.4374
G01 X37.3941 Y-10.4392
G01 X37.3818 Y-10.4446
G01 X37.3712 Y-10.4529
G01 X37.3629 Y-10.4635
G01 X37.3575 Y-10.4758
G01 X37.3552 Y-10.4891
G01 X37.3552 Y-11.3534
G01 X36.3846 Y-11.3534
G01 X36.3846 Y-11.0085
G01 X36.3840 Y-11.0004
G01 X36.3814 Y-10.9900
G01 X36.3781 Y-10.9826
G01 X36.3721 Y-10.9736
G01 X36.3665 Y-10.9677
G01 X36.3602 Y-10.9628
G01 X36.3506 Y-10.9577
G01 X36.3430 Y-10.9551
G01 X36.3323 Y-10.9536
G01 X34.7296 Y-10.9535
G01 X34.7189 Y-10.9546
G01 X34.7111 Y-10.9567
G01 X34.7037 Y-10.9600
G01 X34.6968 Y-10.9643
G01 X34.6907 Y-10.9696
G01 X34.6854 Y-10.9757
G01 X34.6799 Y-10.9850
G01 X34.6770 Y-10.9925
G01 X34.6752 Y-11.0004
G01 X34.6746 Y-11.0085
G01 X34.6746 Y-11.2837
G01 X33.8638 Y-11.2837
G01 X33.8638 Y-11.0086
G01 X33.8632 Y-11.0005
G01 X33.8614 Y-10.9926
G01 X33.8585 Y-10.9851
G01 X33.8530 Y-10.9758
G01 X33.8477 Y-10.9697
G01 X33.8394 Y-10.9629
G01 X33.8323 Y-10.9589
G01 X33.8248 Y-10.9560
G01 X33.8169 Y-10.9542
G01 X33.8088 Y-10.9536
G01 X32.4061 Y-10.9537
G01 X32.3954 Y-10.9552
G01 X32.3878 Y-10.9578
G01 X32.3782 Y-10.9629
G01 X32.3719 Y-10.9678
G01 X32.3663 Y-10.9737
G01 X32.3603 Y-10.9827
G01 X32.3570 Y-10.9901
G01 X32.3544 Y-11.0005
G01 X32.3538 Y-11.0086
G01 X32.3538 Y-11.2837
G01 X31.5620 Y-11.2837
G01 X31.5620 Y-11.0034
G01 X31.5614 Y-10.9953
G01 X31.5596 Y-10.9874
G01 X31.5567 Y-10.9799
G01 X31.5527 Y-10.9728
G01 X31.5478 Y-10.9665
G01 X31.5419 Y-10.9609
G01 X31.5353 Y-10.9562
G01 X31.5280 Y-10.9526
G01 X31.5204 Y-10.9500
G01 X31.5070 Y-10.9484
G01 X30.1070 Y-10.9484
G01 X30.0963 Y-10.9495
G01 X30.0885 Y-10.9516
G01 X30.0787 Y-10.9562
G01 X30.0721 Y-10.9609
G01 X30.0662 Y-10.9665
G01 X30.0598 Y-10.9751
G01 X30.0562 Y-10.9824
G01 X30.0531 Y-10.9927
G01 X30.0521 Y-11.0007
G01 X30.0520 Y-12.3034
G01 X30.0531 Y-12.3141
G01 X30.0562 Y-12.3244
G01 X30.0613 Y-12.3340
G01 X30.0681 Y-12.3423
G01 X30.0764 Y-12.3491
G01 X30.0860 Y-12.3542
G01 X30.0963 Y-12.3573
G01 X30.1070 Y-12.3584
G00 Z3.0000
G00 X30.8257 Y-15.2247
G01 F80.00
G01 Z-0.0700
G01 F50.00
G01 X30.8246 Y-15.2356
G01 X30.8224 Y-15.2435
G01 X30.8177 Y-15.2533
G01 X30.8111 Y-15.2620
G01 X30.8030 Y-15.2693
G01 X30.7936 Y-15.2748
G01 X30.7833 Y-15.2783
G01 X30.7724 Y-15.2797
G01 X30.2133 Y-15.2421
G01 X30.2000 Y-15.2395
G01 X30.1877 Y-15.2337
G01 X30.1772 Y-15.2252
G01 X30.1312 Y-15.1761
G01 X28.7178 Y-13.7629
G01 X28.6766 Y-13.7237
G01 X28.6340 Y-13.6869
G01 X28.5897 Y-13.6523
G01 X28.5437 Y-13.6200
G01 X28.4962 Y-13.5899
G01 X28.4473 Y-13.5622
G01 X28.3971 Y-13.5369
G01 X28.3457 Y-13.5141
G01 X28.2932 Y-13.4939
G01 X28.2398 Y-13.4762
G01 X28.1856 Y-13.4612
G01 X28.1308 Y-13.4489
G01 X28.0754 Y-13.4393
G01 X28.0195 Y-13.4324
G01 X27.9635 Y-13.4283
G01 X27.9073 Y-13.4269
G01 X27.8510 Y-13.4283
G01 X27.7950 Y-13.4324
G01 X27.7392 Y-13.4393
G01 X27.6838 Y-13.4489
G01 X27.6289 Y-13.4613
G01 X27.5747 Y-13.4763
G01 X27.5213 Y-13.4939
G01 X27.4689 Y-13.5141
G01 X27.4175 Y-13.5369
G01 X27.3672 Y-13.5622
G01 X27.3183 Y-13.5899
G01 X27.2708 Y-13.6200
G01 X27.2248 Y-13.6524
G01 X27.1805 Y-13.6870
G01 X27.1379 Y-13.7237
G01 X27.0972 Y-13.7625
G01 X27.0585 Y-13.8032
G01 X27.0217 Y-13.8458
G01 X26.9871 Y-13.8901
G01 X26.9548 Y-13.9361
G01 X26.9247 Y-13.9836
G01 X26.8970 Y-14.0325
G01 X26.8717 Y-14.0827
G01 X26.8489 Y-14.1341
G01 X26.8287 Y-14.1866
G01 X26.8110 Y-14.2400
G01 X26.7960 Y-14.2942
G01 X26.7837 Y-14.3490
G01 X26.7741 Y-14.4044
G01 X26.7672 Y-14.4603
G01 X26.7631 Y-14.5163
G01 X26.7617 Y-14.5725
G01 X26.7631 Y-14.6288
G01 X26.7672 Y-14.6848
G01 X26.7741 Y-14.7406
G01 X26.7837 Y-14.7960
G01 X26.7961 Y-14.8509
G01 X26.8111 Y-14.9051
G01 X26.8287 Y-14.9585
G01 X26.8489 Y-15.0109
G01 X26.8717 Y-15.0623
G01 X26.8970 Y-15.1126
G01 X26.9247 Y-15.1615
G01 X26.9548 Y-15.2090
G01 X26.9872 Y-15.2550
G01 X27.0218 Y-15.2993
G01 X27.0585 Y-15.3419
G01 X27.0977 Y-15.3831
G01 X28.5111 Y-16.7963
G01 X28.5523 Y-16.8355
G01 X28.5949 Y-16.8723
G01 X28.6392 Y-16.9069
G01 X28.6852 Y-16.9392
G01 X28.7327 Y-16.9693
G01 X28.7816 Y-16.9970
G01 X28.8318 Y-17.0223
G01 X28.8832 Y-17.0451
G01 X28.9357 Y-17.0653
G01 X28.9891 Y-17.0830
G01 X29.0433 Y-17.0980
G01 X29.0981 Y-17.1103
G01 X29.1535 Y-17.1199
G01 X29.2094 Y-17.1268
G01 X29.2654 Y-17.1309
G01 X29.3216 Y-17.1323
G01 X29.3779 Y-17.1309
G01 X29.4339 Y-17.1268
G01 X29.4897 Y-17.1199
G01 X29.5451 Y-17.1103
G01 X29.6000 Y-17.0979
G01 X29.6542 Y-17.0829
G01 X29.7076 Y-17.0653
G01 X29.7600 Y-17.0451
G01 X29.8114 Y-17.0223
G01 X29.8617 Y-16.9970
G01 X29.9106 Y-16.9693
G01 X29.9581 Y-16.9392
G01 X30.0041 Y-16.9068
G01 X30.0484 Y-16.8722
G01 X30.0910 Y-16.8355
G01 X30.1317 Y-16.7967
G01 X30.1704 Y-16.7560
G01 X30.2072 Y-16.7134
G01 X30.2418 Y-16.6691
G01 X30.2741 Y-16.6231
G01 X30.3042 Y-16.5756
G01 X30.3319 Y-16.5267
G01 X30.3572 Y-16.4765
G01 X30.3800 Y-16.4251
G01 X30.4002 Y-16.3726
G01 X30.4179 Y-16.3192
G01 X30.4329 Y-16.2650
G01 X30.4452 Y-16.2102
G01 X30.4548 Y-16.1548
G01 X30.4617 Y-16.0989
G01 X30.4658 Y-16.0429
G01 X30.4672 Y-15.9867
G01 X30.4658 Y-15.9304
G01 X30.4644 Y-15.9110
G01 X30.4657 Y-15.8977
G01 X30.4681 Y-15.8899
G01 X30.4715 Y-15.8827
G01 X30.4760 Y-15.8759
G01 X30.4814 Y-15.8699
G01 X30.4876 Y-15.8648
G01 X30.4945 Y-15.8606
G01 X30.5019 Y-15.8575
G01 X30.5097 Y-15.8555
G01 X30.5231 Y-15.8548
G01 X30.7797 Y-15.8724
G01 X30.7925 Y-15.8762
G01 X30.8040 Y-15.8829
G01 X30.8118 Y-15.8901
G01 X30.8194 Y-15.9011
G01 X30.8241 Y-15.9135
G01 X30.8257 Y-15.9267
G01 X30.8257 Y-16.4317
G01 X32.5157 Y-16.4317
G01 X32.5157 Y-14.8417
G01 X30.8257 Y-14.8417
G01 X30.8257 Y-15.2247
G00 Z3.0000
G00 X33.2148 Y-14.9892
G01 F80.00
G01 Z-0.0700
G01 F50.00
G01 X33.2149 Y-16.2919
G01 X33.2164 Y-16.3026
G01 X33.2201 Y-16.3127
G01 X33.2256 Y-16.3220
G01 X33.2309 Y-16.3281
G01 X33.2392 Y-16.3349
G01 X33.2488 Y-16.3400
G01 X33.2591 Y-16.3431
G01 X33.2698 Y-16.3442
G01 X34.6698 Y-16.3442
G01 X34.6779 Y-16.3436
G01 X34.6858 Y-16.3418
G01 X34.6933 Y-16.3389
G01 X34.7004 Y-16.3349
G01 X34.7067 Y-16.3300
G01 X34.7123 Y-16.3241
G01 X34.7170 Y-16.3175
G01 X34.7206 Y-16.3102
G01 X34.7232 Y-16.3026
G01 X34.7245 Y-16.2946
G01 X34.7248 Y-15.8917
G01 X35.5995 Y-15.8917
G01 X35.6140 Y-15.8913
G01 X35.6372 Y-15.8889
G01 X35.6655 Y-15.8830
G01 X35.6891 Y-15.8755
G01 X37.8683 Y-15.0583
G01 X42.0289 Y-15.0583
G01 X42.0552 Y-15.0569
G01 X42.0677 Y-15.0553
G01 X42.0896 Y-15.0510
G01 X42.1042 Y-15.0469
G01 X42.1253 Y-15.0394
G01 X42.1503 Y-15.0275
G01 X42.1695 Y-15.0160
G01 X42.1819 Y-15.0073
G01 X42.1992 Y-14.9931
G01 X42.2083 Y-14.9845
G01 X43.7214 Y-13.4715
G01 X43.9225 Y-13.6727
G01 X43.9286 Y-13.6780
G01 X43.9379 Y-13.6835
G01 X43.9480 Y-13.6872
G01 X43.9614 Y-13.6888
G01 X44.1614 Y-13.6888
G01 X44.1721 Y-13.6877
G01 X44.1824 Y-13.6846
G01 X44.1897 Y-13.6810
G01 X44.1983 Y-13.6746
G01 X44.4039 Y-13.4687
G01 X44.4099 Y-13.4597
G01 X44.4132 Y-13.4523
G01 X44.4158 Y-13.4419
G01 X44.4164 Y-13.4338
G01 X44.4164 Y-12.3338
G01 X44.4148 Y-12.3204
G01 X44.4099 Y-12.3079
G01 X44.4022 Y-12.2969
G01 X44.3003 Y-12.1949
G01 X44.2942 Y-12.1896
G01 X44.2873 Y-12.1853
G01 X44.2799 Y-12.1820
G01 X44.2721 Y-12.1799
G01 X44.2614 Y-12.1788
G01 X43.8587 Y-12.1789
G01 X43.8480 Y-12.1804
G01 X43.8404 Y-12.1830
G01 X43.8331 Y-12.1866
G01 X43.8245 Y-12.1930
G01 X43.7206 Y-12.2969
G01 X43.7157 Y-12.3032
G01 X43.7117 Y-12.3103
G01 X43.7075 Y-12.3231
G01 X43.7064 Y-12.3338
G01 X43.7064 Y-12.7650
G01 X41.9232 Y-14.5481
G01 X37.8220 Y-14.5481
G01 X37.8075 Y-14.5485
G01 X37.7843 Y-14.5509
G01 X37.7587 Y-14.5561
G01 X37.7324 Y-14.5643
G01 X35.5532 Y-15.3815
G01 X34.7248 Y-15.3815
G01 X34.7245 Y-14.9838
G01 X34.7224 Y-14.9732
G01 X34.7195 Y-14.9657
G01 X34.7140 Y-14.9564
G01 X34.7087 Y-14.9503
G01 X34.7004 Y-14.9435
G01 X34.6933 Y-14.9395
G01 X34.6858 Y-14.9366
G01 X34.6779 Y-14.9348
G01 X34.6698 Y-14.9342
G01 X33.2671 Y-14.9343
G01 X33.2564 Y-14.9358
G01 X33.2463 Y-14.9395
G01 X33.2392 Y-14.9435
G01 X33.2309 Y-14.9503
G01 X33.2241 Y-14.9586
G01 X33.2190 Y-14.9682
G01 X33.2159 Y-14.9785
G01 X33.2148 Y-14.9892
G00 Z3.0000
G00 X33.9538 Y-12.0390
G01 F80.00
G01 Z-0.0700
G01 F50.00
G01 X33.9544 Y-12.0310
G01 X33.9570 Y-12.0205
G01 X33.9616 Y-12.0107
G01 X33.9680 Y-12.0021
G01 X33.9760 Y-11.9948
G01 X33.9853 Y-11.9893
G01 X33.9954 Y-11.9857
G01 X34.0034 Y-11.9843
G01 X34.5296 Y-11.9840
G01 X34.5377 Y-11.9846
G01 X34.5456 Y-11.9864
G01 X34.5531 Y-11.9893
G01 X34.5602 Y-11.9933
G01 X34.5704 Y-12.0021
G01 X34.5781 Y-12.0131
G01 X34.5822 Y-12.0231
G01 X34.5845 Y-12.0363
G01 X34.5846 Y-12.4535
G01 X36.4746 Y-12.4535
G01 X36.4749 Y-12.1033
G01 X36.4770 Y-12.0928
G01 X36.4799 Y-12.0852
G01 X36.4839 Y-12.0782
G01 X36.4888 Y-12.0718
G01 X36.4947 Y-12.0662
G01 X36.5013 Y-12.0616
G01 X36.5111 Y-12.0569
G01 X36.5189 Y-12.0548
G01 X36.5296 Y-12.0537
G01 X37.5928 Y-12.0537
G01 X37.6129 Y-12.0532
G01 X37.6515 Y-12.0494
G01 X37.6706 Y-12.0461
G01 X37.7055 Y-12.0377
G01 X37.7153 Y-12.0368
G01 X38.8552 Y-12.0368
G01 X38.8551 Y-10.3468
G01 X37.2651 Y-10.3468
G01 X37.2651 Y-11.2110
G01 X37.2641 Y-11.2190
G01 X37.2610 Y-11.2293
G01 X37.2559 Y-11.2388
G01 X37.2490 Y-11.2472
G01 X37.2407 Y-11.2540
G01 X37.2337 Y-11.2580
G01 X37.2235 Y-11.2616
G01 X37.2128 Y-11.2632
G01 X36.5296 Y-11.2633
G01 X36.5162 Y-11.2616
G01 X36.5037 Y-11.2568
G01 X36.4927 Y-11.2490
G01 X36.4839 Y-11.2388
G01 X36.4778 Y-11.2268
G01 X36.4749 Y-11.2137
G01 X36.4746 Y-10.8635
G01 X34.5846 Y-10.8635
G01 X34.5846 Y-11.1386
G01 X34.5840 Y-11.1466
G01 X34.5814 Y-11.1571
G01 X34.5781 Y-11.1645
G01 X34.5721 Y-11.1735
G01 X34.5645 Y-11.1811
G01 X34.5579 Y-11.1857
G01 X34.5481 Y-11.1904
G01 X34.5403 Y-11.1925
G01 X34.5296 Y-11.1936
G01 X34.0088 Y-11.1936
G01 X34.0007 Y-11.1930
G01 X33.9928 Y-11.1912
G01 X33.9805 Y-11.1857
G01 X33.9699 Y-11.1775
G01 X33.9616 Y-11.1669
G01 X33.9570 Y-11.1571
G01 X33.9541 Y-11.1440
G01 X33.9538 Y-10.8636
G01 X32.2638 Y-10.8636
G01 X32.2635 Y-11.1440
G01 X32.2606 Y-11.1571
G01 X32.2560 Y-11.1669
G01 X32.2477 Y-11.1775
G01 X32.2371 Y-11.1857
G01 X32.2248 Y-11.1912
G01 X32.2169 Y-11.1930
G01 X32.2088 Y-11.1936
G01 X31.7070 Y-11.1936
G01 X31.6963 Y-11.1925
G01 X31.6885 Y-11.1904
G01 X31.6787 Y-11.1857
G01 X31.6721 Y-11.1811
G01 X31.6645 Y-11.1735
G01 X31.6585 Y-11.1645
G01 X31.6552 Y-11.1571
G01 X31.6526 Y-11.1466
G01 X31.6520 Y-11.1386
G01 X31.6520 Y-10.8584
G01 X29.9620 Y-10.8584
G01 X29.9620 Y-12.4484
G01 X31.6520 Y-12.4484
G01 X31.6521 Y-12.0363
G01 X31.6536 Y-12.0257
G01 X31.6585 Y-12.0131
G01 X31.6645 Y-12.0041
G01 X31.6721 Y-11.9965
G01 X31.6787 Y-11.9919
G01 X31.6885 Y-11.9872
G01 X31.6963 Y-11.9851
G01 X31.7070 Y-11.9840
G01 X32.2088 Y-11.9840
G01 X32.2195 Y-11.9851
G01 X32.2273 Y-11.9872
G01 X32.2371 Y-11.9919
G01 X32.2457 Y-11.9983
G01 X32.2530 Y-12.0063
G01 X32.2585 Y-12.0155
G01 X32.2614 Y-12.0231
G01 X32.2635 Y-12.0336
G01 X32.2638 Y-12.4536
G01 X33.9538 Y-12.4536
G01 X33.9538 Y-12.0390
G00 Z3.0000
G00 X33.9537 Y-10.5536
G01 F80.00
G01 Z-0.0700
G01 F50.00
G01 X33.9537 Y-10.0303
G01 X33.8637 Y-10.0303
G01 X33.8637 Y-10.4086
G01 X33.8631 Y-10.4167
G01 X33.8605 Y-10.4271
G01 X33.8572 Y-10.4345
G01 X33.8512 Y-10.4435
G01 X33.8436 Y-10.4511
G01 X33.8370 Y-10.4558
G01 X33.8272 Y-10.4604
G01 X33.8194 Y-10.4625
G01 X33.8087 Y-10.4636
G01 X32.4087 Y-10.4636
G01 X32.4006 Y-10.4630
G01 X32.3927 Y-10.4612
G01 X32.3852 Y-10.4583
G01 X32.3781 Y-10.4543
G01 X32.3718 Y-10.4494
G01 X32.3662 Y-10.4435
G01 X32.3615 Y-10.4369
G01 X32.3579 Y-10.4296
G01 X32.3553 Y-10.4220
G01 X32.3540 Y-10.4140
G01 X32.3537 Y-10.0303
G01 X32.2637 Y-10.0303
G01 X32.2637 Y-10.5536
G01 X33.9537 Y-10.5536
G00 Z3.0000
G00 X33.9537 Y-9.4870
G01 F80.00
G01 Z-0.0700
G01 F50.00
G01 X33.9537 Y-8.9636
G01 X33.3804 Y-8.9636
G01 X33.3804 Y-9.0536
G01 X33.8114 Y-9.0537
G01 X33.8221 Y-9.0552
G01 X33.8297 Y-9.0578
G01 X33.8393 Y-9.0629
G01 X33.8456 Y-9.0678
G01 X33.8529 Y-9.0758
G01 X33.8584 Y-9.0851
G01 X33.8621 Y-9.0952
G01 X33.8636 Y-9.1059
G01 X33.8637 Y-9.4870
G01 X33.9537 Y-9.4870
G00 Z3.0000
G00 X32.8371 Y-8.9636
G01 F80.00
G01 Z-0.0700
G01 F50.00
G01 X32.2637 Y-8.9636
G01 X32.2637 Y-9.4870
G01 X32.3537 Y-9.4870
G01 X32.3538 Y-9.1059
G01 X32.3553 Y-9.0952
G01 X32.3590 Y-9.0851
G01 X32.3645 Y-9.0758
G01 X32.3718 Y-9.0678
G01 X32.3781 Y-9.0629
G01 X32.3877 Y-9.0578
G01 X32.3953 Y-9.0552
G01 X32.4060 Y-9.0537
G01 X32.8371 Y-9.0536
G01 X32.8371 Y-8.9636
G00 Z3.0000
G00 X35.2580 Y-8.9635
G01 F80.00
G01 Z-0.0700
G01 F50.00
G01 X34.5846 Y-8.9635
G01 X34.5846 Y-9.4869
G01 X34.6746 Y-9.4869
G01 X34.6747 Y-9.1058
G01 X34.6770 Y-9.0925
G01 X34.6811 Y-9.0826
G01 X34.6871 Y-9.0736
G01 X34.6968 Y-9.0643
G01 X34.7061 Y-9.0588
G01 X34.7136 Y-9.0559
G01 X34.7215 Y-9.0541
G01 X34.7296 Y-9.0535
G01 X35.2580 Y-9.0535
G01 X35.2580 Y-8.9635
G00 Z3.0000
G00 X36.4746 Y-9.4868
G01 F80.00
G01 Z-0.0700
G01 F50.00
G01 X36.4746 Y-8.9635
G01 X35.8013 Y-8.9635
G01 X35.8013 Y-9.0535
G01 X36.3296 Y-9.0535
G01 X36.3403 Y-9.0546
G01 X36.3481 Y-9.0567
G01 X36.3555 Y-9.0600
G01 X36.3624 Y-9.0643
G01 X36.3721 Y-9.0736
G01 X36.3781 Y-9.0826
G01 X36.3822 Y-9.0925
G01 X36.3845 Y-9.1058
G01 X36.3846 Y-9.4868
G01 X36.4746 Y-9.4868
G00 Z3.0000
G00 X36.4746 Y-10.5535
G01 F80.00
G01 Z-0.0700
G01 F50.00
G01 X36.4746 Y-10.0301
G01 X36.3846 Y-10.0301
G01 X36.3846 Y-10.4085
G01 X36.3840 Y-10.4166
G01 X36.3814 Y-10.4270
G01 X36.3781 Y-10.4344
G01 X36.3721 Y-10.4434
G01 X36.3645 Y-10.4510
G01 X36.3579 Y-10.4557
G01 X36.3481 Y-10.4603
G01 X36.3403 Y-10.4624
G01 X36.3296 Y-10.4635
G01 X34.7296 Y-10.4635
G01 X34.7162 Y-10.4619
G01 X34.7061 Y-10.4582
G01 X34.6990 Y-10.4542
G01 X34.6927 Y-10.4493
G01 X34.6871 Y-10.4434
G01 X34.6824 Y-10.4368
G01 X34.6788 Y-10.4295
G01 X34.6762 Y-10.4219
G01 X34.6749 Y-10.4139
G01 X34.6746 Y-10.0302
G01 X34.5846 Y-10.0302
G01 X34.5846 Y-10.5535
G01 X36.4746 Y-10.5535
G00 Z3.0000
G00 X38.8590 Y-9.1192
G01 F80.00
G01 Z-0.0700
G01 F50.00
G01 X38.8590 Y-9.6426
G01 X39.5324 Y-9.6426
G01 X39.5324 Y-9.5526
G01 X39.0040 Y-9.5526
G01 X38.9933 Y-9.5515
G01 X38.9855 Y-9.5494
G01 X38.9781 Y-9.5461
G01 X38.9712 Y-9.5418
G01 X38.9615 Y-9.5325
G01 X38.9555 Y-9.5235
G01 X38.9514 Y-9.5136
G01 X38.9491 Y-9.5003
G01 X38.9490 Y-9.1192
G01 X38.8590 Y-9.1192
G00 Z3.0000
G00 X40.7490 Y-9.6426
G01 F80.00
G01 Z-0.0700
G01 F50.00
G01 X40.7490 Y-9.1192
G01 X40.6590 Y-9.1192
G01 X40.6589 Y-9.5003
G01 X40.6566 Y-9.5136
G01 X40.6525 Y-9.5235
G01 X40.6448 Y-9.5345
G01 X40.6346 Y-9.5433
G01 X40.6275 Y-9.5473
G01 X40.6200 Y-9.5502
G01 X40.6121 Y-9.5520
G01 X40.6040 Y-9.5526
G01 X40.0757 Y-9.5526
G01 X40.0757 Y-9.6426
G01 X40.7490 Y-9.6426
G00 Z3.0000
G00 X41.7225 Y-9.8727
G01 F80.00
G01 Z-0.0700
G01 F50.00
G01 X41.9245 Y-10.0746
G01 X41.9308 Y-10.0795
G01 X41.9379 Y-10.0835
G01 X41.9454 Y-10.0864
G01 X41.9533 Y-10.0882
G01 X41.9614 Y-10.0888
G01 X43.0614 Y-10.0888
G01 X43.0748 Y-10.0872
G01 X43.0824 Y-10.0846
G01 X43.0897 Y-10.0810
G01 X43.1003 Y-10.0727
G01 X43.2022 Y-9.9707
G01 X43.2099 Y-9.9597
G01 X43.2148 Y-9.9472
G01 X43.2164 Y-9.9338
G01 X43.2164 Y-9.5338
G01 X43.2148 Y-9.5204
G01 X43.2099 Y-9.5079
G01 X43.2022 Y-9.4969
G01 X43.1003 Y-9.3949
G01 X43.0942 Y-9.3896
G01 X43.0849 Y-9.3841
G01 X43.0748 Y-9.3804
G01 X43.0668 Y-9.3791
G01 X41.9614 Y-9.3788
G01 X41.9480 Y-9.3804
G01 X41.9355 Y-9.3853
G01 X41.9286 Y-9.3896
G01 X41.9225 Y-9.3949
G01 X41.7225 Y-9.5949
G01 X41.7172 Y-9.6010
G01 X41.7117 Y-9.6103
G01 X41.7075 Y-9.6231
G01 X41.7064 Y-9.6338
G01 X41.7065 Y-9.8365
G01 X41.7080 Y-9.8472
G01 X41.7117 Y-9.8573
G01 X41.7172 Y-9.8666
G01 X41.7225 Y-9.8727
G00 Z3.0000
G00 X41.7967 Y-9.2743
G01 F80.00
G01 Z-0.0700
G01 F50.00
G01 X41.8209 Y-9.2989
G01 X41.8269 Y-9.3079
G01 X41.8302 Y-9.3153
G01 X41.8328 Y-9.3257
G01 X41.8332 Y-9.3392
G01 X41.8310 Y-9.3498
G01 X41.8269 Y-9.3597
G01 X41.8226 Y-9.3666
G01 X41.8173 Y-9.3727
G01 X41.6539 Y-9.5364
G01 X41.6449 Y-9.5474
G01 X41.6370 Y-9.5592
G01 X41.6274 Y-9.5783
G01 X41.6226 Y-9.5917
G01 X41.6179 Y-9.6125
G01 X41.6163 Y-9.6345
G01 X41.6165 Y-9.8409
G01 X41.6179 Y-9.8551
G01 X41.6207 Y-9.8691
G01 X41.6274 Y-9.8893
G01 X41.6370 Y-9.9084
G01 X41.6492 Y-9.9258
G01 X41.6593 Y-9.9369
G01 X41.8173 Y-10.0949
G01 X41.8241 Y-10.1032
G01 X41.8302 Y-10.1153
G01 X41.8324 Y-10.1231
G01 X41.8333 Y-10.1311
G01 X41.8332 Y-10.1392
G01 X41.8318 Y-10.1472
G01 X41.8292 Y-10.1548
G01 X41.8256 Y-10.1621
G01 X41.8192 Y-10.1707
G01 X41.7905 Y-10.1991
G01 X41.7791 Y-10.2063
G01 X41.7690 Y-10.2100
G01 X41.7556 Y-10.2116
G01 X41.5930 Y-10.2116
G01 X41.5754 Y-10.2120
G01 X41.5417 Y-10.2154
G01 X41.5084 Y-10.2220
G01 X41.4760 Y-10.2318
G01 X41.4447 Y-10.2448
G01 X41.4149 Y-10.2607
G01 X41.4005 Y-10.2698
G01 X41.3733 Y-10.2900
G01 X41.3477 Y-10.3132
G01 X40.8490 Y-10.8118
G01 X40.8407 Y-10.8187
G01 X40.8311 Y-10.8238
G01 X40.8182 Y-10.8274
G01 X40.8074 Y-10.8279
G01 X40.7941 Y-10.8256
G01 X40.7818 Y-10.8201
G01 X40.7712 Y-10.8118
G01 X40.7644 Y-10.8035
G01 X40.7593 Y-10.7940
G01 X40.7557 Y-10.7810
G01 X40.7551 Y-10.7730
G01 X40.7551 Y-10.3468
G01 X39.1651 Y-10.3468
G01 X39.1651 Y-12.0368
G01 X40.7551 Y-12.0368
G01 X40.7552 Y-11.5893
G01 X40.7567 Y-11.5786
G01 X40.7593 Y-11.5710
G01 X40.7629 Y-11.5637
G01 X40.7693 Y-11.5551
G01 X40.7773 Y-11.5478
G01 X40.7866 Y-11.5423
G01 X40.7967 Y-11.5386
G01 X40.8047 Y-11.5373
G01 X40.9565 Y-11.5370
G01 X40.9741 Y-11.5366
G01 X41.0078 Y-11.5332
G01 X41.0411 Y-11.5266
G01 X41.0735 Y-11.5168
G01 X41.1048 Y-11.5038
G01 X41.1199 Y-11.4962
G01 X41.1490 Y-11.4788
G01 X41.1762 Y-11.4586
G01 X41.1890 Y-11.4476
G01 X41.5667 Y-11.0709
G01 X41.5758 Y-11.0649
G01 X41.5858 Y-11.0608
G01 X41.5992 Y-11.0585
G01 X41.6101 Y-11.0591
G01 X41.6206 Y-11.0618
G01 X41.6304 Y-11.0666
G01 X41.6390 Y-11.0732
G01 X41.6477 Y-11.0836
G01 X41.6527 Y-11.0932
G01 X41.6557 Y-11.1037
G01 X41.6566 Y-11.1145
G01 X41.6553 Y-11.1253
G01 X41.6507 Y-11.1381
G01 X41.6370 Y-11.1592
G01 X41.6274 Y-11.1783
G01 X41.6207 Y-11.1985
G01 X41.6170 Y-11.2196
G01 X41.6163 Y-11.2345
G01 X41.6163 Y-11.4331
G01 X41.6179 Y-11.4551
G01 X41.6226 Y-11.4759
G01 X41.6274 Y-11.4893
G01 X41.6370 Y-11.5084
G01 X41.6449 Y-11.5202
G01 X41.6593 Y-11.5369
G01 X41.7235 Y-11.6012
G01 X41.7313 Y-11.6122
G01 X41.7361 Y-11.6248
G01 X41.7375 Y-11.6327
G01 X41.7377 Y-11.6408
G01 X41.7354 Y-11.6541
G01 X41.7299 Y-11.6664
G01 X41.7216 Y-11.6770
G01 X40.6924 Y-12.7062
G01 X40.6841 Y-12.7131
G01 X40.6771 Y-12.7170
G01 X40.6695 Y-12.7200
G01 X40.6616 Y-12.7217
G01 X40.6536 Y-12.7223
G01 X38.5769 Y-12.7223
G01 X38.5605 Y-12.7228
G01 X38.5293 Y-12.7261
G01 X38.4978 Y-12.7329
G01 X35.0455 Y-13.6741
G01 X35.0367 Y-13.6748
G01 X30.3016 Y-13.6748
G01 X30.2906 Y-13.6737
G01 X30.2826 Y-13.6714
G01 X30.2726 Y-13.6666
G01 X30.2639 Y-13.6598
G01 X27.5081 Y-11.0571
G01 X27.4849 Y-11.0373
G01 X27.4604 Y-11.0203
G01 X27.4476 Y-11.0128
G01 X27.4208 Y-10.9998
G01 X27.3929 Y-10.9895
G01 X27.3786 Y-10.9854
G01 X27.3494 Y-10.9794
G01 X27.3346 Y-10.9775
G01 X27.3042 Y-10.9760
G01 X26.6813 Y-10.9760
G01 X26.6706 Y-10.9750
G01 X26.6603 Y-10.9718
G01 X26.6530 Y-10.9682
G01 X26.6444 Y-10.9618
G01 X26.6371 Y-10.9538
G01 X26.6316 Y-10.9445
G01 X26.6279 Y-10.9344
G01 X26.6264 Y-10.9237
G01 X26.6263 Y-10.4261
G01 X25.0363 Y-10.4261
G01 X25.0363 Y-12.1161
G01 X26.6263 Y-12.1161
G01 X26.6264 Y-11.6187
G01 X26.6274 Y-11.6106
G01 X26.6305 Y-11.6003
G01 X26.6356 Y-11.5908
G01 X26.6424 Y-11.5825
G01 X26.6507 Y-11.5756
G01 X26.6603 Y-11.5706
G01 X26.6706 Y-11.5674
G01 X26.6813 Y-11.5664
G01 X27.1657 Y-11.5664
G01 X27.1767 Y-11.5675
G01 X27.1873 Y-11.5708
G01 X27.1970 Y-11.5762
G01 X27.2034 Y-11.5814
G01 X29.9592 Y-14.1841
G01 X29.9708 Y-14.1945
G01 X29.9944 Y-14.2127
G01 X30.0197 Y-14.2284
G01 X30.0465 Y-14.2414
G01 X30.0744 Y-14.2517
G01 X30.0887 Y-14.2558
G01 X30.1179 Y-14.2618
G01 X30.1475 Y-14.2648
G01 X35.0829 Y-14.2652
G01 X35.1150 Y-14.2635
G01 X35.1460 Y-14.2585
G01 X35.1620 Y-14.2546
G01 X38.6143 Y-13.3134
G01 X38.6231 Y-13.3127
G01 X40.7979 Y-13.3127
G01 X40.8131 Y-13.3123
G01 X40.8419 Y-13.3095
G01 X40.8703 Y-13.3038
G01 X40.8843 Y-13.2999
G01 X40.8980 Y-13.2954
G01 X40.9248 Y-13.2843
G01 X40.9503 Y-13.2707
G01 X40.9626 Y-13.2629
G01 X40.9744 Y-13.2546
G01 X40.9968 Y-13.2362
G01 X42.4385 Y-11.7950
G01 X42.4447 Y-11.7897
G01 X42.4539 Y-11.7842
G01 X42.4615 Y-11.7813
G01 X42.4694 Y-11.7795
G01 X42.4774 Y-11.7789
G01 X43.0607 Y-11.7789
G01 X43.0756 Y-11.7782
G01 X43.0967 Y-11.7745
G01 X43.1169 Y-11.7678
G01 X43.1360 Y-11.7582
G01 X43.1534 Y-11.7460
G01 X43.1645 Y-11.7359
G01 X43.2635 Y-11.6369
G01 X43.2736 Y-11.6258
G01 X43.2858 Y-11.6084
G01 X43.2926 Y-11.5958
G01 X43.2980 Y-11.5827
G01 X43.3021 Y-11.5691
G01 X43.3058 Y-11.5480
G01 X43.3065 Y-11.5331
G01 X43.3065 Y-11.1345
G01 X43.3058 Y-11.1196
G01 X43.3037 Y-11.1055
G01 X43.3002 Y-11.0917
G01 X43.2954 Y-11.0783
G01 X43.2894 Y-11.0654
G01 X43.2820 Y-11.0532
G01 X43.2689 Y-11.0364
G01 X43.2019 Y-10.9687
G01 X43.1959 Y-10.9597
G01 X43.1926 Y-10.9523
G01 X43.1904 Y-10.9445
G01 X43.1895 Y-10.9365
G01 X43.1896 Y-10.9284
G01 X43.1918 Y-10.9178
G01 X43.1947 Y-10.9103
G01 X43.2002 Y-10.9010
G01 X43.2055 Y-10.8949
G01 X43.2689 Y-10.8312
G01 X43.2779 Y-10.8202
G01 X43.2858 Y-10.8084
G01 X43.2954 Y-10.7893
G01 X43.3021 Y-10.7691
G01 X43.3058 Y-10.7480
G01 X43.3065 Y-10.7331
G01 X43.3065 Y-10.3345
