(G-CODE GENERATED BY FLATCAM v8.993 - www.flatcam.org - Version Date: 2020/06/05)

(Name: Syntez2_Ф2_низ.gbr_iso_cutoff_1_cnc)
(Type: G-code from Geometry)
(Units: MM)

(Created on Thursday, 08 October 2020 at 11:14)

(This preprocessor is the default preprocessor used by FlatCAM.)
(It is made to work with MACH3 compatible motion controllers.)

(TOOL DIAMETER: 0.8 mm)
(Feedrate_XY: 60.0 mm/min)
(Feedrate_Z: 70.0 mm/min)
(Feedrate rapids 1500.0 mm/min)

(Z_Cut: -1.7 mm)
(DepthPerCut: 0.1 mm <=>17 passes)
(Z_Move: 2.0 mm)
(Z Start: None mm)
(Z End: 25.0 mm)
(Steps per circle: 128)
(Preprocessor Geometry: default)

(X range:  -98.6792 ...    0.3208  mm)
(Y range:  -33.5396 ...    0.3604  mm)

(Spindle Speed: None RPM)
G21
G90
G94



G01 F60.00
G00 Z2.0000

M03
G00 X-3.5037 Y-4.9608
G01 F70.00
G01 Z-0.1000
G01 F60.00
G01 X-3.5050 Y-4.9068
G01 X-3.5090 Y-4.8530
G01 X-3.5156 Y-4.7994
G01 X-3.5249 Y-4.7462
G01 X-3.5367 Y-4.6936
G01 X-3.5511 Y-4.6415
G01 X-3.5680 Y-4.5903
G01 X-3.5874 Y-4.5399
G01 X-3.6093 Y-4.4905
G01 X-3.6336 Y-4.4423
G01 X-3.6602 Y-4.3953
G01 X-3.6891 Y-4.3497
G01 X-3.7202 Y-4.3056
G01 X-3.7534 Y-4.2630
G01 X-3.7886 Y-4.2222
G01 X-3.8259 Y-4.1831
G01 X-3.8650 Y-4.1458
G01 X-3.9058 Y-4.1106
G01 X-3.9484 Y-4.0774
G01 X-3.9925 Y-4.0463
G01 X-4.0381 Y-4.0174
G01 X-4.0851 Y-3.9908
G01 X-4.1333 Y-3.9665
G01 X-4.1827 Y-3.9446
G01 X-4.2331 Y-3.9252
G01 X-4.2843 Y-3.9083
G01 X-4.3364 Y-3.8939
G01 X-4.3890 Y-3.8821
G01 X-4.4422 Y-3.8728
G01 X-4.4958 Y-3.8662
G01 X-4.5496 Y-3.8622
G01 X-4.6036 Y-3.8609
G01 X-4.6576 Y-3.8622
G01 X-4.7114 Y-3.8662
G01 X-4.7650 Y-3.8728
G01 X-4.8182 Y-3.8821
G01 X-4.8708 Y-3.8939
G01 X-4.9229 Y-3.9083
G01 X-4.9741 Y-3.9252
G01 X-5.0245 Y-3.9446
G01 X-5.0739 Y-3.9665
G01 X-5.1221 Y-3.9908
G01 X-5.1691 Y-4.0174
G01 X-5.2147 Y-4.0463
G01 X-5.2588 Y-4.0774
G01 X-5.3014 Y-4.1106
G01 X-5.3422 Y-4.1458
G01 X-5.3813 Y-4.1831
G01 X-5.4186 Y-4.2222
G01 X-5.4538 Y-4.2630
G01 X-5.4870 Y-4.3056
G01 X-5.5181 Y-4.3497
G01 X-5.5470 Y-4.3953
G01 X-5.5736 Y-4.4423
G01 X-5.5979 Y-4.4905
G01 X-5.6198 Y-4.5399
G01 X-5.6392 Y-4.5903
G01 X-5.6561 Y-4.6415
G01 X-5.6705 Y-4.6936
G01 X-5.6823 Y-4.7462
G01 X-5.6916 Y-4.7994
G01 X-5.6982 Y-4.8530
G01 X-5.7022 Y-4.9068
G01 X-5.7035 Y-4.9608
G01 X-5.7022 Y-5.0148
G01 X-5.6982 Y-5.0686
G01 X-5.6916 Y-5.1222
G01 X-5.6823 Y-5.1754
G01 X-5.6705 Y-5.2280
G01 X-5.6561 Y-5.2801
G01 X-5.6392 Y-5.3313
G01 X-5.6198 Y-5.3817
G01 X-5.5979 Y-5.4311
G01 X-5.5736 Y-5.4793
G01 X-5.5470 Y-5.5263
G01 X-5.5181 Y-5.5719
G01 X-5.4870 Y-5.6160
G01 X-5.4538 Y-5.6586
G01 X-5.4186 Y-5.6994
G01 X-5.3813 Y-5.7385
G01 X-5.3422 Y-5.7758
G01 X-5.3014 Y-5.8110
G01 X-5.2588 Y-5.8442
G01 X-5.2147 Y-5.8753
G01 X-5.1691 Y-5.9042
G01 X-5.1221 Y-5.9308
G01 X-5.0739 Y-5.9551
G01 X-5.0245 Y-5.9770
G01 X-4.9741 Y-5.9964
G01 X-4.9229 Y-6.0133
G01 X-4.8708 Y-6.0277
G01 X-4.8182 Y-6.0395
G01 X-4.7650 Y-6.0488
G01 X-4.7114 Y-6.0554
G01 X-4.6576 Y-6.0594
G01 X-4.6036 Y-6.0607
G01 X-4.5496 Y-6.0594
G01 X-4.4958 Y-6.0554
G01 X-4.4422 Y-6.0488
G01 X-4.3890 Y-6.0395
G01 X-4.3364 Y-6.0277
G01 X-4.2843 Y-6.0133
G01 X-4.2331 Y-5.9964
G01 X-4.1827 Y-5.9770
G01 X-4.1333 Y-5.9551
G01 X-4.0851 Y-5.9308
G01 X-4.0381 Y-5.9042
G01 X-3.9925 Y-5.8753
G01 X-3.9484 Y-5.8442
G01 X-3.9058 Y-5.8110
G01 X-3.8650 Y-5.7758
G01 X-3.8259 Y-5.7385
G01 X-3.7886 Y-5.6994
G01 X-3.7534 Y-5.6586
G01 X-3.7202 Y-5.6160
G01 X-3.6891 Y-5.5719
G01 X-3.6602 Y-5.5263
G01 X-3.6336 Y-5.4793
G01 X-3.6093 Y-5.4311
G01 X-3.5874 Y-5.3817
G01 X-3.5680 Y-5.3313
G01 X-3.5511 Y-5.2801
G01 X-3.5367 Y-5.2280
G01 X-3.5249 Y-5.1754
G01 X-3.5156 Y-5.1222
G01 X-3.5090 Y-5.0686
G01 X-3.5050 Y-5.0148
G01 X-3.5037 Y-4.9608
G00 X-3.5037 Y-4.9608
G01 F70.00
G01 Z-0.2000
G01 F60.00
G01 X-3.5050 Y-4.9068
G01 X-3.5090 Y-4.8530
G01 X-3.5156 Y-4.7994
G01 X-3.5249 Y-4.7462
G01 X-3.5367 Y-4.6936
G01 X-3.5511 Y-4.6415
G01 X-3.5680 Y-4.5903
G01 X-3.5874 Y-4.5399
G01 X-3.6093 Y-4.4905
G01 X-3.6336 Y-4.4423
G01 X-3.6602 Y-4.3953
G01 X-3.6891 Y-4.3497
G01 X-3.7202 Y-4.3056
G01 X-3.7534 Y-4.2630
G01 X-3.7886 Y-4.2222
G01 X-3.8259 Y-4.1831
G01 X-3.8650 Y-4.1458
G01 X-3.9058 Y-4.1106
G01 X-3.9484 Y-4.0774
G01 X-3.9925 Y-4.0463
G01 X-4.0381 Y-4.0174
G01 X-4.0851 Y-3.9908
G01 X-4.1333 Y-3.9665
G01 X-4.1827 Y-3.9446
G01 X-4.2331 Y-3.9252
G01 X-4.2843 Y-3.9083
G01 X-4.3364 Y-3.8939
G01 X-4.3890 Y-3.8821
G01 X-4.4422 Y-3.8728
G01 X-4.4958 Y-3.8662
G01 X-4.5496 Y-3.8622
G01 X-4.6036 Y-3.8609
G01 X-4.6576 Y-3.8622
G01 X-4.7114 Y-3.8662
G01 X-4.7650 Y-3.8728
G01 X-4.8182 Y-3.8821
G01 X-4.8708 Y-3.8939
G01 X-4.9229 Y-3.9083
G01 X-4.9741 Y-3.9252
G01 X-5.0245 Y-3.9446
G01 X-5.0739 Y-3.9665
G01 X-5.1221 Y-3.9908
G01 X-5.1691 Y-4.0174
G01 X-5.2147 Y-4.0463
G01 X-5.2588 Y-4.0774
G01 X-5.3014 Y-4.1106
G01 X-5.3422 Y-4.1458
G01 X-5.3813 Y-4.1831
G01 X-5.4186 Y-4.2222
G01 X-5.4538 Y-4.2630
G01 X-5.4870 Y-4.3056
G01 X-5.5181 Y-4.3497
G01 X-5.5470 Y-4.3953
G01 X-5.5736 Y-4.4423
G01 X-5.5979 Y-4.4905
G01 X-5.6198 Y-4.5399
G01 X-5.6392 Y-4.5903
G01 X-5.6561 Y-4.6415
G01 X-5.6705 Y-4.6936
G01 X-5.6823 Y-4.7462
G01 X-5.6916 Y-4.7994
G01 X-5.6982 Y-4.8530
G01 X-5.7022 Y-4.9068
G01 X-5.7035 Y-4.9608
G01 X-5.7022 Y-5.0148
G01 X-5.6982 Y-5.0686
G01 X-5.6916 Y-5.1222
G01 X-5.6823 Y-5.1754
G01 X-5.6705 Y-5.2280
G01 X-5.6561 Y-5.2801
G01 X-5.6392 Y-5.3313
G01 X-5.6198 Y-5.3817
G01 X-5.5979 Y-5.4311
G01 X-5.5736 Y-5.4793
G01 X-5.5470 Y-5.5263
G01 X-5.5181 Y-5.5719
G01 X-5.4870 Y-5.6160
G01 X-5.4538 Y-5.6586
G01 X-5.4186 Y-5.6994
G01 X-5.3813 Y-5.7385
G01 X-5.3422 Y-5.7758
G01 X-5.3014 Y-5.8110
G01 X-5.2588 Y-5.8442
G01 X-5.2147 Y-5.8753
G01 X-5.1691 Y-5.9042
G01 X-5.1221 Y-5.9308
G01 X-5.0739 Y-5.9551
G01 X-5.0245 Y-5.9770
G01 X-4.9741 Y-5.9964
G01 X-4.9229 Y-6.0133
G01 X-4.8708 Y-6.0277
G01 X-4.8182 Y-6.0395
G01 X-4.7650 Y-6.0488
G01 X-4.7114 Y-6.0554
G01 X-4.6576 Y-6.0594
G01 X-4.6036 Y-6.0607
G01 X-4.5496 Y-6.0594
G01 X-4.4958 Y-6.0554
G01 X-4.4422 Y-6.0488
G01 X-4.3890 Y-6.0395
G01 X-4.3364 Y-6.0277
G01 X-4.2843 Y-6.0133
G01 X-4.2331 Y-5.9964
G01 X-4.1827 Y-5.9770
G01 X-4.1333 Y-5.9551
G01 X-4.0851 Y-5.9308
G01 X-4.0381 Y-5.9042
G01 X-3.9925 Y-5.8753
G01 X-3.9484 Y-5.8442
G01 X-3.9058 Y-5.8110
G01 X-3.8650 Y-5.7758
G01 X-3.8259 Y-5.7385
G01 X-3.7886 Y-5.6994
G01 X-3.7534 Y-5.6586
G01 X-3.7202 Y-5.6160
G01 X-3.6891 Y-5.5719
G01 X-3.6602 Y-5.5263
G01 X-3.6336 Y-5.4793
G01 X-3.6093 Y-5.4311
G01 X-3.5874 Y-5.3817
G01 X-3.5680 Y-5.3313
G01 X-3.5511 Y-5.2801
G01 X-3.5367 Y-5.2280
G01 X-3.5249 Y-5.1754
G01 X-3.5156 Y-5.1222
G01 X-3.5090 Y-5.0686
G01 X-3.5050 Y-5.0148
G01 X-3.5037 Y-4.9608
G00 X-3.5037 Y-4.9608
G01 F70.00
G01 Z-0.3000
G01 F60.00
G01 X-3.5050 Y-4.9068
G01 X-3.5090 Y-4.8530
G01 X-3.5156 Y-4.7994
G01 X-3.5249 Y-4.7462
G01 X-3.5367 Y-4.6936
G01 X-3.5511 Y-4.6415
G01 X-3.5680 Y-4.5903
G01 X-3.5874 Y-4.5399
G01 X-3.6093 Y-4.4905
G01 X-3.6336 Y-4.4423
G01 X-3.6602 Y-4.3953
G01 X-3.6891 Y-4.3497
G01 X-3.7202 Y-4.3056
G01 X-3.7534 Y-4.2630
G01 X-3.7886 Y-4.2222
G01 X-3.8259 Y-4.1831
G01 X-3.8650 Y-4.1458
G01 X-3.9058 Y-4.1106
G01 X-3.9484 Y-4.0774
G01 X-3.9925 Y-4.0463
G01 X-4.0381 Y-4.0174
G01 X-4.0851 Y-3.9908
G01 X-4.1333 Y-3.9665
G01 X-4.1827 Y-3.9446
G01 X-4.2331 Y-3.9252
G01 X-4.2843 Y-3.9083
G01 X-4.3364 Y-3.8939
G01 X-4.3890 Y-3.8821
G01 X-4.4422 Y-3.8728
G01 X-4.4958 Y-3.8662
G01 X-4.5496 Y-3.8622
G01 X-4.6036 Y-3.8609
G01 X-4.6576 Y-3.8622
G01 X-4.7114 Y-3.8662
G01 X-4.7650 Y-3.8728
G01 X-4.8182 Y-3.8821
G01 X-4.8708 Y-3.8939
G01 X-4.9229 Y-3.9083
G01 X-4.9741 Y-3.9252
G01 X-5.0245 Y-3.9446
G01 X-5.0739 Y-3.9665
G01 X-5.1221 Y-3.9908
G01 X-5.1691 Y-4.0174
G01 X-5.2147 Y-4.0463
G01 X-5.2588 Y-4.0774
G01 X-5.3014 Y-4.1106
G01 X-5.3422 Y-4.1458
G01 X-5.3813 Y-4.1831
G01 X-5.4186 Y-4.2222
G01 X-5.4538 Y-4.2630
G01 X-5.4870 Y-4.3056
G01 X-5.5181 Y-4.3497
G01 X-5.5470 Y-4.3953
G01 X-5.5736 Y-4.4423
G01 X-5.5979 Y-4.4905
G01 X-5.6198 Y-4.5399
G01 X-5.6392 Y-4.5903
G01 X-5.6561 Y-4.6415
G01 X-5.6705 Y-4.6936
G01 X-5.6823 Y-4.7462
G01 X-5.6916 Y-4.7994
G01 X-5.6982 Y-4.8530
G01 X-5.7022 Y-4.9068
G01 X-5.7035 Y-4.9608
G01 X-5.7022 Y-5.0148
G01 X-5.6982 Y-5.0686
G01 X-5.6916 Y-5.1222
G01 X-5.6823 Y-5.1754
G01 X-5.6705 Y-5.2280
G01 X-5.6561 Y-5.2801
G01 X-5.6392 Y-5.3313
G01 X-5.6198 Y-5.3817
G01 X-5.5979 Y-5.4311
G01 X-5.5736 Y-5.4793
G01 X-5.5470 Y-5.5263
G01 X-5.5181 Y-5.5719
G01 X-5.4870 Y-5.6160
G01 X-5.4538 Y-5.6586
G01 X-5.4186 Y-5.6994
G01 X-5.3813 Y-5.7385
G01 X-5.3422 Y-5.7758
G01 X-5.3014 Y-5.8110
G01 X-5.2588 Y-5.8442
G01 X-5.2147 Y-5.8753
G01 X-5.1691 Y-5.9042
G01 X-5.1221 Y-5.9308
G01 X-5.0739 Y-5.9551
G01 X-5.0245 Y-5.9770
G01 X-4.9741 Y-5.9964
G01 X-4.9229 Y-6.0133
G01 X-4.8708 Y-6.0277
G01 X-4.8182 Y-6.0395
G01 X-4.7650 Y-6.0488
G01 X-4.7114 Y-6.0554
G01 X-4.6576 Y-6.0594
G01 X-4.6036 Y-6.0607
G01 X-4.5496 Y-6.0594
G01 X-4.4958 Y-6.0554
G01 X-4.4422 Y-6.0488
G01 X-4.3890 Y-6.0395
G01 X-4.3364 Y-6.0277
G01 X-4.2843 Y-6.0133
G01 X-4.2331 Y-5.9964
G01 X-4.1827 Y-5.9770
G01 X-4.1333 Y-5.9551
G01 X-4.0851 Y-5.9308
G01 X-4.0381 Y-5.9042
G01 X-3.9925 Y-5.8753
G01 X-3.9484 Y-5.8442
G01 X-3.9058 Y-5.8110
G01 X-3.8650 Y-5.7758
G01 X-3.8259 Y-5.7385
G01 X-3.7886 Y-5.6994
G01 X-3.7534 Y-5.6586
G01 X-3.7202 Y-5.6160
G01 X-3.6891 Y-5.5719
G01 X-3.6602 Y-5.5263
G01 X-3.6336 Y-5.4793
G01 X-3.6093 Y-5.4311
G01 X-3.5874 Y-5.3817
G01 X-3.5680 Y-5.3313
G01 X-3.5511 Y-5.2801
G01 X-3.5367 Y-5.2280
G01 X-3.5249 Y-5.1754
G01 X-3.5156 Y-5.1222
G01 X-3.5090 Y-5.0686
G01 X-3.5050 Y-5.0148
G01 X-3.5037 Y-4.9608
G00 X-3.5037 Y-4.9608
G01 F70.00
G01 Z-0.4000
G01 F60.00
G01 X-3.5050 Y-4.9068
G01 X-3.5090 Y-4.8530
G01 X-3.5156 Y-4.7994
G01 X-3.5249 Y-4.7462
G01 X-3.5367 Y-4.6936
G01 X-3.5511 Y-4.6415
G01 X-3.5680 Y-4.5903
G01 X-3.5874 Y-4.5399
G01 X-3.6093 Y-4.4905
G01 X-3.6336 Y-4.4423
G01 X-3.6602 Y-4.3953
G01 X-3.6891 Y-4.3497
G01 X-3.7202 Y-4.3056
G01 X-3.7534 Y-4.2630
G01 X-3.7886 Y-4.2222
G01 X-3.8259 Y-4.1831
G01 X-3.8650 Y-4.1458
G01 X-3.9058 Y-4.1106
G01 X-3.9484 Y-4.0774
G01 X-3.9925 Y-4.0463
G01 X-4.0381 Y-4.0174
G01 X-4.0851 Y-3.9908
G01 X-4.1333 Y-3.9665
G01 X-4.1827 Y-3.9446
G01 X-4.2331 Y-3.9252
G01 X-4.2843 Y-3.9083
G01 X-4.3364 Y-3.8939
G01 X-4.3890 Y-3.8821
G01 X-4.4422 Y-3.8728
G01 X-4.4958 Y-3.8662
G01 X-4.5496 Y-3.8622
G01 X-4.6036 Y-3.8609
G01 X-4.6576 Y-3.8622
G01 X-4.7114 Y-3.8662
G01 X-4.7650 Y-3.8728
G01 X-4.8182 Y-3.8821
G01 X-4.8708 Y-3.8939
G01 X-4.9229 Y-3.9083
G01 X-4.9741 Y-3.9252
G01 X-5.0245 Y-3.9446
G01 X-5.0739 Y-3.9665
G01 X-5.1221 Y-3.9908
G01 X-5.1691 Y-4.0174
G01 X-5.2147 Y-4.0463
G01 X-5.2588 Y-4.0774
G01 X-5.3014 Y-4.1106
G01 X-5.3422 Y-4.1458
G01 X-5.3813 Y-4.1831
G01 X-5.4186 Y-4.2222
G01 X-5.4538 Y-4.2630
G01 X-5.4870 Y-4.3056
G01 X-5.5181 Y-4.3497
G01 X-5.5470 Y-4.3953
G01 X-5.5736 Y-4.4423
G01 X-5.5979 Y-4.4905
G01 X-5.6198 Y-4.5399
G01 X-5.6392 Y-4.5903
G01 X-5.6561 Y-4.6415
G01 X-5.6705 Y-4.6936
G01 X-5.6823 Y-4.7462
G01 X-5.6916 Y-4.7994
G01 X-5.6982 Y-4.8530
G01 X-5.7022 Y-4.9068
G01 X-5.7035 Y-4.9608
G01 X-5.7022 Y-5.0148
G01 X-5.6982 Y-5.0686
G01 X-5.6916 Y-5.1222
G01 X-5.6823 Y-5.1754
G01 X-5.6705 Y-5.2280
G01 X-5.6561 Y-5.2801
G01 X-5.6392 Y-5.3313
G01 X-5.6198 Y-5.3817
G01 X-5.5979 Y-5.4311
G01 X-5.5736 Y-5.4793
G01 X-5.5470 Y-5.5263
G01 X-5.5181 Y-5.5719
G01 X-5.4870 Y-5.6160
G01 X-5.4538 Y-5.6586
G01 X-5.4186 Y-5.6994
G01 X-5.3813 Y-5.7385
G01 X-5.3422 Y-5.7758
G01 X-5.3014 Y-5.8110
G01 X-5.2588 Y-5.8442
G01 X-5.2147 Y-5.8753
G01 X-5.1691 Y-5.9042
G01 X-5.1221 Y-5.9308
G01 X-5.0739 Y-5.9551
G01 X-5.0245 Y-5.9770
G01 X-4.9741 Y-5.9964
G01 X-4.9229 Y-6.0133
G01 X-4.8708 Y-6.0277
G01 X-4.8182 Y-6.0395
G01 X-4.7650 Y-6.0488
G01 X-4.7114 Y-6.0554
G01 X-4.6576 Y-6.0594
G01 X-4.6036 Y-6.0607
G01 X-4.5496 Y-6.0594
G01 X-4.4958 Y-6.0554
G01 X-4.4422 Y-6.0488
G01 X-4.3890 Y-6.0395
G01 X-4.3364 Y-6.0277
G01 X-4.2843 Y-6.0133
G01 X-4.2331 Y-5.9964
G01 X-4.1827 Y-5.9770
G01 X-4.1333 Y-5.9551
G01 X-4.0851 Y-5.9308
G01 X-4.0381 Y-5.9042
G01 X-3.9925 Y-5.8753
G01 X-3.9484 Y-5.8442
G01 X-3.9058 Y-5.8110
G01 X-3.8650 Y-5.7758
G01 X-3.8259 Y-5.7385
G01 X-3.7886 Y-5.6994
G01 X-3.7534 Y-5.6586
G01 X-3.7202 Y-5.6160
G01 X-3.6891 Y-5.5719
G01 X-3.6602 Y-5.5263
G01 X-3.6336 Y-5.4793
G01 X-3.6093 Y-5.4311
G01 X-3.5874 Y-5.3817
G01 X-3.5680 Y-5.3313
G01 X-3.5511 Y-5.2801
G01 X-3.5367 Y-5.2280
G01 X-3.5249 Y-5.1754
G01 X-3.5156 Y-5.1222
G01 X-3.5090 Y-5.0686
G01 X-3.5050 Y-5.0148
G01 X-3.5037 Y-4.9608
G00 X-3.5037 Y-4.9608
G01 F70.00
G01 Z-0.5000
G01 F60.00
G01 X-3.5050 Y-4.9068
G01 X-3.5090 Y-4.8530
G01 X-3.5156 Y-4.7994
G01 X-3.5249 Y-4.7462
G01 X-3.5367 Y-4.6936
G01 X-3.5511 Y-4.6415
G01 X-3.5680 Y-4.5903
G01 X-3.5874 Y-4.5399
G01 X-3.6093 Y-4.4905
G01 X-3.6336 Y-4.4423
G01 X-3.6602 Y-4.3953
G01 X-3.6891 Y-4.3497
G01 X-3.7202 Y-4.3056
G01 X-3.7534 Y-4.2630
G01 X-3.7886 Y-4.2222
G01 X-3.8259 Y-4.1831
G01 X-3.8650 Y-4.1458
G01 X-3.9058 Y-4.1106
G01 X-3.9484 Y-4.0774
G01 X-3.9925 Y-4.0463
G01 X-4.0381 Y-4.0174
G01 X-4.0851 Y-3.9908
G01 X-4.1333 Y-3.9665
G01 X-4.1827 Y-3.9446
G01 X-4.2331 Y-3.9252
G01 X-4.2843 Y-3.9083
G01 X-4.3364 Y-3.8939
G01 X-4.3890 Y-3.8821
G01 X-4.4422 Y-3.8728
G01 X-4.4958 Y-3.8662
G01 X-4.5496 Y-3.8622
G01 X-4.6036 Y-3.8609
G01 X-4.6576 Y-3.8622
G01 X-4.7114 Y-3.8662
G01 X-4.7650 Y-3.8728
G01 X-4.8182 Y-3.8821
G01 X-4.8708 Y-3.8939
G01 X-4.9229 Y-3.9083
G01 X-4.9741 Y-3.9252
G01 X-5.0245 Y-3.9446
G01 X-5.0739 Y-3.9665
G01 X-5.1221 Y-3.9908
G01 X-5.1691 Y-4.0174
G01 X-5.2147 Y-4.0463
G01 X-5.2588 Y-4.0774
G01 X-5.3014 Y-4.1106
G01 X-5.3422 Y-4.1458
G01 X-5.3813 Y-4.1831
G01 X-5.4186 Y-4.2222
G01 X-5.4538 Y-4.2630
G01 X-5.4870 Y-4.3056
G01 X-5.5181 Y-4.3497
G01 X-5.5470 Y-4.3953
G01 X-5.5736 Y-4.4423
G01 X-5.5979 Y-4.4905
G01 X-5.6198 Y-4.5399
G01 X-5.6392 Y-4.5903
G01 X-5.6561 Y-4.6415
G01 X-5.6705 Y-4.6936
G01 X-5.6823 Y-4.7462
G01 X-5.6916 Y-4.7994
G01 X-5.6982 Y-4.8530
G01 X-5.7022 Y-4.9068
G01 X-5.7035 Y-4.9608
G01 X-5.7022 Y-5.0148
G01 X-5.6982 Y-5.0686
G01 X-5.6916 Y-5.1222
G01 X-5.6823 Y-5.1754
G01 X-5.6705 Y-5.2280
G01 X-5.6561 Y-5.2801
G01 X-5.6392 Y-5.3313
G01 X-5.6198 Y-5.3817
G01 X-5.5979 Y-5.4311
G01 X-5.5736 Y-5.4793
G01 X-5.5470 Y-5.5263
G01 X-5.5181 Y-5.5719
G01 X-5.4870 Y-5.6160
G01 X-5.4538 Y-5.6586
G01 X-5.4186 Y-5.6994
G01 X-5.3813 Y-5.7385
G01 X-5.3422 Y-5.7758
G01 X-5.3014 Y-5.8110
G01 X-5.2588 Y-5.8442
G01 X-5.2147 Y-5.8753
G01 X-5.1691 Y-5.9042
G01 X-5.1221 Y-5.9308
G01 X-5.0739 Y-5.9551
G01 X-5.0245 Y-5.9770
G01 X-4.9741 Y-5.9964
G01 X-4.9229 Y-6.0133
G01 X-4.8708 Y-6.0277
G01 X-4.8182 Y-6.0395
G01 X-4.7650 Y-6.0488
G01 X-4.7114 Y-6.0554
G01 X-4.6576 Y-6.0594
G01 X-4.6036 Y-6.0607
G01 X-4.5496 Y-6.0594
G01 X-4.4958 Y-6.0554
G01 X-4.4422 Y-6.0488
G01 X-4.3890 Y-6.0395
G01 X-4.3364 Y-6.0277
G01 X-4.2843 Y-6.0133
G01 X-4.2331 Y-5.9964
G01 X-4.1827 Y-5.9770
G01 X-4.1333 Y-5.9551
G01 X-4.0851 Y-5.9308
G01 X-4.0381 Y-5.9042
G01 X-3.9925 Y-5.8753
G01 X-3.9484 Y-5.8442
G01 X-3.9058 Y-5.8110
G01 X-3.8650 Y-5.7758
G01 X-3.8259 Y-5.7385
G01 X-3.7886 Y-5.6994
G01 X-3.7534 Y-5.6586
G01 X-3.7202 Y-5.6160
G01 X-3.6891 Y-5.5719
G01 X-3.6602 Y-5.5263
G01 X-3.6336 Y-5.4793
G01 X-3.6093 Y-5.4311
G01 X-3.5874 Y-5.3817
G01 X-3.5680 Y-5.3313
G01 X-3.5511 Y-5.2801
G01 X-3.5367 Y-5.2280
G01 X-3.5249 Y-5.1754
G01 X-3.5156 Y-5.1222
G01 X-3.5090 Y-5.0686
G01 X-3.5050 Y-5.0148
G01 X-3.5037 Y-4.9608
G00 X-3.5037 Y-4.9608
G01 F70.00
G01 Z-0.6000
G01 F60.00
G01 X-3.5050 Y-4.9068
G01 X-3.5090 Y-4.8530
G01 X-3.5156 Y-4.7994
G01 X-3.5249 Y-4.7462
G01 X-3.5367 Y-4.6936
G01 X-3.5511 Y-4.6415
G01 X-3.5680 Y-4.5903
G01 X-3.5874 Y-4.5399
G01 X-3.6093 Y-4.4905
G01 X-3.6336 Y-4.4423
G01 X-3.6602 Y-4.3953
G01 X-3.6891 Y-4.3497
G01 X-3.7202 Y-4.3056
G01 X-3.7534 Y-4.2630
G01 X-3.7886 Y-4.2222
G01 X-3.8259 Y-4.1831
G01 X-3.8650 Y-4.1458
G01 X-3.9058 Y-4.1106
G01 X-3.9484 Y-4.0774
G01 X-3.9925 Y-4.0463
G01 X-4.0381 Y-4.0174
G01 X-4.0851 Y-3.9908
G01 X-4.1333 Y-3.9665
G01 X-4.1827 Y-3.9446
G01 X-4.2331 Y-3.9252
G01 X-4.2843 Y-3.9083
G01 X-4.3364 Y-3.8939
G01 X-4.3890 Y-3.8821
G01 X-4.4422 Y-3.8728
G01 X-4.4958 Y-3.8662
G01 X-4.5496 Y-3.8622
G01 X-4.6036 Y-3.8609
G01 X-4.6576 Y-3.8622
G01 X-4.7114 Y-3.8662
G01 X-4.7650 Y-3.8728
G01 X-4.8182 Y-3.8821
G01 X-4.8708 Y-3.8939
G01 X-4.9229 Y-3.9083
G01 X-4.9741 Y-3.9252
G01 X-5.0245 Y-3.9446
G01 X-5.0739 Y-3.9665
G01 X-5.1221 Y-3.9908
G01 X-5.1691 Y-4.0174
G01 X-5.2147 Y-4.0463
G01 X-5.2588 Y-4.0774
G01 X-5.3014 Y-4.1106
G01 X-5.3422 Y-4.1458
G01 X-5.3813 Y-4.1831
G01 X-5.4186 Y-4.2222
G01 X-5.4538 Y-4.2630
G01 X-5.4870 Y-4.3056
G01 X-5.5181 Y-4.3497
G01 X-5.5470 Y-4.3953
G01 X-5.5736 Y-4.4423
G01 X-5.5979 Y-4.4905
G01 X-5.6198 Y-4.5399
G01 X-5.6392 Y-4.5903
G01 X-5.6561 Y-4.6415
G01 X-5.6705 Y-4.6936
G01 X-5.6823 Y-4.7462
G01 X-5.6916 Y-4.7994
G01 X-5.6982 Y-4.8530
G01 X-5.7022 Y-4.9068
G01 X-5.7035 Y-4.9608
G01 X-5.7022 Y-5.0148
G01 X-5.6982 Y-5.0686
G01 X-5.6916 Y-5.1222
G01 X-5.6823 Y-5.1754
G01 X-5.6705 Y-5.2280
G01 X-5.6561 Y-5.2801
G01 X-5.6392 Y-5.3313
G01 X-5.6198 Y-5.3817
G01 X-5.5979 Y-5.4311
G01 X-5.5736 Y-5.4793
G01 X-5.5470 Y-5.5263
G01 X-5.5181 Y-5.5719
G01 X-5.4870 Y-5.6160
G01 X-5.4538 Y-5.6586
G01 X-5.4186 Y-5.6994
G01 X-5.3813 Y-5.7385
G01 X-5.3422 Y-5.7758
G01 X-5.3014 Y-5.8110
G01 X-5.2588 Y-5.8442
G01 X-5.2147 Y-5.8753
G01 X-5.1691 Y-5.9042
G01 X-5.1221 Y-5.9308
G01 X-5.0739 Y-5.9551
G01 X-5.0245 Y-5.9770
G01 X-4.9741 Y-5.9964
G01 X-4.9229 Y-6.0133
G01 X-4.8708 Y-6.0277
G01 X-4.8182 Y-6.0395
G01 X-4.7650 Y-6.0488
G01 X-4.7114 Y-6.0554
G01 X-4.6576 Y-6.0594
G01 X-4.6036 Y-6.0607
G01 X-4.5496 Y-6.0594
G01 X-4.4958 Y-6.0554
G01 X-4.4422 Y-6.0488
G01 X-4.3890 Y-6.0395
G01 X-4.3364 Y-6.0277
G01 X-4.2843 Y-6.0133
G01 X-4.2331 Y-5.9964
G01 X-4.1827 Y-5.9770
G01 X-4.1333 Y-5.9551
G01 X-4.0851 Y-5.9308
G01 X-4.0381 Y-5.9042
G01 X-3.9925 Y-5.8753
G01 X-3.9484 Y-5.8442
G01 X-3.9058 Y-5.8110
G01 X-3.8650 Y-5.7758
G01 X-3.8259 Y-5.7385
G01 X-3.7886 Y-5.6994
G01 X-3.7534 Y-5.6586
G01 X-3.7202 Y-5.6160
G01 X-3.6891 Y-5.5719
G01 X-3.6602 Y-5.5263
G01 X-3.6336 Y-5.4793
G01 X-3.6093 Y-5.4311
G01 X-3.5874 Y-5.3817
G01 X-3.5680 Y-5.3313
G01 X-3.5511 Y-5.2801
G01 X-3.5367 Y-5.2280
G01 X-3.5249 Y-5.1754
G01 X-3.5156 Y-5.1222
G01 X-3.5090 Y-5.0686
G01 X-3.5050 Y-5.0148
G01 X-3.5037 Y-4.9608
G00 X-3.5037 Y-4.9608
G01 F70.00
G01 Z-0.7000
G01 F60.00
G01 X-3.5050 Y-4.9068
G01 X-3.5090 Y-4.8530
G01 X-3.5156 Y-4.7994
G01 X-3.5249 Y-4.7462
G01 X-3.5367 Y-4.6936
G01 X-3.5511 Y-4.6415
G01 X-3.5680 Y-4.5903
G01 X-3.5874 Y-4.5399
G01 X-3.6093 Y-4.4905
G01 X-3.6336 Y-4.4423
G01 X-3.6602 Y-4.3953
G01 X-3.6891 Y-4.3497
G01 X-3.7202 Y-4.3056
G01 X-3.7534 Y-4.2630
G01 X-3.7886 Y-4.2222
G01 X-3.8259 Y-4.1831
G01 X-3.8650 Y-4.1458
G01 X-3.9058 Y-4.1106
G01 X-3.9484 Y-4.0774
G01 X-3.9925 Y-4.0463
G01 X-4.0381 Y-4.0174
G01 X-4.0851 Y-3.9908
G01 X-4.1333 Y-3.9665
G01 X-4.1827 Y-3.9446
G01 X-4.2331 Y-3.9252
G01 X-4.2843 Y-3.9083
G01 X-4.3364 Y-3.8939
G01 X-4.3890 Y-3.8821
G01 X-4.4422 Y-3.8728
G01 X-4.4958 Y-3.8662
G01 X-4.5496 Y-3.8622
G01 X-4.6036 Y-3.8609
G01 X-4.6576 Y-3.8622
G01 X-4.7114 Y-3.8662
G01 X-4.7650 Y-3.8728
G01 X-4.8182 Y-3.8821
G01 X-4.8708 Y-3.8939
G01 X-4.9229 Y-3.9083
G01 X-4.9741 Y-3.9252
G01 X-5.0245 Y-3.9446
G01 X-5.0739 Y-3.9665
G01 X-5.1221 Y-3.9908
G01 X-5.1691 Y-4.0174
G01 X-5.2147 Y-4.0463
G01 X-5.2588 Y-4.0774
G01 X-5.3014 Y-4.1106
G01 X-5.3422 Y-4.1458
G01 X-5.3813 Y-4.1831
G01 X-5.4186 Y-4.2222
G01 X-5.4538 Y-4.2630
G01 X-5.4870 Y-4.3056
G01 X-5.5181 Y-4.3497
G01 X-5.5470 Y-4.3953
G01 X-5.5736 Y-4.4423
G01 X-5.5979 Y-4.4905
G01 X-5.6198 Y-4.5399
G01 X-5.6392 Y-4.5903
G01 X-5.6561 Y-4.6415
G01 X-5.6705 Y-4.6936
G01 X-5.6823 Y-4.7462
G01 X-5.6916 Y-4.7994
G01 X-5.6982 Y-4.8530
G01 X-5.7022 Y-4.9068
G01 X-5.7035 Y-4.9608
G01 X-5.7022 Y-5.0148
G01 X-5.6982 Y-5.0686
G01 X-5.6916 Y-5.1222
G01 X-5.6823 Y-5.1754
G01 X-5.6705 Y-5.2280
G01 X-5.6561 Y-5.2801
G01 X-5.6392 Y-5.3313
G01 X-5.6198 Y-5.3817
G01 X-5.5979 Y-5.4311
G01 X-5.5736 Y-5.4793
G01 X-5.5470 Y-5.5263
G01 X-5.5181 Y-5.5719
G01 X-5.4870 Y-5.6160
G01 X-5.4538 Y-5.6586
G01 X-5.4186 Y-5.6994
G01 X-5.3813 Y-5.7385
G01 X-5.3422 Y-5.7758
G01 X-5.3014 Y-5.8110
G01 X-5.2588 Y-5.8442
G01 X-5.2147 Y-5.8753
G01 X-5.1691 Y-5.9042
G01 X-5.1221 Y-5.9308
G01 X-5.0739 Y-5.9551
G01 X-5.0245 Y-5.9770
G01 X-4.9741 Y-5.9964
G01 X-4.9229 Y-6.0133
G01 X-4.8708 Y-6.0277
G01 X-4.8182 Y-6.0395
G01 X-4.7650 Y-6.0488
G01 X-4.7114 Y-6.0554
G01 X-4.6576 Y-6.0594
G01 X-4.6036 Y-6.0607
G01 X-4.5496 Y-6.0594
G01 X-4.4958 Y-6.0554
G01 X-4.4422 Y-6.0488
G01 X-4.3890 Y-6.0395
G01 X-4.3364 Y-6.0277
G01 X-4.2843 Y-6.0133
G01 X-4.2331 Y-5.9964
G01 X-4.1827 Y-5.9770
G01 X-4.1333 Y-5.9551
G01 X-4.0851 Y-5.9308
G01 X-4.0381 Y-5.9042
G01 X-3.9925 Y-5.8753
G01 X-3.9484 Y-5.8442
G01 X-3.9058 Y-5.8110
G01 X-3.8650 Y-5.7758
G01 X-3.8259 Y-5.7385
G01 X-3.7886 Y-5.6994
G01 X-3.7534 Y-5.6586
G01 X-3.7202 Y-5.6160
G01 X-3.6891 Y-5.5719
G01 X-3.6602 Y-5.5263
G01 X-3.6336 Y-5.4793
G01 X-3.6093 Y-5.4311
G01 X-3.5874 Y-5.3817
G01 X-3.5680 Y-5.3313
G01 X-3.5511 Y-5.2801
G01 X-3.5367 Y-5.2280
G01 X-3.5249 Y-5.1754
G01 X-3.5156 Y-5.1222
G01 X-3.5090 Y-5.0686
G01 X-3.5050 Y-5.0148
G01 X-3.5037 Y-4.9608
G00 X-3.5037 Y-4.9608
G01 F70.00
G01 Z-0.8000
G01 F60.00
G01 X-3.5050 Y-4.9068
G01 X-3.5090 Y-4.8530
G01 X-3.5156 Y-4.7994
G01 X-3.5249 Y-4.7462
G01 X-3.5367 Y-4.6936
G01 X-3.5511 Y-4.6415
G01 X-3.5680 Y-4.5903
G01 X-3.5874 Y-4.5399
G01 X-3.6093 Y-4.4905
G01 X-3.6336 Y-4.4423
G01 X-3.6602 Y-4.3953
G01 X-3.6891 Y-4.3497
G01 X-3.7202 Y-4.3056
G01 X-3.7534 Y-4.2630
G01 X-3.7886 Y-4.2222
G01 X-3.8259 Y-4.1831
G01 X-3.8650 Y-4.1458
G01 X-3.9058 Y-4.1106
G01 X-3.9484 Y-4.0774
G01 X-3.9925 Y-4.0463
G01 X-4.0381 Y-4.0174
G01 X-4.0851 Y-3.9908
G01 X-4.1333 Y-3.9665
G01 X-4.1827 Y-3.9446
G01 X-4.2331 Y-3.9252
G01 X-4.2843 Y-3.9083
G01 X-4.3364 Y-3.8939
G01 X-4.3890 Y-3.8821
G01 X-4.4422 Y-3.8728
G01 X-4.4958 Y-3.8662
G01 X-4.5496 Y-3.8622
G01 X-4.6036 Y-3.8609
G01 X-4.6576 Y-3.8622
G01 X-4.7114 Y-3.8662
G01 X-4.7650 Y-3.8728
G01 X-4.8182 Y-3.8821
G01 X-4.8708 Y-3.8939
G01 X-4.9229 Y-3.9083
G01 X-4.9741 Y-3.9252
G01 X-5.0245 Y-3.9446
G01 X-5.0739 Y-3.9665
G01 X-5.1221 Y-3.9908
G01 X-5.1691 Y-4.0174
G01 X-5.2147 Y-4.0463
G01 X-5.2588 Y-4.0774
G01 X-5.3014 Y-4.1106
G01 X-5.3422 Y-4.1458
G01 X-5.3813 Y-4.1831
G01 X-5.4186 Y-4.2222
G01 X-5.4538 Y-4.2630
G01 X-5.4870 Y-4.3056
G01 X-5.5181 Y-4.3497
G01 X-5.5470 Y-4.3953
G01 X-5.5736 Y-4.4423
G01 X-5.5979 Y-4.4905
G01 X-5.6198 Y-4.5399
G01 X-5.6392 Y-4.5903
G01 X-5.6561 Y-4.6415
G01 X-5.6705 Y-4.6936
G01 X-5.6823 Y-4.7462
G01 X-5.6916 Y-4.7994
G01 X-5.6982 Y-4.8530
G01 X-5.7022 Y-4.9068
G01 X-5.7035 Y-4.9608
G01 X-5.7022 Y-5.0148
G01 X-5.6982 Y-5.0686
G01 X-5.6916 Y-5.1222
G01 X-5.6823 Y-5.1754
G01 X-5.6705 Y-5.2280
G01 X-5.6561 Y-5.2801
G01 X-5.6392 Y-5.3313
G01 X-5.6198 Y-5.3817
G01 X-5.5979 Y-5.4311
G01 X-5.5736 Y-5.4793
G01 X-5.5470 Y-5.5263
G01 X-5.5181 Y-5.5719
G01 X-5.4870 Y-5.6160
G01 X-5.4538 Y-5.6586
G01 X-5.4186 Y-5.6994
G01 X-5.3813 Y-5.7385
G01 X-5.3422 Y-5.7758
G01 X-5.3014 Y-5.8110
G01 X-5.2588 Y-5.8442
G01 X-5.2147 Y-5.8753
G01 X-5.1691 Y-5.9042
G01 X-5.1221 Y-5.9308
G01 X-5.0739 Y-5.9551
G01 X-5.0245 Y-5.9770
G01 X-4.9741 Y-5.9964
G01 X-4.9229 Y-6.0133
G01 X-4.8708 Y-6.0277
G01 X-4.8182 Y-6.0395
G01 X-4.7650 Y-6.0488
G01 X-4.7114 Y-6.0554
G01 X-4.6576 Y-6.0594
G01 X-4.6036 Y-6.0607
G01 X-4.5496 Y-6.0594
G01 X-4.4958 Y-6.0554
G01 X-4.4422 Y-6.0488
G01 X-4.3890 Y-6.0395
G01 X-4.3364 Y-6.0277
G01 X-4.2843 Y-6.0133
G01 X-4.2331 Y-5.9964
G01 X-4.1827 Y-5.9770
G01 X-4.1333 Y-5.9551
G01 X-4.0851 Y-5.9308
G01 X-4.0381 Y-5.9042
G01 X-3.9925 Y-5.8753
G01 X-3.9484 Y-5.8442
G01 X-3.9058 Y-5.8110
G01 X-3.8650 Y-5.7758
G01 X-3.8259 Y-5.7385
G01 X-3.7886 Y-5.6994
G01 X-3.7534 Y-5.6586
G01 X-3.7202 Y-5.6160
G01 X-3.6891 Y-5.5719
G01 X-3.6602 Y-5.5263
G01 X-3.6336 Y-5.4793
G01 X-3.6093 Y-5.4311
G01 X-3.5874 Y-5.3817
G01 X-3.5680 Y-5.3313
G01 X-3.5511 Y-5.2801
G01 X-3.5367 Y-5.2280
G01 X-3.5249 Y-5.1754
G01 X-3.5156 Y-5.1222
G01 X-3.5090 Y-5.0686
G01 X-3.5050 Y-5.0148
G01 X-3.5037 Y-4.9608
G00 X-3.5037 Y-4.9608
G01 F70.00
G01 Z-0.9000
G01 F60.00
G01 X-3.5050 Y-4.9068
G01 X-3.5090 Y-4.8530
G01 X-3.5156 Y-4.7994
G01 X-3.5249 Y-4.7462
G01 X-3.5367 Y-4.6936
G01 X-3.5511 Y-4.6415
G01 X-3.5680 Y-4.5903
G01 X-3.5874 Y-4.5399
G01 X-3.6093 Y-4.4905
G01 X-3.6336 Y-4.4423
G01 X-3.6602 Y-4.3953
G01 X-3.6891 Y-4.3497
G01 X-3.7202 Y-4.3056
G01 X-3.7534 Y-4.2630
G01 X-3.7886 Y-4.2222
G01 X-3.8259 Y-4.1831
G01 X-3.8650 Y-4.1458
G01 X-3.9058 Y-4.1106
G01 X-3.9484 Y-4.0774
G01 X-3.9925 Y-4.0463
G01 X-4.0381 Y-4.0174
G01 X-4.0851 Y-3.9908
G01 X-4.1333 Y-3.9665
G01 X-4.1827 Y-3.9446
G01 X-4.2331 Y-3.9252
G01 X-4.2843 Y-3.9083
G01 X-4.3364 Y-3.8939
G01 X-4.3890 Y-3.8821
G01 X-4.4422 Y-3.8728
G01 X-4.4958 Y-3.8662
G01 X-4.5496 Y-3.8622
G01 X-4.6036 Y-3.8609
G01 X-4.6576 Y-3.8622
G01 X-4.7114 Y-3.8662
G01 X-4.7650 Y-3.8728
G01 X-4.8182 Y-3.8821
G01 X-4.8708 Y-3.8939
G01 X-4.9229 Y-3.9083
G01 X-4.9741 Y-3.9252
G01 X-5.0245 Y-3.9446
G01 X-5.0739 Y-3.9665
G01 X-5.1221 Y-3.9908
G01 X-5.1691 Y-4.0174
G01 X-5.2147 Y-4.0463
G01 X-5.2588 Y-4.0774
G01 X-5.3014 Y-4.1106
G01 X-5.3422 Y-4.1458
G01 X-5.3813 Y-4.1831
G01 X-5.4186 Y-4.2222
G01 X-5.4538 Y-4.2630
G01 X-5.4870 Y-4.3056
G01 X-5.5181 Y-4.3497
G01 X-5.5470 Y-4.3953
G01 X-5.5736 Y-4.4423
G01 X-5.5979 Y-4.4905
G01 X-5.6198 Y-4.5399
G01 X-5.6392 Y-4.5903
G01 X-5.6561 Y-4.6415
G01 X-5.6705 Y-4.6936
G01 X-5.6823 Y-4.7462
G01 X-5.6916 Y-4.7994
G01 X-5.6982 Y-4.8530
G01 X-5.7022 Y-4.9068
G01 X-5.7035 Y-4.9608
G01 X-5.7022 Y-5.0148
G01 X-5.6982 Y-5.0686
G01 X-5.6916 Y-5.1222
G01 X-5.6823 Y-5.1754
G01 X-5.6705 Y-5.2280
G01 X-5.6561 Y-5.2801
G01 X-5.6392 Y-5.3313
G01 X-5.6198 Y-5.3817
G01 X-5.5979 Y-5.4311
G01 X-5.5736 Y-5.4793
G01 X-5.5470 Y-5.5263
G01 X-5.5181 Y-5.5719
G01 X-5.4870 Y-5.6160
G01 X-5.4538 Y-5.6586
G01 X-5.4186 Y-5.6994
G01 X-5.3813 Y-5.7385
G01 X-5.3422 Y-5.7758
G01 X-5.3014 Y-5.8110
G01 X-5.2588 Y-5.8442
G01 X-5.2147 Y-5.8753
G01 X-5.1691 Y-5.9042
G01 X-5.1221 Y-5.9308
G01 X-5.0739 Y-5.9551
G01 X-5.0245 Y-5.9770
G01 X-4.9741 Y-5.9964
G01 X-4.9229 Y-6.0133
G01 X-4.8708 Y-6.0277
G01 X-4.8182 Y-6.0395
G01 X-4.7650 Y-6.0488
G01 X-4.7114 Y-6.0554
G01 X-4.6576 Y-6.0594
G01 X-4.6036 Y-6.0607
G01 X-4.5496 Y-6.0594
G01 X-4.4958 Y-6.0554
G01 X-4.4422 Y-6.0488
G01 X-4.3890 Y-6.0395
G01 X-4.3364 Y-6.0277
G01 X-4.2843 Y-6.0133
G01 X-4.2331 Y-5.9964
G01 X-4.1827 Y-5.9770
G01 X-4.1333 Y-5.9551
G01 X-4.0851 Y-5.9308
G01 X-4.0381 Y-5.9042
G01 X-3.9925 Y-5.8753
G01 X-3.9484 Y-5.8442
G01 X-3.9058 Y-5.8110
G01 X-3.8650 Y-5.7758
G01 X-3.8259 Y-5.7385
G01 X-3.7886 Y-5.6994
G01 X-3.7534 Y-5.6586
G01 X-3.7202 Y-5.6160
G01 X-3.6891 Y-5.5719
G01 X-3.6602 Y-5.5263
G01 X-3.6336 Y-5.4793
G01 X-3.6093 Y-5.4311
G01 X-3.5874 Y-5.3817
G01 X-3.5680 Y-5.3313
G01 X-3.5511 Y-5.2801
G01 X-3.5367 Y-5.2280
G01 X-3.5249 Y-5.1754
G01 X-3.5156 Y-5.1222
G01 X-3.5090 Y-5.0686
G01 X-3.5050 Y-5.0148
G01 X-3.5037 Y-4.9608
G00 X-3.5037 Y-4.9608
G01 F70.00
G01 Z-1.0000
G01 F60.00
G01 X-3.5050 Y-4.9068
G01 X-3.5090 Y-4.8530
G01 X-3.5156 Y-4.7994
G01 X-3.5249 Y-4.7462
G01 X-3.5367 Y-4.6936
G01 X-3.5511 Y-4.6415
G01 X-3.5680 Y-4.5903
G01 X-3.5874 Y-4.5399
G01 X-3.6093 Y-4.4905
G01 X-3.6336 Y-4.4423
G01 X-3.6602 Y-4.3953
G01 X-3.6891 Y-4.3497
G01 X-3.7202 Y-4.3056
G01 X-3.7534 Y-4.2630
G01 X-3.7886 Y-4.2222
G01 X-3.8259 Y-4.1831
G01 X-3.8650 Y-4.1458
G01 X-3.9058 Y-4.1106
G01 X-3.9484 Y-4.0774
G01 X-3.9925 Y-4.0463
G01 X-4.0381 Y-4.0174
G01 X-4.0851 Y-3.9908
G01 X-4.1333 Y-3.9665
G01 X-4.1827 Y-3.9446
G01 X-4.2331 Y-3.9252
G01 X-4.2843 Y-3.9083
G01 X-4.3364 Y-3.8939
G01 X-4.3890 Y-3.8821
G01 X-4.4422 Y-3.8728
G01 X-4.4958 Y-3.8662
G01 X-4.5496 Y-3.8622
G01 X-4.6036 Y-3.8609
G01 X-4.6576 Y-3.8622
G01 X-4.7114 Y-3.8662
G01 X-4.7650 Y-3.8728
G01 X-4.8182 Y-3.8821
G01 X-4.8708 Y-3.8939
G01 X-4.9229 Y-3.9083
G01 X-4.9741 Y-3.9252
G01 X-5.0245 Y-3.9446
G01 X-5.0739 Y-3.9665
G01 X-5.1221 Y-3.9908
G01 X-5.1691 Y-4.0174
G01 X-5.2147 Y-4.0463
G01 X-5.2588 Y-4.0774
G01 X-5.3014 Y-4.1106
G01 X-5.3422 Y-4.1458
G01 X-5.3813 Y-4.1831
G01 X-5.4186 Y-4.2222
G01 X-5.4538 Y-4.2630
G01 X-5.4870 Y-4.3056
G01 X-5.5181 Y-4.3497
G01 X-5.5470 Y-4.3953
G01 X-5.5736 Y-4.4423
G01 X-5.5979 Y-4.4905
G01 X-5.6198 Y-4.5399
G01 X-5.6392 Y-4.5903
G01 X-5.6561 Y-4.6415
G01 X-5.6705 Y-4.6936
G01 X-5.6823 Y-4.7462
G01 X-5.6916 Y-4.7994
G01 X-5.6982 Y-4.8530
G01 X-5.7022 Y-4.9068
G01 X-5.7035 Y-4.9608
G01 X-5.7022 Y-5.0148
G01 X-5.6982 Y-5.0686
G01 X-5.6916 Y-5.1222
G01 X-5.6823 Y-5.1754
G01 X-5.6705 Y-5.2280
G01 X-5.6561 Y-5.2801
G01 X-5.6392 Y-5.3313
G01 X-5.6198 Y-5.3817
G01 X-5.5979 Y-5.4311
G01 X-5.5736 Y-5.4793
G01 X-5.5470 Y-5.5263
G01 X-5.5181 Y-5.5719
G01 X-5.4870 Y-5.6160
G01 X-5.4538 Y-5.6586
G01 X-5.4186 Y-5.6994
G01 X-5.3813 Y-5.7385
G01 X-5.3422 Y-5.7758
G01 X-5.3014 Y-5.8110
G01 X-5.2588 Y-5.8442
G01 X-5.2147 Y-5.8753
G01 X-5.1691 Y-5.9042
G01 X-5.1221 Y-5.9308
G01 X-5.0739 Y-5.9551
G01 X-5.0245 Y-5.9770
G01 X-4.9741 Y-5.9964
G01 X-4.9229 Y-6.0133
G01 X-4.8708 Y-6.0277
G01 X-4.8182 Y-6.0395
G01 X-4.7650 Y-6.0488
G01 X-4.7114 Y-6.0554
G01 X-4.6576 Y-6.0594
G01 X-4.6036 Y-6.0607
G01 X-4.5496 Y-6.0594
G01 X-4.4958 Y-6.0554
G01 X-4.4422 Y-6.0488
G01 X-4.3890 Y-6.0395
G01 X-4.3364 Y-6.0277
G01 X-4.2843 Y-6.0133
G01 X-4.2331 Y-5.9964
G01 X-4.1827 Y-5.9770
G01 X-4.1333 Y-5.9551
G01 X-4.0851 Y-5.9308
G01 X-4.0381 Y-5.9042
G01 X-3.9925 Y-5.8753
G01 X-3.9484 Y-5.8442
G01 X-3.9058 Y-5.8110
G01 X-3.8650 Y-5.7758
G01 X-3.8259 Y-5.7385
G01 X-3.7886 Y-5.6994
G01 X-3.7534 Y-5.6586
G01 X-3.7202 Y-5.6160
G01 X-3.6891 Y-5.5719
G01 X-3.6602 Y-5.5263
G01 X-3.6336 Y-5.4793
G01 X-3.6093 Y-5.4311
G01 X-3.5874 Y-5.3817
G01 X-3.5680 Y-5.3313
G01 X-3.5511 Y-5.2801
G01 X-3.5367 Y-5.2280
G01 X-3.5249 Y-5.1754
G01 X-3.5156 Y-5.1222
G01 X-3.5090 Y-5.0686
G01 X-3.5050 Y-5.0148
G01 X-3.5037 Y-4.9608
G00 X-3.5037 Y-4.9608
G01 F70.00
G01 Z-1.1000
G01 F60.00
G01 X-3.5050 Y-4.9068
G01 X-3.5090 Y-4.8530
G01 X-3.5156 Y-4.7994
G01 X-3.5249 Y-4.7462
G01 X-3.5367 Y-4.6936
G01 X-3.5511 Y-4.6415
G01 X-3.5680 Y-4.5903
G01 X-3.5874 Y-4.5399
G01 X-3.6093 Y-4.4905
G01 X-3.6336 Y-4.4423
G01 X-3.6602 Y-4.3953
G01 X-3.6891 Y-4.3497
G01 X-3.7202 Y-4.3056
G01 X-3.7534 Y-4.2630
G01 X-3.7886 Y-4.2222
G01 X-3.8259 Y-4.1831
G01 X-3.8650 Y-4.1458
G01 X-3.9058 Y-4.1106
G01 X-3.9484 Y-4.0774
G01 X-3.9925 Y-4.0463
G01 X-4.0381 Y-4.0174
G01 X-4.0851 Y-3.9908
G01 X-4.1333 Y-3.9665
G01 X-4.1827 Y-3.9446
G01 X-4.2331 Y-3.9252
G01 X-4.2843 Y-3.9083
G01 X-4.3364 Y-3.8939
G01 X-4.3890 Y-3.8821
G01 X-4.4422 Y-3.8728
G01 X-4.4958 Y-3.8662
G01 X-4.5496 Y-3.8622
G01 X-4.6036 Y-3.8609
G01 X-4.6576 Y-3.8622
G01 X-4.7114 Y-3.8662
G01 X-4.7650 Y-3.8728
G01 X-4.8182 Y-3.8821
G01 X-4.8708 Y-3.8939
G01 X-4.9229 Y-3.9083
G01 X-4.9741 Y-3.9252
G01 X-5.0245 Y-3.9446
G01 X-5.0739 Y-3.9665
G01 X-5.1221 Y-3.9908
G01 X-5.1691 Y-4.0174
G01 X-5.2147 Y-4.0463
G01 X-5.2588 Y-4.0774
G01 X-5.3014 Y-4.1106
G01 X-5.3422 Y-4.1458
G01 X-5.3813 Y-4.1831
G01 X-5.4186 Y-4.2222
G01 X-5.4538 Y-4.2630
G01 X-5.4870 Y-4.3056
G01 X-5.5181 Y-4.3497
G01 X-5.5470 Y-4.3953
G01 X-5.5736 Y-4.4423
G01 X-5.5979 Y-4.4905
G01 X-5.6198 Y-4.5399
G01 X-5.6392 Y-4.5903
G01 X-5.6561 Y-4.6415
G01 X-5.6705 Y-4.6936
G01 X-5.6823 Y-4.7462
G01 X-5.6916 Y-4.7994
G01 X-5.6982 Y-4.8530
G01 X-5.7022 Y-4.9068
G01 X-5.7035 Y-4.9608
G01 X-5.7022 Y-5.0148
G01 X-5.6982 Y-5.0686
G01 X-5.6916 Y-5.1222
G01 X-5.6823 Y-5.1754
G01 X-5.6705 Y-5.2280
G01 X-5.6561 Y-5.2801
G01 X-5.6392 Y-5.3313
G01 X-5.6198 Y-5.3817
G01 X-5.5979 Y-5.4311
G01 X-5.5736 Y-5.4793
G01 X-5.5470 Y-5.5263
G01 X-5.5181 Y-5.5719
G01 X-5.4870 Y-5.6160
G01 X-5.4538 Y-5.6586
G01 X-5.4186 Y-5.6994
G01 X-5.3813 Y-5.7385
G01 X-5.3422 Y-5.7758
G01 X-5.3014 Y-5.8110
G01 X-5.2588 Y-5.8442
G01 X-5.2147 Y-5.8753
G01 X-5.1691 Y-5.9042
G01 X-5.1221 Y-5.9308
G01 X-5.0739 Y-5.9551
G01 X-5.0245 Y-5.9770
G01 X-4.9741 Y-5.9964
G01 X-4.9229 Y-6.0133
G01 X-4.8708 Y-6.0277
G01 X-4.8182 Y-6.0395
G01 X-4.7650 Y-6.0488
G01 X-4.7114 Y-6.0554
G01 X-4.6576 Y-6.0594
G01 X-4.6036 Y-6.0607
G01 X-4.5496 Y-6.0594
G01 X-4.4958 Y-6.0554
G01 X-4.4422 Y-6.0488
G01 X-4.3890 Y-6.0395
G01 X-4.3364 Y-6.0277
G01 X-4.2843 Y-6.0133
G01 X-4.2331 Y-5.9964
G01 X-4.1827 Y-5.9770
G01 X-4.1333 Y-5.9551
G01 X-4.0851 Y-5.9308
G01 X-4.0381 Y-5.9042
G01 X-3.9925 Y-5.8753
G01 X-3.9484 Y-5.8442
G01 X-3.9058 Y-5.8110
G01 X-3.8650 Y-5.7758
G01 X-3.8259 Y-5.7385
G01 X-3.7886 Y-5.6994
G01 X-3.7534 Y-5.6586
G01 X-3.7202 Y-5.6160
G01 X-3.6891 Y-5.5719
G01 X-3.6602 Y-5.5263
G01 X-3.6336 Y-5.4793
G01 X-3.6093 Y-5.4311
G01 X-3.5874 Y-5.3817
G01 X-3.5680 Y-5.3313
G01 X-3.5511 Y-5.2801
G01 X-3.5367 Y-5.2280
G01 X-3.5249 Y-5.1754
G01 X-3.5156 Y-5.1222
G01 X-3.5090 Y-5.0686
G01 X-3.5050 Y-5.0148
G01 X-3.5037 Y-4.9608
G00 X-3.5037 Y-4.9608
G01 F70.00
G01 Z-1.2000
G01 F60.00
G01 X-3.5050 Y-4.9068
G01 X-3.5090 Y-4.8530
G01 X-3.5156 Y-4.7994
G01 X-3.5249 Y-4.7462
G01 X-3.5367 Y-4.6936
G01 X-3.5511 Y-4.6415
G01 X-3.5680 Y-4.5903
G01 X-3.5874 Y-4.5399
G01 X-3.6093 Y-4.4905
G01 X-3.6336 Y-4.4423
G01 X-3.6602 Y-4.3953
G01 X-3.6891 Y-4.3497
G01 X-3.7202 Y-4.3056
G01 X-3.7534 Y-4.2630
G01 X-3.7886 Y-4.2222
G01 X-3.8259 Y-4.1831
G01 X-3.8650 Y-4.1458
G01 X-3.9058 Y-4.1106
G01 X-3.9484 Y-4.0774
G01 X-3.9925 Y-4.0463
G01 X-4.0381 Y-4.0174
G01 X-4.0851 Y-3.9908
G01 X-4.1333 Y-3.9665
G01 X-4.1827 Y-3.9446
G01 X-4.2331 Y-3.9252
G01 X-4.2843 Y-3.9083
G01 X-4.3364 Y-3.8939
G01 X-4.3890 Y-3.8821
G01 X-4.4422 Y-3.8728
G01 X-4.4958 Y-3.8662
G01 X-4.5496 Y-3.8622
G01 X-4.6036 Y-3.8609
G01 X-4.6576 Y-3.8622
G01 X-4.7114 Y-3.8662
G01 X-4.7650 Y-3.8728
G01 X-4.8182 Y-3.8821
G01 X-4.8708 Y-3.8939
G01 X-4.9229 Y-3.9083
G01 X-4.9741 Y-3.9252
G01 X-5.0245 Y-3.9446
G01 X-5.0739 Y-3.9665
G01 X-5.1221 Y-3.9908
G01 X-5.1691 Y-4.0174
G01 X-5.2147 Y-4.0463
G01 X-5.2588 Y-4.0774
G01 X-5.3014 Y-4.1106
G01 X-5.3422 Y-4.1458
G01 X-5.3813 Y-4.1831
G01 X-5.4186 Y-4.2222
G01 X-5.4538 Y-4.2630
G01 X-5.4870 Y-4.3056
G01 X-5.5181 Y-4.3497
G01 X-5.5470 Y-4.3953
G01 X-5.5736 Y-4.4423
G01 X-5.5979 Y-4.4905
G01 X-5.6198 Y-4.5399
G01 X-5.6392 Y-4.5903
G01 X-5.6561 Y-4.6415
G01 X-5.6705 Y-4.6936
G01 X-5.6823 Y-4.7462
G01 X-5.6916 Y-4.7994
G01 X-5.6982 Y-4.8530
G01 X-5.7022 Y-4.9068
G01 X-5.7035 Y-4.9608
G01 X-5.7022 Y-5.0148
G01 X-5.6982 Y-5.0686
G01 X-5.6916 Y-5.1222
G01 X-5.6823 Y-5.1754
G01 X-5.6705 Y-5.2280
G01 X-5.6561 Y-5.2801
G01 X-5.6392 Y-5.3313
G01 X-5.6198 Y-5.3817
G01 X-5.5979 Y-5.4311
G01 X-5.5736 Y-5.4793
G01 X-5.5470 Y-5.5263
G01 X-5.5181 Y-5.5719
G01 X-5.4870 Y-5.6160
G01 X-5.4538 Y-5.6586
G01 X-5.4186 Y-5.6994
G01 X-5.3813 Y-5.7385
G01 X-5.3422 Y-5.7758
G01 X-5.3014 Y-5.8110
G01 X-5.2588 Y-5.8442
G01 X-5.2147 Y-5.8753
G01 X-5.1691 Y-5.9042
G01 X-5.1221 Y-5.9308
G01 X-5.0739 Y-5.9551
G01 X-5.0245 Y-5.9770
G01 X-4.9741 Y-5.9964
G01 X-4.9229 Y-6.0133
G01 X-4.8708 Y-6.0277
G01 X-4.8182 Y-6.0395
G01 X-4.7650 Y-6.0488
G01 X-4.7114 Y-6.0554
G01 X-4.6576 Y-6.0594
G01 X-4.6036 Y-6.0607
G01 X-4.5496 Y-6.0594
G01 X-4.4958 Y-6.0554
G01 X-4.4422 Y-6.0488
G01 X-4.3890 Y-6.0395
G01 X-4.3364 Y-6.0277
G01 X-4.2843 Y-6.0133
G01 X-4.2331 Y-5.9964
G01 X-4.1827 Y-5.9770
G01 X-4.1333 Y-5.9551
G01 X-4.0851 Y-5.9308
G01 X-4.0381 Y-5.9042
G01 X-3.9925 Y-5.8753
G01 X-3.9484 Y-5.8442
G01 X-3.9058 Y-5.8110
G01 X-3.8650 Y-5.7758
G01 X-3.8259 Y-5.7385
G01 X-3.7886 Y-5.6994
G01 X-3.7534 Y-5.6586
G01 X-3.7202 Y-5.6160
G01 X-3.6891 Y-5.5719
G01 X-3.6602 Y-5.5263
G01 X-3.6336 Y-5.4793
G01 X-3.6093 Y-5.4311
G01 X-3.5874 Y-5.3817
G01 X-3.5680 Y-5.3313
G01 X-3.5511 Y-5.2801
G01 X-3.5367 Y-5.2280
G01 X-3.5249 Y-5.1754
G01 X-3.5156 Y-5.1222
G01 X-3.5090 Y-5.0686
G01 X-3.5050 Y-5.0148
G01 X-3.5037 Y-4.9608
G00 X-3.5037 Y-4.9608
G01 F70.00
G01 Z-1.3000
G01 F60.00
G01 X-3.5050 Y-4.9068
G01 X-3.5090 Y-4.8530
G01 X-3.5156 Y-4.7994
G01 X-3.5249 Y-4.7462
G01 X-3.5367 Y-4.6936
G01 X-3.5511 Y-4.6415
G01 X-3.5680 Y-4.5903
G01 X-3.5874 Y-4.5399
G01 X-3.6093 Y-4.4905
G01 X-3.6336 Y-4.4423
G01 X-3.6602 Y-4.3953
G01 X-3.6891 Y-4.3497
G01 X-3.7202 Y-4.3056
G01 X-3.7534 Y-4.2630
G01 X-3.7886 Y-4.2222
G01 X-3.8259 Y-4.1831
G01 X-3.8650 Y-4.1458
G01 X-3.9058 Y-4.1106
G01 X-3.9484 Y-4.0774
G01 X-3.9925 Y-4.0463
G01 X-4.0381 Y-4.0174
G01 X-4.0851 Y-3.9908
G01 X-4.1333 Y-3.9665
G01 X-4.1827 Y-3.9446
G01 X-4.2331 Y-3.9252
G01 X-4.2843 Y-3.9083
G01 X-4.3364 Y-3.8939
G01 X-4.3890 Y-3.8821
G01 X-4.4422 Y-3.8728
G01 X-4.4958 Y-3.8662
G01 X-4.5496 Y-3.8622
G01 X-4.6036 Y-3.8609
G01 X-4.6576 Y-3.8622
G01 X-4.7114 Y-3.8662
G01 X-4.7650 Y-3.8728
G01 X-4.8182 Y-3.8821
G01 X-4.8708 Y-3.8939
G01 X-4.9229 Y-3.9083
G01 X-4.9741 Y-3.9252
G01 X-5.0245 Y-3.9446
G01 X-5.0739 Y-3.9665
G01 X-5.1221 Y-3.9908
G01 X-5.1691 Y-4.0174
G01 X-5.2147 Y-4.0463
G01 X-5.2588 Y-4.0774
G01 X-5.3014 Y-4.1106
G01 X-5.3422 Y-4.1458
G01 X-5.3813 Y-4.1831
G01 X-5.4186 Y-4.2222
G01 X-5.4538 Y-4.2630
G01 X-5.4870 Y-4.3056
G01 X-5.5181 Y-4.3497
G01 X-5.5470 Y-4.3953
G01 X-5.5736 Y-4.4423
G01 X-5.5979 Y-4.4905
G01 X-5.6198 Y-4.5399
G01 X-5.6392 Y-4.5903
G01 X-5.6561 Y-4.6415
G01 X-5.6705 Y-4.6936
G01 X-5.6823 Y-4.7462
G01 X-5.6916 Y-4.7994
G01 X-5.6982 Y-4.8530
G01 X-5.7022 Y-4.9068
G01 X-5.7035 Y-4.9608
G01 X-5.7022 Y-5.0148
G01 X-5.6982 Y-5.0686
G01 X-5.6916 Y-5.1222
G01 X-5.6823 Y-5.1754
G01 X-5.6705 Y-5.2280
G01 X-5.6561 Y-5.2801
G01 X-5.6392 Y-5.3313
G01 X-5.6198 Y-5.3817
G01 X-5.5979 Y-5.4311
G01 X-5.5736 Y-5.4793
G01 X-5.5470 Y-5.5263
G01 X-5.5181 Y-5.5719
G01 X-5.4870 Y-5.6160
G01 X-5.4538 Y-5.6586
G01 X-5.4186 Y-5.6994
G01 X-5.3813 Y-5.7385
G01 X-5.3422 Y-5.7758
G01 X-5.3014 Y-5.8110
G01 X-5.2588 Y-5.8442
G01 X-5.2147 Y-5.8753
G01 X-5.1691 Y-5.9042
G01 X-5.1221 Y-5.9308
G01 X-5.0739 Y-5.9551
G01 X-5.0245 Y-5.9770
G01 X-4.9741 Y-5.9964
G01 X-4.9229 Y-6.0133
G01 X-4.8708 Y-6.0277
G01 X-4.8182 Y-6.0395
G01 X-4.7650 Y-6.0488
G01 X-4.7114 Y-6.0554
G01 X-4.6576 Y-6.0594
G01 X-4.6036 Y-6.0607
G01 X-4.5496 Y-6.0594
G01 X-4.4958 Y-6.0554
G01 X-4.4422 Y-6.0488
G01 X-4.3890 Y-6.0395
G01 X-4.3364 Y-6.0277
G01 X-4.2843 Y-6.0133
G01 X-4.2331 Y-5.9964
G01 X-4.1827 Y-5.9770
G01 X-4.1333 Y-5.9551
G01 X-4.0851 Y-5.9308
G01 X-4.0381 Y-5.9042
G01 X-3.9925 Y-5.8753
G01 X-3.9484 Y-5.8442
G01 X-3.9058 Y-5.8110
G01 X-3.8650 Y-5.7758
G01 X-3.8259 Y-5.7385
G01 X-3.7886 Y-5.6994
G01 X-3.7534 Y-5.6586
G01 X-3.7202 Y-5.6160
G01 X-3.6891 Y-5.5719
G01 X-3.6602 Y-5.5263
G01 X-3.6336 Y-5.4793
G01 X-3.6093 Y-5.4311
G01 X-3.5874 Y-5.3817
G01 X-3.5680 Y-5.3313
G01 X-3.5511 Y-5.2801
G01 X-3.5367 Y-5.2280
G01 X-3.5249 Y-5.1754
G01 X-3.5156 Y-5.1222
G01 X-3.5090 Y-5.0686
G01 X-3.5050 Y-5.0148
G01 X-3.5037 Y-4.9608
G00 X-3.5037 Y-4.9608
G01 F70.00
G01 Z-1.4000
G01 F60.00
G01 X-3.5050 Y-4.9068
G01 X-3.5090 Y-4.8530
G01 X-3.5156 Y-4.7994
G01 X-3.5249 Y-4.7462
G01 X-3.5367 Y-4.6936
G01 X-3.5511 Y-4.6415
G01 X-3.5680 Y-4.5903
G01 X-3.5874 Y-4.5399
G01 X-3.6093 Y-4.4905
G01 X-3.6336 Y-4.4423
G01 X-3.6602 Y-4.3953
G01 X-3.6891 Y-4.3497
G01 X-3.7202 Y-4.3056
G01 X-3.7534 Y-4.2630
G01 X-3.7886 Y-4.2222
G01 X-3.8259 Y-4.1831
G01 X-3.8650 Y-4.1458
G01 X-3.9058 Y-4.1106
G01 X-3.9484 Y-4.0774
G01 X-3.9925 Y-4.0463
G01 X-4.0381 Y-4.0174
G01 X-4.0851 Y-3.9908
G01 X-4.1333 Y-3.9665
G01 X-4.1827 Y-3.9446
G01 X-4.2331 Y-3.9252
G01 X-4.2843 Y-3.9083
G01 X-4.3364 Y-3.8939
G01 X-4.3890 Y-3.8821
G01 X-4.4422 Y-3.8728
G01 X-4.4958 Y-3.8662
G01 X-4.5496 Y-3.8622
G01 X-4.6036 Y-3.8609
G01 X-4.6576 Y-3.8622
G01 X-4.7114 Y-3.8662
G01 X-4.7650 Y-3.8728
G01 X-4.8182 Y-3.8821
G01 X-4.8708 Y-3.8939
G01 X-4.9229 Y-3.9083
G01 X-4.9741 Y-3.9252
G01 X-5.0245 Y-3.9446
G01 X-5.0739 Y-3.9665
G01 X-5.1221 Y-3.9908
G01 X-5.1691 Y-4.0174
G01 X-5.2147 Y-4.0463
G01 X-5.2588 Y-4.0774
G01 X-5.3014 Y-4.1106
G01 X-5.3422 Y-4.1458
G01 X-5.3813 Y-4.1831
G01 X-5.4186 Y-4.2222
G01 X-5.4538 Y-4.2630
G01 X-5.4870 Y-4.3056
G01 X-5.5181 Y-4.3497
G01 X-5.5470 Y-4.3953
G01 X-5.5736 Y-4.4423
G01 X-5.5979 Y-4.4905
G01 X-5.6198 Y-4.5399
G01 X-5.6392 Y-4.5903
G01 X-5.6561 Y-4.6415
G01 X-5.6705 Y-4.6936
G01 X-5.6823 Y-4.7462
G01 X-5.6916 Y-4.7994
G01 X-5.6982 Y-4.8530
G01 X-5.7022 Y-4.9068
G01 X-5.7035 Y-4.9608
G01 X-5.7022 Y-5.0148
G01 X-5.6982 Y-5.0686
G01 X-5.6916 Y-5.1222
G01 X-5.6823 Y-5.1754
G01 X-5.6705 Y-5.2280
G01 X-5.6561 Y-5.2801
G01 X-5.6392 Y-5.3313
G01 X-5.6198 Y-5.3817
G01 X-5.5979 Y-5.4311
G01 X-5.5736 Y-5.4793
G01 X-5.5470 Y-5.5263
G01 X-5.5181 Y-5.5719
G01 X-5.4870 Y-5.6160
G01 X-5.4538 Y-5.6586
G01 X-5.4186 Y-5.6994
G01 X-5.3813 Y-5.7385
G01 X-5.3422 Y-5.7758
G01 X-5.3014 Y-5.8110
G01 X-5.2588 Y-5.8442
G01 X-5.2147 Y-5.8753
G01 X-5.1691 Y-5.9042
G01 X-5.1221 Y-5.9308
G01 X-5.0739 Y-5.9551
G01 X-5.0245 Y-5.9770
G01 X-4.9741 Y-5.9964
G01 X-4.9229 Y-6.0133
G01 X-4.8708 Y-6.0277
G01 X-4.8182 Y-6.0395
G01 X-4.7650 Y-6.0488
G01 X-4.7114 Y-6.0554
G01 X-4.6576 Y-6.0594
G01 X-4.6036 Y-6.0607
G01 X-4.5496 Y-6.0594
G01 X-4.4958 Y-6.0554
G01 X-4.4422 Y-6.0488
G01 X-4.3890 Y-6.0395
G01 X-4.3364 Y-6.0277
G01 X-4.2843 Y-6.0133
G01 X-4.2331 Y-5.9964
G01 X-4.1827 Y-5.9770
G01 X-4.1333 Y-5.9551
G01 X-4.0851 Y-5.9308
G01 X-4.0381 Y-5.9042
G01 X-3.9925 Y-5.8753
G01 X-3.9484 Y-5.8442
G01 X-3.9058 Y-5.8110
G01 X-3.8650 Y-5.7758
G01 X-3.8259 Y-5.7385
G01 X-3.7886 Y-5.6994
G01 X-3.7534 Y-5.6586
G01 X-3.7202 Y-5.6160
G01 X-3.6891 Y-5.5719
G01 X-3.6602 Y-5.5263
G01 X-3.6336 Y-5.4793
G01 X-3.6093 Y-5.4311
G01 X-3.5874 Y-5.3817
G01 X-3.5680 Y-5.3313
G01 X-3.5511 Y-5.2801
G01 X-3.5367 Y-5.2280
G01 X-3.5249 Y-5.1754
G01 X-3.5156 Y-5.1222
G01 X-3.5090 Y-5.0686
G01 X-3.5050 Y-5.0148
G01 X-3.5037 Y-4.9608
G00 X-3.5037 Y-4.9608
G01 F70.00
G01 Z-1.5000
G01 F60.00
G01 X-3.5050 Y-4.9068
G01 X-3.5090 Y-4.8530
G01 X-3.5156 Y-4.7994
G01 X-3.5249 Y-4.7462
G01 X-3.5367 Y-4.6936
G01 X-3.5511 Y-4.6415
G01 X-3.5680 Y-4.5903
G01 X-3.5874 Y-4.5399
G01 X-3.6093 Y-4.4905
G01 X-3.6336 Y-4.4423
G01 X-3.6602 Y-4.3953
G01 X-3.6891 Y-4.3497
G01 X-3.7202 Y-4.3056
G01 X-3.7534 Y-4.2630
G01 X-3.7886 Y-4.2222
G01 X-3.8259 Y-4.1831
G01 X-3.8650 Y-4.1458
G01 X-3.9058 Y-4.1106
G01 X-3.9484 Y-4.0774
G01 X-3.9925 Y-4.0463
G01 X-4.0381 Y-4.0174
G01 X-4.0851 Y-3.9908
G01 X-4.1333 Y-3.9665
G01 X-4.1827 Y-3.9446
G01 X-4.2331 Y-3.9252
G01 X-4.2843 Y-3.9083
G01 X-4.3364 Y-3.8939
G01 X-4.3890 Y-3.8821
G01 X-4.4422 Y-3.8728
G01 X-4.4958 Y-3.8662
G01 X-4.5496 Y-3.8622
G01 X-4.6036 Y-3.8609
G01 X-4.6576 Y-3.8622
G01 X-4.7114 Y-3.8662
G01 X-4.7650 Y-3.8728
G01 X-4.8182 Y-3.8821
G01 X-4.8708 Y-3.8939
G01 X-4.9229 Y-3.9083
G01 X-4.9741 Y-3.9252
G01 X-5.0245 Y-3.9446
G01 X-5.0739 Y-3.9665
G01 X-5.1221 Y-3.9908
G01 X-5.1691 Y-4.0174
G01 X-5.2147 Y-4.0463
G01 X-5.2588 Y-4.0774
G01 X-5.3014 Y-4.1106
G01 X-5.3422 Y-4.1458
G01 X-5.3813 Y-4.1831
G01 X-5.4186 Y-4.2222
G01 X-5.4538 Y-4.2630
G01 X-5.4870 Y-4.3056
G01 X-5.5181 Y-4.3497
G01 X-5.5470 Y-4.3953
G01 X-5.5736 Y-4.4423
G01 X-5.5979 Y-4.4905
G01 X-5.6198 Y-4.5399
G01 X-5.6392 Y-4.5903
G01 X-5.6561 Y-4.6415
G01 X-5.6705 Y-4.6936
G01 X-5.6823 Y-4.7462
G01 X-5.6916 Y-4.7994
G01 X-5.6982 Y-4.8530
G01 X-5.7022 Y-4.9068
G01 X-5.7035 Y-4.9608
G01 X-5.7022 Y-5.0148
G01 X-5.6982 Y-5.0686
G01 X-5.6916 Y-5.1222
G01 X-5.6823 Y-5.1754
G01 X-5.6705 Y-5.2280
G01 X-5.6561 Y-5.2801
G01 X-5.6392 Y-5.3313
G01 X-5.6198 Y-5.3817
G01 X-5.5979 Y-5.4311
G01 X-5.5736 Y-5.4793
G01 X-5.5470 Y-5.5263
G01 X-5.5181 Y-5.5719
G01 X-5.4870 Y-5.6160
G01 X-5.4538 Y-5.6586
G01 X-5.4186 Y-5.6994
G01 X-5.3813 Y-5.7385
G01 X-5.3422 Y-5.7758
G01 X-5.3014 Y-5.8110
G01 X-5.2588 Y-5.8442
G01 X-5.2147 Y-5.8753
G01 X-5.1691 Y-5.9042
G01 X-5.1221 Y-5.9308
G01 X-5.0739 Y-5.9551
G01 X-5.0245 Y-5.9770
G01 X-4.9741 Y-5.9964
G01 X-4.9229 Y-6.0133
G01 X-4.8708 Y-6.0277
G01 X-4.8182 Y-6.0395
G01 X-4.7650 Y-6.0488
G01 X-4.7114 Y-6.0554
G01 X-4.6576 Y-6.0594
G01 X-4.6036 Y-6.0607
G01 X-4.5496 Y-6.0594
G01 X-4.4958 Y-6.0554
G01 X-4.4422 Y-6.0488
G01 X-4.3890 Y-6.0395
G01 X-4.3364 Y-6.0277
G01 X-4.2843 Y-6.0133
G01 X-4.2331 Y-5.9964
G01 X-4.1827 Y-5.9770
G01 X-4.1333 Y-5.9551
G01 X-4.0851 Y-5.9308
G01 X-4.0381 Y-5.9042
G01 X-3.9925 Y-5.8753
G01 X-3.9484 Y-5.8442
G01 X-3.9058 Y-5.8110
G01 X-3.8650 Y-5.7758
G01 X-3.8259 Y-5.7385
G01 X-3.7886 Y-5.6994
G01 X-3.7534 Y-5.6586
G01 X-3.7202 Y-5.6160
G01 X-3.6891 Y-5.5719
G01 X-3.6602 Y-5.5263
G01 X-3.6336 Y-5.4793
G01 X-3.6093 Y-5.4311
G01 X-3.5874 Y-5.3817
G01 X-3.5680 Y-5.3313
G01 X-3.5511 Y-5.2801
G01 X-3.5367 Y-5.2280
G01 X-3.5249 Y-5.1754
G01 X-3.5156 Y-5.1222
G01 X-3.5090 Y-5.0686
G01 X-3.5050 Y-5.0148
G01 X-3.5037 Y-4.9608
G00 X-3.5037 Y-4.9608
G01 F70.00
G01 Z-1.6000
G01 F60.00
G01 X-3.5050 Y-4.9068
G01 X-3.5090 Y-4.8530
G01 X-3.5156 Y-4.7994
G01 X-3.5249 Y-4.7462
G01 X-3.5367 Y-4.6936
G01 X-3.5511 Y-4.6415
G01 X-3.5680 Y-4.5903
G01 X-3.5874 Y-4.5399
G01 X-3.6093 Y-4.4905
G01 X-3.6336 Y-4.4423
G01 X-3.6602 Y-4.3953
G01 X-3.6891 Y-4.3497
G01 X-3.7202 Y-4.3056
G01 X-3.7534 Y-4.2630
G01 X-3.7886 Y-4.2222
G01 X-3.8259 Y-4.1831
G01 X-3.8650 Y-4.1458
G01 X-3.9058 Y-4.1106
G01 X-3.9484 Y-4.0774
G01 X-3.9925 Y-4.0463
G01 X-4.0381 Y-4.0174
G01 X-4.0851 Y-3.9908
G01 X-4.1333 Y-3.9665
G01 X-4.1827 Y-3.9446
G01 X-4.2331 Y-3.9252
G01 X-4.2843 Y-3.9083
G01 X-4.3364 Y-3.8939
G01 X-4.3890 Y-3.8821
G01 X-4.4422 Y-3.8728
G01 X-4.4958 Y-3.8662
G01 X-4.5496 Y-3.8622
G01 X-4.6036 Y-3.8609
G01 X-4.6576 Y-3.8622
G01 X-4.7114 Y-3.8662
G01 X-4.7650 Y-3.8728
G01 X-4.8182 Y-3.8821
G01 X-4.8708 Y-3.8939
G01 X-4.9229 Y-3.9083
G01 X-4.9741 Y-3.9252
G01 X-5.0245 Y-3.9446
G01 X-5.0739 Y-3.9665
G01 X-5.1221 Y-3.9908
G01 X-5.1691 Y-4.0174
G01 X-5.2147 Y-4.0463
G01 X-5.2588 Y-4.0774
G01 X-5.3014 Y-4.1106
G01 X-5.3422 Y-4.1458
G01 X-5.3813 Y-4.1831
G01 X-5.4186 Y-4.2222
G01 X-5.4538 Y-4.2630
G01 X-5.4870 Y-4.3056
G01 X-5.5181 Y-4.3497
G01 X-5.5470 Y-4.3953
G01 X-5.5736 Y-4.4423
G01 X-5.5979 Y-4.4905
G01 X-5.6198 Y-4.5399
G01 X-5.6392 Y-4.5903
G01 X-5.6561 Y-4.6415
G01 X-5.6705 Y-4.6936
G01 X-5.6823 Y-4.7462
G01 X-5.6916 Y-4.7994
G01 X-5.6982 Y-4.8530
G01 X-5.7022 Y-4.9068
G01 X-5.7035 Y-4.9608
G01 X-5.7022 Y-5.0148
G01 X-5.6982 Y-5.0686
G01 X-5.6916 Y-5.1222
G01 X-5.6823 Y-5.1754
G01 X-5.6705 Y-5.2280
G01 X-5.6561 Y-5.2801
G01 X-5.6392 Y-5.3313
G01 X-5.6198 Y-5.3817
G01 X-5.5979 Y-5.4311
G01 X-5.5736 Y-5.4793
G01 X-5.5470 Y-5.5263
G01 X-5.5181 Y-5.5719
G01 X-5.4870 Y-5.6160
G01 X-5.4538 Y-5.6586
G01 X-5.4186 Y-5.6994
G01 X-5.3813 Y-5.7385
G01 X-5.3422 Y-5.7758
G01 X-5.3014 Y-5.8110
G01 X-5.2588 Y-5.8442
G01 X-5.2147 Y-5.8753
G01 X-5.1691 Y-5.9042
G01 X-5.1221 Y-5.9308
G01 X-5.0739 Y-5.9551
G01 X-5.0245 Y-5.9770
G01 X-4.9741 Y-5.9964
G01 X-4.9229 Y-6.0133
G01 X-4.8708 Y-6.0277
G01 X-4.8182 Y-6.0395
G01 X-4.7650 Y-6.0488
G01 X-4.7114 Y-6.0554
G01 X-4.6576 Y-6.0594
G01 X-4.6036 Y-6.0607
G01 X-4.5496 Y-6.0594
G01 X-4.4958 Y-6.0554
G01 X-4.4422 Y-6.0488
G01 X-4.3890 Y-6.0395
G01 X-4.3364 Y-6.0277
G01 X-4.2843 Y-6.0133
G01 X-4.2331 Y-5.9964
G01 X-4.1827 Y-5.9770
G01 X-4.1333 Y-5.9551
G01 X-4.0851 Y-5.9308
G01 X-4.0381 Y-5.9042
G01 X-3.9925 Y-5.8753
G01 X-3.9484 Y-5.8442
G01 X-3.9058 Y-5.8110
G01 X-3.8650 Y-5.7758
G01 X-3.8259 Y-5.7385
G01 X-3.7886 Y-5.6994
G01 X-3.7534 Y-5.6586
G01 X-3.7202 Y-5.6160
G01 X-3.6891 Y-5.5719
G01 X-3.6602 Y-5.5263
G01 X-3.6336 Y-5.4793
G01 X-3.6093 Y-5.4311
G01 X-3.5874 Y-5.3817
G01 X-3.5680 Y-5.3313
G01 X-3.5511 Y-5.2801
G01 X-3.5367 Y-5.2280
G01 X-3.5249 Y-5.1754
G01 X-3.5156 Y-5.1222
G01 X-3.5090 Y-5.0686
G01 X-3.5050 Y-5.0148
G01 X-3.5037 Y-4.9608
G00 X-3.5037 Y-4.9608
G01 F70.00
G01 Z-1.7000
G01 F60.00
G01 X-3.5050 Y-4.9068
G01 X-3.5090 Y-4.8530
G01 X-3.5156 Y-4.7994
G01 X-3.5249 Y-4.7462
G01 X-3.5367 Y-4.6936
G01 X-3.5511 Y-4.6415
G01 X-3.5680 Y-4.5903
G01 X-3.5874 Y-4.5399
G01 X-3.6093 Y-4.4905
G01 X-3.6336 Y-4.4423
G01 X-3.6602 Y-4.3953
G01 X-3.6891 Y-4.3497
G01 X-3.7202 Y-4.3056
G01 X-3.7534 Y-4.2630
G01 X-3.7886 Y-4.2222
G01 X-3.8259 Y-4.1831
G01 X-3.8650 Y-4.1458
G01 X-3.9058 Y-4.1106
G01 X-3.9484 Y-4.0774
G01 X-3.9925 Y-4.0463
G01 X-4.0381 Y-4.0174
G01 X-4.0851 Y-3.9908
G01 X-4.1333 Y-3.9665
G01 X-4.1827 Y-3.9446
G01 X-4.2331 Y-3.9252
G01 X-4.2843 Y-3.9083
G01 X-4.3364 Y-3.8939
G01 X-4.3890 Y-3.8821
G01 X-4.4422 Y-3.8728
G01 X-4.4958 Y-3.8662
G01 X-4.5496 Y-3.8622
G01 X-4.6036 Y-3.8609
G01 X-4.6576 Y-3.8622
G01 X-4.7114 Y-3.8662
G01 X-4.7650 Y-3.8728
G01 X-4.8182 Y-3.8821
G01 X-4.8708 Y-3.8939
G01 X-4.9229 Y-3.9083
G01 X-4.9741 Y-3.9252
G01 X-5.0245 Y-3.9446
G01 X-5.0739 Y-3.9665
G01 X-5.1221 Y-3.9908
G01 X-5.1691 Y-4.0174
G01 X-5.2147 Y-4.0463
G01 X-5.2588 Y-4.0774
G01 X-5.3014 Y-4.1106
G01 X-5.3422 Y-4.1458
G01 X-5.3813 Y-4.1831
G01 X-5.4186 Y-4.2222
G01 X-5.4538 Y-4.2630
G01 X-5.4870 Y-4.3056
G01 X-5.5181 Y-4.3497
G01 X-5.5470 Y-4.3953
G01 X-5.5736 Y-4.4423
G01 X-5.5979 Y-4.4905
G01 X-5.6198 Y-4.5399
G01 X-5.6392 Y-4.5903
G01 X-5.6561 Y-4.6415
G01 X-5.6705 Y-4.6936
G01 X-5.6823 Y-4.7462
G01 X-5.6916 Y-4.7994
G01 X-5.6982 Y-4.8530
G01 X-5.7022 Y-4.9068
G01 X-5.7035 Y-4.9608
G01 X-5.7022 Y-5.0148
G01 X-5.6982 Y-5.0686
G01 X-5.6916 Y-5.1222
G01 X-5.6823 Y-5.1754
G01 X-5.6705 Y-5.2280
G01 X-5.6561 Y-5.2801
G01 X-5.6392 Y-5.3313
G01 X-5.6198 Y-5.3817
G01 X-5.5979 Y-5.4311
G01 X-5.5736 Y-5.4793
G01 X-5.5470 Y-5.5263
G01 X-5.5181 Y-5.5719
G01 X-5.4870 Y-5.6160
G01 X-5.4538 Y-5.6586
G01 X-5.4186 Y-5.6994
G01 X-5.3813 Y-5.7385
G01 X-5.3422 Y-5.7758
G01 X-5.3014 Y-5.8110
G01 X-5.2588 Y-5.8442
G01 X-5.2147 Y-5.8753
G01 X-5.1691 Y-5.9042
G01 X-5.1221 Y-5.9308
G01 X-5.0739 Y-5.9551
G01 X-5.0245 Y-5.9770
G01 X-4.9741 Y-5.9964
G01 X-4.9229 Y-6.0133
G01 X-4.8708 Y-6.0277
G01 X-4.8182 Y-6.0395
G01 X-4.7650 Y-6.0488
G01 X-4.7114 Y-6.0554
G01 X-4.6576 Y-6.0594
G01 X-4.6036 Y-6.0607
G01 X-4.5496 Y-6.0594
G01 X-4.4958 Y-6.0554
G01 X-4.4422 Y-6.0488
G01 X-4.3890 Y-6.0395
G01 X-4.3364 Y-6.0277
G01 X-4.2843 Y-6.0133
G01 X-4.2331 Y-5.9964
G01 X-4.1827 Y-5.9770
G01 X-4.1333 Y-5.9551
G01 X-4.0851 Y-5.9308
G01 X-4.0381 Y-5.9042
G01 X-3.9925 Y-5.8753
G01 X-3.9484 Y-5.8442
G01 X-3.9058 Y-5.8110
G01 X-3.8650 Y-5.7758
G01 X-3.8259 Y-5.7385
G01 X-3.7886 Y-5.6994
G01 X-3.7534 Y-5.6586
G01 X-3.7202 Y-5.6160
G01 X-3.6891 Y-5.5719
G01 X-3.6602 Y-5.5263
G01 X-3.6336 Y-5.4793
G01 X-3.6093 Y-5.4311
G01 X-3.5874 Y-5.3817
G01 X-3.5680 Y-5.3313
G01 X-3.5511 Y-5.2801
G01 X-3.5367 Y-5.2280
G01 X-3.5249 Y-5.1754
G01 X-3.5156 Y-5.1222
G01 X-3.5090 Y-5.0686
G01 X-3.5050 Y-5.0148
G01 X-3.5037 Y-4.9608
G00 Z2.0000
G00 X-81.6086 Y-4.9608
G01 F70.00
G01 Z-0.1000
G01 F60.00
G01 X-81.6099 Y-4.9068
G01 X-81.6139 Y-4.8530
G01 X-81.6205 Y-4.7994
G01 X-81.6298 Y-4.7462
G01 X-81.6416 Y-4.6936
G01 X-81.6560 Y-4.6415
G01 X-81.6729 Y-4.5903
G01 X-81.6923 Y-4.5399
G01 X-81.7142 Y-4.4905
G01 X-81.7385 Y-4.4423
G01 X-81.7651 Y-4.3953
G01 X-81.7940 Y-4.3497
G01 X-81.8251 Y-4.3056
G01 X-81.8583 Y-4.2630
G01 X-81.8935 Y-4.2222
G01 X-81.9308 Y-4.1831
G01 X-81.9699 Y-4.1458
G01 X-82.0107 Y-4.1106
G01 X-82.0533 Y-4.0774
G01 X-82.0974 Y-4.0463
G01 X-82.1430 Y-4.0174
G01 X-82.1900 Y-3.9908
G01 X-82.2382 Y-3.9665
G01 X-82.2876 Y-3.9446
G01 X-82.3380 Y-3.9252
G01 X-82.3892 Y-3.9083
G01 X-82.4413 Y-3.8939
G01 X-82.4939 Y-3.8821
G01 X-82.5471 Y-3.8728
G01 X-82.6007 Y-3.8662
G01 X-82.6545 Y-3.8622
G01 X-82.7085 Y-3.8609
G01 X-82.7625 Y-3.8622
G01 X-82.8163 Y-3.8662
G01 X-82.8699 Y-3.8728
G01 X-82.9231 Y-3.8821
G01 X-82.9757 Y-3.8939
G01 X-83.0278 Y-3.9083
G01 X-83.0790 Y-3.9252
G01 X-83.1294 Y-3.9446
G01 X-83.1788 Y-3.9665
G01 X-83.2270 Y-3.9908
G01 X-83.2740 Y-4.0174
G01 X-83.3196 Y-4.0463
G01 X-83.3637 Y-4.0774
G01 X-83.4063 Y-4.1106
G01 X-83.4471 Y-4.1458
G01 X-83.4862 Y-4.1831
G01 X-83.5235 Y-4.2222
G01 X-83.5587 Y-4.2630
G01 X-83.5919 Y-4.3056
G01 X-83.6230 Y-4.3497
G01 X-83.6519 Y-4.3953
G01 X-83.6785 Y-4.4423
G01 X-83.7028 Y-4.4905
G01 X-83.7247 Y-4.5399
G01 X-83.7441 Y-4.5903
G01 X-83.7610 Y-4.6415
G01 X-83.7754 Y-4.6936
G01 X-83.7872 Y-4.7462
G01 X-83.7965 Y-4.7994
G01 X-83.8031 Y-4.8530
G01 X-83.8071 Y-4.9068
G01 X-83.8084 Y-4.9608
G01 X-83.8071 Y-5.0148
G01 X-83.8031 Y-5.0686
G01 X-83.7965 Y-5.1222
G01 X-83.7872 Y-5.1754
G01 X-83.7754 Y-5.2280
G01 X-83.7610 Y-5.2801
G01 X-83.7441 Y-5.3313
G01 X-83.7247 Y-5.3817
G01 X-83.7028 Y-5.4311
G01 X-83.6785 Y-5.4793
G01 X-83.6519 Y-5.5263
G01 X-83.6230 Y-5.5719
G01 X-83.5919 Y-5.6160
G01 X-83.5587 Y-5.6586
G01 X-83.5235 Y-5.6994
G01 X-83.4862 Y-5.7385
G01 X-83.4471 Y-5.7758
G01 X-83.4063 Y-5.8110
G01 X-83.3637 Y-5.8442
G01 X-83.3196 Y-5.8753
G01 X-83.2740 Y-5.9042
G01 X-83.2270 Y-5.9308
G01 X-83.1788 Y-5.9551
G01 X-83.1294 Y-5.9770
G01 X-83.0790 Y-5.9964
G01 X-83.0278 Y-6.0133
G01 X-82.9757 Y-6.0277
G01 X-82.9231 Y-6.0395
G01 X-82.8699 Y-6.0488
G01 X-82.8163 Y-6.0554
G01 X-82.7625 Y-6.0594
G01 X-82.7085 Y-6.0607
G01 X-82.6545 Y-6.0594
G01 X-82.6007 Y-6.0554
G01 X-82.5471 Y-6.0488
G01 X-82.4939 Y-6.0395
G01 X-82.4413 Y-6.0277
G01 X-82.3892 Y-6.0133
G01 X-82.3380 Y-5.9964
G01 X-82.2876 Y-5.9770
G01 X-82.2382 Y-5.9551
G01 X-82.1900 Y-5.9308
G01 X-82.1430 Y-5.9042
G01 X-82.0974 Y-5.8753
G01 X-82.0533 Y-5.8442
G01 X-82.0107 Y-5.8110
G01 X-81.9699 Y-5.7758
G01 X-81.9308 Y-5.7385
G01 X-81.8935 Y-5.6994
G01 X-81.8583 Y-5.6586
G01 X-81.8251 Y-5.6160
G01 X-81.7940 Y-5.5719
G01 X-81.7651 Y-5.5263
G01 X-81.7385 Y-5.4793
G01 X-81.7142 Y-5.4311
G01 X-81.6923 Y-5.3817
G01 X-81.6729 Y-5.3313
G01 X-81.6560 Y-5.2801
G01 X-81.6416 Y-5.2280
G01 X-81.6298 Y-5.1754
G01 X-81.6205 Y-5.1222
G01 X-81.6139 Y-5.0686
G01 X-81.6099 Y-5.0148
G01 X-81.6086 Y-4.9608
G00 X-81.6086 Y-4.9608
G01 F70.00
G01 Z-0.2000
G01 F60.00
G01 X-81.6099 Y-4.9068
G01 X-81.6139 Y-4.8530
G01 X-81.6205 Y-4.7994
G01 X-81.6298 Y-4.7462
G01 X-81.6416 Y-4.6936
G01 X-81.6560 Y-4.6415
G01 X-81.6729 Y-4.5903
G01 X-81.6923 Y-4.5399
G01 X-81.7142 Y-4.4905
G01 X-81.7385 Y-4.4423
G01 X-81.7651 Y-4.3953
G01 X-81.7940 Y-4.3497
G01 X-81.8251 Y-4.3056
G01 X-81.8583 Y-4.2630
G01 X-81.8935 Y-4.2222
G01 X-81.9308 Y-4.1831
G01 X-81.9699 Y-4.1458
G01 X-82.0107 Y-4.1106
G01 X-82.0533 Y-4.0774
G01 X-82.0974 Y-4.0463
G01 X-82.1430 Y-4.0174
G01 X-82.1900 Y-3.9908
G01 X-82.2382 Y-3.9665
G01 X-82.2876 Y-3.9446
G01 X-82.3380 Y-3.9252
G01 X-82.3892 Y-3.9083
G01 X-82.4413 Y-3.8939
G01 X-82.4939 Y-3.8821
G01 X-82.5471 Y-3.8728
G01 X-82.6007 Y-3.8662
G01 X-82.6545 Y-3.8622
G01 X-82.7085 Y-3.8609
G01 X-82.7625 Y-3.8622
G01 X-82.8163 Y-3.8662
G01 X-82.8699 Y-3.8728
G01 X-82.9231 Y-3.8821
G01 X-82.9757 Y-3.8939
G01 X-83.0278 Y-3.9083
G01 X-83.0790 Y-3.9252
G01 X-83.1294 Y-3.9446
G01 X-83.1788 Y-3.9665
G01 X-83.2270 Y-3.9908
G01 X-83.2740 Y-4.0174
G01 X-83.3196 Y-4.0463
G01 X-83.3637 Y-4.0774
G01 X-83.4063 Y-4.1106
G01 X-83.4471 Y-4.1458
G01 X-83.4862 Y-4.1831
G01 X-83.5235 Y-4.2222
G01 X-83.5587 Y-4.2630
G01 X-83.5919 Y-4.3056
G01 X-83.6230 Y-4.3497
G01 X-83.6519 Y-4.3953
G01 X-83.6785 Y-4.4423
G01 X-83.7028 Y-4.4905
G01 X-83.7247 Y-4.5399
G01 X-83.7441 Y-4.5903
G01 X-83.7610 Y-4.6415
G01 X-83.7754 Y-4.6936
G01 X-83.7872 Y-4.7462
G01 X-83.7965 Y-4.7994
G01 X-83.8031 Y-4.8530
G01 X-83.8071 Y-4.9068
G01 X-83.8084 Y-4.9608
G01 X-83.8071 Y-5.0148
G01 X-83.8031 Y-5.0686
G01 X-83.7965 Y-5.1222
G01 X-83.7872 Y-5.1754
G01 X-83.7754 Y-5.2280
G01 X-83.7610 Y-5.2801
G01 X-83.7441 Y-5.3313
G01 X-83.7247 Y-5.3817
G01 X-83.7028 Y-5.4311
G01 X-83.6785 Y-5.4793
G01 X-83.6519 Y-5.5263
G01 X-83.6230 Y-5.5719
G01 X-83.5919 Y-5.6160
G01 X-83.5587 Y-5.6586
G01 X-83.5235 Y-5.6994
G01 X-83.4862 Y-5.7385
G01 X-83.4471 Y-5.7758
G01 X-83.4063 Y-5.8110
G01 X-83.3637 Y-5.8442
G01 X-83.3196 Y-5.8753
G01 X-83.2740 Y-5.9042
G01 X-83.2270 Y-5.9308
G01 X-83.1788 Y-5.9551
G01 X-83.1294 Y-5.9770
G01 X-83.0790 Y-5.9964
G01 X-83.0278 Y-6.0133
G01 X-82.9757 Y-6.0277
G01 X-82.9231 Y-6.0395
G01 X-82.8699 Y-6.0488
G01 X-82.8163 Y-6.0554
G01 X-82.7625 Y-6.0594
G01 X-82.7085 Y-6.0607
G01 X-82.6545 Y-6.0594
G01 X-82.6007 Y-6.0554
G01 X-82.5471 Y-6.0488
G01 X-82.4939 Y-6.0395
G01 X-82.4413 Y-6.0277
G01 X-82.3892 Y-6.0133
G01 X-82.3380 Y-5.9964
G01 X-82.2876 Y-5.9770
G01 X-82.2382 Y-5.9551
G01 X-82.1900 Y-5.9308
G01 X-82.1430 Y-5.9042
G01 X-82.0974 Y-5.8753
G01 X-82.0533 Y-5.8442
G01 X-82.0107 Y-5.8110
G01 X-81.9699 Y-5.7758
G01 X-81.9308 Y-5.7385
G01 X-81.8935 Y-5.6994
G01 X-81.8583 Y-5.6586
G01 X-81.8251 Y-5.6160
G01 X-81.7940 Y-5.5719
G01 X-81.7651 Y-5.5263
G01 X-81.7385 Y-5.4793
G01 X-81.7142 Y-5.4311
G01 X-81.6923 Y-5.3817
G01 X-81.6729 Y-5.3313
G01 X-81.6560 Y-5.2801
G01 X-81.6416 Y-5.2280
G01 X-81.6298 Y-5.1754
G01 X-81.6205 Y-5.1222
G01 X-81.6139 Y-5.0686
G01 X-81.6099 Y-5.0148
G01 X-81.6086 Y-4.9608
G00 X-81.6086 Y-4.9608
G01 F70.00
G01 Z-0.3000
G01 F60.00
G01 X-81.6099 Y-4.9068
G01 X-81.6139 Y-4.8530
G01 X-81.6205 Y-4.7994
G01 X-81.6298 Y-4.7462
G01 X-81.6416 Y-4.6936
G01 X-81.6560 Y-4.6415
G01 X-81.6729 Y-4.5903
G01 X-81.6923 Y-4.5399
G01 X-81.7142 Y-4.4905
G01 X-81.7385 Y-4.4423
G01 X-81.7651 Y-4.3953
G01 X-81.7940 Y-4.3497
G01 X-81.8251 Y-4.3056
G01 X-81.8583 Y-4.2630
G01 X-81.8935 Y-4.2222
G01 X-81.9308 Y-4.1831
G01 X-81.9699 Y-4.1458
G01 X-82.0107 Y-4.1106
G01 X-82.0533 Y-4.0774
G01 X-82.0974 Y-4.0463
G01 X-82.1430 Y-4.0174
G01 X-82.1900 Y-3.9908
G01 X-82.2382 Y-3.9665
G01 X-82.2876 Y-3.9446
G01 X-82.3380 Y-3.9252
G01 X-82.3892 Y-3.9083
G01 X-82.4413 Y-3.8939
G01 X-82.4939 Y-3.8821
G01 X-82.5471 Y-3.8728
G01 X-82.6007 Y-3.8662
G01 X-82.6545 Y-3.8622
G01 X-82.7085 Y-3.8609
G01 X-82.7625 Y-3.8622
G01 X-82.8163 Y-3.8662
G01 X-82.8699 Y-3.8728
G01 X-82.9231 Y-3.8821
G01 X-82.9757 Y-3.8939
G01 X-83.0278 Y-3.9083
G01 X-83.0790 Y-3.9252
G01 X-83.1294 Y-3.9446
G01 X-83.1788 Y-3.9665
G01 X-83.2270 Y-3.9908
G01 X-83.2740 Y-4.0174
G01 X-83.3196 Y-4.0463
G01 X-83.3637 Y-4.0774
G01 X-83.4063 Y-4.1106
G01 X-83.4471 Y-4.1458
G01 X-83.4862 Y-4.1831
G01 X-83.5235 Y-4.2222
G01 X-83.5587 Y-4.2630
G01 X-83.5919 Y-4.3056
G01 X-83.6230 Y-4.3497
G01 X-83.6519 Y-4.3953
G01 X-83.6785 Y-4.4423
G01 X-83.7028 Y-4.4905
G01 X-83.7247 Y-4.5399
G01 X-83.7441 Y-4.5903
G01 X-83.7610 Y-4.6415
G01 X-83.7754 Y-4.6936
G01 X-83.7872 Y-4.7462
G01 X-83.7965 Y-4.7994
G01 X-83.8031 Y-4.8530
G01 X-83.8071 Y-4.9068
G01 X-83.8084 Y-4.9608
G01 X-83.8071 Y-5.0148
G01 X-83.8031 Y-5.0686
G01 X-83.7965 Y-5.1222
G01 X-83.7872 Y-5.1754
G01 X-83.7754 Y-5.2280
G01 X-83.7610 Y-5.2801
G01 X-83.7441 Y-5.3313
G01 X-83.7247 Y-5.3817
G01 X-83.7028 Y-5.4311
G01 X-83.6785 Y-5.4793
G01 X-83.6519 Y-5.5263
G01 X-83.6230 Y-5.5719
G01 X-83.5919 Y-5.6160
G01 X-83.5587 Y-5.6586
G01 X-83.5235 Y-5.6994
G01 X-83.4862 Y-5.7385
G01 X-83.4471 Y-5.7758
G01 X-83.4063 Y-5.8110
G01 X-83.3637 Y-5.8442
G01 X-83.3196 Y-5.8753
G01 X-83.2740 Y-5.9042
G01 X-83.2270 Y-5.9308
G01 X-83.1788 Y-5.9551
G01 X-83.1294 Y-5.9770
G01 X-83.0790 Y-5.9964
G01 X-83.0278 Y-6.0133
G01 X-82.9757 Y-6.0277
G01 X-82.9231 Y-6.0395
G01 X-82.8699 Y-6.0488
G01 X-82.8163 Y-6.0554
G01 X-82.7625 Y-6.0594
G01 X-82.7085 Y-6.0607
G01 X-82.6545 Y-6.0594
G01 X-82.6007 Y-6.0554
G01 X-82.5471 Y-6.0488
G01 X-82.4939 Y-6.0395
G01 X-82.4413 Y-6.0277
G01 X-82.3892 Y-6.0133
G01 X-82.3380 Y-5.9964
G01 X-82.2876 Y-5.9770
G01 X-82.2382 Y-5.9551
G01 X-82.1900 Y-5.9308
G01 X-82.1430 Y-5.9042
G01 X-82.0974 Y-5.8753
G01 X-82.0533 Y-5.8442
G01 X-82.0107 Y-5.8110
G01 X-81.9699 Y-5.7758
G01 X-81.9308 Y-5.7385
G01 X-81.8935 Y-5.6994
G01 X-81.8583 Y-5.6586
G01 X-81.8251 Y-5.6160
G01 X-81.7940 Y-5.5719
G01 X-81.7651 Y-5.5263
G01 X-81.7385 Y-5.4793
G01 X-81.7142 Y-5.4311
G01 X-81.6923 Y-5.3817
G01 X-81.6729 Y-5.3313
G01 X-81.6560 Y-5.2801
G01 X-81.6416 Y-5.2280
G01 X-81.6298 Y-5.1754
G01 X-81.6205 Y-5.1222
G01 X-81.6139 Y-5.0686
G01 X-81.6099 Y-5.0148
G01 X-81.6086 Y-4.9608
G00 X-81.6086 Y-4.9608
G01 F70.00
G01 Z-0.4000
G01 F60.00
G01 X-81.6099 Y-4.9068
G01 X-81.6139 Y-4.8530
G01 X-81.6205 Y-4.7994
G01 X-81.6298 Y-4.7462
G01 X-81.6416 Y-4.6936
G01 X-81.6560 Y-4.6415
G01 X-81.6729 Y-4.5903
G01 X-81.6923 Y-4.5399
G01 X-81.7142 Y-4.4905
G01 X-81.7385 Y-4.4423
G01 X-81.7651 Y-4.3953
G01 X-81.7940 Y-4.3497
G01 X-81.8251 Y-4.3056
G01 X-81.8583 Y-4.2630
G01 X-81.8935 Y-4.2222
G01 X-81.9308 Y-4.1831
G01 X-81.9699 Y-4.1458
G01 X-82.0107 Y-4.1106
G01 X-82.0533 Y-4.0774
G01 X-82.0974 Y-4.0463
G01 X-82.1430 Y-4.0174
G01 X-82.1900 Y-3.9908
G01 X-82.2382 Y-3.9665
G01 X-82.2876 Y-3.9446
G01 X-82.3380 Y-3.9252
G01 X-82.3892 Y-3.9083
G01 X-82.4413 Y-3.8939
G01 X-82.4939 Y-3.8821
G01 X-82.5471 Y-3.8728
G01 X-82.6007 Y-3.8662
G01 X-82.6545 Y-3.8622
G01 X-82.7085 Y-3.8609
G01 X-82.7625 Y-3.8622
G01 X-82.8163 Y-3.8662
G01 X-82.8699 Y-3.8728
G01 X-82.9231 Y-3.8821
G01 X-82.9757 Y-3.8939
G01 X-83.0278 Y-3.9083
G01 X-83.0790 Y-3.9252
G01 X-83.1294 Y-3.9446
G01 X-83.1788 Y-3.9665
G01 X-83.2270 Y-3.9908
G01 X-83.2740 Y-4.0174
G01 X-83.3196 Y-4.0463
G01 X-83.3637 Y-4.0774
G01 X-83.4063 Y-4.1106
G01 X-83.4471 Y-4.1458
G01 X-83.4862 Y-4.1831
G01 X-83.5235 Y-4.2222
G01 X-83.5587 Y-4.2630
G01 X-83.5919 Y-4.3056
G01 X-83.6230 Y-4.3497
G01 X-83.6519 Y-4.3953
G01 X-83.6785 Y-4.4423
G01 X-83.7028 Y-4.4905
G01 X-83.7247 Y-4.5399
G01 X-83.7441 Y-4.5903
G01 X-83.7610 Y-4.6415
G01 X-83.7754 Y-4.6936
G01 X-83.7872 Y-4.7462
G01 X-83.7965 Y-4.7994
G01 X-83.8031 Y-4.8530
G01 X-83.8071 Y-4.9068
G01 X-83.8084 Y-4.9608
G01 X-83.8071 Y-5.0148
G01 X-83.8031 Y-5.0686
G01 X-83.7965 Y-5.1222
G01 X-83.7872 Y-5.1754
G01 X-83.7754 Y-5.2280
G01 X-83.7610 Y-5.2801
G01 X-83.7441 Y-5.3313
G01 X-83.7247 Y-5.3817
G01 X-83.7028 Y-5.4311
G01 X-83.6785 Y-5.4793
G01 X-83.6519 Y-5.5263
G01 X-83.6230 Y-5.5719
G01 X-83.5919 Y-5.6160
G01 X-83.5587 Y-5.6586
G01 X-83.5235 Y-5.6994
G01 X-83.4862 Y-5.7385
G01 X-83.4471 Y-5.7758
G01 X-83.4063 Y-5.8110
G01 X-83.3637 Y-5.8442
G01 X-83.3196 Y-5.8753
G01 X-83.2740 Y-5.9042
G01 X-83.2270 Y-5.9308
G01 X-83.1788 Y-5.9551
G01 X-83.1294 Y-5.9770
G01 X-83.0790 Y-5.9964
G01 X-83.0278 Y-6.0133
G01 X-82.9757 Y-6.0277
G01 X-82.9231 Y-6.0395
G01 X-82.8699 Y-6.0488
G01 X-82.8163 Y-6.0554
G01 X-82.7625 Y-6.0594
G01 X-82.7085 Y-6.0607
G01 X-82.6545 Y-6.0594
G01 X-82.6007 Y-6.0554
G01 X-82.5471 Y-6.0488
G01 X-82.4939 Y-6.0395
G01 X-82.4413 Y-6.0277
G01 X-82.3892 Y-6.0133
G01 X-82.3380 Y-5.9964
G01 X-82.2876 Y-5.9770
G01 X-82.2382 Y-5.9551
G01 X-82.1900 Y-5.9308
G01 X-82.1430 Y-5.9042
G01 X-82.0974 Y-5.8753
G01 X-82.0533 Y-5.8442
G01 X-82.0107 Y-5.8110
G01 X-81.9699 Y-5.7758
G01 X-81.9308 Y-5.7385
G01 X-81.8935 Y-5.6994
G01 X-81.8583 Y-5.6586
G01 X-81.8251 Y-5.6160
G01 X-81.7940 Y-5.5719
G01 X-81.7651 Y-5.5263
G01 X-81.7385 Y-5.4793
G01 X-81.7142 Y-5.4311
G01 X-81.6923 Y-5.3817
G01 X-81.6729 Y-5.3313
G01 X-81.6560 Y-5.2801
G01 X-81.6416 Y-5.2280
G01 X-81.6298 Y-5.1754
G01 X-81.6205 Y-5.1222
G01 X-81.6139 Y-5.0686
G01 X-81.6099 Y-5.0148
G01 X-81.6086 Y-4.9608
G00 X-81.6086 Y-4.9608
G01 F70.00
G01 Z-0.5000
G01 F60.00
G01 X-81.6099 Y-4.9068
G01 X-81.6139 Y-4.8530
G01 X-81.6205 Y-4.7994
G01 X-81.6298 Y-4.7462
G01 X-81.6416 Y-4.6936
G01 X-81.6560 Y-4.6415
G01 X-81.6729 Y-4.5903
G01 X-81.6923 Y-4.5399
G01 X-81.7142 Y-4.4905
G01 X-81.7385 Y-4.4423
G01 X-81.7651 Y-4.3953
G01 X-81.7940 Y-4.3497
G01 X-81.8251 Y-4.3056
G01 X-81.8583 Y-4.2630
G01 X-81.8935 Y-4.2222
G01 X-81.9308 Y-4.1831
G01 X-81.9699 Y-4.1458
G01 X-82.0107 Y-4.1106
G01 X-82.0533 Y-4.0774
G01 X-82.0974 Y-4.0463
G01 X-82.1430 Y-4.0174
G01 X-82.1900 Y-3.9908
G01 X-82.2382 Y-3.9665
G01 X-82.2876 Y-3.9446
G01 X-82.3380 Y-3.9252
G01 X-82.3892 Y-3.9083
G01 X-82.4413 Y-3.8939
G01 X-82.4939 Y-3.8821
G01 X-82.5471 Y-3.8728
G01 X-82.6007 Y-3.8662
G01 X-82.6545 Y-3.8622
G01 X-82.7085 Y-3.8609
G01 X-82.7625 Y-3.8622
G01 X-82.8163 Y-3.8662
G01 X-82.8699 Y-3.8728
G01 X-82.9231 Y-3.8821
G01 X-82.9757 Y-3.8939
G01 X-83.0278 Y-3.9083
G01 X-83.0790 Y-3.9252
G01 X-83.1294 Y-3.9446
G01 X-83.1788 Y-3.9665
G01 X-83.2270 Y-3.9908
G01 X-83.2740 Y-4.0174
G01 X-83.3196 Y-4.0463
G01 X-83.3637 Y-4.0774
G01 X-83.4063 Y-4.1106
G01 X-83.4471 Y-4.1458
G01 X-83.4862 Y-4.1831
G01 X-83.5235 Y-4.2222
G01 X-83.5587 Y-4.2630
G01 X-83.5919 Y-4.3056
G01 X-83.6230 Y-4.3497
G01 X-83.6519 Y-4.3953
G01 X-83.6785 Y-4.4423
G01 X-83.7028 Y-4.4905
G01 X-83.7247 Y-4.5399
G01 X-83.7441 Y-4.5903
G01 X-83.7610 Y-4.6415
G01 X-83.7754 Y-4.6936
G01 X-83.7872 Y-4.7462
G01 X-83.7965 Y-4.7994
G01 X-83.8031 Y-4.8530
G01 X-83.8071 Y-4.9068
G01 X-83.8084 Y-4.9608
G01 X-83.8071 Y-5.0148
G01 X-83.8031 Y-5.0686
G01 X-83.7965 Y-5.1222
G01 X-83.7872 Y-5.1754
G01 X-83.7754 Y-5.2280
G01 X-83.7610 Y-5.2801
G01 X-83.7441 Y-5.3313
G01 X-83.7247 Y-5.3817
G01 X-83.7028 Y-5.4311
G01 X-83.6785 Y-5.4793
G01 X-83.6519 Y-5.5263
G01 X-83.6230 Y-5.5719
G01 X-83.5919 Y-5.6160
G01 X-83.5587 Y-5.6586
G01 X-83.5235 Y-5.6994
G01 X-83.4862 Y-5.7385
G01 X-83.4471 Y-5.7758
G01 X-83.4063 Y-5.8110
G01 X-83.3637 Y-5.8442
G01 X-83.3196 Y-5.8753
G01 X-83.2740 Y-5.9042
G01 X-83.2270 Y-5.9308
G01 X-83.1788 Y-5.9551
G01 X-83.1294 Y-5.9770
G01 X-83.0790 Y-5.9964
G01 X-83.0278 Y-6.0133
G01 X-82.9757 Y-6.0277
G01 X-82.9231 Y-6.0395
G01 X-82.8699 Y-6.0488
G01 X-82.8163 Y-6.0554
G01 X-82.7625 Y-6.0594
G01 X-82.7085 Y-6.0607
G01 X-82.6545 Y-6.0594
G01 X-82.6007 Y-6.0554
G01 X-82.5471 Y-6.0488
G01 X-82.4939 Y-6.0395
G01 X-82.4413 Y-6.0277
G01 X-82.3892 Y-6.0133
G01 X-82.3380 Y-5.9964
G01 X-82.2876 Y-5.9770
G01 X-82.2382 Y-5.9551
G01 X-82.1900 Y-5.9308
G01 X-82.1430 Y-5.9042
G01 X-82.0974 Y-5.8753
G01 X-82.0533 Y-5.8442
G01 X-82.0107 Y-5.8110
G01 X-81.9699 Y-5.7758
G01 X-81.9308 Y-5.7385
G01 X-81.8935 Y-5.6994
G01 X-81.8583 Y-5.6586
G01 X-81.8251 Y-5.6160
G01 X-81.7940 Y-5.5719
G01 X-81.7651 Y-5.5263
G01 X-81.7385 Y-5.4793
G01 X-81.7142 Y-5.4311
G01 X-81.6923 Y-5.3817
G01 X-81.6729 Y-5.3313
G01 X-81.6560 Y-5.2801
G01 X-81.6416 Y-5.2280
G01 X-81.6298 Y-5.1754
G01 X-81.6205 Y-5.1222
G01 X-81.6139 Y-5.0686
G01 X-81.6099 Y-5.0148
G01 X-81.6086 Y-4.9608
G00 X-81.6086 Y-4.9608
G01 F70.00
G01 Z-0.6000
G01 F60.00
G01 X-81.6099 Y-4.9068
G01 X-81.6139 Y-4.8530
G01 X-81.6205 Y-4.7994
G01 X-81.6298 Y-4.7462
G01 X-81.6416 Y-4.6936
G01 X-81.6560 Y-4.6415
G01 X-81.6729 Y-4.5903
G01 X-81.6923 Y-4.5399
G01 X-81.7142 Y-4.4905
G01 X-81.7385 Y-4.4423
G01 X-81.7651 Y-4.3953
G01 X-81.7940 Y-4.3497
G01 X-81.8251 Y-4.3056
G01 X-81.8583 Y-4.2630
G01 X-81.8935 Y-4.2222
G01 X-81.9308 Y-4.1831
G01 X-81.9699 Y-4.1458
G01 X-82.0107 Y-4.1106
G01 X-82.0533 Y-4.0774
G01 X-82.0974 Y-4.0463
G01 X-82.1430 Y-4.0174
G01 X-82.1900 Y-3.9908
G01 X-82.2382 Y-3.9665
G01 X-82.2876 Y-3.9446
G01 X-82.3380 Y-3.9252
G01 X-82.3892 Y-3.9083
G01 X-82.4413 Y-3.8939
G01 X-82.4939 Y-3.8821
G01 X-82.5471 Y-3.8728
G01 X-82.6007 Y-3.8662
G01 X-82.6545 Y-3.8622
G01 X-82.7085 Y-3.8609
G01 X-82.7625 Y-3.8622
G01 X-82.8163 Y-3.8662
G01 X-82.8699 Y-3.8728
G01 X-82.9231 Y-3.8821
G01 X-82.9757 Y-3.8939
G01 X-83.0278 Y-3.9083
G01 X-83.0790 Y-3.9252
G01 X-83.1294 Y-3.9446
G01 X-83.1788 Y-3.9665
G01 X-83.2270 Y-3.9908
G01 X-83.2740 Y-4.0174
G01 X-83.3196 Y-4.0463
G01 X-83.3637 Y-4.0774
G01 X-83.4063 Y-4.1106
G01 X-83.4471 Y-4.1458
G01 X-83.4862 Y-4.1831
G01 X-83.5235 Y-4.2222
G01 X-83.5587 Y-4.2630
G01 X-83.5919 Y-4.3056
G01 X-83.6230 Y-4.3497
G01 X-83.6519 Y-4.3953
G01 X-83.6785 Y-4.4423
G01 X-83.7028 Y-4.4905
G01 X-83.7247 Y-4.5399
G01 X-83.7441 Y-4.5903
G01 X-83.7610 Y-4.6415
G01 X-83.7754 Y-4.6936
G01 X-83.7872 Y-4.7462
G01 X-83.7965 Y-4.7994
G01 X-83.8031 Y-4.8530
G01 X-83.8071 Y-4.9068
G01 X-83.8084 Y-4.9608
G01 X-83.8071 Y-5.0148
G01 X-83.8031 Y-5.0686
G01 X-83.7965 Y-5.1222
G01 X-83.7872 Y-5.1754
G01 X-83.7754 Y-5.2280
G01 X-83.7610 Y-5.2801
G01 X-83.7441 Y-5.3313
G01 X-83.7247 Y-5.3817
G01 X-83.7028 Y-5.4311
G01 X-83.6785 Y-5.4793
G01 X-83.6519 Y-5.5263
G01 X-83.6230 Y-5.5719
G01 X-83.5919 Y-5.6160
G01 X-83.5587 Y-5.6586
G01 X-83.5235 Y-5.6994
G01 X-83.4862 Y-5.7385
G01 X-83.4471 Y-5.7758
G01 X-83.4063 Y-5.8110
G01 X-83.3637 Y-5.8442
G01 X-83.3196 Y-5.8753
G01 X-83.2740 Y-5.9042
G01 X-83.2270 Y-5.9308
G01 X-83.1788 Y-5.9551
G01 X-83.1294 Y-5.9770
G01 X-83.0790 Y-5.9964
G01 X-83.0278 Y-6.0133
G01 X-82.9757 Y-6.0277
G01 X-82.9231 Y-6.0395
G01 X-82.8699 Y-6.0488
G01 X-82.8163 Y-6.0554
G01 X-82.7625 Y-6.0594
G01 X-82.7085 Y-6.0607
G01 X-82.6545 Y-6.0594
G01 X-82.6007 Y-6.0554
G01 X-82.5471 Y-6.0488
G01 X-82.4939 Y-6.0395
G01 X-82.4413 Y-6.0277
G01 X-82.3892 Y-6.0133
G01 X-82.3380 Y-5.9964
G01 X-82.2876 Y-5.9770
G01 X-82.2382 Y-5.9551
G01 X-82.1900 Y-5.9308
G01 X-82.1430 Y-5.9042
G01 X-82.0974 Y-5.8753
G01 X-82.0533 Y-5.8442
G01 X-82.0107 Y-5.8110
G01 X-81.9699 Y-5.7758
G01 X-81.9308 Y-5.7385
G01 X-81.8935 Y-5.6994
G01 X-81.8583 Y-5.6586
G01 X-81.8251 Y-5.6160
G01 X-81.7940 Y-5.5719
G01 X-81.7651 Y-5.5263
G01 X-81.7385 Y-5.4793
G01 X-81.7142 Y-5.4311
G01 X-81.6923 Y-5.3817
G01 X-81.6729 Y-5.3313
G01 X-81.6560 Y-5.2801
G01 X-81.6416 Y-5.2280
G01 X-81.6298 Y-5.1754
G01 X-81.6205 Y-5.1222
G01 X-81.6139 Y-5.0686
G01 X-81.6099 Y-5.0148
G01 X-81.6086 Y-4.9608
G00 X-81.6086 Y-4.9608
G01 F70.00
G01 Z-0.7000
G01 F60.00
G01 X-81.6099 Y-4.9068
G01 X-81.6139 Y-4.8530
G01 X-81.6205 Y-4.7994
G01 X-81.6298 Y-4.7462
G01 X-81.6416 Y-4.6936
G01 X-81.6560 Y-4.6415
G01 X-81.6729 Y-4.5903
G01 X-81.6923 Y-4.5399
G01 X-81.7142 Y-4.4905
G01 X-81.7385 Y-4.4423
G01 X-81.7651 Y-4.3953
G01 X-81.7940 Y-4.3497
G01 X-81.8251 Y-4.3056
G01 X-81.8583 Y-4.2630
G01 X-81.8935 Y-4.2222
G01 X-81.9308 Y-4.1831
G01 X-81.9699 Y-4.1458
G01 X-82.0107 Y-4.1106
G01 X-82.0533 Y-4.0774
G01 X-82.0974 Y-4.0463
G01 X-82.1430 Y-4.0174
G01 X-82.1900 Y-3.9908
G01 X-82.2382 Y-3.9665
G01 X-82.2876 Y-3.9446
G01 X-82.3380 Y-3.9252
G01 X-82.3892 Y-3.9083
G01 X-82.4413 Y-3.8939
G01 X-82.4939 Y-3.8821
G01 X-82.5471 Y-3.8728
G01 X-82.6007 Y-3.8662
G01 X-82.6545 Y-3.8622
G01 X-82.7085 Y-3.8609
G01 X-82.7625 Y-3.8622
G01 X-82.8163 Y-3.8662
G01 X-82.8699 Y-3.8728
G01 X-82.9231 Y-3.8821
G01 X-82.9757 Y-3.8939
G01 X-83.0278 Y-3.9083
G01 X-83.0790 Y-3.9252
G01 X-83.1294 Y-3.9446
G01 X-83.1788 Y-3.9665
G01 X-83.2270 Y-3.9908
G01 X-83.2740 Y-4.0174
G01 X-83.3196 Y-4.0463
G01 X-83.3637 Y-4.0774
G01 X-83.4063 Y-4.1106
G01 X-83.4471 Y-4.1458
G01 X-83.4862 Y-4.1831
G01 X-83.5235 Y-4.2222
G01 X-83.5587 Y-4.2630
G01 X-83.5919 Y-4.3056
G01 X-83.6230 Y-4.3497
G01 X-83.6519 Y-4.3953
G01 X-83.6785 Y-4.4423
G01 X-83.7028 Y-4.4905
G01 X-83.7247 Y-4.5399
G01 X-83.7441 Y-4.5903
G01 X-83.7610 Y-4.6415
G01 X-83.7754 Y-4.6936
G01 X-83.7872 Y-4.7462
G01 X-83.7965 Y-4.7994
G01 X-83.8031 Y-4.8530
G01 X-83.8071 Y-4.9068
G01 X-83.8084 Y-4.9608
G01 X-83.8071 Y-5.0148
G01 X-83.8031 Y-5.0686
G01 X-83.7965 Y-5.1222
G01 X-83.7872 Y-5.1754
G01 X-83.7754 Y-5.2280
G01 X-83.7610 Y-5.2801
G01 X-83.7441 Y-5.3313
G01 X-83.7247 Y-5.3817
G01 X-83.7028 Y-5.4311
G01 X-83.6785 Y-5.4793
G01 X-83.6519 Y-5.5263
G01 X-83.6230 Y-5.5719
G01 X-83.5919 Y-5.6160
G01 X-83.5587 Y-5.6586
G01 X-83.5235 Y-5.6994
G01 X-83.4862 Y-5.7385
G01 X-83.4471 Y-5.7758
G01 X-83.4063 Y-5.8110
G01 X-83.3637 Y-5.8442
G01 X-83.3196 Y-5.8753
G01 X-83.2740 Y-5.9042
G01 X-83.2270 Y-5.9308
G01 X-83.1788 Y-5.9551
G01 X-83.1294 Y-5.9770
G01 X-83.0790 Y-5.9964
G01 X-83.0278 Y-6.0133
G01 X-82.9757 Y-6.0277
G01 X-82.9231 Y-6.0395
G01 X-82.8699 Y-6.0488
G01 X-82.8163 Y-6.0554
G01 X-82.7625 Y-6.0594
G01 X-82.7085 Y-6.0607
G01 X-82.6545 Y-6.0594
G01 X-82.6007 Y-6.0554
G01 X-82.5471 Y-6.0488
G01 X-82.4939 Y-6.0395
G01 X-82.4413 Y-6.0277
G01 X-82.3892 Y-6.0133
G01 X-82.3380 Y-5.9964
G01 X-82.2876 Y-5.9770
G01 X-82.2382 Y-5.9551
G01 X-82.1900 Y-5.9308
G01 X-82.1430 Y-5.9042
G01 X-82.0974 Y-5.8753
G01 X-82.0533 Y-5.8442
G01 X-82.0107 Y-5.8110
G01 X-81.9699 Y-5.7758
G01 X-81.9308 Y-5.7385
G01 X-81.8935 Y-5.6994
G01 X-81.8583 Y-5.6586
G01 X-81.8251 Y-5.6160
G01 X-81.7940 Y-5.5719
G01 X-81.7651 Y-5.5263
G01 X-81.7385 Y-5.4793
G01 X-81.7142 Y-5.4311
G01 X-81.6923 Y-5.3817
G01 X-81.6729 Y-5.3313
G01 X-81.6560 Y-5.2801
G01 X-81.6416 Y-5.2280
G01 X-81.6298 Y-5.1754
G01 X-81.6205 Y-5.1222
G01 X-81.6139 Y-5.0686
G01 X-81.6099 Y-5.0148
G01 X-81.6086 Y-4.9608
G00 X-81.6086 Y-4.9608
G01 F70.00
G01 Z-0.8000
G01 F60.00
G01 X-81.6099 Y-4.9068
G01 X-81.6139 Y-4.8530
G01 X-81.6205 Y-4.7994
G01 X-81.6298 Y-4.7462
G01 X-81.6416 Y-4.6936
G01 X-81.6560 Y-4.6415
G01 X-81.6729 Y-4.5903
G01 X-81.6923 Y-4.5399
G01 X-81.7142 Y-4.4905
G01 X-81.7385 Y-4.4423
G01 X-81.7651 Y-4.3953
G01 X-81.7940 Y-4.3497
G01 X-81.8251 Y-4.3056
G01 X-81.8583 Y-4.2630
G01 X-81.8935 Y-4.2222
G01 X-81.9308 Y-4.1831
G01 X-81.9699 Y-4.1458
G01 X-82.0107 Y-4.1106
G01 X-82.0533 Y-4.0774
G01 X-82.0974 Y-4.0463
G01 X-82.1430 Y-4.0174
G01 X-82.1900 Y-3.9908
G01 X-82.2382 Y-3.9665
G01 X-82.2876 Y-3.9446
G01 X-82.3380 Y-3.9252
G01 X-82.3892 Y-3.9083
G01 X-82.4413 Y-3.8939
G01 X-82.4939 Y-3.8821
G01 X-82.5471 Y-3.8728
G01 X-82.6007 Y-3.8662
G01 X-82.6545 Y-3.8622
G01 X-82.7085 Y-3.8609
G01 X-82.7625 Y-3.8622
G01 X-82.8163 Y-3.8662
G01 X-82.8699 Y-3.8728
G01 X-82.9231 Y-3.8821
G01 X-82.9757 Y-3.8939
G01 X-83.0278 Y-3.9083
G01 X-83.0790 Y-3.9252
G01 X-83.1294 Y-3.9446
G01 X-83.1788 Y-3.9665
G01 X-83.2270 Y-3.9908
G01 X-83.2740 Y-4.0174
G01 X-83.3196 Y-4.0463
G01 X-83.3637 Y-4.0774
G01 X-83.4063 Y-4.1106
G01 X-83.4471 Y-4.1458
G01 X-83.4862 Y-4.1831
G01 X-83.5235 Y-4.2222
G01 X-83.5587 Y-4.2630
G01 X-83.5919 Y-4.3056
G01 X-83.6230 Y-4.3497
G01 X-83.6519 Y-4.3953
G01 X-83.6785 Y-4.4423
G01 X-83.7028 Y-4.4905
G01 X-83.7247 Y-4.5399
G01 X-83.7441 Y-4.5903
G01 X-83.7610 Y-4.6415
G01 X-83.7754 Y-4.6936
G01 X-83.7872 Y-4.7462
G01 X-83.7965 Y-4.7994
G01 X-83.8031 Y-4.8530
G01 X-83.8071 Y-4.9068
G01 X-83.8084 Y-4.9608
G01 X-83.8071 Y-5.0148
G01 X-83.8031 Y-5.0686
G01 X-83.7965 Y-5.1222
G01 X-83.7872 Y-5.1754
G01 X-83.7754 Y-5.2280
G01 X-83.7610 Y-5.2801
G01 X-83.7441 Y-5.3313
G01 X-83.7247 Y-5.3817
G01 X-83.7028 Y-5.4311
G01 X-83.6785 Y-5.4793
G01 X-83.6519 Y-5.5263
G01 X-83.6230 Y-5.5719
G01 X-83.5919 Y-5.6160
G01 X-83.5587 Y-5.6586
G01 X-83.5235 Y-5.6994
G01 X-83.4862 Y-5.7385
G01 X-83.4471 Y-5.7758
G01 X-83.4063 Y-5.8110
G01 X-83.3637 Y-5.8442
G01 X-83.3196 Y-5.8753
G01 X-83.2740 Y-5.9042
G01 X-83.2270 Y-5.9308
G01 X-83.1788 Y-5.9551
G01 X-83.1294 Y-5.9770
G01 X-83.0790 Y-5.9964
G01 X-83.0278 Y-6.0133
G01 X-82.9757 Y-6.0277
G01 X-82.9231 Y-6.0395
G01 X-82.8699 Y-6.0488
G01 X-82.8163 Y-6.0554
G01 X-82.7625 Y-6.0594
G01 X-82.7085 Y-6.0607
G01 X-82.6545 Y-6.0594
G01 X-82.6007 Y-6.0554
G01 X-82.5471 Y-6.0488
G01 X-82.4939 Y-6.0395
G01 X-82.4413 Y-6.0277
G01 X-82.3892 Y-6.0133
G01 X-82.3380 Y-5.9964
G01 X-82.2876 Y-5.9770
G01 X-82.2382 Y-5.9551
G01 X-82.1900 Y-5.9308
G01 X-82.1430 Y-5.9042
G01 X-82.0974 Y-5.8753
G01 X-82.0533 Y-5.8442
G01 X-82.0107 Y-5.8110
G01 X-81.9699 Y-5.7758
G01 X-81.9308 Y-5.7385
G01 X-81.8935 Y-5.6994
G01 X-81.8583 Y-5.6586
G01 X-81.8251 Y-5.6160
G01 X-81.7940 Y-5.5719
G01 X-81.7651 Y-5.5263
G01 X-81.7385 Y-5.4793
G01 X-81.7142 Y-5.4311
G01 X-81.6923 Y-5.3817
G01 X-81.6729 Y-5.3313
G01 X-81.6560 Y-5.2801
G01 X-81.6416 Y-5.2280
G01 X-81.6298 Y-5.1754
G01 X-81.6205 Y-5.1222
G01 X-81.6139 Y-5.0686
G01 X-81.6099 Y-5.0148
G01 X-81.6086 Y-4.9608
G00 X-81.6086 Y-4.9608
G01 F70.00
G01 Z-0.9000
G01 F60.00
G01 X-81.6099 Y-4.9068
G01 X-81.6139 Y-4.8530
G01 X-81.6205 Y-4.7994
G01 X-81.6298 Y-4.7462
G01 X-81.6416 Y-4.6936
G01 X-81.6560 Y-4.6415
G01 X-81.6729 Y-4.5903
G01 X-81.6923 Y-4.5399
G01 X-81.7142 Y-4.4905
G01 X-81.7385 Y-4.4423
G01 X-81.7651 Y-4.3953
G01 X-81.7940 Y-4.3497
G01 X-81.8251 Y-4.3056
G01 X-81.8583 Y-4.2630
G01 X-81.8935 Y-4.2222
G01 X-81.9308 Y-4.1831
G01 X-81.9699 Y-4.1458
G01 X-82.0107 Y-4.1106
G01 X-82.0533 Y-4.0774
G01 X-82.0974 Y-4.0463
G01 X-82.1430 Y-4.0174
G01 X-82.1900 Y-3.9908
G01 X-82.2382 Y-3.9665
G01 X-82.2876 Y-3.9446
G01 X-82.3380 Y-3.9252
G01 X-82.3892 Y-3.9083
G01 X-82.4413 Y-3.8939
G01 X-82.4939 Y-3.8821
G01 X-82.5471 Y-3.8728
G01 X-82.6007 Y-3.8662
G01 X-82.6545 Y-3.8622
G01 X-82.7085 Y-3.8609
G01 X-82.7625 Y-3.8622
G01 X-82.8163 Y-3.8662
G01 X-82.8699 Y-3.8728
G01 X-82.9231 Y-3.8821
G01 X-82.9757 Y-3.8939
G01 X-83.0278 Y-3.9083
G01 X-83.0790 Y-3.9252
G01 X-83.1294 Y-3.9446
G01 X-83.1788 Y-3.9665
G01 X-83.2270 Y-3.9908
G01 X-83.2740 Y-4.0174
G01 X-83.3196 Y-4.0463
G01 X-83.3637 Y-4.0774
G01 X-83.4063 Y-4.1106
G01 X-83.4471 Y-4.1458
G01 X-83.4862 Y-4.1831
G01 X-83.5235 Y-4.2222
G01 X-83.5587 Y-4.2630
G01 X-83.5919 Y-4.3056
G01 X-83.6230 Y-4.3497
G01 X-83.6519 Y-4.3953
G01 X-83.6785 Y-4.4423
G01 X-83.7028 Y-4.4905
G01 X-83.7247 Y-4.5399
G01 X-83.7441 Y-4.5903
G01 X-83.7610 Y-4.6415
G01 X-83.7754 Y-4.6936
G01 X-83.7872 Y-4.7462
G01 X-83.7965 Y-4.7994
G01 X-83.8031 Y-4.8530
G01 X-83.8071 Y-4.9068
G01 X-83.8084 Y-4.9608
G01 X-83.8071 Y-5.0148
G01 X-83.8031 Y-5.0686
G01 X-83.7965 Y-5.1222
G01 X-83.7872 Y-5.1754
G01 X-83.7754 Y-5.2280
G01 X-83.7610 Y-5.2801
G01 X-83.7441 Y-5.3313
G01 X-83.7247 Y-5.3817
G01 X-83.7028 Y-5.4311
G01 X-83.6785 Y-5.4793
G01 X-83.6519 Y-5.5263
G01 X-83.6230 Y-5.5719
G01 X-83.5919 Y-5.6160
G01 X-83.5587 Y-5.6586
G01 X-83.5235 Y-5.6994
G01 X-83.4862 Y-5.7385
G01 X-83.4471 Y-5.7758
G01 X-83.4063 Y-5.8110
G01 X-83.3637 Y-5.8442
G01 X-83.3196 Y-5.8753
G01 X-83.2740 Y-5.9042
G01 X-83.2270 Y-5.9308
G01 X-83.1788 Y-5.9551
G01 X-83.1294 Y-5.9770
G01 X-83.0790 Y-5.9964
G01 X-83.0278 Y-6.0133
G01 X-82.9757 Y-6.0277
G01 X-82.9231 Y-6.0395
G01 X-82.8699 Y-6.0488
G01 X-82.8163 Y-6.0554
G01 X-82.7625 Y-6.0594
G01 X-82.7085 Y-6.0607
G01 X-82.6545 Y-6.0594
G01 X-82.6007 Y-6.0554
G01 X-82.5471 Y-6.0488
G01 X-82.4939 Y-6.0395
G01 X-82.4413 Y-6.0277
G01 X-82.3892 Y-6.0133
G01 X-82.3380 Y-5.9964
G01 X-82.2876 Y-5.9770
G01 X-82.2382 Y-5.9551
G01 X-82.1900 Y-5.9308
G01 X-82.1430 Y-5.9042
G01 X-82.0974 Y-5.8753
G01 X-82.0533 Y-5.8442
G01 X-82.0107 Y-5.8110
G01 X-81.9699 Y-5.7758
G01 X-81.9308 Y-5.7385
G01 X-81.8935 Y-5.6994
G01 X-81.8583 Y-5.6586
G01 X-81.8251 Y-5.6160
G01 X-81.7940 Y-5.5719
G01 X-81.7651 Y-5.5263
G01 X-81.7385 Y-5.4793
G01 X-81.7142 Y-5.4311
G01 X-81.6923 Y-5.3817
G01 X-81.6729 Y-5.3313
G01 X-81.6560 Y-5.2801
G01 X-81.6416 Y-5.2280
G01 X-81.6298 Y-5.1754
G01 X-81.6205 Y-5.1222
G01 X-81.6139 Y-5.0686
G01 X-81.6099 Y-5.0148
G01 X-81.6086 Y-4.9608
G00 X-81.6086 Y-4.9608
G01 F70.00
G01 Z-1.0000
G01 F60.00
G01 X-81.6099 Y-4.9068
G01 X-81.6139 Y-4.8530
G01 X-81.6205 Y-4.7994
G01 X-81.6298 Y-4.7462
G01 X-81.6416 Y-4.6936
G01 X-81.6560 Y-4.6415
G01 X-81.6729 Y-4.5903
G01 X-81.6923 Y-4.5399
G01 X-81.7142 Y-4.4905
G01 X-81.7385 Y-4.4423
G01 X-81.7651 Y-4.3953
G01 X-81.7940 Y-4.3497
G01 X-81.8251 Y-4.3056
G01 X-81.8583 Y-4.2630
G01 X-81.8935 Y-4.2222
G01 X-81.9308 Y-4.1831
G01 X-81.9699 Y-4.1458
G01 X-82.0107 Y-4.1106
G01 X-82.0533 Y-4.0774
G01 X-82.0974 Y-4.0463
G01 X-82.1430 Y-4.0174
G01 X-82.1900 Y-3.9908
G01 X-82.2382 Y-3.9665
G01 X-82.2876 Y-3.9446
G01 X-82.3380 Y-3.9252
G01 X-82.3892 Y-3.9083
G01 X-82.4413 Y-3.8939
G01 X-82.4939 Y-3.8821
G01 X-82.5471 Y-3.8728
G01 X-82.6007 Y-3.8662
G01 X-82.6545 Y-3.8622
G01 X-82.7085 Y-3.8609
G01 X-82.7625 Y-3.8622
G01 X-82.8163 Y-3.8662
G01 X-82.8699 Y-3.8728
G01 X-82.9231 Y-3.8821
G01 X-82.9757 Y-3.8939
G01 X-83.0278 Y-3.9083
G01 X-83.0790 Y-3.9252
G01 X-83.1294 Y-3.9446
G01 X-83.1788 Y-3.9665
G01 X-83.2270 Y-3.9908
G01 X-83.2740 Y-4.0174
G01 X-83.3196 Y-4.0463
G01 X-83.3637 Y-4.0774
G01 X-83.4063 Y-4.1106
G01 X-83.4471 Y-4.1458
G01 X-83.4862 Y-4.1831
G01 X-83.5235 Y-4.2222
G01 X-83.5587 Y-4.2630
G01 X-83.5919 Y-4.3056
G01 X-83.6230 Y-4.3497
G01 X-83.6519 Y-4.3953
G01 X-83.6785 Y-4.4423
G01 X-83.7028 Y-4.4905
G01 X-83.7247 Y-4.5399
G01 X-83.7441 Y-4.5903
G01 X-83.7610 Y-4.6415
G01 X-83.7754 Y-4.6936
G01 X-83.7872 Y-4.7462
G01 X-83.7965 Y-4.7994
G01 X-83.8031 Y-4.8530
G01 X-83.8071 Y-4.9068
G01 X-83.8084 Y-4.9608
G01 X-83.8071 Y-5.0148
G01 X-83.8031 Y-5.0686
G01 X-83.7965 Y-5.1222
G01 X-83.7872 Y-5.1754
G01 X-83.7754 Y-5.2280
G01 X-83.7610 Y-5.2801
G01 X-83.7441 Y-5.3313
G01 X-83.7247 Y-5.3817
G01 X-83.7028 Y-5.4311
G01 X-83.6785 Y-5.4793
G01 X-83.6519 Y-5.5263
G01 X-83.6230 Y-5.5719
G01 X-83.5919 Y-5.6160
G01 X-83.5587 Y-5.6586
G01 X-83.5235 Y-5.6994
G01 X-83.4862 Y-5.7385
G01 X-83.4471 Y-5.7758
G01 X-83.4063 Y-5.8110
G01 X-83.3637 Y-5.8442
G01 X-83.3196 Y-5.8753
G01 X-83.2740 Y-5.9042
G01 X-83.2270 Y-5.9308
G01 X-83.1788 Y-5.9551
G01 X-83.1294 Y-5.9770
G01 X-83.0790 Y-5.9964
G01 X-83.0278 Y-6.0133
G01 X-82.9757 Y-6.0277
G01 X-82.9231 Y-6.0395
G01 X-82.8699 Y-6.0488
G01 X-82.8163 Y-6.0554
G01 X-82.7625 Y-6.0594
G01 X-82.7085 Y-6.0607
G01 X-82.6545 Y-6.0594
G01 X-82.6007 Y-6.0554
G01 X-82.5471 Y-6.0488
G01 X-82.4939 Y-6.0395
G01 X-82.4413 Y-6.0277
G01 X-82.3892 Y-6.0133
G01 X-82.3380 Y-5.9964
G01 X-82.2876 Y-5.9770
G01 X-82.2382 Y-5.9551
G01 X-82.1900 Y-5.9308
G01 X-82.1430 Y-5.9042
G01 X-82.0974 Y-5.8753
G01 X-82.0533 Y-5.8442
G01 X-82.0107 Y-5.8110
G01 X-81.9699 Y-5.7758
G01 X-81.9308 Y-5.7385
G01 X-81.8935 Y-5.6994
G01 X-81.8583 Y-5.6586
G01 X-81.8251 Y-5.6160
G01 X-81.7940 Y-5.5719
G01 X-81.7651 Y-5.5263
G01 X-81.7385 Y-5.4793
G01 X-81.7142 Y-5.4311
G01 X-81.6923 Y-5.3817
G01 X-81.6729 Y-5.3313
G01 X-81.6560 Y-5.2801
G01 X-81.6416 Y-5.2280
G01 X-81.6298 Y-5.1754
G01 X-81.6205 Y-5.1222
G01 X-81.6139 Y-5.0686
G01 X-81.6099 Y-5.0148
G01 X-81.6086 Y-4.9608
G00 X-81.6086 Y-4.9608
G01 F70.00
G01 Z-1.1000
G01 F60.00
G01 X-81.6099 Y-4.9068
G01 X-81.6139 Y-4.8530
G01 X-81.6205 Y-4.7994
G01 X-81.6298 Y-4.7462
G01 X-81.6416 Y-4.6936
G01 X-81.6560 Y-4.6415
G01 X-81.6729 Y-4.5903
G01 X-81.6923 Y-4.5399
G01 X-81.7142 Y-4.4905
G01 X-81.7385 Y-4.4423
G01 X-81.7651 Y-4.3953
G01 X-81.7940 Y-4.3497
G01 X-81.8251 Y-4.3056
G01 X-81.8583 Y-4.2630
G01 X-81.8935 Y-4.2222
G01 X-81.9308 Y-4.1831
G01 X-81.9699 Y-4.1458
G01 X-82.0107 Y-4.1106
G01 X-82.0533 Y-4.0774
G01 X-82.0974 Y-4.0463
G01 X-82.1430 Y-4.0174
G01 X-82.1900 Y-3.9908
G01 X-82.2382 Y-3.9665
G01 X-82.2876 Y-3.9446
G01 X-82.3380 Y-3.9252
G01 X-82.3892 Y-3.9083
G01 X-82.4413 Y-3.8939
G01 X-82.4939 Y-3.8821
G01 X-82.5471 Y-3.8728
G01 X-82.6007 Y-3.8662
G01 X-82.6545 Y-3.8622
G01 X-82.7085 Y-3.8609
G01 X-82.7625 Y-3.8622
G01 X-82.8163 Y-3.8662
G01 X-82.8699 Y-3.8728
G01 X-82.9231 Y-3.8821
G01 X-82.9757 Y-3.8939
G01 X-83.0278 Y-3.9083
G01 X-83.0790 Y-3.9252
G01 X-83.1294 Y-3.9446
G01 X-83.1788 Y-3.9665
G01 X-83.2270 Y-3.9908
G01 X-83.2740 Y-4.0174
G01 X-83.3196 Y-4.0463
G01 X-83.3637 Y-4.0774
G01 X-83.4063 Y-4.1106
G01 X-83.4471 Y-4.1458
G01 X-83.4862 Y-4.1831
G01 X-83.5235 Y-4.2222
G01 X-83.5587 Y-4.2630
G01 X-83.5919 Y-4.3056
G01 X-83.6230 Y-4.3497
G01 X-83.6519 Y-4.3953
G01 X-83.6785 Y-4.4423
G01 X-83.7028 Y-4.4905
G01 X-83.7247 Y-4.5399
G01 X-83.7441 Y-4.5903
G01 X-83.7610 Y-4.6415
G01 X-83.7754 Y-4.6936
G01 X-83.7872 Y-4.7462
G01 X-83.7965 Y-4.7994
G01 X-83.8031 Y-4.8530
G01 X-83.8071 Y-4.9068
G01 X-83.8084 Y-4.9608
G01 X-83.8071 Y-5.0148
G01 X-83.8031 Y-5.0686
G01 X-83.7965 Y-5.1222
G01 X-83.7872 Y-5.1754
G01 X-83.7754 Y-5.2280
G01 X-83.7610 Y-5.2801
G01 X-83.7441 Y-5.3313
G01 X-83.7247 Y-5.3817
G01 X-83.7028 Y-5.4311
G01 X-83.6785 Y-5.4793
G01 X-83.6519 Y-5.5263
G01 X-83.6230 Y-5.5719
G01 X-83.5919 Y-5.6160
G01 X-83.5587 Y-5.6586
G01 X-83.5235 Y-5.6994
G01 X-83.4862 Y-5.7385
G01 X-83.4471 Y-5.7758
G01 X-83.4063 Y-5.8110
G01 X-83.3637 Y-5.8442
G01 X-83.3196 Y-5.8753
G01 X-83.2740 Y-5.9042
G01 X-83.2270 Y-5.9308
G01 X-83.1788 Y-5.9551
G01 X-83.1294 Y-5.9770
G01 X-83.0790 Y-5.9964
G01 X-83.0278 Y-6.0133
G01 X-82.9757 Y-6.0277
G01 X-82.9231 Y-6.0395
G01 X-82.8699 Y-6.0488
G01 X-82.8163 Y-6.0554
G01 X-82.7625 Y-6.0594
G01 X-82.7085 Y-6.0607
G01 X-82.6545 Y-6.0594
G01 X-82.6007 Y-6.0554
G01 X-82.5471 Y-6.0488
G01 X-82.4939 Y-6.0395
G01 X-82.4413 Y-6.0277
G01 X-82.3892 Y-6.0133
G01 X-82.3380 Y-5.9964
G01 X-82.2876 Y-5.9770
G01 X-82.2382 Y-5.9551
G01 X-82.1900 Y-5.9308
G01 X-82.1430 Y-5.9042
G01 X-82.0974 Y-5.8753
G01 X-82.0533 Y-5.8442
G01 X-82.0107 Y-5.8110
G01 X-81.9699 Y-5.7758
G01 X-81.9308 Y-5.7385
G01 X-81.8935 Y-5.6994
G01 X-81.8583 Y-5.6586
G01 X-81.8251 Y-5.6160
G01 X-81.7940 Y-5.5719
G01 X-81.7651 Y-5.5263
G01 X-81.7385 Y-5.4793
G01 X-81.7142 Y-5.4311
G01 X-81.6923 Y-5.3817
G01 X-81.6729 Y-5.3313
G01 X-81.6560 Y-5.2801
G01 X-81.6416 Y-5.2280
G01 X-81.6298 Y-5.1754
G01 X-81.6205 Y-5.1222
G01 X-81.6139 Y-5.0686
G01 X-81.6099 Y-5.0148
G01 X-81.6086 Y-4.9608
G00 X-81.6086 Y-4.9608
G01 F70.00
G01 Z-1.2000
G01 F60.00
G01 X-81.6099 Y-4.9068
G01 X-81.6139 Y-4.8530
G01 X-81.6205 Y-4.7994
G01 X-81.6298 Y-4.7462
G01 X-81.6416 Y-4.6936
G01 X-81.6560 Y-4.6415
G01 X-81.6729 Y-4.5903
G01 X-81.6923 Y-4.5399
G01 X-81.7142 Y-4.4905
G01 X-81.7385 Y-4.4423
G01 X-81.7651 Y-4.3953
G01 X-81.7940 Y-4.3497
G01 X-81.8251 Y-4.3056
G01 X-81.8583 Y-4.2630
G01 X-81.8935 Y-4.2222
G01 X-81.9308 Y-4.1831
G01 X-81.9699 Y-4.1458
G01 X-82.0107 Y-4.1106
G01 X-82.0533 Y-4.0774
G01 X-82.0974 Y-4.0463
G01 X-82.1430 Y-4.0174
G01 X-82.1900 Y-3.9908
G01 X-82.2382 Y-3.9665
G01 X-82.2876 Y-3.9446
G01 X-82.3380 Y-3.9252
G01 X-82.3892 Y-3.9083
G01 X-82.4413 Y-3.8939
G01 X-82.4939 Y-3.8821
G01 X-82.5471 Y-3.8728
G01 X-82.6007 Y-3.8662
G01 X-82.6545 Y-3.8622
G01 X-82.7085 Y-3.8609
G01 X-82.7625 Y-3.8622
G01 X-82.8163 Y-3.8662
G01 X-82.8699 Y-3.8728
G01 X-82.9231 Y-3.8821
G01 X-82.9757 Y-3.8939
G01 X-83.0278 Y-3.9083
G01 X-83.0790 Y-3.9252
G01 X-83.1294 Y-3.9446
G01 X-83.1788 Y-3.9665
G01 X-83.2270 Y-3.9908
G01 X-83.2740 Y-4.0174
G01 X-83.3196 Y-4.0463
G01 X-83.3637 Y-4.0774
G01 X-83.4063 Y-4.1106
G01 X-83.4471 Y-4.1458
G01 X-83.4862 Y-4.1831
G01 X-83.5235 Y-4.2222
G01 X-83.5587 Y-4.2630
G01 X-83.5919 Y-4.3056
G01 X-83.6230 Y-4.3497
G01 X-83.6519 Y-4.3953
G01 X-83.6785 Y-4.4423
G01 X-83.7028 Y-4.4905
G01 X-83.7247 Y-4.5399
G01 X-83.7441 Y-4.5903
G01 X-83.7610 Y-4.6415
G01 X-83.7754 Y-4.6936
G01 X-83.7872 Y-4.7462
G01 X-83.7965 Y-4.7994
G01 X-83.8031 Y-4.8530
G01 X-83.8071 Y-4.9068
G01 X-83.8084 Y-4.9608
G01 X-83.8071 Y-5.0148
G01 X-83.8031 Y-5.0686
G01 X-83.7965 Y-5.1222
G01 X-83.7872 Y-5.1754
G01 X-83.7754 Y-5.2280
G01 X-83.7610 Y-5.2801
G01 X-83.7441 Y-5.3313
G01 X-83.7247 Y-5.3817
G01 X-83.7028 Y-5.4311
G01 X-83.6785 Y-5.4793
G01 X-83.6519 Y-5.5263
G01 X-83.6230 Y-5.5719
G01 X-83.5919 Y-5.6160
G01 X-83.5587 Y-5.6586
G01 X-83.5235 Y-5.6994
G01 X-83.4862 Y-5.7385
G01 X-83.4471 Y-5.7758
G01 X-83.4063 Y-5.8110
G01 X-83.3637 Y-5.8442
G01 X-83.3196 Y-5.8753
G01 X-83.2740 Y-5.9042
G01 X-83.2270 Y-5.9308
G01 X-83.1788 Y-5.9551
G01 X-83.1294 Y-5.9770
G01 X-83.0790 Y-5.9964
G01 X-83.0278 Y-6.0133
G01 X-82.9757 Y-6.0277
G01 X-82.9231 Y-6.0395
G01 X-82.8699 Y-6.0488
G01 X-82.8163 Y-6.0554
G01 X-82.7625 Y-6.0594
G01 X-82.7085 Y-6.0607
G01 X-82.6545 Y-6.0594
G01 X-82.6007 Y-6.0554
G01 X-82.5471 Y-6.0488
G01 X-82.4939 Y-6.0395
G01 X-82.4413 Y-6.0277
G01 X-82.3892 Y-6.0133
G01 X-82.3380 Y-5.9964
G01 X-82.2876 Y-5.9770
G01 X-82.2382 Y-5.9551
G01 X-82.1900 Y-5.9308
G01 X-82.1430 Y-5.9042
G01 X-82.0974 Y-5.8753
G01 X-82.0533 Y-5.8442
G01 X-82.0107 Y-5.8110
G01 X-81.9699 Y-5.7758
G01 X-81.9308 Y-5.7385
G01 X-81.8935 Y-5.6994
G01 X-81.8583 Y-5.6586
G01 X-81.8251 Y-5.6160
G01 X-81.7940 Y-5.5719
G01 X-81.7651 Y-5.5263
G01 X-81.7385 Y-5.4793
G01 X-81.7142 Y-5.4311
G01 X-81.6923 Y-5.3817
G01 X-81.6729 Y-5.3313
G01 X-81.6560 Y-5.2801
G01 X-81.6416 Y-5.2280
G01 X-81.6298 Y-5.1754
G01 X-81.6205 Y-5.1222
G01 X-81.6139 Y-5.0686
G01 X-81.6099 Y-5.0148
G01 X-81.6086 Y-4.9608
G00 X-81.6086 Y-4.9608
G01 F70.00
G01 Z-1.3000
G01 F60.00
G01 X-81.6099 Y-4.9068
G01 X-81.6139 Y-4.8530
G01 X-81.6205 Y-4.7994
G01 X-81.6298 Y-4.7462
G01 X-81.6416 Y-4.6936
G01 X-81.6560 Y-4.6415
G01 X-81.6729 Y-4.5903
G01 X-81.6923 Y-4.5399
G01 X-81.7142 Y-4.4905
G01 X-81.7385 Y-4.4423
G01 X-81.7651 Y-4.3953
G01 X-81.7940 Y-4.3497
G01 X-81.8251 Y-4.3056
G01 X-81.8583 Y-4.2630
G01 X-81.8935 Y-4.2222
G01 X-81.9308 Y-4.1831
G01 X-81.9699 Y-4.1458
G01 X-82.0107 Y-4.1106
G01 X-82.0533 Y-4.0774
G01 X-82.0974 Y-4.0463
G01 X-82.1430 Y-4.0174
G01 X-82.1900 Y-3.9908
G01 X-82.2382 Y-3.9665
G01 X-82.2876 Y-3.9446
G01 X-82.3380 Y-3.9252
G01 X-82.3892 Y-3.9083
G01 X-82.4413 Y-3.8939
G01 X-82.4939 Y-3.8821
G01 X-82.5471 Y-3.8728
G01 X-82.6007 Y-3.8662
G01 X-82.6545 Y-3.8622
G01 X-82.7085 Y-3.8609
G01 X-82.7625 Y-3.8622
G01 X-82.8163 Y-3.8662
G01 X-82.8699 Y-3.8728
G01 X-82.9231 Y-3.8821
G01 X-82.9757 Y-3.8939
G01 X-83.0278 Y-3.9083
G01 X-83.0790 Y-3.9252
G01 X-83.1294 Y-3.9446
G01 X-83.1788 Y-3.9665
G01 X-83.2270 Y-3.9908
G01 X-83.2740 Y-4.0174
G01 X-83.3196 Y-4.0463
G01 X-83.3637 Y-4.0774
G01 X-83.4063 Y-4.1106
G01 X-83.4471 Y-4.1458
G01 X-83.4862 Y-4.1831
G01 X-83.5235 Y-4.2222
G01 X-83.5587 Y-4.2630
G01 X-83.5919 Y-4.3056
G01 X-83.6230 Y-4.3497
G01 X-83.6519 Y-4.3953
G01 X-83.6785 Y-4.4423
G01 X-83.7028 Y-4.4905
G01 X-83.7247 Y-4.5399
G01 X-83.7441 Y-4.5903
G01 X-83.7610 Y-4.6415
G01 X-83.7754 Y-4.6936
G01 X-83.7872 Y-4.7462
G01 X-83.7965 Y-4.7994
G01 X-83.8031 Y-4.8530
G01 X-83.8071 Y-4.9068
G01 X-83.8084 Y-4.9608
G01 X-83.8071 Y-5.0148
G01 X-83.8031 Y-5.0686
G01 X-83.7965 Y-5.1222
G01 X-83.7872 Y-5.1754
G01 X-83.7754 Y-5.2280
G01 X-83.7610 Y-5.2801
G01 X-83.7441 Y-5.3313
G01 X-83.7247 Y-5.3817
G01 X-83.7028 Y-5.4311
G01 X-83.6785 Y-5.4793
G01 X-83.6519 Y-5.5263
G01 X-83.6230 Y-5.5719
G01 X-83.5919 Y-5.6160
G01 X-83.5587 Y-5.6586
G01 X-83.5235 Y-5.6994
G01 X-83.4862 Y-5.7385
G01 X-83.4471 Y-5.7758
G01 X-83.4063 Y-5.8110
G01 X-83.3637 Y-5.8442
G01 X-83.3196 Y-5.8753
G01 X-83.2740 Y-5.9042
G01 X-83.2270 Y-5.9308
G01 X-83.1788 Y-5.9551
G01 X-83.1294 Y-5.9770
G01 X-83.0790 Y-5.9964
G01 X-83.0278 Y-6.0133
G01 X-82.9757 Y-6.0277
G01 X-82.9231 Y-6.0395
G01 X-82.8699 Y-6.0488
G01 X-82.8163 Y-6.0554
G01 X-82.7625 Y-6.0594
G01 X-82.7085 Y-6.0607
G01 X-82.6545 Y-6.0594
G01 X-82.6007 Y-6.0554
G01 X-82.5471 Y-6.0488
G01 X-82.4939 Y-6.0395
G01 X-82.4413 Y-6.0277
G01 X-82.3892 Y-6.0133
G01 X-82.3380 Y-5.9964
G01 X-82.2876 Y-5.9770
G01 X-82.2382 Y-5.9551
G01 X-82.1900 Y-5.9308
G01 X-82.1430 Y-5.9042
G01 X-82.0974 Y-5.8753
G01 X-82.0533 Y-5.8442
G01 X-82.0107 Y-5.8110
G01 X-81.9699 Y-5.7758
G01 X-81.9308 Y-5.7385
G01 X-81.8935 Y-5.6994
G01 X-81.8583 Y-5.6586
G01 X-81.8251 Y-5.6160
G01 X-81.7940 Y-5.5719
G01 X-81.7651 Y-5.5263
G01 X-81.7385 Y-5.4793
G01 X-81.7142 Y-5.4311
G01 X-81.6923 Y-5.3817
G01 X-81.6729 Y-5.3313
G01 X-81.6560 Y-5.2801
G01 X-81.6416 Y-5.2280
G01 X-81.6298 Y-5.1754
G01 X-81.6205 Y-5.1222
G01 X-81.6139 Y-5.0686
G01 X-81.6099 Y-5.0148
G01 X-81.6086 Y-4.9608
G00 X-81.6086 Y-4.9608
G01 F70.00
G01 Z-1.4000
G01 F60.00
G01 X-81.6099 Y-4.9068
G01 X-81.6139 Y-4.8530
G01 X-81.6205 Y-4.7994
G01 X-81.6298 Y-4.7462
G01 X-81.6416 Y-4.6936
G01 X-81.6560 Y-4.6415
G01 X-81.6729 Y-4.5903
G01 X-81.6923 Y-4.5399
G01 X-81.7142 Y-4.4905
G01 X-81.7385 Y-4.4423
G01 X-81.7651 Y-4.3953
G01 X-81.7940 Y-4.3497
G01 X-81.8251 Y-4.3056
G01 X-81.8583 Y-4.2630
G01 X-81.8935 Y-4.2222
G01 X-81.9308 Y-4.1831
G01 X-81.9699 Y-4.1458
G01 X-82.0107 Y-4.1106
G01 X-82.0533 Y-4.0774
G01 X-82.0974 Y-4.0463
G01 X-82.1430 Y-4.0174
G01 X-82.1900 Y-3.9908
G01 X-82.2382 Y-3.9665
G01 X-82.2876 Y-3.9446
G01 X-82.3380 Y-3.9252
G01 X-82.3892 Y-3.9083
G01 X-82.4413 Y-3.8939
G01 X-82.4939 Y-3.8821
G01 X-82.5471 Y-3.8728
G01 X-82.6007 Y-3.8662
G01 X-82.6545 Y-3.8622
G01 X-82.7085 Y-3.8609
G01 X-82.7625 Y-3.8622
G01 X-82.8163 Y-3.8662
G01 X-82.8699 Y-3.8728
G01 X-82.9231 Y-3.8821
G01 X-82.9757 Y-3.8939
G01 X-83.0278 Y-3.9083
G01 X-83.0790 Y-3.9252
G01 X-83.1294 Y-3.9446
G01 X-83.1788 Y-3.9665
G01 X-83.2270 Y-3.9908
G01 X-83.2740 Y-4.0174
G01 X-83.3196 Y-4.0463
G01 X-83.3637 Y-4.0774
G01 X-83.4063 Y-4.1106
G01 X-83.4471 Y-4.1458
G01 X-83.4862 Y-4.1831
G01 X-83.5235 Y-4.2222
G01 X-83.5587 Y-4.2630
G01 X-83.5919 Y-4.3056
G01 X-83.6230 Y-4.3497
G01 X-83.6519 Y-4.3953
G01 X-83.6785 Y-4.4423
G01 X-83.7028 Y-4.4905
G01 X-83.7247 Y-4.5399
G01 X-83.7441 Y-4.5903
G01 X-83.7610 Y-4.6415
G01 X-83.7754 Y-4.6936
G01 X-83.7872 Y-4.7462
G01 X-83.7965 Y-4.7994
G01 X-83.8031 Y-4.8530
G01 X-83.8071 Y-4.9068
G01 X-83.8084 Y-4.9608
G01 X-83.8071 Y-5.0148
G01 X-83.8031 Y-5.0686
G01 X-83.7965 Y-5.1222
G01 X-83.7872 Y-5.1754
G01 X-83.7754 Y-5.2280
G01 X-83.7610 Y-5.2801
G01 X-83.7441 Y-5.3313
G01 X-83.7247 Y-5.3817
G01 X-83.7028 Y-5.4311
G01 X-83.6785 Y-5.4793
G01 X-83.6519 Y-5.5263
G01 X-83.6230 Y-5.5719
G01 X-83.5919 Y-5.6160
G01 X-83.5587 Y-5.6586
G01 X-83.5235 Y-5.6994
G01 X-83.4862 Y-5.7385
G01 X-83.4471 Y-5.7758
G01 X-83.4063 Y-5.8110
G01 X-83.3637 Y-5.8442
G01 X-83.3196 Y-5.8753
G01 X-83.2740 Y-5.9042
G01 X-83.2270 Y-5.9308
G01 X-83.1788 Y-5.9551
G01 X-83.1294 Y-5.9770
G01 X-83.0790 Y-5.9964
G01 X-83.0278 Y-6.0133
G01 X-82.9757 Y-6.0277
G01 X-82.9231 Y-6.0395
G01 X-82.8699 Y-6.0488
G01 X-82.8163 Y-6.0554
G01 X-82.7625 Y-6.0594
G01 X-82.7085 Y-6.0607
G01 X-82.6545 Y-6.0594
G01 X-82.6007 Y-6.0554
G01 X-82.5471 Y-6.0488
G01 X-82.4939 Y-6.0395
G01 X-82.4413 Y-6.0277
G01 X-82.3892 Y-6.0133
G01 X-82.3380 Y-5.9964
G01 X-82.2876 Y-5.9770
G01 X-82.2382 Y-5.9551
G01 X-82.1900 Y-5.9308
G01 X-82.1430 Y-5.9042
G01 X-82.0974 Y-5.8753
G01 X-82.0533 Y-5.8442
G01 X-82.0107 Y-5.8110
G01 X-81.9699 Y-5.7758
G01 X-81.9308 Y-5.7385
G01 X-81.8935 Y-5.6994
G01 X-81.8583 Y-5.6586
G01 X-81.8251 Y-5.6160
G01 X-81.7940 Y-5.5719
G01 X-81.7651 Y-5.5263
G01 X-81.7385 Y-5.4793
G01 X-81.7142 Y-5.4311
G01 X-81.6923 Y-5.3817
G01 X-81.6729 Y-5.3313
G01 X-81.6560 Y-5.2801
G01 X-81.6416 Y-5.2280
G01 X-81.6298 Y-5.1754
G01 X-81.6205 Y-5.1222
G01 X-81.6139 Y-5.0686
G01 X-81.6099 Y-5.0148
G01 X-81.6086 Y-4.9608
G00 X-81.6086 Y-4.9608
G01 F70.00
G01 Z-1.5000
G01 F60.00
G01 X-81.6099 Y-4.9068
G01 X-81.6139 Y-4.8530
G01 X-81.6205 Y-4.7994
G01 X-81.6298 Y-4.7462
G01 X-81.6416 Y-4.6936
G01 X-81.6560 Y-4.6415
G01 X-81.6729 Y-4.5903
G01 X-81.6923 Y-4.5399
G01 X-81.7142 Y-4.4905
G01 X-81.7385 Y-4.4423
G01 X-81.7651 Y-4.3953
G01 X-81.7940 Y-4.3497
G01 X-81.8251 Y-4.3056
G01 X-81.8583 Y-4.2630
G01 X-81.8935 Y-4.2222
G01 X-81.9308 Y-4.1831
G01 X-81.9699 Y-4.1458
G01 X-82.0107 Y-4.1106
G01 X-82.0533 Y-4.0774
G01 X-82.0974 Y-4.0463
G01 X-82.1430 Y-4.0174
G01 X-82.1900 Y-3.9908
G01 X-82.2382 Y-3.9665
G01 X-82.2876 Y-3.9446
G01 X-82.3380 Y-3.9252
G01 X-82.3892 Y-3.9083
G01 X-82.4413 Y-3.8939
G01 X-82.4939 Y-3.8821
G01 X-82.5471 Y-3.8728
G01 X-82.6007 Y-3.8662
G01 X-82.6545 Y-3.8622
G01 X-82.7085 Y-3.8609
G01 X-82.7625 Y-3.8622
G01 X-82.8163 Y-3.8662
G01 X-82.8699 Y-3.8728
G01 X-82.9231 Y-3.8821
G01 X-82.9757 Y-3.8939
G01 X-83.0278 Y-3.9083
G01 X-83.0790 Y-3.9252
G01 X-83.1294 Y-3.9446
G01 X-83.1788 Y-3.9665
G01 X-83.2270 Y-3.9908
G01 X-83.2740 Y-4.0174
G01 X-83.3196 Y-4.0463
G01 X-83.3637 Y-4.0774
G01 X-83.4063 Y-4.1106
G01 X-83.4471 Y-4.1458
G01 X-83.4862 Y-4.1831
G01 X-83.5235 Y-4.2222
G01 X-83.5587 Y-4.2630
G01 X-83.5919 Y-4.3056
G01 X-83.6230 Y-4.3497
G01 X-83.6519 Y-4.3953
G01 X-83.6785 Y-4.4423
G01 X-83.7028 Y-4.4905
G01 X-83.7247 Y-4.5399
G01 X-83.7441 Y-4.5903
G01 X-83.7610 Y-4.6415
G01 X-83.7754 Y-4.6936
G01 X-83.7872 Y-4.7462
G01 X-83.7965 Y-4.7994
G01 X-83.8031 Y-4.8530
G01 X-83.8071 Y-4.9068
G01 X-83.8084 Y-4.9608
G01 X-83.8071 Y-5.0148
G01 X-83.8031 Y-5.0686
G01 X-83.7965 Y-5.1222
G01 X-83.7872 Y-5.1754
G01 X-83.7754 Y-5.2280
G01 X-83.7610 Y-5.2801
G01 X-83.7441 Y-5.3313
G01 X-83.7247 Y-5.3817
G01 X-83.7028 Y-5.4311
G01 X-83.6785 Y-5.4793
G01 X-83.6519 Y-5.5263
G01 X-83.6230 Y-5.5719
G01 X-83.5919 Y-5.6160
G01 X-83.5587 Y-5.6586
G01 X-83.5235 Y-5.6994
G01 X-83.4862 Y-5.7385
G01 X-83.4471 Y-5.7758
G01 X-83.4063 Y-5.8110
G01 X-83.3637 Y-5.8442
G01 X-83.3196 Y-5.8753
G01 X-83.2740 Y-5.9042
G01 X-83.2270 Y-5.9308
G01 X-83.1788 Y-5.9551
G01 X-83.1294 Y-5.9770
G01 X-83.0790 Y-5.9964
G01 X-83.0278 Y-6.0133
G01 X-82.9757 Y-6.0277
G01 X-82.9231 Y-6.0395
G01 X-82.8699 Y-6.0488
G01 X-82.8163 Y-6.0554
G01 X-82.7625 Y-6.0594
G01 X-82.7085 Y-6.0607
G01 X-82.6545 Y-6.0594
G01 X-82.6007 Y-6.0554
G01 X-82.5471 Y-6.0488
G01 X-82.4939 Y-6.0395
G01 X-82.4413 Y-6.0277
G01 X-82.3892 Y-6.0133
G01 X-82.3380 Y-5.9964
G01 X-82.2876 Y-5.9770
G01 X-82.2382 Y-5.9551
G01 X-82.1900 Y-5.9308
G01 X-82.1430 Y-5.9042
G01 X-82.0974 Y-5.8753
G01 X-82.0533 Y-5.8442
G01 X-82.0107 Y-5.8110
G01 X-81.9699 Y-5.7758
G01 X-81.9308 Y-5.7385
G01 X-81.8935 Y-5.6994
G01 X-81.8583 Y-5.6586
G01 X-81.8251 Y-5.6160
G01 X-81.7940 Y-5.5719
G01 X-81.7651 Y-5.5263
G01 X-81.7385 Y-5.4793
G01 X-81.7142 Y-5.4311
G01 X-81.6923 Y-5.3817
G01 X-81.6729 Y-5.3313
G01 X-81.6560 Y-5.2801
G01 X-81.6416 Y-5.2280
G01 X-81.6298 Y-5.1754
G01 X-81.6205 Y-5.1222
G01 X-81.6139 Y-5.0686
G01 X-81.6099 Y-5.0148
G01 X-81.6086 Y-4.9608
G00 X-81.6086 Y-4.9608
G01 F70.00
G01 Z-1.6000
G01 F60.00
G01 X-81.6099 Y-4.9068
G01 X-81.6139 Y-4.8530
G01 X-81.6205 Y-4.7994
G01 X-81.6298 Y-4.7462
G01 X-81.6416 Y-4.6936
G01 X-81.6560 Y-4.6415
G01 X-81.6729 Y-4.5903
G01 X-81.6923 Y-4.5399
G01 X-81.7142 Y-4.4905
G01 X-81.7385 Y-4.4423
G01 X-81.7651 Y-4.3953
G01 X-81.7940 Y-4.3497
G01 X-81.8251 Y-4.3056
G01 X-81.8583 Y-4.2630
G01 X-81.8935 Y-4.2222
G01 X-81.9308 Y-4.1831
G01 X-81.9699 Y-4.1458
G01 X-82.0107 Y-4.1106
G01 X-82.0533 Y-4.0774
G01 X-82.0974 Y-4.0463
G01 X-82.1430 Y-4.0174
G01 X-82.1900 Y-3.9908
G01 X-82.2382 Y-3.9665
G01 X-82.2876 Y-3.9446
G01 X-82.3380 Y-3.9252
G01 X-82.3892 Y-3.9083
G01 X-82.4413 Y-3.8939
G01 X-82.4939 Y-3.8821
G01 X-82.5471 Y-3.8728
G01 X-82.6007 Y-3.8662
G01 X-82.6545 Y-3.8622
G01 X-82.7085 Y-3.8609
G01 X-82.7625 Y-3.8622
G01 X-82.8163 Y-3.8662
G01 X-82.8699 Y-3.8728
G01 X-82.9231 Y-3.8821
G01 X-82.9757 Y-3.8939
G01 X-83.0278 Y-3.9083
G01 X-83.0790 Y-3.9252
G01 X-83.1294 Y-3.9446
G01 X-83.1788 Y-3.9665
G01 X-83.2270 Y-3.9908
G01 X-83.2740 Y-4.0174
G01 X-83.3196 Y-4.0463
G01 X-83.3637 Y-4.0774
G01 X-83.4063 Y-4.1106
G01 X-83.4471 Y-4.1458
G01 X-83.4862 Y-4.1831
G01 X-83.5235 Y-4.2222
G01 X-83.5587 Y-4.2630
G01 X-83.5919 Y-4.3056
G01 X-83.6230 Y-4.3497
G01 X-83.6519 Y-4.3953
G01 X-83.6785 Y-4.4423
G01 X-83.7028 Y-4.4905
G01 X-83.7247 Y-4.5399
G01 X-83.7441 Y-4.5903
G01 X-83.7610 Y-4.6415
G01 X-83.7754 Y-4.6936
G01 X-83.7872 Y-4.7462
G01 X-83.7965 Y-4.7994
G01 X-83.8031 Y-4.8530
G01 X-83.8071 Y-4.9068
G01 X-83.8084 Y-4.9608
G01 X-83.8071 Y-5.0148
G01 X-83.8031 Y-5.0686
G01 X-83.7965 Y-5.1222
G01 X-83.7872 Y-5.1754
G01 X-83.7754 Y-5.2280
G01 X-83.7610 Y-5.2801
G01 X-83.7441 Y-5.3313
G01 X-83.7247 Y-5.3817
G01 X-83.7028 Y-5.4311
G01 X-83.6785 Y-5.4793
G01 X-83.6519 Y-5.5263
G01 X-83.6230 Y-5.5719
G01 X-83.5919 Y-5.6160
G01 X-83.5587 Y-5.6586
G01 X-83.5235 Y-5.6994
G01 X-83.4862 Y-5.7385
G01 X-83.4471 Y-5.7758
G01 X-83.4063 Y-5.8110
G01 X-83.3637 Y-5.8442
G01 X-83.3196 Y-5.8753
G01 X-83.2740 Y-5.9042
G01 X-83.2270 Y-5.9308
G01 X-83.1788 Y-5.9551
G01 X-83.1294 Y-5.9770
G01 X-83.0790 Y-5.9964
G01 X-83.0278 Y-6.0133
G01 X-82.9757 Y-6.0277
G01 X-82.9231 Y-6.0395
G01 X-82.8699 Y-6.0488
G01 X-82.8163 Y-6.0554
G01 X-82.7625 Y-6.0594
G01 X-82.7085 Y-6.0607
G01 X-82.6545 Y-6.0594
G01 X-82.6007 Y-6.0554
G01 X-82.5471 Y-6.0488
G01 X-82.4939 Y-6.0395
G01 X-82.4413 Y-6.0277
G01 X-82.3892 Y-6.0133
G01 X-82.3380 Y-5.9964
G01 X-82.2876 Y-5.9770
G01 X-82.2382 Y-5.9551
G01 X-82.1900 Y-5.9308
G01 X-82.1430 Y-5.9042
G01 X-82.0974 Y-5.8753
G01 X-82.0533 Y-5.8442
G01 X-82.0107 Y-5.8110
G01 X-81.9699 Y-5.7758
G01 X-81.9308 Y-5.7385
G01 X-81.8935 Y-5.6994
G01 X-81.8583 Y-5.6586
G01 X-81.8251 Y-5.6160
G01 X-81.7940 Y-5.5719
G01 X-81.7651 Y-5.5263
G01 X-81.7385 Y-5.4793
G01 X-81.7142 Y-5.4311
G01 X-81.6923 Y-5.3817
G01 X-81.6729 Y-5.3313
G01 X-81.6560 Y-5.2801
G01 X-81.6416 Y-5.2280
G01 X-81.6298 Y-5.1754
G01 X-81.6205 Y-5.1222
G01 X-81.6139 Y-5.0686
G01 X-81.6099 Y-5.0148
G01 X-81.6086 Y-4.9608
G00 X-81.6086 Y-4.9608
G01 F70.00
G01 Z-1.7000
G01 F60.00
G01 X-81.6099 Y-4.9068
G01 X-81.6139 Y-4.8530
G01 X-81.6205 Y-4.7994
G01 X-81.6298 Y-4.7462
G01 X-81.6416 Y-4.6936
G01 X-81.6560 Y-4.6415
G01 X-81.6729 Y-4.5903
G01 X-81.6923 Y-4.5399
G01 X-81.7142 Y-4.4905
G01 X-81.7385 Y-4.4423
G01 X-81.7651 Y-4.3953
G01 X-81.7940 Y-4.3497
G01 X-81.8251 Y-4.3056
G01 X-81.8583 Y-4.2630
G01 X-81.8935 Y-4.2222
G01 X-81.9308 Y-4.1831
G01 X-81.9699 Y-4.1458
G01 X-82.0107 Y-4.1106
G01 X-82.0533 Y-4.0774
G01 X-82.0974 Y-4.0463
G01 X-82.1430 Y-4.0174
G01 X-82.1900 Y-3.9908
G01 X-82.2382 Y-3.9665
G01 X-82.2876 Y-3.9446
G01 X-82.3380 Y-3.9252
G01 X-82.3892 Y-3.9083
G01 X-82.4413 Y-3.8939
G01 X-82.4939 Y-3.8821
G01 X-82.5471 Y-3.8728
G01 X-82.6007 Y-3.8662
G01 X-82.6545 Y-3.8622
G01 X-82.7085 Y-3.8609
G01 X-82.7625 Y-3.8622
G01 X-82.8163 Y-3.8662
G01 X-82.8699 Y-3.8728
G01 X-82.9231 Y-3.8821
G01 X-82.9757 Y-3.8939
G01 X-83.0278 Y-3.9083
G01 X-83.0790 Y-3.9252
G01 X-83.1294 Y-3.9446
G01 X-83.1788 Y-3.9665
G01 X-83.2270 Y-3.9908
G01 X-83.2740 Y-4.0174
G01 X-83.3196 Y-4.0463
G01 X-83.3637 Y-4.0774
G01 X-83.4063 Y-4.1106
G01 X-83.4471 Y-4.1458
G01 X-83.4862 Y-4.1831
G01 X-83.5235 Y-4.2222
G01 X-83.5587 Y-4.2630
G01 X-83.5919 Y-4.3056
G01 X-83.6230 Y-4.3497
G01 X-83.6519 Y-4.3953
G01 X-83.6785 Y-4.4423
G01 X-83.7028 Y-4.4905
G01 X-83.7247 Y-4.5399
G01 X-83.7441 Y-4.5903
G01 X-83.7610 Y-4.6415
G01 X-83.7754 Y-4.6936
G01 X-83.7872 Y-4.7462
G01 X-83.7965 Y-4.7994
G01 X-83.8031 Y-4.8530
G01 X-83.8071 Y-4.9068
G01 X-83.8084 Y-4.9608
G01 X-83.8071 Y-5.0148
G01 X-83.8031 Y-5.0686
G01 X-83.7965 Y-5.1222
G01 X-83.7872 Y-5.1754
G01 X-83.7754 Y-5.2280
G01 X-83.7610 Y-5.2801
G01 X-83.7441 Y-5.3313
G01 X-83.7247 Y-5.3817
G01 X-83.7028 Y-5.4311
G01 X-83.6785 Y-5.4793
G01 X-83.6519 Y-5.5263
G01 X-83.6230 Y-5.5719
G01 X-83.5919 Y-5.6160
G01 X-83.5587 Y-5.6586
G01 X-83.5235 Y-5.6994
G01 X-83.4862 Y-5.7385
G01 X-83.4471 Y-5.7758
G01 X-83.4063 Y-5.8110
G01 X-83.3637 Y-5.8442
G01 X-83.3196 Y-5.8753
G01 X-83.2740 Y-5.9042
G01 X-83.2270 Y-5.9308
G01 X-83.1788 Y-5.9551
G01 X-83.1294 Y-5.9770
G01 X-83.0790 Y-5.9964
G01 X-83.0278 Y-6.0133
G01 X-82.9757 Y-6.0277
G01 X-82.9231 Y-6.0395
G01 X-82.8699 Y-6.0488
G01 X-82.8163 Y-6.0554
G01 X-82.7625 Y-6.0594
G01 X-82.7085 Y-6.0607
G01 X-82.6545 Y-6.0594
G01 X-82.6007 Y-6.0554
G01 X-82.5471 Y-6.0488
