(G-CODE GENERATED BY FLATCAM v8.993 - www.flatcam.org - Version Date: 2020/06/05)

(Name: Syntez2.drl_mill_cnc)
(Type: G-code from Geometry)
(Units: MM)

(Created on Thursday, 24 September 2020 at 07:23)

(This preprocessor is the default preprocessor used by FlatCAM.)
(It is made to work with MACH3 compatible motion controllers.)

(TOOL DIAMETER: 0.5 mm)
(Feedrate_XY: 50.0 mm/min)
(Feedrate_Z: 60.0 mm/min)
(Feedrate rapids 1500.0 mm/min)

(Z_Cut: -1.6 mm)
(DepthPerCut: 0.05 mm <=>32 passes)
(Z_Move: 2.0 mm)
(Z Start: None mm)
(Z End: 25.0 mm)
(Steps per circle: 128)
(Preprocessor Geometry: default)

(X range:    3.7900 ...   96.8400  mm)
(Y range:  -32.6200 ...   -3.0100  mm)

(Spindle Speed: None RPM)
G21
G90
G94



G01 F50.00
G00 Z2.0000

M03
G00 X6.2900 Y-5.4400
G01 F60.00
G01 Z-0.0500
G01 F50.00
G01 X6.2840 Y-5.5625
G01 X6.2660 Y-5.6839
G01 X6.2362 Y-5.8029
G01 X6.1948 Y-5.9184
G01 X6.1424 Y-6.0292
G01 X6.0793 Y-6.1345
G01 X6.0063 Y-6.2330
G01 X5.9239 Y-6.3239
G01 X5.8330 Y-6.4063
G01 X5.7345 Y-6.4793
G01 X5.6292 Y-6.5424
G01 X5.5184 Y-6.5948
G01 X5.4029 Y-6.6362
G01 X5.2839 Y-6.6660
G01 X5.1625 Y-6.6840
G01 X5.0400 Y-6.6900
G01 X4.9175 Y-6.6840
G01 X4.7961 Y-6.6660
G01 X4.6771 Y-6.6362
G01 X4.5616 Y-6.5948
G01 X4.4508 Y-6.5424
G01 X4.3455 Y-6.4793
G01 X4.2470 Y-6.4063
G01 X4.1561 Y-6.3239
G01 X4.0737 Y-6.2330
G01 X4.0007 Y-6.1345
G01 X3.9376 Y-6.0292
G01 X3.8852 Y-5.9184
G01 X3.8438 Y-5.8029
G01 X3.8140 Y-5.6839
G01 X3.7960 Y-5.5625
G01 X3.7900 Y-5.4400
G01 X3.7960 Y-5.3175
G01 X3.8140 Y-5.1961
G01 X3.8438 Y-5.0771
G01 X3.8852 Y-4.9616
G01 X3.9376 Y-4.8508
G01 X4.0007 Y-4.7455
G01 X4.0737 Y-4.6470
G01 X4.1561 Y-4.5561
G01 X4.2470 Y-4.4737
G01 X4.3455 Y-4.4007
G01 X4.4508 Y-4.3376
G01 X4.5616 Y-4.2852
G01 X4.6771 Y-4.2438
G01 X4.7961 Y-4.2140
G01 X4.9175 Y-4.1960
G01 X5.0400 Y-4.1900
G01 X5.1625 Y-4.1960
G01 X5.2839 Y-4.2140
G01 X5.4029 Y-4.2438
G01 X5.5184 Y-4.2852
G01 X5.6292 Y-4.3376
G01 X5.7345 Y-4.4007
G01 X5.8330 Y-4.4737
G01 X5.9239 Y-4.5561
G01 X6.0063 Y-4.6470
G01 X6.0793 Y-4.7455
G01 X6.1424 Y-4.8508
G01 X6.1948 Y-4.9616
G01 X6.2362 Y-5.0771
G01 X6.2660 Y-5.1961
G01 X6.2840 Y-5.3175
G01 X6.2900 Y-5.4400
G00 X6.2900 Y-5.4400
G01 F60.00
G01 Z-0.1000
G01 F50.00
G01 X6.2840 Y-5.5625
G01 X6.2660 Y-5.6839
G01 X6.2362 Y-5.8029
G01 X6.1948 Y-5.9184
G01 X6.1424 Y-6.0292
G01 X6.0793 Y-6.1345
G01 X6.0063 Y-6.2330
G01 X5.9239 Y-6.3239
G01 X5.8330 Y-6.4063
G01 X5.7345 Y-6.4793
G01 X5.6292 Y-6.5424
G01 X5.5184 Y-6.5948
G01 X5.4029 Y-6.6362
G01 X5.2839 Y-6.6660
G01 X5.1625 Y-6.6840
G01 X5.0400 Y-6.6900
G01 X4.9175 Y-6.6840
G01 X4.7961 Y-6.6660
G01 X4.6771 Y-6.6362
G01 X4.5616 Y-6.5948
G01 X4.4508 Y-6.5424
G01 X4.3455 Y-6.4793
G01 X4.2470 Y-6.4063
G01 X4.1561 Y-6.3239
G01 X4.0737 Y-6.2330
G01 X4.0007 Y-6.1345
G01 X3.9376 Y-6.0292
G01 X3.8852 Y-5.9184
G01 X3.8438 Y-5.8029
G01 X3.8140 Y-5.6839
G01 X3.7960 Y-5.5625
G01 X3.7900 Y-5.4400
G01 X3.7960 Y-5.3175
G01 X3.8140 Y-5.1961
G01 X3.8438 Y-5.0771
G01 X3.8852 Y-4.9616
G01 X3.9376 Y-4.8508
G01 X4.0007 Y-4.7455
G01 X4.0737 Y-4.6470
G01 X4.1561 Y-4.5561
G01 X4.2470 Y-4.4737
G01 X4.3455 Y-4.4007
G01 X4.4508 Y-4.3376
G01 X4.5616 Y-4.2852
G01 X4.6771 Y-4.2438
G01 X4.7961 Y-4.2140
G01 X4.9175 Y-4.1960
G01 X5.0400 Y-4.1900
G01 X5.1625 Y-4.1960
G01 X5.2839 Y-4.2140
G01 X5.4029 Y-4.2438
G01 X5.5184 Y-4.2852
G01 X5.6292 Y-4.3376
G01 X5.7345 Y-4.4007
G01 X5.8330 Y-4.4737
G01 X5.9239 Y-4.5561
G01 X6.0063 Y-4.6470
G01 X6.0793 Y-4.7455
G01 X6.1424 Y-4.8508
G01 X6.1948 Y-4.9616
G01 X6.2362 Y-5.0771
G01 X6.2660 Y-5.1961
G01 X6.2840 Y-5.3175
G01 X6.2900 Y-5.4400
G00 X6.2900 Y-5.4400
G01 F60.00
G01 Z-0.1500
G01 F50.00
G01 X6.2840 Y-5.5625
G01 X6.2660 Y-5.6839
G01 X6.2362 Y-5.8029
G01 X6.1948 Y-5.9184
G01 X6.1424 Y-6.0292
G01 X6.0793 Y-6.1345
G01 X6.0063 Y-6.2330
G01 X5.9239 Y-6.3239
G01 X5.8330 Y-6.4063
G01 X5.7345 Y-6.4793
G01 X5.6292 Y-6.5424
G01 X5.5184 Y-6.5948
G01 X5.4029 Y-6.6362
G01 X5.2839 Y-6.6660
G01 X5.1625 Y-6.6840
G01 X5.0400 Y-6.6900
G01 X4.9175 Y-6.6840
G01 X4.7961 Y-6.6660
G01 X4.6771 Y-6.6362
G01 X4.5616 Y-6.5948
G01 X4.4508 Y-6.5424
G01 X4.3455 Y-6.4793
G01 X4.2470 Y-6.4063
G01 X4.1561 Y-6.3239
G01 X4.0737 Y-6.2330
G01 X4.0007 Y-6.1345
G01 X3.9376 Y-6.0292
G01 X3.8852 Y-5.9184
G01 X3.8438 Y-5.8029
G01 X3.8140 Y-5.6839
G01 X3.7960 Y-5.5625
G01 X3.7900 Y-5.4400
G01 X3.7960 Y-5.3175
G01 X3.8140 Y-5.1961
G01 X3.8438 Y-5.0771
G01 X3.8852 Y-4.9616
G01 X3.9376 Y-4.8508
G01 X4.0007 Y-4.7455
G01 X4.0737 Y-4.6470
G01 X4.1561 Y-4.5561
G01 X4.2470 Y-4.4737
G01 X4.3455 Y-4.4007
G01 X4.4508 Y-4.3376
G01 X4.5616 Y-4.2852
G01 X4.6771 Y-4.2438
G01 X4.7961 Y-4.2140
G01 X4.9175 Y-4.1960
G01 X5.0400 Y-4.1900
G01 X5.1625 Y-4.1960
G01 X5.2839 Y-4.2140
G01 X5.4029 Y-4.2438
G01 X5.5184 Y-4.2852
G01 X5.6292 Y-4.3376
G01 X5.7345 Y-4.4007
G01 X5.8330 Y-4.4737
G01 X5.9239 Y-4.5561
G01 X6.0063 Y-4.6470
G01 X6.0793 Y-4.7455
G01 X6.1424 Y-4.8508
G01 X6.1948 Y-4.9616
G01 X6.2362 Y-5.0771
G01 X6.2660 Y-5.1961
G01 X6.2840 Y-5.3175
G01 X6.2900 Y-5.4400
G00 X6.2900 Y-5.4400
G01 F60.00
G01 Z-0.2000
G01 F50.00
G01 X6.2840 Y-5.5625
G01 X6.2660 Y-5.6839
G01 X6.2362 Y-5.8029
G01 X6.1948 Y-5.9184
G01 X6.1424 Y-6.0292
G01 X6.0793 Y-6.1345
G01 X6.0063 Y-6.2330
G01 X5.9239 Y-6.3239
G01 X5.8330 Y-6.4063
G01 X5.7345 Y-6.4793
G01 X5.6292 Y-6.5424
G01 X5.5184 Y-6.5948
G01 X5.4029 Y-6.6362
G01 X5.2839 Y-6.6660
G01 X5.1625 Y-6.6840
G01 X5.0400 Y-6.6900
G01 X4.9175 Y-6.6840
G01 X4.7961 Y-6.6660
G01 X4.6771 Y-6.6362
G01 X4.5616 Y-6.5948
G01 X4.4508 Y-6.5424
G01 X4.3455 Y-6.4793
G01 X4.2470 Y-6.4063
G01 X4.1561 Y-6.3239
G01 X4.0737 Y-6.2330
G01 X4.0007 Y-6.1345
G01 X3.9376 Y-6.0292
G01 X3.8852 Y-5.9184
G01 X3.8438 Y-5.8029
G01 X3.8140 Y-5.6839
G01 X3.7960 Y-5.5625
G01 X3.7900 Y-5.4400
G01 X3.7960 Y-5.3175
G01 X3.8140 Y-5.1961
G01 X3.8438 Y-5.0771
G01 X3.8852 Y-4.9616
G01 X3.9376 Y-4.8508
G01 X4.0007 Y-4.7455
G01 X4.0737 Y-4.6470
G01 X4.1561 Y-4.5561
G01 X4.2470 Y-4.4737
G01 X4.3455 Y-4.4007
G01 X4.4508 Y-4.3376
G01 X4.5616 Y-4.2852
G01 X4.6771 Y-4.2438
G01 X4.7961 Y-4.2140
G01 X4.9175 Y-4.1960
G01 X5.0400 Y-4.1900
G01 X5.1625 Y-4.1960
G01 X5.2839 Y-4.2140
G01 X5.4029 Y-4.2438
G01 X5.5184 Y-4.2852
G01 X5.6292 Y-4.3376
G01 X5.7345 Y-4.4007
G01 X5.8330 Y-4.4737
G01 X5.9239 Y-4.5561
G01 X6.0063 Y-4.6470
G01 X6.0793 Y-4.7455
G01 X6.1424 Y-4.8508
G01 X6.1948 Y-4.9616
G01 X6.2362 Y-5.0771
G01 X6.2660 Y-5.1961
G01 X6.2840 Y-5.3175
G01 X6.2900 Y-5.4400
G00 X6.2900 Y-5.4400
G01 F60.00
G01 Z-0.2500
G01 F50.00
G01 X6.2840 Y-5.5625
G01 X6.2660 Y-5.6839
G01 X6.2362 Y-5.8029
G01 X6.1948 Y-5.9184
G01 X6.1424 Y-6.0292
G01 X6.0793 Y-6.1345
G01 X6.0063 Y-6.2330
G01 X5.9239 Y-6.3239
G01 X5.8330 Y-6.4063
G01 X5.7345 Y-6.4793
G01 X5.6292 Y-6.5424
G01 X5.5184 Y-6.5948
G01 X5.4029 Y-6.6362
G01 X5.2839 Y-6.6660
G01 X5.1625 Y-6.6840
G01 X5.0400 Y-6.6900
G01 X4.9175 Y-6.6840
G01 X4.7961 Y-6.6660
G01 X4.6771 Y-6.6362
G01 X4.5616 Y-6.5948
G01 X4.4508 Y-6.5424
G01 X4.3455 Y-6.4793
G01 X4.2470 Y-6.4063
G01 X4.1561 Y-6.3239
G01 X4.0737 Y-6.2330
G01 X4.0007 Y-6.1345
G01 X3.9376 Y-6.0292
G01 X3.8852 Y-5.9184
G01 X3.8438 Y-5.8029
G01 X3.8140 Y-5.6839
G01 X3.7960 Y-5.5625
G01 X3.7900 Y-5.4400
G01 X3.7960 Y-5.3175
G01 X3.8140 Y-5.1961
G01 X3.8438 Y-5.0771
G01 X3.8852 Y-4.9616
G01 X3.9376 Y-4.8508
G01 X4.0007 Y-4.7455
G01 X4.0737 Y-4.6470
G01 X4.1561 Y-4.5561
G01 X4.2470 Y-4.4737
G01 X4.3455 Y-4.4007
G01 X4.4508 Y-4.3376
G01 X4.5616 Y-4.2852
G01 X4.6771 Y-4.2438
G01 X4.7961 Y-4.2140
G01 X4.9175 Y-4.1960
G01 X5.0400 Y-4.1900
G01 X5.1625 Y-4.1960
G01 X5.2839 Y-4.2140
G01 X5.4029 Y-4.2438
G01 X5.5184 Y-4.2852
G01 X5.6292 Y-4.3376
G01 X5.7345 Y-4.4007
G01 X5.8330 Y-4.4737
G01 X5.9239 Y-4.5561
G01 X6.0063 Y-4.6470
G01 X6.0793 Y-4.7455
G01 X6.1424 Y-4.8508
G01 X6.1948 Y-4.9616
G01 X6.2362 Y-5.0771
G01 X6.2660 Y-5.1961
G01 X6.2840 Y-5.3175
G01 X6.2900 Y-5.4400
G00 X6.2900 Y-5.4400
G01 F60.00
G01 Z-0.3000
G01 F50.00
G01 X6.2840 Y-5.5625
G01 X6.2660 Y-5.6839
G01 X6.2362 Y-5.8029
G01 X6.1948 Y-5.9184
G01 X6.1424 Y-6.0292
G01 X6.0793 Y-6.1345
G01 X6.0063 Y-6.2330
G01 X5.9239 Y-6.3239
G01 X5.8330 Y-6.4063
G01 X5.7345 Y-6.4793
G01 X5.6292 Y-6.5424
G01 X5.5184 Y-6.5948
G01 X5.4029 Y-6.6362
G01 X5.2839 Y-6.6660
G01 X5.1625 Y-6.6840
G01 X5.0400 Y-6.6900
G01 X4.9175 Y-6.6840
G01 X4.7961 Y-6.6660
G01 X4.6771 Y-6.6362
G01 X4.5616 Y-6.5948
G01 X4.4508 Y-6.5424
G01 X4.3455 Y-6.4793
G01 X4.2470 Y-6.4063
G01 X4.1561 Y-6.3239
G01 X4.0737 Y-6.2330
G01 X4.0007 Y-6.1345
G01 X3.9376 Y-6.0292
G01 X3.8852 Y-5.9184
G01 X3.8438 Y-5.8029
G01 X3.8140 Y-5.6839
G01 X3.7960 Y-5.5625
G01 X3.7900 Y-5.4400
G01 X3.7960 Y-5.3175
G01 X3.8140 Y-5.1961
G01 X3.8438 Y-5.0771
G01 X3.8852 Y-4.9616
G01 X3.9376 Y-4.8508
G01 X4.0007 Y-4.7455
G01 X4.0737 Y-4.6470
G01 X4.1561 Y-4.5561
G01 X4.2470 Y-4.4737
G01 X4.3455 Y-4.4007
G01 X4.4508 Y-4.3376
G01 X4.5616 Y-4.2852
G01 X4.6771 Y-4.2438
G01 X4.7961 Y-4.2140
G01 X4.9175 Y-4.1960
G01 X5.0400 Y-4.1900
G01 X5.1625 Y-4.1960
G01 X5.2839 Y-4.2140
G01 X5.4029 Y-4.2438
G01 X5.5184 Y-4.2852
G01 X5.6292 Y-4.3376
G01 X5.7345 Y-4.4007
G01 X5.8330 Y-4.4737
G01 X5.9239 Y-4.5561
G01 X6.0063 Y-4.6470
G01 X6.0793 Y-4.7455
G01 X6.1424 Y-4.8508
G01 X6.1948 Y-4.9616
G01 X6.2362 Y-5.0771
G01 X6.2660 Y-5.1961
G01 X6.2840 Y-5.3175
G01 X6.2900 Y-5.4400
G00 X6.2900 Y-5.4400
G01 F60.00
G01 Z-0.3500
G01 F50.00
G01 X6.2840 Y-5.5625
G01 X6.2660 Y-5.6839
G01 X6.2362 Y-5.8029
G01 X6.1948 Y-5.9184
G01 X6.1424 Y-6.0292
G01 X6.0793 Y-6.1345
G01 X6.0063 Y-6.2330
G01 X5.9239 Y-6.3239
G01 X5.8330 Y-6.4063
G01 X5.7345 Y-6.4793
G01 X5.6292 Y-6.5424
G01 X5.5184 Y-6.5948
G01 X5.4029 Y-6.6362
G01 X5.2839 Y-6.6660
G01 X5.1625 Y-6.6840
G01 X5.0400 Y-6.6900
G01 X4.9175 Y-6.6840
G01 X4.7961 Y-6.6660
G01 X4.6771 Y-6.6362
G01 X4.5616 Y-6.5948
G01 X4.4508 Y-6.5424
G01 X4.3455 Y-6.4793
G01 X4.2470 Y-6.4063
G01 X4.1561 Y-6.3239
G01 X4.0737 Y-6.2330
G01 X4.0007 Y-6.1345
G01 X3.9376 Y-6.0292
G01 X3.8852 Y-5.9184
G01 X3.8438 Y-5.8029
G01 X3.8140 Y-5.6839
G01 X3.7960 Y-5.5625
G01 X3.7900 Y-5.4400
G01 X3.7960 Y-5.3175
G01 X3.8140 Y-5.1961
G01 X3.8438 Y-5.0771
G01 X3.8852 Y-4.9616
G01 X3.9376 Y-4.8508
G01 X4.0007 Y-4.7455
G01 X4.0737 Y-4.6470
G01 X4.1561 Y-4.5561
G01 X4.2470 Y-4.4737
G01 X4.3455 Y-4.4007
G01 X4.4508 Y-4.3376
G01 X4.5616 Y-4.2852
G01 X4.6771 Y-4.2438
G01 X4.7961 Y-4.2140
G01 X4.9175 Y-4.1960
G01 X5.0400 Y-4.1900
G01 X5.1625 Y-4.1960
G01 X5.2839 Y-4.2140
G01 X5.4029 Y-4.2438
G01 X5.5184 Y-4.2852
G01 X5.6292 Y-4.3376
G01 X5.7345 Y-4.4007
G01 X5.8330 Y-4.4737
G01 X5.9239 Y-4.5561
G01 X6.0063 Y-4.6470
G01 X6.0793 Y-4.7455
G01 X6.1424 Y-4.8508
G01 X6.1948 Y-4.9616
G01 X6.2362 Y-5.0771
G01 X6.2660 Y-5.1961
G01 X6.2840 Y-5.3175
G01 X6.2900 Y-5.4400
G00 X6.2900 Y-5.4400
G01 F60.00
G01 Z-0.4000
G01 F50.00
G01 X6.2840 Y-5.5625
G01 X6.2660 Y-5.6839
G01 X6.2362 Y-5.8029
G01 X6.1948 Y-5.9184
G01 X6.1424 Y-6.0292
G01 X6.0793 Y-6.1345
G01 X6.0063 Y-6.2330
G01 X5.9239 Y-6.3239
G01 X5.8330 Y-6.4063
G01 X5.7345 Y-6.4793
G01 X5.6292 Y-6.5424
G01 X5.5184 Y-6.5948
G01 X5.4029 Y-6.6362
G01 X5.2839 Y-6.6660
G01 X5.1625 Y-6.6840
G01 X5.0400 Y-6.6900
G01 X4.9175 Y-6.6840
G01 X4.7961 Y-6.6660
G01 X4.6771 Y-6.6362
G01 X4.5616 Y-6.5948
G01 X4.4508 Y-6.5424
G01 X4.3455 Y-6.4793
G01 X4.2470 Y-6.4063
G01 X4.1561 Y-6.3239
G01 X4.0737 Y-6.2330
G01 X4.0007 Y-6.1345
G01 X3.9376 Y-6.0292
G01 X3.8852 Y-5.9184
G01 X3.8438 Y-5.8029
G01 X3.8140 Y-5.6839
G01 X3.7960 Y-5.5625
G01 X3.7900 Y-5.4400
G01 X3.7960 Y-5.3175
G01 X3.8140 Y-5.1961
G01 X3.8438 Y-5.0771
G01 X3.8852 Y-4.9616
G01 X3.9376 Y-4.8508
G01 X4.0007 Y-4.7455
G01 X4.0737 Y-4.6470
G01 X4.1561 Y-4.5561
G01 X4.2470 Y-4.4737
G01 X4.3455 Y-4.4007
G01 X4.4508 Y-4.3376
G01 X4.5616 Y-4.2852
G01 X4.6771 Y-4.2438
G01 X4.7961 Y-4.2140
G01 X4.9175 Y-4.1960
G01 X5.0400 Y-4.1900
G01 X5.1625 Y-4.1960
G01 X5.2839 Y-4.2140
G01 X5.4029 Y-4.2438
G01 X5.5184 Y-4.2852
G01 X5.6292 Y-4.3376
G01 X5.7345 Y-4.4007
G01 X5.8330 Y-4.4737
G01 X5.9239 Y-4.5561
G01 X6.0063 Y-4.6470
G01 X6.0793 Y-4.7455
G01 X6.1424 Y-4.8508
G01 X6.1948 Y-4.9616
G01 X6.2362 Y-5.0771
G01 X6.2660 Y-5.1961
G01 X6.2840 Y-5.3175
G01 X6.2900 Y-5.4400
G00 X6.2900 Y-5.4400
G01 F60.00
G01 Z-0.4500
G01 F50.00
G01 X6.2840 Y-5.5625
G01 X6.2660 Y-5.6839
G01 X6.2362 Y-5.8029
G01 X6.1948 Y-5.9184
G01 X6.1424 Y-6.0292
G01 X6.0793 Y-6.1345
G01 X6.0063 Y-6.2330
G01 X5.9239 Y-6.3239
G01 X5.8330 Y-6.4063
G01 X5.7345 Y-6.4793
G01 X5.6292 Y-6.5424
G01 X5.5184 Y-6.5948
G01 X5.4029 Y-6.6362
G01 X5.2839 Y-6.6660
G01 X5.1625 Y-6.6840
G01 X5.0400 Y-6.6900
G01 X4.9175 Y-6.6840
G01 X4.7961 Y-6.6660
G01 X4.6771 Y-6.6362
G01 X4.5616 Y-6.5948
G01 X4.4508 Y-6.5424
G01 X4.3455 Y-6.4793
G01 X4.2470 Y-6.4063
G01 X4.1561 Y-6.3239
G01 X4.0737 Y-6.2330
G01 X4.0007 Y-6.1345
G01 X3.9376 Y-6.0292
G01 X3.8852 Y-5.9184
G01 X3.8438 Y-5.8029
G01 X3.8140 Y-5.6839
G01 X3.7960 Y-5.5625
G01 X3.7900 Y-5.4400
G01 X3.7960 Y-5.3175
G01 X3.8140 Y-5.1961
G01 X3.8438 Y-5.0771
G01 X3.8852 Y-4.9616
G01 X3.9376 Y-4.8508
G01 X4.0007 Y-4.7455
G01 X4.0737 Y-4.6470
G01 X4.1561 Y-4.5561
G01 X4.2470 Y-4.4737
G01 X4.3455 Y-4.4007
G01 X4.4508 Y-4.3376
G01 X4.5616 Y-4.2852
G01 X4.6771 Y-4.2438
G01 X4.7961 Y-4.2140
G01 X4.9175 Y-4.1960
G01 X5.0400 Y-4.1900
G01 X5.1625 Y-4.1960
G01 X5.2839 Y-4.2140
G01 X5.4029 Y-4.2438
G01 X5.5184 Y-4.2852
G01 X5.6292 Y-4.3376
G01 X5.7345 Y-4.4007
G01 X5.8330 Y-4.4737
G01 X5.9239 Y-4.5561
G01 X6.0063 Y-4.6470
G01 X6.0793 Y-4.7455
G01 X6.1424 Y-4.8508
G01 X6.1948 Y-4.9616
G01 X6.2362 Y-5.0771
G01 X6.2660 Y-5.1961
G01 X6.2840 Y-5.3175
G01 X6.2900 Y-5.4400
G00 X6.2900 Y-5.4400
G01 F60.00
G01 Z-0.5000
G01 F50.00
G01 X6.2840 Y-5.5625
G01 X6.2660 Y-5.6839
G01 X6.2362 Y-5.8029
G01 X6.1948 Y-5.9184
G01 X6.1424 Y-6.0292
G01 X6.0793 Y-6.1345
G01 X6.0063 Y-6.2330
G01 X5.9239 Y-6.3239
G01 X5.8330 Y-6.4063
G01 X5.7345 Y-6.4793
G01 X5.6292 Y-6.5424
G01 X5.5184 Y-6.5948
G01 X5.4029 Y-6.6362
G01 X5.2839 Y-6.6660
G01 X5.1625 Y-6.6840
G01 X5.0400 Y-6.6900
G01 X4.9175 Y-6.6840
G01 X4.7961 Y-6.6660
G01 X4.6771 Y-6.6362
G01 X4.5616 Y-6.5948
G01 X4.4508 Y-6.5424
G01 X4.3455 Y-6.4793
G01 X4.2470 Y-6.4063
G01 X4.1561 Y-6.3239
G01 X4.0737 Y-6.2330
G01 X4.0007 Y-6.1345
G01 X3.9376 Y-6.0292
G01 X3.8852 Y-5.9184
G01 X3.8438 Y-5.8029
G01 X3.8140 Y-5.6839
G01 X3.7960 Y-5.5625
G01 X3.7900 Y-5.4400
G01 X3.7960 Y-5.3175
G01 X3.8140 Y-5.1961
G01 X3.8438 Y-5.0771
G01 X3.8852 Y-4.9616
G01 X3.9376 Y-4.8508
G01 X4.0007 Y-4.7455
G01 X4.0737 Y-4.6470
G01 X4.1561 Y-4.5561
G01 X4.2470 Y-4.4737
G01 X4.3455 Y-4.4007
G01 X4.4508 Y-4.3376
G01 X4.5616 Y-4.2852
G01 X4.6771 Y-4.2438
G01 X4.7961 Y-4.2140
G01 X4.9175 Y-4.1960
G01 X5.0400 Y-4.1900
G01 X5.1625 Y-4.1960
G01 X5.2839 Y-4.2140
G01 X5.4029 Y-4.2438
G01 X5.5184 Y-4.2852
G01 X5.6292 Y-4.3376
G01 X5.7345 Y-4.4007
G01 X5.8330 Y-4.4737
G01 X5.9239 Y-4.5561
G01 X6.0063 Y-4.6470
G01 X6.0793 Y-4.7455
G01 X6.1424 Y-4.8508
G01 X6.1948 Y-4.9616
G01 X6.2362 Y-5.0771
G01 X6.2660 Y-5.1961
G01 X6.2840 Y-5.3175
G01 X6.2900 Y-5.4400
G00 X6.2900 Y-5.4400
G01 F60.00
G01 Z-0.5500
G01 F50.00
G01 X6.2840 Y-5.5625
G01 X6.2660 Y-5.6839
G01 X6.2362 Y-5.8029
G01 X6.1948 Y-5.9184
G01 X6.1424 Y-6.0292
G01 X6.0793 Y-6.1345
G01 X6.0063 Y-6.2330
G01 X5.9239 Y-6.3239
G01 X5.8330 Y-6.4063
G01 X5.7345 Y-6.4793
G01 X5.6292 Y-6.5424
G01 X5.5184 Y-6.5948
G01 X5.4029 Y-6.6362
G01 X5.2839 Y-6.6660
G01 X5.1625 Y-6.6840
G01 X5.0400 Y-6.6900
G01 X4.9175 Y-6.6840
G01 X4.7961 Y-6.6660
G01 X4.6771 Y-6.6362
G01 X4.5616 Y-6.5948
G01 X4.4508 Y-6.5424
G01 X4.3455 Y-6.4793
G01 X4.2470 Y-6.4063
G01 X4.1561 Y-6.3239
G01 X4.0737 Y-6.2330
G01 X4.0007 Y-6.1345
G01 X3.9376 Y-6.0292
G01 X3.8852 Y-5.9184
G01 X3.8438 Y-5.8029
G01 X3.8140 Y-5.6839
G01 X3.7960 Y-5.5625
G01 X3.7900 Y-5.4400
G01 X3.7960 Y-5.3175
G01 X3.8140 Y-5.1961
G01 X3.8438 Y-5.0771
G01 X3.8852 Y-4.9616
G01 X3.9376 Y-4.8508
G01 X4.0007 Y-4.7455
G01 X4.0737 Y-4.6470
G01 X4.1561 Y-4.5561
G01 X4.2470 Y-4.4737
G01 X4.3455 Y-4.4007
G01 X4.4508 Y-4.3376
G01 X4.5616 Y-4.2852
G01 X4.6771 Y-4.2438
G01 X4.7961 Y-4.2140
G01 X4.9175 Y-4.1960
G01 X5.0400 Y-4.1900
G01 X5.1625 Y-4.1960
G01 X5.2839 Y-4.2140
G01 X5.4029 Y-4.2438
G01 X5.5184 Y-4.2852
G01 X5.6292 Y-4.3376
G01 X5.7345 Y-4.4007
G01 X5.8330 Y-4.4737
G01 X5.9239 Y-4.5561
G01 X6.0063 Y-4.6470
G01 X6.0793 Y-4.7455
G01 X6.1424 Y-4.8508
G01 X6.1948 Y-4.9616
G01 X6.2362 Y-5.0771
G01 X6.2660 Y-5.1961
G01 X6.2840 Y-5.3175
G01 X6.2900 Y-5.4400
G00 X6.2900 Y-5.4400
G01 F60.00
G01 Z-0.6000
G01 F50.00
G01 X6.2840 Y-5.5625
G01 X6.2660 Y-5.6839
G01 X6.2362 Y-5.8029
G01 X6.1948 Y-5.9184
G01 X6.1424 Y-6.0292
G01 X6.0793 Y-6.1345
G01 X6.0063 Y-6.2330
G01 X5.9239 Y-6.3239
G01 X5.8330 Y-6.4063
G01 X5.7345 Y-6.4793
G01 X5.6292 Y-6.5424
G01 X5.5184 Y-6.5948
G01 X5.4029 Y-6.6362
G01 X5.2839 Y-6.6660
G01 X5.1625 Y-6.6840
G01 X5.0400 Y-6.6900
G01 X4.9175 Y-6.6840
G01 X4.7961 Y-6.6660
G01 X4.6771 Y-6.6362
G01 X4.5616 Y-6.5948
G01 X4.4508 Y-6.5424
G01 X4.3455 Y-6.4793
G01 X4.2470 Y-6.4063
G01 X4.1561 Y-6.3239
G01 X4.0737 Y-6.2330
G01 X4.0007 Y-6.1345
G01 X3.9376 Y-6.0292
G01 X3.8852 Y-5.9184
G01 X3.8438 Y-5.8029
G01 X3.8140 Y-5.6839
G01 X3.7960 Y-5.5625
G01 X3.7900 Y-5.4400
G01 X3.7960 Y-5.3175
G01 X3.8140 Y-5.1961
G01 X3.8438 Y-5.0771
G01 X3.8852 Y-4.9616
G01 X3.9376 Y-4.8508
G01 X4.0007 Y-4.7455
G01 X4.0737 Y-4.6470
G01 X4.1561 Y-4.5561
G01 X4.2470 Y-4.4737
G01 X4.3455 Y-4.4007
G01 X4.4508 Y-4.3376
G01 X4.5616 Y-4.2852
G01 X4.6771 Y-4.2438
G01 X4.7961 Y-4.2140
G01 X4.9175 Y-4.1960
G01 X5.0400 Y-4.1900
G01 X5.1625 Y-4.1960
G01 X5.2839 Y-4.2140
G01 X5.4029 Y-4.2438
G01 X5.5184 Y-4.2852
G01 X5.6292 Y-4.3376
G01 X5.7345 Y-4.4007
G01 X5.8330 Y-4.4737
G01 X5.9239 Y-4.5561
G01 X6.0063 Y-4.6470
G01 X6.0793 Y-4.7455
G01 X6.1424 Y-4.8508
G01 X6.1948 Y-4.9616
G01 X6.2362 Y-5.0771
G01 X6.2660 Y-5.1961
G01 X6.2840 Y-5.3175
G01 X6.2900 Y-5.4400
G00 X6.2900 Y-5.4400
G01 F60.00
G01 Z-0.6500
G01 F50.00
G01 X6.2840 Y-5.5625
G01 X6.2660 Y-5.6839
G01 X6.2362 Y-5.8029
G01 X6.1948 Y-5.9184
G01 X6.1424 Y-6.0292
G01 X6.0793 Y-6.1345
G01 X6.0063 Y-6.2330
G01 X5.9239 Y-6.3239
G01 X5.8330 Y-6.4063
G01 X5.7345 Y-6.4793
G01 X5.6292 Y-6.5424
G01 X5.5184 Y-6.5948
G01 X5.4029 Y-6.6362
G01 X5.2839 Y-6.6660
G01 X5.1625 Y-6.6840
G01 X5.0400 Y-6.6900
G01 X4.9175 Y-6.6840
G01 X4.7961 Y-6.6660
G01 X4.6771 Y-6.6362
G01 X4.5616 Y-6.5948
G01 X4.4508 Y-6.5424
G01 X4.3455 Y-6.4793
G01 X4.2470 Y-6.4063
G01 X4.1561 Y-6.3239
G01 X4.0737 Y-6.2330
G01 X4.0007 Y-6.1345
G01 X3.9376 Y-6.0292
G01 X3.8852 Y-5.9184
G01 X3.8438 Y-5.8029
G01 X3.8140 Y-5.6839
G01 X3.7960 Y-5.5625
G01 X3.7900 Y-5.4400
G01 X3.7960 Y-5.3175
G01 X3.8140 Y-5.1961
G01 X3.8438 Y-5.0771
G01 X3.8852 Y-4.9616
G01 X3.9376 Y-4.8508
G01 X4.0007 Y-4.7455
G01 X4.0737 Y-4.6470
G01 X4.1561 Y-4.5561
G01 X4.2470 Y-4.4737
G01 X4.3455 Y-4.4007
G01 X4.4508 Y-4.3376
G01 X4.5616 Y-4.2852
G01 X4.6771 Y-4.2438
G01 X4.7961 Y-4.2140
G01 X4.9175 Y-4.1960
G01 X5.0400 Y-4.1900
G01 X5.1625 Y-4.1960
G01 X5.2839 Y-4.2140
G01 X5.4029 Y-4.2438
G01 X5.5184 Y-4.2852
G01 X5.6292 Y-4.3376
G01 X5.7345 Y-4.4007
G01 X5.8330 Y-4.4737
G01 X5.9239 Y-4.5561
G01 X6.0063 Y-4.6470
G01 X6.0793 Y-4.7455
G01 X6.1424 Y-4.8508
G01 X6.1948 Y-4.9616
G01 X6.2362 Y-5.0771
G01 X6.2660 Y-5.1961
G01 X6.2840 Y-5.3175
G01 X6.2900 Y-5.4400
G00 X6.2900 Y-5.4400
G01 F60.00
G01 Z-0.7000
G01 F50.00
G01 X6.2840 Y-5.5625
G01 X6.2660 Y-5.6839
G01 X6.2362 Y-5.8029
G01 X6.1948 Y-5.9184
G01 X6.1424 Y-6.0292
G01 X6.0793 Y-6.1345
G01 X6.0063 Y-6.2330
G01 X5.9239 Y-6.3239
G01 X5.8330 Y-6.4063
G01 X5.7345 Y-6.4793
G01 X5.6292 Y-6.5424
G01 X5.5184 Y-6.5948
G01 X5.4029 Y-6.6362
G01 X5.2839 Y-6.6660
G01 X5.1625 Y-6.6840
G01 X5.0400 Y-6.6900
G01 X4.9175 Y-6.6840
G01 X4.7961 Y-6.6660
G01 X4.6771 Y-6.6362
G01 X4.5616 Y-6.5948
G01 X4.4508 Y-6.5424
G01 X4.3455 Y-6.4793
G01 X4.2470 Y-6.4063
G01 X4.1561 Y-6.3239
G01 X4.0737 Y-6.2330
G01 X4.0007 Y-6.1345
G01 X3.9376 Y-6.0292
G01 X3.8852 Y-5.9184
G01 X3.8438 Y-5.8029
G01 X3.8140 Y-5.6839
G01 X3.7960 Y-5.5625
G01 X3.7900 Y-5.4400
G01 X3.7960 Y-5.3175
G01 X3.8140 Y-5.1961
G01 X3.8438 Y-5.0771
G01 X3.8852 Y-4.9616
G01 X3.9376 Y-4.8508
G01 X4.0007 Y-4.7455
G01 X4.0737 Y-4.6470
G01 X4.1561 Y-4.5561
G01 X4.2470 Y-4.4737
G01 X4.3455 Y-4.4007
G01 X4.4508 Y-4.3376
G01 X4.5616 Y-4.2852
G01 X4.6771 Y-4.2438
G01 X4.7961 Y-4.2140
G01 X4.9175 Y-4.1960
G01 X5.0400 Y-4.1900
G01 X5.1625 Y-4.1960
G01 X5.2839 Y-4.2140
G01 X5.4029 Y-4.2438
G01 X5.5184 Y-4.2852
G01 X5.6292 Y-4.3376
G01 X5.7345 Y-4.4007
G01 X5.8330 Y-4.4737
G01 X5.9239 Y-4.5561
G01 X6.0063 Y-4.6470
G01 X6.0793 Y-4.7455
G01 X6.1424 Y-4.8508
G01 X6.1948 Y-4.9616
G01 X6.2362 Y-5.0771
G01 X6.2660 Y-5.1961
G01 X6.2840 Y-5.3175
G01 X6.2900 Y-5.4400
G00 X6.2900 Y-5.4400
G01 F60.00
G01 Z-0.7500
G01 F50.00
G01 X6.2840 Y-5.5625
G01 X6.2660 Y-5.6839
G01 X6.2362 Y-5.8029
G01 X6.1948 Y-5.9184
G01 X6.1424 Y-6.0292
G01 X6.0793 Y-6.1345
G01 X6.0063 Y-6.2330
G01 X5.9239 Y-6.3239
G01 X5.8330 Y-6.4063
G01 X5.7345 Y-6.4793
G01 X5.6292 Y-6.5424
G01 X5.5184 Y-6.5948
G01 X5.4029 Y-6.6362
G01 X5.2839 Y-6.6660
G01 X5.1625 Y-6.6840
G01 X5.0400 Y-6.6900
G01 X4.9175 Y-6.6840
G01 X4.7961 Y-6.6660
G01 X4.6771 Y-6.6362
G01 X4.5616 Y-6.5948
G01 X4.4508 Y-6.5424
G01 X4.3455 Y-6.4793
G01 X4.2470 Y-6.4063
G01 X4.1561 Y-6.3239
G01 X4.0737 Y-6.2330
G01 X4.0007 Y-6.1345
G01 X3.9376 Y-6.0292
G01 X3.8852 Y-5.9184
G01 X3.8438 Y-5.8029
G01 X3.8140 Y-5.6839
G01 X3.7960 Y-5.5625
G01 X3.7900 Y-5.4400
G01 X3.7960 Y-5.3175
G01 X3.8140 Y-5.1961
G01 X3.8438 Y-5.0771
G01 X3.8852 Y-4.9616
G01 X3.9376 Y-4.8508
G01 X4.0007 Y-4.7455
G01 X4.0737 Y-4.6470
G01 X4.1561 Y-4.5561
G01 X4.2470 Y-4.4737
G01 X4.3455 Y-4.4007
G01 X4.4508 Y-4.3376
G01 X4.5616 Y-4.2852
G01 X4.6771 Y-4.2438
G01 X4.7961 Y-4.2140
G01 X4.9175 Y-4.1960
G01 X5.0400 Y-4.1900
G01 X5.1625 Y-4.1960
G01 X5.2839 Y-4.2140
G01 X5.4029 Y-4.2438
G01 X5.5184 Y-4.2852
G01 X5.6292 Y-4.3376
G01 X5.7345 Y-4.4007
G01 X5.8330 Y-4.4737
G01 X5.9239 Y-4.5561
G01 X6.0063 Y-4.6470
G01 X6.0793 Y-4.7455
G01 X6.1424 Y-4.8508
G01 X6.1948 Y-4.9616
G01 X6.2362 Y-5.0771
G01 X6.2660 Y-5.1961
G01 X6.2840 Y-5.3175
G01 X6.2900 Y-5.4400
G00 X6.2900 Y-5.4400
G01 F60.00
G01 Z-0.8000
G01 F50.00
G01 X6.2840 Y-5.5625
G01 X6.2660 Y-5.6839
G01 X6.2362 Y-5.8029
G01 X6.1948 Y-5.9184
G01 X6.1424 Y-6.0292
G01 X6.0793 Y-6.1345
G01 X6.0063 Y-6.2330
G01 X5.9239 Y-6.3239
G01 X5.8330 Y-6.4063
G01 X5.7345 Y-6.4793
G01 X5.6292 Y-6.5424
G01 X5.5184 Y-6.5948
G01 X5.4029 Y-6.6362
G01 X5.2839 Y-6.6660
G01 X5.1625 Y-6.6840
G01 X5.0400 Y-6.6900
G01 X4.9175 Y-6.6840
G01 X4.7961 Y-6.6660
G01 X4.6771 Y-6.6362
G01 X4.5616 Y-6.5948
G01 X4.4508 Y-6.5424
G01 X4.3455 Y-6.4793
G01 X4.2470 Y-6.4063
G01 X4.1561 Y-6.3239
G01 X4.0737 Y-6.2330
G01 X4.0007 Y-6.1345
G01 X3.9376 Y-6.0292
G01 X3.8852 Y-5.9184
G01 X3.8438 Y-5.8029
G01 X3.8140 Y-5.6839
G01 X3.7960 Y-5.5625
G01 X3.7900 Y-5.4400
G01 X3.7960 Y-5.3175
G01 X3.8140 Y-5.1961
G01 X3.8438 Y-5.0771
G01 X3.8852 Y-4.9616
G01 X3.9376 Y-4.8508
G01 X4.0007 Y-4.7455
G01 X4.0737 Y-4.6470
G01 X4.1561 Y-4.5561
G01 X4.2470 Y-4.4737
G01 X4.3455 Y-4.4007
G01 X4.4508 Y-4.3376
G01 X4.5616 Y-4.2852
G01 X4.6771 Y-4.2438
G01 X4.7961 Y-4.2140
G01 X4.9175 Y-4.1960
G01 X5.0400 Y-4.1900
G01 X5.1625 Y-4.1960
G01 X5.2839 Y-4.2140
G01 X5.4029 Y-4.2438
G01 X5.5184 Y-4.2852
G01 X5.6292 Y-4.3376
G01 X5.7345 Y-4.4007
G01 X5.8330 Y-4.4737
G01 X5.9239 Y-4.5561
G01 X6.0063 Y-4.6470
G01 X6.0793 Y-4.7455
G01 X6.1424 Y-4.8508
G01 X6.1948 Y-4.9616
G01 X6.2362 Y-5.0771
G01 X6.2660 Y-5.1961
G01 X6.2840 Y-5.3175
G01 X6.2900 Y-5.4400
G00 X6.2900 Y-5.4400
G01 F60.00
G01 Z-0.8500
G01 F50.00
G01 X6.2840 Y-5.5625
G01 X6.2660 Y-5.6839
G01 X6.2362 Y-5.8029
G01 X6.1948 Y-5.9184
G01 X6.1424 Y-6.0292
G01 X6.0793 Y-6.1345
G01 X6.0063 Y-6.2330
G01 X5.9239 Y-6.3239
G01 X5.8330 Y-6.4063
G01 X5.7345 Y-6.4793
G01 X5.6292 Y-6.5424
G01 X5.5184 Y-6.5948
G01 X5.4029 Y-6.6362
G01 X5.2839 Y-6.6660
G01 X5.1625 Y-6.6840
G01 X5.0400 Y-6.6900
G01 X4.9175 Y-6.6840
G01 X4.7961 Y-6.6660
G01 X4.6771 Y-6.6362
G01 X4.5616 Y-6.5948
G01 X4.4508 Y-6.5424
G01 X4.3455 Y-6.4793
G01 X4.2470 Y-6.4063
G01 X4.1561 Y-6.3239
G01 X4.0737 Y-6.2330
G01 X4.0007 Y-6.1345
G01 X3.9376 Y-6.0292
G01 X3.8852 Y-5.9184
G01 X3.8438 Y-5.8029
G01 X3.8140 Y-5.6839
G01 X3.7960 Y-5.5625
G01 X3.7900 Y-5.4400
G01 X3.7960 Y-5.3175
G01 X3.8140 Y-5.1961
G01 X3.8438 Y-5.0771
G01 X3.8852 Y-4.9616
G01 X3.9376 Y-4.8508
G01 X4.0007 Y-4.7455
G01 X4.0737 Y-4.6470
G01 X4.1561 Y-4.5561
G01 X4.2470 Y-4.4737
G01 X4.3455 Y-4.4007
G01 X4.4508 Y-4.3376
G01 X4.5616 Y-4.2852
G01 X4.6771 Y-4.2438
G01 X4.7961 Y-4.2140
G01 X4.9175 Y-4.1960
G01 X5.0400 Y-4.1900
G01 X5.1625 Y-4.1960
G01 X5.2839 Y-4.2140
G01 X5.4029 Y-4.2438
G01 X5.5184 Y-4.2852
G01 X5.6292 Y-4.3376
G01 X5.7345 Y-4.4007
G01 X5.8330 Y-4.4737
G01 X5.9239 Y-4.5561
G01 X6.0063 Y-4.6470
G01 X6.0793 Y-4.7455
G01 X6.1424 Y-4.8508
G01 X6.1948 Y-4.9616
G01 X6.2362 Y-5.0771
G01 X6.2660 Y-5.1961
G01 X6.2840 Y-5.3175
G01 X6.2900 Y-5.4400
G00 X6.2900 Y-5.4400
G01 F60.00
G01 Z-0.9000
G01 F50.00
G01 X6.2840 Y-5.5625
G01 X6.2660 Y-5.6839
G01 X6.2362 Y-5.8029
G01 X6.1948 Y-5.9184
G01 X6.1424 Y-6.0292
G01 X6.0793 Y-6.1345
G01 X6.0063 Y-6.2330
G01 X5.9239 Y-6.3239
G01 X5.8330 Y-6.4063
G01 X5.7345 Y-6.4793
G01 X5.6292 Y-6.5424
G01 X5.5184 Y-6.5948
G01 X5.4029 Y-6.6362
G01 X5.2839 Y-6.6660
G01 X5.1625 Y-6.6840
G01 X5.0400 Y-6.6900
G01 X4.9175 Y-6.6840
G01 X4.7961 Y-6.6660
G01 X4.6771 Y-6.6362
G01 X4.5616 Y-6.5948
G01 X4.4508 Y-6.5424
G01 X4.3455 Y-6.4793
G01 X4.2470 Y-6.4063
G01 X4.1561 Y-6.3239
G01 X4.0737 Y-6.2330
G01 X4.0007 Y-6.1345
G01 X3.9376 Y-6.0292
G01 X3.8852 Y-5.9184
G01 X3.8438 Y-5.8029
G01 X3.8140 Y-5.6839
G01 X3.7960 Y-5.5625
G01 X3.7900 Y-5.4400
G01 X3.7960 Y-5.3175
G01 X3.8140 Y-5.1961
G01 X3.8438 Y-5.0771
G01 X3.8852 Y-4.9616
G01 X3.9376 Y-4.8508
G01 X4.0007 Y-4.7455
G01 X4.0737 Y-4.6470
G01 X4.1561 Y-4.5561
G01 X4.2470 Y-4.4737
G01 X4.3455 Y-4.4007
G01 X4.4508 Y-4.3376
G01 X4.5616 Y-4.2852
G01 X4.6771 Y-4.2438
G01 X4.7961 Y-4.2140
G01 X4.9175 Y-4.1960
G01 X5.0400 Y-4.1900
G01 X5.1625 Y-4.1960
G01 X5.2839 Y-4.2140
G01 X5.4029 Y-4.2438
G01 X5.5184 Y-4.2852
G01 X5.6292 Y-4.3376
G01 X5.7345 Y-4.4007
G01 X5.8330 Y-4.4737
G01 X5.9239 Y-4.5561
G01 X6.0063 Y-4.6470
G01 X6.0793 Y-4.7455
G01 X6.1424 Y-4.8508
G01 X6.1948 Y-4.9616
G01 X6.2362 Y-5.0771
G01 X6.2660 Y-5.1961
G01 X6.2840 Y-5.3175
G01 X6.2900 Y-5.4400
G00 X6.2900 Y-5.4400
G01 F60.00
G01 Z-0.9500
G01 F50.00
G01 X6.2840 Y-5.5625
G01 X6.2660 Y-5.6839
G01 X6.2362 Y-5.8029
G01 X6.1948 Y-5.9184
G01 X6.1424 Y-6.0292
G01 X6.0793 Y-6.1345
G01 X6.0063 Y-6.2330
G01 X5.9239 Y-6.3239
G01 X5.8330 Y-6.4063
G01 X5.7345 Y-6.4793
G01 X5.6292 Y-6.5424
G01 X5.5184 Y-6.5948
G01 X5.4029 Y-6.6362
G01 X5.2839 Y-6.6660
G01 X5.1625 Y-6.6840
G01 X5.0400 Y-6.6900
G01 X4.9175 Y-6.6840
G01 X4.7961 Y-6.6660
G01 X4.6771 Y-6.6362
G01 X4.5616 Y-6.5948
G01 X4.4508 Y-6.5424
G01 X4.3455 Y-6.4793
G01 X4.2470 Y-6.4063
G01 X4.1561 Y-6.3239
G01 X4.0737 Y-6.2330
G01 X4.0007 Y-6.1345
G01 X3.9376 Y-6.0292
G01 X3.8852 Y-5.9184
G01 X3.8438 Y-5.8029
G01 X3.8140 Y-5.6839
G01 X3.7960 Y-5.5625
G01 X3.7900 Y-5.4400
G01 X3.7960 Y-5.3175
G01 X3.8140 Y-5.1961
G01 X3.8438 Y-5.0771
G01 X3.8852 Y-4.9616
G01 X3.9376 Y-4.8508
G01 X4.0007 Y-4.7455
G01 X4.0737 Y-4.6470
G01 X4.1561 Y-4.5561
G01 X4.2470 Y-4.4737
G01 X4.3455 Y-4.4007
G01 X4.4508 Y-4.3376
G01 X4.5616 Y-4.2852
G01 X4.6771 Y-4.2438
G01 X4.7961 Y-4.2140
G01 X4.9175 Y-4.1960
G01 X5.0400 Y-4.1900
G01 X5.1625 Y-4.1960
G01 X5.2839 Y-4.2140
G01 X5.4029 Y-4.2438
G01 X5.5184 Y-4.2852
G01 X5.6292 Y-4.3376
G01 X5.7345 Y-4.4007
G01 X5.8330 Y-4.4737
G01 X5.9239 Y-4.5561
G01 X6.0063 Y-4.6470
G01 X6.0793 Y-4.7455
G01 X6.1424 Y-4.8508
G01 X6.1948 Y-4.9616
G01 X6.2362 Y-5.0771
G01 X6.2660 Y-5.1961
G01 X6.2840 Y-5.3175
G01 X6.2900 Y-5.4400
G00 X6.2900 Y-5.4400
G01 F60.00
G01 Z-1.0000
G01 F50.00
G01 X6.2840 Y-5.5625
G01 X6.2660 Y-5.6839
G01 X6.2362 Y-5.8029
G01 X6.1948 Y-5.9184
G01 X6.1424 Y-6.0292
G01 X6.0793 Y-6.1345
G01 X6.0063 Y-6.2330
G01 X5.9239 Y-6.3239
G01 X5.8330 Y-6.4063
G01 X5.7345 Y-6.4793
G01 X5.6292 Y-6.5424
G01 X5.5184 Y-6.5948
G01 X5.4029 Y-6.6362
G01 X5.2839 Y-6.6660
G01 X5.1625 Y-6.6840
G01 X5.0400 Y-6.6900
G01 X4.9175 Y-6.6840
G01 X4.7961 Y-6.6660
G01 X4.6771 Y-6.6362
G01 X4.5616 Y-6.5948
G01 X4.4508 Y-6.5424
G01 X4.3455 Y-6.4793
G01 X4.2470 Y-6.4063
G01 X4.1561 Y-6.3239
G01 X4.0737 Y-6.2330
G01 X4.0007 Y-6.1345
G01 X3.9376 Y-6.0292
G01 X3.8852 Y-5.9184
G01 X3.8438 Y-5.8029
G01 X3.8140 Y-5.6839
G01 X3.7960 Y-5.5625
G01 X3.7900 Y-5.4400
G01 X3.7960 Y-5.3175
G01 X3.8140 Y-5.1961
G01 X3.8438 Y-5.0771
G01 X3.8852 Y-4.9616
G01 X3.9376 Y-4.8508
G01 X4.0007 Y-4.7455
G01 X4.0737 Y-4.6470
G01 X4.1561 Y-4.5561
G01 X4.2470 Y-4.4737
G01 X4.3455 Y-4.4007
G01 X4.4508 Y-4.3376
G01 X4.5616 Y-4.2852
G01 X4.6771 Y-4.2438
G01 X4.7961 Y-4.2140
G01 X4.9175 Y-4.1960
G01 X5.0400 Y-4.1900
G01 X5.1625 Y-4.1960
G01 X5.2839 Y-4.2140
G01 X5.4029 Y-4.2438
G01 X5.5184 Y-4.2852
G01 X5.6292 Y-4.3376
G01 X5.7345 Y-4.4007
G01 X5.8330 Y-4.4737
G01 X5.9239 Y-4.5561
G01 X6.0063 Y-4.6470
G01 X6.0793 Y-4.7455
G01 X6.1424 Y-4.8508
G01 X6.1948 Y-4.9616
G01 X6.2362 Y-5.0771
G01 X6.2660 Y-5.1961
G01 X6.2840 Y-5.3175
G01 X6.2900 Y-5.4400
G00 X6.2900 Y-5.4400
G01 F60.00
G01 Z-1.0500
G01 F50.00
G01 X6.2840 Y-5.5625
G01 X6.2660 Y-5.6839
G01 X6.2362 Y-5.8029
G01 X6.1948 Y-5.9184
G01 X6.1424 Y-6.0292
G01 X6.0793 Y-6.1345
G01 X6.0063 Y-6.2330
G01 X5.9239 Y-6.3239
G01 X5.8330 Y-6.4063
G01 X5.7345 Y-6.4793
G01 X5.6292 Y-6.5424
G01 X5.5184 Y-6.5948
G01 X5.4029 Y-6.6362
G01 X5.2839 Y-6.6660
G01 X5.1625 Y-6.6840
G01 X5.0400 Y-6.6900
G01 X4.9175 Y-6.6840
G01 X4.7961 Y-6.6660
G01 X4.6771 Y-6.6362
G01 X4.5616 Y-6.5948
G01 X4.4508 Y-6.5424
G01 X4.3455 Y-6.4793
G01 X4.2470 Y-6.4063
G01 X4.1561 Y-6.3239
G01 X4.0737 Y-6.2330
G01 X4.0007 Y-6.1345
G01 X3.9376 Y-6.0292
G01 X3.8852 Y-5.9184
G01 X3.8438 Y-5.8029
G01 X3.8140 Y-5.6839
G01 X3.7960 Y-5.5625
G01 X3.7900 Y-5.4400
G01 X3.7960 Y-5.3175
G01 X3.8140 Y-5.1961
G01 X3.8438 Y-5.0771
G01 X3.8852 Y-4.9616
G01 X3.9376 Y-4.8508
G01 X4.0007 Y-4.7455
G01 X4.0737 Y-4.6470
G01 X4.1561 Y-4.5561
G01 X4.2470 Y-4.4737
G01 X4.3455 Y-4.4007
G01 X4.4508 Y-4.3376
G01 X4.5616 Y-4.2852
G01 X4.6771 Y-4.2438
G01 X4.7961 Y-4.2140
G01 X4.9175 Y-4.1960
G01 X5.0400 Y-4.1900
G01 X5.1625 Y-4.1960
G01 X5.2839 Y-4.2140
G01 X5.4029 Y-4.2438
G01 X5.5184 Y-4.2852
G01 X5.6292 Y-4.3376
G01 X5.7345 Y-4.4007
G01 X5.8330 Y-4.4737
G01 X5.9239 Y-4.5561
G01 X6.0063 Y-4.6470
G01 X6.0793 Y-4.7455
G01 X6.1424 Y-4.8508
G01 X6.1948 Y-4.9616
G01 X6.2362 Y-5.0771
G01 X6.2660 Y-5.1961
G01 X6.2840 Y-5.3175
G01 X6.2900 Y-5.4400
G00 X6.2900 Y-5.4400
G01 F60.00
G01 Z-1.1000
G01 F50.00
G01 X6.2840 Y-5.5625
G01 X6.2660 Y-5.6839
G01 X6.2362 Y-5.8029
G01 X6.1948 Y-5.9184
G01 X6.1424 Y-6.0292
G01 X6.0793 Y-6.1345
G01 X6.0063 Y-6.2330
G01 X5.9239 Y-6.3239
G01 X5.8330 Y-6.4063
G01 X5.7345 Y-6.4793
G01 X5.6292 Y-6.5424
G01 X5.5184 Y-6.5948
G01 X5.4029 Y-6.6362
G01 X5.2839 Y-6.6660
G01 X5.1625 Y-6.6840
G01 X5.0400 Y-6.6900
G01 X4.9175 Y-6.6840
G01 X4.7961 Y-6.6660
G01 X4.6771 Y-6.6362
G01 X4.5616 Y-6.5948
G01 X4.4508 Y-6.5424
G01 X4.3455 Y-6.4793
G01 X4.2470 Y-6.4063
G01 X4.1561 Y-6.3239
G01 X4.0737 Y-6.2330
G01 X4.0007 Y-6.1345
G01 X3.9376 Y-6.0292
G01 X3.8852 Y-5.9184
G01 X3.8438 Y-5.8029
G01 X3.8140 Y-5.6839
G01 X3.7960 Y-5.5625
G01 X3.7900 Y-5.4400
G01 X3.7960 Y-5.3175
G01 X3.8140 Y-5.1961
G01 X3.8438 Y-5.0771
G01 X3.8852 Y-4.9616
G01 X3.9376 Y-4.8508
G01 X4.0007 Y-4.7455
G01 X4.0737 Y-4.6470
G01 X4.1561 Y-4.5561
G01 X4.2470 Y-4.4737
G01 X4.3455 Y-4.4007
G01 X4.4508 Y-4.3376
G01 X4.5616 Y-4.2852
G01 X4.6771 Y-4.2438
G01 X4.7961 Y-4.2140
G01 X4.9175 Y-4.1960
G01 X5.0400 Y-4.1900
G01 X5.1625 Y-4.1960
G01 X5.2839 Y-4.2140
G01 X5.4029 Y-4.2438
G01 X5.5184 Y-4.2852
G01 X5.6292 Y-4.3376
G01 X5.7345 Y-4.4007
G01 X5.8330 Y-4.4737
G01 X5.9239 Y-4.5561
G01 X6.0063 Y-4.6470
G01 X6.0793 Y-4.7455
G01 X6.1424 Y-4.8508
G01 X6.1948 Y-4.9616
G01 X6.2362 Y-5.0771
G01 X6.2660 Y-5.1961
G01 X6.2840 Y-5.3175
G01 X6.2900 Y-5.4400
G00 X6.2900 Y-5.4400
G01 F60.00
G01 Z-1.1500
G01 F50.00
G01 X6.2840 Y-5.5625
G01 X6.2660 Y-5.6839
G01 X6.2362 Y-5.8029
G01 X6.1948 Y-5.9184
G01 X6.1424 Y-6.0292
G01 X6.0793 Y-6.1345
G01 X6.0063 Y-6.2330
G01 X5.9239 Y-6.3239
G01 X5.8330 Y-6.4063
G01 X5.7345 Y-6.4793
G01 X5.6292 Y-6.5424
G01 X5.5184 Y-6.5948
G01 X5.4029 Y-6.6362
G01 X5.2839 Y-6.6660
G01 X5.1625 Y-6.6840
G01 X5.0400 Y-6.6900
G01 X4.9175 Y-6.6840
G01 X4.7961 Y-6.6660
G01 X4.6771 Y-6.6362
G01 X4.5616 Y-6.5948
G01 X4.4508 Y-6.5424
G01 X4.3455 Y-6.4793
G01 X4.2470 Y-6.4063
G01 X4.1561 Y-6.3239
G01 X4.0737 Y-6.2330
G01 X4.0007 Y-6.1345
G01 X3.9376 Y-6.0292
G01 X3.8852 Y-5.9184
G01 X3.8438 Y-5.8029
G01 X3.8140 Y-5.6839
G01 X3.7960 Y-5.5625
G01 X3.7900 Y-5.4400
G01 X3.7960 Y-5.3175
G01 X3.8140 Y-5.1961
G01 X3.8438 Y-5.0771
G01 X3.8852 Y-4.9616
G01 X3.9376 Y-4.8508
G01 X4.0007 Y-4.7455
G01 X4.0737 Y-4.6470
G01 X4.1561 Y-4.5561
G01 X4.2470 Y-4.4737
G01 X4.3455 Y-4.4007
G01 X4.4508 Y-4.3376
G01 X4.5616 Y-4.2852
G01 X4.6771 Y-4.2438
G01 X4.7961 Y-4.2140
G01 X4.9175 Y-4.1960
G01 X5.0400 Y-4.1900
G01 X5.1625 Y-4.1960
G01 X5.2839 Y-4.2140
G01 X5.4029 Y-4.2438
G01 X5.5184 Y-4.2852
G01 X5.6292 Y-4.3376
G01 X5.7345 Y-4.4007
G01 X5.8330 Y-4.4737
G01 X5.9239 Y-4.5561
G01 X6.0063 Y-4.6470
G01 X6.0793 Y-4.7455
G01 X6.1424 Y-4.8508
G01 X6.1948 Y-4.9616
G01 X6.2362 Y-5.0771
G01 X6.2660 Y-5.1961
G01 X6.2840 Y-5.3175
G01 X6.2900 Y-5.4400
G00 X6.2900 Y-5.4400
G01 F60.00
G01 Z-1.2000
G01 F50.00
G01 X6.2840 Y-5.5625
G01 X6.2660 Y-5.6839
G01 X6.2362 Y-5.8029
G01 X6.1948 Y-5.9184
G01 X6.1424 Y-6.0292
G01 X6.0793 Y-6.1345
G01 X6.0063 Y-6.2330
G01 X5.9239 Y-6.3239
G01 X5.8330 Y-6.4063
G01 X5.7345 Y-6.4793
G01 X5.6292 Y-6.5424
G01 X5.5184 Y-6.5948
G01 X5.4029 Y-6.6362
G01 X5.2839 Y-6.6660
G01 X5.1625 Y-6.6840
G01 X5.0400 Y-6.6900
G01 X4.9175 Y-6.6840
G01 X4.7961 Y-6.6660
G01 X4.6771 Y-6.6362
G01 X4.5616 Y-6.5948
G01 X4.4508 Y-6.5424
G01 X4.3455 Y-6.4793
G01 X4.2470 Y-6.4063
G01 X4.1561 Y-6.3239
G01 X4.0737 Y-6.2330
G01 X4.0007 Y-6.1345
G01 X3.9376 Y-6.0292
G01 X3.8852 Y-5.9184
G01 X3.8438 Y-5.8029
G01 X3.8140 Y-5.6839
G01 X3.7960 Y-5.5625
G01 X3.7900 Y-5.4400
G01 X3.7960 Y-5.3175
G01 X3.8140 Y-5.1961
G01 X3.8438 Y-5.0771
G01 X3.8852 Y-4.9616
G01 X3.9376 Y-4.8508
G01 X4.0007 Y-4.7455
G01 X4.0737 Y-4.6470
G01 X4.1561 Y-4.5561
G01 X4.2470 Y-4.4737
G01 X4.3455 Y-4.4007
G01 X4.4508 Y-4.3376
G01 X4.5616 Y-4.2852
G01 X4.6771 Y-4.2438
G01 X4.7961 Y-4.2140
G01 X4.9175 Y-4.1960
G01 X5.0400 Y-4.1900
G01 X5.1625 Y-4.1960
G01 X5.2839 Y-4.2140
G01 X5.4029 Y-4.2438
G01 X5.5184 Y-4.2852
G01 X5.6292 Y-4.3376
G01 X5.7345 Y-4.4007
G01 X5.8330 Y-4.4737
G01 X5.9239 Y-4.5561
G01 X6.0063 Y-4.6470
G01 X6.0793 Y-4.7455
G01 X6.1424 Y-4.8508
G01 X6.1948 Y-4.9616
G01 X6.2362 Y-5.0771
G01 X6.2660 Y-5.1961
G01 X6.2840 Y-5.3175
G01 X6.2900 Y-5.4400
G00 X6.2900 Y-5.4400
G01 F60.00
G01 Z-1.2500
G01 F50.00
G01 X6.2840 Y-5.5625
G01 X6.2660 Y-5.6839
G01 X6.2362 Y-5.8029
G01 X6.1948 Y-5.9184
G01 X6.1424 Y-6.0292
G01 X6.0793 Y-6.1345
G01 X6.0063 Y-6.2330
G01 X5.9239 Y-6.3239
G01 X5.8330 Y-6.4063
G01 X5.7345 Y-6.4793
G01 X5.6292 Y-6.5424
G01 X5.5184 Y-6.5948
G01 X5.4029 Y-6.6362
G01 X5.2839 Y-6.6660
G01 X5.1625 Y-6.6840
G01 X5.0400 Y-6.6900
G01 X4.9175 Y-6.6840
G01 X4.7961 Y-6.6660
G01 X4.6771 Y-6.6362
G01 X4.5616 Y-6.5948
G01 X4.4508 Y-6.5424
G01 X4.3455 Y-6.4793
G01 X4.2470 Y-6.4063
G01 X4.1561 Y-6.3239
G01 X4.0737 Y-6.2330
G01 X4.0007 Y-6.1345
G01 X3.9376 Y-6.0292
G01 X3.8852 Y-5.9184
G01 X3.8438 Y-5.8029
G01 X3.8140 Y-5.6839
G01 X3.7960 Y-5.5625
G01 X3.7900 Y-5.4400
G01 X3.7960 Y-5.3175
G01 X3.8140 Y-5.1961
G01 X3.8438 Y-5.0771
G01 X3.8852 Y-4.9616
G01 X3.9376 Y-4.8508
G01 X4.0007 Y-4.7455
G01 X4.0737 Y-4.6470
G01 X4.1561 Y-4.5561
G01 X4.2470 Y-4.4737
G01 X4.3455 Y-4.4007
G01 X4.4508 Y-4.3376
G01 X4.5616 Y-4.2852
G01 X4.6771 Y-4.2438
G01 X4.7961 Y-4.2140
G01 X4.9175 Y-4.1960
G01 X5.0400 Y-4.1900
G01 X5.1625 Y-4.1960
G01 X5.2839 Y-4.2140
G01 X5.4029 Y-4.2438
G01 X5.5184 Y-4.2852
G01 X5.6292 Y-4.3376
G01 X5.7345 Y-4.4007
G01 X5.8330 Y-4.4737
G01 X5.9239 Y-4.5561
G01 X6.0063 Y-4.6470
G01 X6.0793 Y-4.7455
G01 X6.1424 Y-4.8508
G01 X6.1948 Y-4.9616
G01 X6.2362 Y-5.0771
G01 X6.2660 Y-5.1961
G01 X6.2840 Y-5.3175
G01 X6.2900 Y-5.4400
G00 X6.2900 Y-5.4400
G01 F60.00
G01 Z-1.3000
G01 F50.00
G01 X6.2840 Y-5.5625
G01 X6.2660 Y-5.6839
G01 X6.2362 Y-5.8029
G01 X6.1948 Y-5.9184
G01 X6.1424 Y-6.0292
G01 X6.0793 Y-6.1345
G01 X6.0063 Y-6.2330
G01 X5.9239 Y-6.3239
G01 X5.8330 Y-6.4063
G01 X5.7345 Y-6.4793
G01 X5.6292 Y-6.5424
G01 X5.5184 Y-6.5948
G01 X5.4029 Y-6.6362
G01 X5.2839 Y-6.6660
G01 X5.1625 Y-6.6840
G01 X5.0400 Y-6.6900
G01 X4.9175 Y-6.6840
G01 X4.7961 Y-6.6660
G01 X4.6771 Y-6.6362
G01 X4.5616 Y-6.5948
G01 X4.4508 Y-6.5424
G01 X4.3455 Y-6.4793
G01 X4.2470 Y-6.4063
G01 X4.1561 Y-6.3239
G01 X4.0737 Y-6.2330
G01 X4.0007 Y-6.1345
G01 X3.9376 Y-6.0292
G01 X3.8852 Y-5.9184
G01 X3.8438 Y-5.8029
G01 X3.8140 Y-5.6839
G01 X3.7960 Y-5.5625
G01 X3.7900 Y-5.4400
G01 X3.7960 Y-5.3175
G01 X3.8140 Y-5.1961
G01 X3.8438 Y-5.0771
G01 X3.8852 Y-4.9616
G01 X3.9376 Y-4.8508
G01 X4.0007 Y-4.7455
G01 X4.0737 Y-4.6470
G01 X4.1561 Y-4.5561
G01 X4.2470 Y-4.4737
G01 X4.3455 Y-4.4007
G01 X4.4508 Y-4.3376
G01 X4.5616 Y-4.2852
G01 X4.6771 Y-4.2438
G01 X4.7961 Y-4.2140
G01 X4.9175 Y-4.1960
G01 X5.0400 Y-4.1900
G01 X5.1625 Y-4.1960
G01 X5.2839 Y-4.2140
G01 X5.4029 Y-4.2438
G01 X5.5184 Y-4.2852
G01 X5.6292 Y-4.3376
G01 X5.7345 Y-4.4007
G01 X5.8330 Y-4.4737
G01 X5.9239 Y-4.5561
G01 X6.0063 Y-4.6470
G01 X6.0793 Y-4.7455
G01 X6.1424 Y-4.8508
G01 X6.1948 Y-4.9616
G01 X6.2362 Y-5.0771
G01 X6.2660 Y-5.1961
G01 X6.2840 Y-5.3175
G01 X6.2900 Y-5.4400
G00 X6.2900 Y-5.4400
G01 F60.00
G01 Z-1.3500
G01 F50.00
G01 X6.2840 Y-5.5625
G01 X6.2660 Y-5.6839
G01 X6.2362 Y-5.8029
G01 X6.1948 Y-5.9184
G01 X6.1424 Y-6.0292
G01 X6.0793 Y-6.1345
G01 X6.0063 Y-6.2330
G01 X5.9239 Y-6.3239
G01 X5.8330 Y-6.4063
G01 X5.7345 Y-6.4793
G01 X5.6292 Y-6.5424
G01 X5.5184 Y-6.5948
G01 X5.4029 Y-6.6362
G01 X5.2839 Y-6.6660
G01 X5.1625 Y-6.6840
G01 X5.0400 Y-6.6900
G01 X4.9175 Y-6.6840
G01 X4.7961 Y-6.6660
G01 X4.6771 Y-6.6362
G01 X4.5616 Y-6.5948
G01 X4.4508 Y-6.5424
G01 X4.3455 Y-6.4793
G01 X4.2470 Y-6.4063
G01 X4.1561 Y-6.3239
G01 X4.0737 Y-6.2330
G01 X4.0007 Y-6.1345
G01 X3.9376 Y-6.0292
G01 X3.8852 Y-5.9184
G01 X3.8438 Y-5.8029
G01 X3.8140 Y-5.6839
G01 X3.7960 Y-5.5625
G01 X3.7900 Y-5.4400
G01 X3.7960 Y-5.3175
G01 X3.8140 Y-5.1961
G01 X3.8438 Y-5.0771
G01 X3.8852 Y-4.9616
G01 X3.9376 Y-4.8508
G01 X4.0007 Y-4.7455
G01 X4.0737 Y-4.6470
G01 X4.1561 Y-4.5561
G01 X4.2470 Y-4.4737
G01 X4.3455 Y-4.4007
G01 X4.4508 Y-4.3376
G01 X4.5616 Y-4.2852
G01 X4.6771 Y-4.2438
G01 X4.7961 Y-4.2140
G01 X4.9175 Y-4.1960
G01 X5.0400 Y-4.1900
G01 X5.1625 Y-4.1960
G01 X5.2839 Y-4.2140
G01 X5.4029 Y-4.2438
G01 X5.5184 Y-4.2852
G01 X5.6292 Y-4.3376
G01 X5.7345 Y-4.4007
G01 X5.8330 Y-4.4737
G01 X5.9239 Y-4.5561
G01 X6.0063 Y-4.6470
G01 X6.0793 Y-4.7455
G01 X6.1424 Y-4.8508
G01 X6.1948 Y-4.9616
G01 X6.2362 Y-5.0771
G01 X6.2660 Y-5.1961
G01 X6.2840 Y-5.3175
G01 X6.2900 Y-5.4400
G00 X6.2900 Y-5.4400
G01 F60.00
G01 Z-1.4000
G01 F50.00
G01 X6.2840 Y-5.5625
G01 X6.2660 Y-5.6839
G01 X6.2362 Y-5.8029
G01 X6.1948 Y-5.9184
G01 X6.1424 Y-6.0292
G01 X6.0793 Y-6.1345
G01 X6.0063 Y-6.2330
G01 X5.9239 Y-6.3239
G01 X5.8330 Y-6.4063
G01 X5.7345 Y-6.4793
G01 X5.6292 Y-6.5424
G01 X5.5184 Y-6.5948
G01 X5.4029 Y-6.6362
G01 X5.2839 Y-6.6660
G01 X5.1625 Y-6.6840
G01 X5.0400 Y-6.6900
G01 X4.9175 Y-6.6840
G01 X4.7961 Y-6.6660
G01 X4.6771 Y-6.6362
G01 X4.5616 Y-6.5948
G01 X4.4508 Y-6.5424
G01 X4.3455 Y-6.4793
G01 X4.2470 Y-6.4063
G01 X4.1561 Y-6.3239
G01 X4.0737 Y-6.2330
G01 X4.0007 Y-6.1345
G01 X3.9376 Y-6.0292
G01 X3.8852 Y-5.9184
G01 X3.8438 Y-5.8029
G01 X3.8140 Y-5.6839
G01 X3.7960 Y-5.5625
G01 X3.7900 Y-5.4400
G01 X3.7960 Y-5.3175
G01 X3.8140 Y-5.1961
G01 X3.8438 Y-5.0771
G01 X3.8852 Y-4.9616
G01 X3.9376 Y-4.8508
G01 X4.0007 Y-4.7455
G01 X4.0737 Y-4.6470
G01 X4.1561 Y-4.5561
G01 X4.2470 Y-4.4737
G01 X4.3455 Y-4.4007
G01 X4.4508 Y-4.3376
G01 X4.5616 Y-4.2852
G01 X4.6771 Y-4.2438
G01 X4.7961 Y-4.2140
G01 X4.9175 Y-4.1960
G01 X5.0400 Y-4.1900
G01 X5.1625 Y-4.1960
G01 X5.2839 Y-4.2140
G01 X5.4029 Y-4.2438
G01 X5.5184 Y-4.2852
G01 X5.6292 Y-4.3376
G01 X5.7345 Y-4.4007
G01 X5.8330 Y-4.4737
G01 X5.9239 Y-4.5561
G01 X6.0063 Y-4.6470
G01 X6.0793 Y-4.7455
G01 X6.1424 Y-4.8508
G01 X6.1948 Y-4.9616
G01 X6.2362 Y-5.0771
G01 X6.2660 Y-5.1961
G01 X6.2840 Y-5.3175
G01 X6.2900 Y-5.4400
G00 X6.2900 Y-5.4400
G01 F60.00
G01 Z-1.4500
G01 F50.00
G01 X6.2840 Y-5.5625
G01 X6.2660 Y-5.6839
G01 X6.2362 Y-5.8029
G01 X6.1948 Y-5.9184
G01 X6.1424 Y-6.0292
G01 X6.0793 Y-6.1345
G01 X6.0063 Y-6.2330
G01 X5.9239 Y-6.3239
G01 X5.8330 Y-6.4063
G01 X5.7345 Y-6.4793
G01 X5.6292 Y-6.5424
G01 X5.5184 Y-6.5948
G01 X5.4029 Y-6.6362
G01 X5.2839 Y-6.6660
G01 X5.1625 Y-6.6840
G01 X5.0400 Y-6.6900
G01 X4.9175 Y-6.6840
G01 X4.7961 Y-6.6660
G01 X4.6771 Y-6.6362
G01 X4.5616 Y-6.5948
G01 X4.4508 Y-6.5424
G01 X4.3455 Y-6.4793
G01 X4.2470 Y-6.4063
G01 X4.1561 Y-6.3239
G01 X4.0737 Y-6.2330
G01 X4.0007 Y-6.1345
G01 X3.9376 Y-6.0292
G01 X3.8852 Y-5.9184
G01 X3.8438 Y-5.8029
G01 X3.8140 Y-5.6839
G01 X3.7960 Y-5.5625
G01 X3.7900 Y-5.4400
G01 X3.7960 Y-5.3175
G01 X3.8140 Y-5.1961
G01 X3.8438 Y-5.0771
G01 X3.8852 Y-4.9616
G01 X3.9376 Y-4.8508
G01 X4.0007 Y-4.7455
G01 X4.0737 Y-4.6470
G01 X4.1561 Y-4.5561
G01 X4.2470 Y-4.4737
G01 X4.3455 Y-4.4007
G01 X4.4508 Y-4.3376
G01 X4.5616 Y-4.2852
G01 X4.6771 Y-4.2438
G01 X4.7961 Y-4.2140
G01 X4.9175 Y-4.1960
G01 X5.0400 Y-4.1900
G01 X5.1625 Y-4.1960
G01 X5.2839 Y-4.2140
G01 X5.4029 Y-4.2438
G01 X5.5184 Y-4.2852
G01 X5.6292 Y-4.3376
G01 X5.7345 Y-4.4007
G01 X5.8330 Y-4.4737
G01 X5.9239 Y-4.5561
G01 X6.0063 Y-4.6470
G01 X6.0793 Y-4.7455
G01 X6.1424 Y-4.8508
G01 X6.1948 Y-4.9616
G01 X6.2362 Y-5.0771
G01 X6.2660 Y-5.1961
G01 X6.2840 Y-5.3175
G01 X6.2900 Y-5.4400
G00 X6.2900 Y-5.4400
G01 F60.00
G01 Z-1.5000
G01 F50.00
G01 X6.2840 Y-5.5625
G01 X6.2660 Y-5.6839
G01 X6.2362 Y-5.8029
G01 X6.1948 Y-5.9184
G01 X6.1424 Y-6.0292
G01 X6.0793 Y-6.1345
G01 X6.0063 Y-6.2330
G01 X5.9239 Y-6.3239
G01 X5.8330 Y-6.4063
G01 X5.7345 Y-6.4793
G01 X5.6292 Y-6.5424
G01 X5.5184 Y-6.5948
G01 X5.4029 Y-6.6362
G01 X5.2839 Y-6.6660
G01 X5.1625 Y-6.6840
G01 X5.0400 Y-6.6900
G01 X4.9175 Y-6.6840
G01 X4.7961 Y-6.6660
G01 X4.6771 Y-6.6362
G01 X4.5616 Y-6.5948
G01 X4.4508 Y-6.5424
G01 X4.3455 Y-6.4793
G01 X4.2470 Y-6.4063
G01 X4.1561 Y-6.3239
G01 X4.0737 Y-6.2330
G01 X4.0007 Y-6.1345
G01 X3.9376 Y-6.0292
G01 X3.8852 Y-5.9184
G01 X3.8438 Y-5.8029
G01 X3.8140 Y-5.6839
G01 X3.7960 Y-5.5625
G01 X3.7900 Y-5.4400
G01 X3.7960 Y-5.3175
G01 X3.8140 Y-5.1961
G01 X3.8438 Y-5.0771
G01 X3.8852 Y-4.9616
G01 X3.9376 Y-4.8508
G01 X4.0007 Y-4.7455
G01 X4.0737 Y-4.6470
G01 X4.1561 Y-4.5561
G01 X4.2470 Y-4.4737
G01 X4.3455 Y-4.4007
G01 X4.4508 Y-4.3376
G01 X4.5616 Y-4.2852
G01 X4.6771 Y-4.2438
G01 X4.7961 Y-4.2140
G01 X4.9175 Y-4.1960
G01 X5.0400 Y-4.1900
G01 X5.1625 Y-4.1960
G01 X5.2839 Y-4.2140
G01 X5.4029 Y-4.2438
G01 X5.5184 Y-4.2852
G01 X5.6292 Y-4.3376
G01 X5.7345 Y-4.4007
G01 X5.8330 Y-4.4737
G01 X5.9239 Y-4.5561
G01 X6.0063 Y-4.6470
G01 X6.0793 Y-4.7455
G01 X6.1424 Y-4.8508
G01 X6.1948 Y-4.9616
G01 X6.2362 Y-5.0771
G01 X6.2660 Y-5.1961
G01 X6.2840 Y-5.3175
G01 X6.2900 Y-5.4400
G00 X6.2900 Y-5.4400
G01 F60.00
G01 Z-1.5500
G01 F50.00
G01 X6.2840 Y-5.5625
G01 X6.2660 Y-5.6839
G01 X6.2362 Y-5.8029
G01 X6.1948 Y-5.9184
G01 X6.1424 Y-6.0292
G01 X6.0793 Y-6.1345
G01 X6.0063 Y-6.2330
G01 X5.9239 Y-6.3239
G01 X5.8330 Y-6.4063
G01 X5.7345 Y-6.4793
G01 X5.6292 Y-6.5424
G01 X5.5184 Y-6.5948
G01 X5.4029 Y-6.6362
G01 X5.2839 Y-6.6660
G01 X5.1625 Y-6.6840
G01 X5.0400 Y-6.6900
G01 X4.9175 Y-6.6840
G01 X4.7961 Y-6.6660
G01 X4.6771 Y-6.6362
G01 X4.5616 Y-6.5948
G01 X4.4508 Y-6.5424
G01 X4.3455 Y-6.4793
G01 X4.2470 Y-6.4063
G01 X4.1561 Y-6.3239
G01 X4.0737 Y-6.2330
G01 X4.0007 Y-6.1345
G01 X3.9376 Y-6.0292
G01 X3.8852 Y-5.9184
G01 X3.8438 Y-5.8029
G01 X3.8140 Y-5.6839
G01 X3.7960 Y-5.5625
G01 X3.7900 Y-5.4400
G01 X3.7960 Y-5.3175
G01 X3.8140 Y-5.1961
G01 X3.8438 Y-5.0771
G01 X3.8852 Y-4.9616
G01 X3.9376 Y-4.8508
G01 X4.0007 Y-4.7455
G01 X4.0737 Y-4.6470
G01 X4.1561 Y-4.5561
G01 X4.2470 Y-4.4737
G01 X4.3455 Y-4.4007
G01 X4.4508 Y-4.3376
G01 X4.5616 Y-4.2852
G01 X4.6771 Y-4.2438
G01 X4.7961 Y-4.2140
G01 X4.9175 Y-4.1960
G01 X5.0400 Y-4.1900
G01 X5.1625 Y-4.1960
G01 X5.2839 Y-4.2140
G01 X5.4029 Y-4.2438
G01 X5.5184 Y-4.2852
G01 X5.6292 Y-4.3376
G01 X5.7345 Y-4.4007
G01 X5.8330 Y-4.4737
G01 X5.9239 Y-4.5561
G01 X6.0063 Y-4.6470
G01 X6.0793 Y-4.7455
G01 X6.1424 Y-4.8508
G01 X6.1948 Y-4.9616
G01 X6.2362 Y-5.0771
G01 X6.2660 Y-5.1961
G01 X6.2840 Y-5.3175
G01 X6.2900 Y-5.4400
G00 X6.2900 Y-5.4400
G01 F60.00
G01 Z-1.6000
G01 F50.00
G01 X6.2840 Y-5.5625
G01 X6.2660 Y-5.6839
G01 X6.2362 Y-5.8029
G01 X6.1948 Y-5.9184
G01 X6.1424 Y-6.0292
G01 X6.0793 Y-6.1345
G01 X6.0063 Y-6.2330
G01 X5.9239 Y-6.3239
G01 X5.8330 Y-6.4063
G01 X5.7345 Y-6.4793
G01 X5.6292 Y-6.5424
G01 X5.5184 Y-6.5948
G01 X5.4029 Y-6.6362
G01 X5.2839 Y-6.6660
G01 X5.1625 Y-6.6840
G01 X5.0400 Y-6.6900
G01 X4.9175 Y-6.6840
G01 X4.7961 Y-6.6660
G01 X4.6771 Y-6.6362
G01 X4.5616 Y-6.5948
G01 X4.4508 Y-6.5424
G01 X4.3455 Y-6.4793
G01 X4.2470 Y-6.4063
G01 X4.1561 Y-6.3239
G01 X4.0737 Y-6.2330
G01 X4.0007 Y-6.1345
G01 X3.9376 Y-6.0292
G01 X3.8852 Y-5.9184
G01 X3.8438 Y-5.8029
G01 X3.8140 Y-5.6839
G01 X3.7960 Y-5.5625
G01 X3.7900 Y-5.4400
G01 X3.7960 Y-5.3175
G01 X3.8140 Y-5.1961
G01 X3.8438 Y-5.0771
G01 X3.8852 Y-4.9616
G01 X3.9376 Y-4.8508
G01 X4.0007 Y-4.7455
G01 X4.0737 Y-4.6470
G01 X4.1561 Y-4.5561
G01 X4.2470 Y-4.4737
G01 X4.3455 Y-4.4007
G01 X4.4508 Y-4.3376
G01 X4.5616 Y-4.2852
G01 X4.6771 Y-4.2438
G01 X4.7961 Y-4.2140
G01 X4.9175 Y-4.1960
G01 X5.0400 Y-4.1900
G01 X5.1625 Y-4.1960
G01 X5.2839 Y-4.2140
G01 X5.4029 Y-4.2438
G01 X5.5184 Y-4.2852
G01 X5.6292 Y-4.3376
G01 X5.7345 Y-4.4007
G01 X5.8330 Y-4.4737
G01 X5.9239 Y-4.5561
G01 X6.0063 Y-4.6470
G01 X6.0793 Y-4.7455
G01 X6.1424 Y-4.8508
G01 X6.1948 Y-4.9616
G01 X6.2362 Y-5.0771
G01 X6.2660 Y-5.1961
G01 X6.2840 Y-5.3175
G01 X6.2900 Y-5.4400
G00 Z2.0000
G00 X14.3600 Y-11.9500
G01 F60.00
G01 Z-0.0500
G01 F50.00
G01 X14.3593 Y-11.9647
G01 X14.3571 Y-11.9793
G01 X14.3535 Y-11.9935
G01 X14.3486 Y-12.0074
G01 X14.3423 Y-12.0207
G01 X14.3347 Y-12.0333
G01 X14.3260 Y-12.0452
G01 X14.3161 Y-12.0561
G01 X14.3052 Y-12.0660
G01 X14.2933 Y-12.0747
G01 X14.2807 Y-12.0823
G01 X14.2674 Y-12.0886
G01 X14.2535 Y-12.0935
G01 X14.2393 Y-12.0971
G01 X14.2247 Y-12.0993
G01 X14.2100 Y-12.1000
G01 X14.1953 Y-12.0993
G01 X14.1807 Y-12.0971
G01 X14.1665 Y-12.0935
G01 X14.1526 Y-12.0886
G01 X14.1393 Y-12.0823
G01 X14.1267 Y-12.0747
G01 X14.1148 Y-12.0660
G01 X14.1039 Y-12.0561
G01 X14.0940 Y-12.0452
G01 X14.0853 Y-12.0333
G01 X14.0777 Y-12.0207
G01 X14.0714 Y-12.0074
G01 X14.0665 Y-11.9935
G01 X14.0629 Y-11.9793
G01 X14.0607 Y-11.9647
G01 X14.0600 Y-11.9500
G01 X14.0607 Y-11.9353
G01 X14.0629 Y-11.9207
G01 X14.0665 Y-11.9065
G01 X14.0714 Y-11.8926
G01 X14.0777 Y-11.8793
G01 X14.0853 Y-11.8667
G01 X14.0940 Y-11.8548
G01 X14.1039 Y-11.8439
G01 X14.1148 Y-11.8340
G01 X14.1267 Y-11.8253
G01 X14.1393 Y-11.8177
G01 X14.1526 Y-11.8114
G01 X14.1665 Y-11.8065
G01 X14.1807 Y-11.8029
G01 X14.1953 Y-11.8007
G01 X14.2100 Y-11.8000
G01 X14.2247 Y-11.8007
G01 X14.2393 Y-11.8029
G01 X14.2535 Y-11.8065
G01 X14.2674 Y-11.8114
G01 X14.2807 Y-11.8177
G01 X14.2933 Y-11.8253
G01 X14.3052 Y-11.8340
G01 X14.3161 Y-11.8439
G01 X14.3260 Y-11.8548
G01 X14.3347 Y-11.8667
G01 X14.3423 Y-11.8793
G01 X14.3486 Y-11.8926
G01 X14.3535 Y-11.9065
G01 X14.3571 Y-11.9207
G01 X14.3593 Y-11.9353
G01 X14.3600 Y-11.9500
G00 X14.3600 Y-11.9500
G01 F60.00
G01 Z-0.1000
G01 F50.00
G01 X14.3593 Y-11.9647
G01 X14.3571 Y-11.9793
G01 X14.3535 Y-11.9935
G01 X14.3486 Y-12.0074
G01 X14.3423 Y-12.0207
G01 X14.3347 Y-12.0333
G01 X14.3260 Y-12.0452
G01 X14.3161 Y-12.0561
G01 X14.3052 Y-12.0660
G01 X14.2933 Y-12.0747
G01 X14.2807 Y-12.0823
G01 X14.2674 Y-12.0886
G01 X14.2535 Y-12.0935
G01 X14.2393 Y-12.0971
G01 X14.2247 Y-12.0993
G01 X14.2100 Y-12.1000
G01 X14.1953 Y-12.0993
G01 X14.1807 Y-12.0971
G01 X14.1665 Y-12.0935
G01 X14.1526 Y-12.0886
G01 X14.1393 Y-12.0823
G01 X14.1267 Y-12.0747
G01 X14.1148 Y-12.0660
G01 X14.1039 Y-12.0561
G01 X14.0940 Y-12.0452
G01 X14.0853 Y-12.0333
G01 X14.0777 Y-12.0207
G01 X14.0714 Y-12.0074
G01 X14.0665 Y-11.9935
G01 X14.0629 Y-11.9793
G01 X14.0607 Y-11.9647
G01 X14.0600 Y-11.9500
G01 X14.0607 Y-11.9353
G01 X14.0629 Y-11.9207
G01 X14.0665 Y-11.9065
G01 X14.0714 Y-11.8926
G01 X14.0777 Y-11.8793
G01 X14.0853 Y-11.8667
G01 X14.0940 Y-11.8548
G01 X14.1039 Y-11.8439
G01 X14.1148 Y-11.8340
G01 X14.1267 Y-11.8253
G01 X14.1393 Y-11.8177
G01 X14.1526 Y-11.8114
G01 X14.1665 Y-11.8065
G01 X14.1807 Y-11.8029
G01 X14.1953 Y-11.8007
G01 X14.2100 Y-11.8000
G01 X14.2247 Y-11.8007
G01 X14.2393 Y-11.8029
G01 X14.2535 Y-11.8065
G01 X14.2674 Y-11.8114
G01 X14.2807 Y-11.8177
G01 X14.2933 Y-11.8253
G01 X14.3052 Y-11.8340
G01 X14.3161 Y-11.8439
G01 X14.3260 Y-11.8548
G01 X14.3347 Y-11.8667
G01 X14.3423 Y-11.8793
G01 X14.3486 Y-11.8926
G01 X14.3535 Y-11.9065
G01 X14.3571 Y-11.9207
G01 X14.3593 Y-11.9353
G01 X14.3600 Y-11.9500
G00 X14.3600 Y-11.9500
G01 F60.00
G01 Z-0.1500
G01 F50.00
G01 X14.3593 Y-11.9647
G01 X14.3571 Y-11.9793
G01 X14.3535 Y-11.9935
G01 X14.3486 Y-12.0074
G01 X14.3423 Y-12.0207
G01 X14.3347 Y-12.0333
G01 X14.3260 Y-12.0452
G01 X14.3161 Y-12.0561
G01 X14.3052 Y-12.0660
G01 X14.2933 Y-12.0747
G01 X14.2807 Y-12.0823
G01 X14.2674 Y-12.0886
G01 X14.2535 Y-12.0935
G01 X14.2393 Y-12.0971
G01 X14.2247 Y-12.0993
G01 X14.2100 Y-12.1000
G01 X14.1953 Y-12.0993
G01 X14.1807 Y-12.0971
G01 X14.1665 Y-12.0935
G01 X14.1526 Y-12.0886
G01 X14.1393 Y-12.0823
G01 X14.1267 Y-12.0747
G01 X14.1148 Y-12.0660
G01 X14.1039 Y-12.0561
G01 X14.0940 Y-12.0452
G01 X14.0853 Y-12.0333
G01 X14.0777 Y-12.0207
G01 X14.0714 Y-12.0074
G01 X14.0665 Y-11.9935
G01 X14.0629 Y-11.9793
G01 X14.0607 Y-11.9647
G01 X14.0600 Y-11.9500
G01 X14.0607 Y-11.9353
G01 X14.0629 Y-11.9207
G01 X14.0665 Y-11.9065
G01 X14.0714 Y-11.8926
G01 X14.0777 Y-11.8793
G01 X14.0853 Y-11.8667
G01 X14.0940 Y-11.8548
G01 X14.1039 Y-11.8439
G01 X14.1148 Y-11.8340
G01 X14.1267 Y-11.8253
G01 X14.1393 Y-11.8177
G01 X14.1526 Y-11.8114
G01 X14.1665 Y-11.8065
G01 X14.1807 Y-11.8029
G01 X14.1953 Y-11.8007
G01 X14.2100 Y-11.8000
G01 X14.2247 Y-11.8007
G01 X14.2393 Y-11.8029
G01 X14.2535 Y-11.8065
G01 X14.2674 Y-11.8114
G01 X14.2807 Y-11.8177
G01 X14.2933 Y-11.8253
G01 X14.3052 Y-11.8340
G01 X14.3161 Y-11.8439
G01 X14.3260 Y-11.8548
G01 X14.3347 Y-11.8667
G01 X14.3423 Y-11.8793
G01 X14.3486 Y-11.8926
G01 X14.3535 Y-11.9065
G01 X14.3571 Y-11.9207
G01 X14.3593 Y-11.9353
G01 X14.3600 Y-11.9500
G00 X14.3600 Y-11.9500
G01 F60.00
G01 Z-0.2000
G01 F50.00
G01 X14.3593 Y-11.9647
G01 X14.3571 Y-11.9793
G01 X14.3535 Y-11.9935
G01 X14.3486 Y-12.0074
G01 X14.3423 Y-12.0207
G01 X14.3347 Y-12.0333
G01 X14.3260 Y-12.0452
G01 X14.3161 Y-12.0561
G01 X14.3052 Y-12.0660
G01 X14.2933 Y-12.0747
G01 X14.2807 Y-12.0823
G01 X14.2674 Y-12.0886
G01 X14.2535 Y-12.0935
G01 X14.2393 Y-12.0971
G01 X14.2247 Y-12.0993
G01 X14.2100 Y-12.1000
G01 X14.1953 Y-12.0993
G01 X14.1807 Y-12.0971
G01 X14.1665 Y-12.0935
G01 X14.1526 Y-12.0886
G01 X14.1393 Y-12.0823
G01 X14.1267 Y-12.0747
G01 X14.1148 Y-12.0660
G01 X14.1039 Y-12.0561
G01 X14.0940 Y-12.0452
G01 X14.0853 Y-12.0333
G01 X14.0777 Y-12.0207
G01 X14.0714 Y-12.0074
G01 X14.0665 Y-11.9935
G01 X14.0629 Y-11.9793
G01 X14.0607 Y-11.9647
G01 X14.0600 Y-11.9500
G01 X14.0607 Y-11.9353
G01 X14.0629 Y-11.9207
G01 X14.0665 Y-11.9065
G01 X14.0714 Y-11.8926
G01 X14.0777 Y-11.8793
G01 X14.0853 Y-11.8667
G01 X14.0940 Y-11.8548
G01 X14.1039 Y-11.8439
G01 X14.1148 Y-11.8340
G01 X14.1267 Y-11.8253
G01 X14.1393 Y-11.8177
G01 X14.1526 Y-11.8114
G01 X14.1665 Y-11.8065
G01 X14.1807 Y-11.8029
G01 X14.1953 Y-11.8007
G01 X14.2100 Y-11.8000
G01 X14.2247 Y-11.8007
G01 X14.2393 Y-11.8029
G01 X14.2535 Y-11.8065
G01 X14.2674 Y-11.8114
G01 X14.2807 Y-11.8177
G01 X14.2933 Y-11.8253
G01 X14.3052 Y-11.8340
G01 X14.3161 Y-11.8439
G01 X14.3260 Y-11.8548
G01 X14.3347 Y-11.8667
G01 X14.3423 Y-11.8793
G01 X14.3486 Y-11.8926
G01 X14.3535 Y-11.9065
G01 X14.3571 Y-11.9207
G01 X14.3593 Y-11.9353
G01 X14.3600 Y-11.9500
G00 X14.3600 Y-11.9500
G01 F60.00
G01 Z-0.2500
G01 F50.00
G01 X14.3593 Y-11.9647
G01 X14.3571 Y-11.9793
G01 X14.3535 Y-11.9935
G01 X14.3486 Y-12.0074
G01 X14.3423 Y-12.0207
G01 X14.3347 Y-12.0333
G01 X14.3260 Y-12.0452
G01 X14.3161 Y-12.0561
G01 X14.3052 Y-12.0660
G01 X14.2933 Y-12.0747
G01 X14.2807 Y-12.0823
G01 X14.2674 Y-12.0886
G01 X14.2535 Y-12.0935
G01 X14.2393 Y-12.0971
G01 X14.2247 Y-12.0993
G01 X14.2100 Y-12.1000
G01 X14.1953 Y-12.0993
G01 X14.1807 Y-12.0971
G01 X14.1665 Y-12.0935
G01 X14.1526 Y-12.0886
G01 X14.1393 Y-12.0823
G01 X14.1267 Y-12.0747
G01 X14.1148 Y-12.0660
G01 X14.1039 Y-12.0561
G01 X14.0940 Y-12.0452
G01 X14.0853 Y-12.0333
G01 X14.0777 Y-12.0207
G01 X14.0714 Y-12.0074
G01 X14.0665 Y-11.9935
G01 X14.0629 Y-11.9793
G01 X14.0607 Y-11.9647
G01 X14.0600 Y-11.9500
G01 X14.0607 Y-11.9353
G01 X14.0629 Y-11.9207
G01 X14.0665 Y-11.9065
G01 X14.0714 Y-11.8926
G01 X14.0777 Y-11.8793
G01 X14.0853 Y-11.8667
G01 X14.0940 Y-11.8548
G01 X14.1039 Y-11.8439
G01 X14.1148 Y-11.8340
G01 X14.1267 Y-11.8253
G01 X14.1393 Y-11.8177
G01 X14.1526 Y-11.8114
G01 X14.1665 Y-11.8065
G01 X14.1807 Y-11.8029
G01 X14.1953 Y-11.8007
G01 X14.2100 Y-11.8000
G01 X14.2247 Y-11.8007
G01 X14.2393 Y-11.8029
G01 X14.2535 Y-11.8065
G01 X14.2674 Y-11.8114
G01 X14.2807 Y-11.8177
G01 X14.2933 Y-11.8253
G01 X14.3052 Y-11.8340
G01 X14.3161 Y-11.8439
G01 X14.3260 Y-11.8548
G01 X14.3347 Y-11.8667
G01 X14.3423 Y-11.8793
G01 X14.3486 Y-11.8926
G01 X14.3535 Y-11.9065
G01 X14.3571 Y-11.9207
G01 X14.3593 Y-11.9353
G01 X14.3600 Y-11.9500
G00 X14.3600 Y-11.9500
G01 F60.00
G01 Z-0.3000
G01 F50.00
G01 X14.3593 Y-11.9647
G01 X14.3571 Y-11.9793
G01 X14.3535 Y-11.9935
G01 X14.3486 Y-12.0074
G01 X14.3423 Y-12.0207
G01 X14.3347 Y-12.0333
G01 X14.3260 Y-12.0452
G01 X14.3161 Y-12.0561
G01 X14.3052 Y-12.0660
G01 X14.2933 Y-12.0747
G01 X14.2807 Y-12.0823
G01 X14.2674 Y-12.0886
G01 X14.2535 Y-12.0935
G01 X14.2393 Y-12.0971
G01 X14.2247 Y-12.0993
G01 X14.2100 Y-12.1000
G01 X14.1953 Y-12.0993
G01 X14.1807 Y-12.0971
G01 X14.1665 Y-12.0935
G01 X14.1526 Y-12.0886
G01 X14.1393 Y-12.0823
G01 X14.1267 Y-12.0747
G01 X14.1148 Y-12.0660
G01 X14.1039 Y-12.0561
G01 X14.0940 Y-12.0452
G01 X14.0853 Y-12.0333
G01 X14.0777 Y-12.0207
G01 X14.0714 Y-12.0074
G01 X14.0665 Y-11.9935
G01 X14.0629 Y-11.9793
G01 X14.0607 Y-11.9647
G01 X14.0600 Y-11.9500
G01 X14.0607 Y-11.9353
G01 X14.0629 Y-11.9207
G01 X14.0665 Y-11.9065
G01 X14.0714 Y-11.8926
G01 X14.0777 Y-11.8793
G01 X14.0853 Y-11.8667
G01 X14.0940 Y-11.8548
G01 X14.1039 Y-11.8439
G01 X14.1148 Y-11.8340
G01 X14.1267 Y-11.8253
G01 X14.1393 Y-11.8177
G01 X14.1526 Y-11.8114
G01 X14.1665 Y-11.8065
G01 X14.1807 Y-11.8029
G01 X14.1953 Y-11.8007
G01 X14.2100 Y-11.8000
G01 X14.2247 Y-11.8007
G01 X14.2393 Y-11.8029
G01 X14.2535 Y-11.8065
G01 X14.2674 Y-11.8114
G01 X14.2807 Y-11.8177
G01 X14.2933 Y-11.8253
G01 X14.3052 Y-11.8340
G01 X14.3161 Y-11.8439
G01 X14.3260 Y-11.8548
G01 X14.3347 Y-11.8667
G01 X14.3423 Y-11.8793
G01 X14.3486 Y-11.8926
G01 X14.3535 Y-11.9065
G01 X14.3571 Y-11.9207
G01 X14.3593 Y-11.9353
G01 X14.3600 Y-11.9500
G00 X14.3600 Y-11.9500
G01 F60.00
G01 Z-0.3500
G01 F50.00
G01 X14.3593 Y-11.9647
G01 X14.3571 Y-11.9793
G01 X14.3535 Y-11.9935
G01 X14.3486 Y-12.0074
G01 X14.3423 Y-12.0207
G01 X14.3347 Y-12.0333
G01 X14.3260 Y-12.0452
G01 X14.3161 Y-12.0561
G01 X14.3052 Y-12.0660
G01 X14.2933 Y-12.0747
G01 X14.2807 Y-12.0823
G01 X14.2674 Y-12.0886
G01 X14.2535 Y-12.0935
G01 X14.2393 Y-12.0971
G01 X14.2247 Y-12.0993
G01 X14.2100 Y-12.1000
G01 X14.1953 Y-12.0993
G01 X14.1807 Y-12.0971
G01 X14.1665 Y-12.0935
G01 X14.1526 Y-12.0886
G01 X14.1393 Y-12.0823
G01 X14.1267 Y-12.0747
G01 X14.1148 Y-12.0660
G01 X14.1039 Y-12.0561
G01 X14.0940 Y-12.0452
G01 X14.0853 Y-12.0333
G01 X14.0777 Y-12.0207
G01 X14.0714 Y-12.0074
G01 X14.0665 Y-11.9935
G01 X14.0629 Y-11.9793
G01 X14.0607 Y-11.9647
G01 X14.0600 Y-11.9500
G01 X14.0607 Y-11.9353
G01 X14.0629 Y-11.9207
G01 X14.0665 Y-11.9065
G01 X14.0714 Y-11.8926
G01 X14.0777 Y-11.8793
G01 X14.0853 Y-11.8667
G01 X14.0940 Y-11.8548
G01 X14.1039 Y-11.8439
G01 X14.1148 Y-11.8340
G01 X14.1267 Y-11.8253
G01 X14.1393 Y-11.8177
G01 X14.1526 Y-11.8114
G01 X14.1665 Y-11.8065
G01 X14.1807 Y-11.8029
G01 X14.1953 Y-11.8007
G01 X14.2100 Y-11.8000
G01 X14.2247 Y-11.8007
G01 X14.2393 Y-11.8029
G01 X14.2535 Y-11.8065
G01 X14.2674 Y-11.8114
G01 X14.2807 Y-11.8177
G01 X14.2933 Y-11.8253
G01 X14.3052 Y-11.8340
G01 X14.3161 Y-11.8439
G01 X14.3260 Y-11.8548
G01 X14.3347 Y-11.8667
G01 X14.3423 Y-11.8793
G01 X14.3486 Y-11.8926
G01 X14.3535 Y-11.9065
G01 X14.3571 Y-11.9207
G01 X14.3593 Y-11.9353
G01 X14.3600 Y-11.9500
G00 X14.3600 Y-11.9500
G01 F60.00
G01 Z-0.4000
G01 F50.00
G01 X14.3593 Y-11.9647
G01 X14.3571 Y-11.9793
G01 X14.3535 Y-11.9935
G01 X14.3486 Y-12.0074
G01 X14.3423 Y-12.0207
G01 X14.3347 Y-12.0333
G01 X14.3260 Y-12.0452
G01 X14.3161 Y-12.0561
G01 X14.3052 Y-12.0660
G01 X14.2933 Y-12.0747
G01 X14.2807 Y-12.0823
G01 X14.2674 Y-12.0886
G01 X14.2535 Y-12.0935
G01 X14.2393 Y-12.0971
G01 X14.2247 Y-12.0993
G01 X14.2100 Y-12.1000
G01 X14.1953 Y-12.0993
G01 X14.1807 Y-12.0971
G01 X14.1665 Y-12.0935
G01 X14.1526 Y-12.0886
G01 X14.1393 Y-12.0823
G01 X14.1267 Y-12.0747
G01 X14.1148 Y-12.0660
G01 X14.1039 Y-12.0561
G01 X14.0940 Y-12.0452
G01 X14.0853 Y-12.0333
G01 X14.0777 Y-12.0207
G01 X14.0714 Y-12.0074
G01 X14.0665 Y-11.9935
G01 X14.0629 Y-11.9793
G01 X14.0607 Y-11.9647
G01 X14.0600 Y-11.9500
G01 X14.0607 Y-11.9353
G01 X14.0629 Y-11.9207
G01 X14.0665 Y-11.9065
G01 X14.0714 Y-11.8926
G01 X14.0777 Y-11.8793
G01 X14.0853 Y-11.8667
G01 X14.0940 Y-11.8548
G01 X14.1039 Y-11.8439
G01 X14.1148 Y-11.8340
G01 X14.1267 Y-11.8253
G01 X14.1393 Y-11.8177
G01 X14.1526 Y-11.8114
G01 X14.1665 Y-11.8065
G01 X14.1807 Y-11.8029
G01 X14.1953 Y-11.8007
G01 X14.2100 Y-11.8000
G01 X14.2247 Y-11.8007
G01 X14.2393 Y-11.8029
G01 X14.2535 Y-11.8065
G01 X14.2674 Y-11.8114
G01 X14.2807 Y-11.8177
G01 X14.2933 Y-11.8253
G01 X14.3052 Y-11.8340
G01 X14.3161 Y-11.8439
G01 X14.3260 Y-11.8548
G01 X14.3347 Y-11.8667
G01 X14.3423 Y-11.8793
G01 X14.3486 Y-11.8926
G01 X14.3535 Y-11.9065
G01 X14.3571 Y-11.9207
G01 X14.3593 Y-11.9353
G01 X14.3600 Y-11.9500
G00 X14.3600 Y-11.9500
G01 F60.00
G01 Z-0.4500
G01 F50.00
G01 X14.3593 Y-11.9647
G01 X14.3571 Y-11.9793
G01 X14.3535 Y-11.9935
G01 X14.3486 Y-12.0074
G01 X14.3423 Y-12.0207
G01 X14.3347 Y-12.0333
G01 X14.3260 Y-12.0452
G01 X14.3161 Y-12.0561
G01 X14.3052 Y-12.0660
G01 X14.2933 Y-12.0747
G01 X14.2807 Y-12.0823
G01 X14.2674 Y-12.0886
G01 X14.2535 Y-12.0935
G01 X14.2393 Y-12.0971
G01 X14.2247 Y-12.0993
G01 X14.2100 Y-12.1000
G01 X14.1953 Y-12.0993
G01 X14.1807 Y-12.0971
G01 X14.1665 Y-12.0935
G01 X14.1526 Y-12.0886
G01 X14.1393 Y-12.0823
G01 X14.1267 Y-12.0747
G01 X14.1148 Y-12.0660
G01 X14.1039 Y-12.0561
G01 X14.0940 Y-12.0452
G01 X14.0853 Y-12.0333
G01 X14.0777 Y-12.0207
G01 X14.0714 Y-12.0074
G01 X14.0665 Y-11.9935
G01 X14.0629 Y-11.9793
G01 X14.0607 Y-11.9647
G01 X14.0600 Y-11.9500
G01 X14.0607 Y-11.9353
G01 X14.0629 Y-11.9207
G01 X14.0665 Y-11.9065
G01 X14.0714 Y-11.8926
G01 X14.0777 Y-11.8793
G01 X14.0853 Y-11.8667
G01 X14.0940 Y-11.8548
G01 X14.1039 Y-11.8439
G01 X14.1148 Y-11.8340
G01 X14.1267 Y-11.8253
G01 X14.1393 Y-11.8177
G01 X14.1526 Y-11.8114
G01 X14.1665 Y-11.8065
G01 X14.1807 Y-11.8029
G01 X14.1953 Y-11.8007
G01 X14.2100 Y-11.8000
G01 X14.2247 Y-11.8007
G01 X14.2393 Y-11.8029
G01 X14.2535 Y-11.8065
G01 X14.2674 Y-11.8114
G01 X14.2807 Y-11.8177
G01 X14.2933 Y-11.8253
G01 X14.3052 Y-11.8340
G01 X14.3161 Y-11.8439
G01 X14.3260 Y-11.8548
G01 X14.3347 Y-11.8667
G01 X14.3423 Y-11.8793
G01 X14.3486 Y-11.8926
G01 X14.3535 Y-11.9065
G01 X14.3571 Y-11.9207
G01 X14.3593 Y-11.9353
G01 X14.3600 Y-11.9500
G00 X14.3600 Y-11.9500
G01 F60.00
G01 Z-0.5000
G01 F50.00
G01 X14.3593 Y-11.9647
G01 X14.3571 Y-11.9793
G01 X14.3535 Y-11.9935
G01 X14.3486 Y-12.0074
G01 X14.3423 Y-12.0207
G01 X14.3347 Y-12.0333
G01 X14.3260 Y-12.0452
G01 X14.3161 Y-12.0561
G01 X14.3052 Y-12.0660
G01 X14.2933 Y-12.0747
G01 X14.2807 Y-12.0823
G01 X14.2674 Y-12.0886
G01 X14.2535 Y-12.0935
G01 X14.2393 Y-12.0971
G01 X14.2247 Y-12.0993
G01 X14.2100 Y-12.1000
G01 X14.1953 Y-12.0993
G01 X14.1807 Y-12.0971
G01 X14.1665 Y-12.0935
G01 X14.1526 Y-12.0886
G01 X14.1393 Y-12.0823
G01 X14.1267 Y-12.0747
G01 X14.1148 Y-12.0660
G01 X14.1039 Y-12.0561
G01 X14.0940 Y-12.0452
G01 X14.0853 Y-12.0333
G01 X14.0777 Y-12.0207
G01 X14.0714 Y-12.0074
G01 X14.0665 Y-11.9935
G01 X14.0629 Y-11.9793
G01 X14.0607 Y-11.9647
G01 X14.0600 Y-11.9500
G01 X14.0607 Y-11.9353
G01 X14.0629 Y-11.9207
G01 X14.0665 Y-11.9065
G01 X14.0714 Y-11.8926
G01 X14.0777 Y-11.8793
G01 X14.0853 Y-11.8667
G01 X14.0940 Y-11.8548
G01 X14.1039 Y-11.8439
G01 X14.1148 Y-11.8340
G01 X14.1267 Y-11.8253
G01 X14.1393 Y-11.8177
G01 X14.1526 Y-11.8114
G01 X14.1665 Y-11.8065
G01 X14.1807 Y-11.8029
G01 X14.1953 Y-11.8007
G01 X14.2100 Y-11.8000
G01 X14.2247 Y-11.8007
G01 X14.2393 Y-11.8029
G01 X14.2535 Y-11.8065
G01 X14.2674 Y-11.8114
G01 X14.2807 Y-11.8177
G01 X14.2933 Y-11.8253
G01 X14.3052 Y-11.8340
G01 X14.3161 Y-11.8439
G01 X14.3260 Y-11.8548
G01 X14.3347 Y-11.8667
G01 X14.3423 Y-11.8793
G01 X14.3486 Y-11.8926
G01 X14.3535 Y-11.9065
G01 X14.3571 Y-11.9207
G01 X14.3593 Y-11.9353
G01 X14.3600 Y-11.9500
G00 X14.3600 Y-11.9500
G01 F60.00
G01 Z-0.5500
G01 F50.00
G01 X14.3593 Y-11.9647
G01 X14.3571 Y-11.9793
G01 X14.3535 Y-11.9935
G01 X14.3486 Y-12.0074
G01 X14.3423 Y-12.0207
G01 X14.3347 Y-12.0333
G01 X14.3260 Y-12.0452
G01 X14.3161 Y-12.0561
G01 X14.3052 Y-12.0660
G01 X14.2933 Y-12.0747
G01 X14.2807 Y-12.0823
G01 X14.2674 Y-12.0886
G01 X14.2535 Y-12.0935
G01 X14.2393 Y-12.0971
G01 X14.2247 Y-12.0993
G01 X14.2100 Y-12.1000
G01 X14.1953 Y-12.0993
G01 X14.1807 Y-12.0971
G01 X14.1665 Y-12.0935
G01 X14.1526 Y-12.0886
G01 X14.1393 Y-12.0823
G01 X14.1267 Y-12.0747
G01 X14.1148 Y-12.0660
G01 X14.1039 Y-12.0561
G01 X14.0940 Y-12.0452
G01 X14.0853 Y-12.0333
G01 X14.0777 Y-12.0207
G01 X14.0714 Y-12.0074
G01 X14.0665 Y-11.9935
G01 X14.0629 Y-11.9793
G01 X14.0607 Y-11.9647
G01 X14.0600 Y-11.9500
G01 X14.0607 Y-11.9353
G01 X14.0629 Y-11.9207
G01 X14.0665 Y-11.9065
G01 X14.0714 Y-11.8926
G01 X14.0777 Y-11.8793
G01 X14.0853 Y-11.8667
G01 X14.0940 Y-11.8548
G01 X14.1039 Y-11.8439
G01 X14.1148 Y-11.8340
G01 X14.1267 Y-11.8253
G01 X14.1393 Y-11.8177
G01 X14.1526 Y-11.8114
G01 X14.1665 Y-11.8065
G01 X14.1807 Y-11.8029
G01 X14.1953 Y-11.8007
G01 X14.2100 Y-11.8000
G01 X14.2247 Y-11.8007
G01 X14.2393 Y-11.8029
G01 X14.2535 Y-11.8065
G01 X14.2674 Y-11.8114
G01 X14.2807 Y-11.8177
G01 X14.2933 Y-11.8253
G01 X14.3052 Y-11.8340
G01 X14.3161 Y-11.8439
G01 X14.3260 Y-11.8548
G01 X14.3347 Y-11.8667
G01 X14.3423 Y-11.8793
G01 X14.3486 Y-11.8926
G01 X14.3535 Y-11.9065
G01 X14.3571 Y-11.9207
G01 X14.3593 Y-11.9353
G01 X14.3600 Y-11.9500
G00 X14.3600 Y-11.9500
G01 F60.00
G01 Z-0.6000
G01 F50.00
G01 X14.3593 Y-11.9647
G01 X14.3571 Y-11.9793
G01 X14.3535 Y-11.9935
G01 X14.3486 Y-12.0074
G01 X14.3423 Y-12.0207
G01 X14.3347 Y-12.0333
G01 X14.3260 Y-12.0452
G01 X14.3161 Y-12.0561
G01 X14.3052 Y-12.0660
G01 X14.2933 Y-12.0747
G01 X14.2807 Y-12.0823
G01 X14.2674 Y-12.0886
G01 X14.2535 Y-12.0935
G01 X14.2393 Y-12.0971
G01 X14.2247 Y-12.0993
G01 X14.2100 Y-12.1000
G01 X14.1953 Y-12.0993
G01 X14.1807 Y-12.0971
G01 X14.1665 Y-12.0935
G01 X14.1526 Y-12.0886
G01 X14.1393 Y-12.0823
G01 X14.1267 Y-12.0747
G01 X14.1148 Y-12.0660
G01 X14.1039 Y-12.0561
G01 X14.0940 Y-12.0452
G01 X14.0853 Y-12.0333
G01 X14.0777 Y-12.0207
G01 X14.0714 Y-12.0074
G01 X14.0665 Y-11.9935
G01 X14.0629 Y-11.9793
G01 X14.0607 Y-11.9647
G01 X14.0600 Y-11.9500
G01 X14.0607 Y-11.9353
G01 X14.0629 Y-11.9207
G01 X14.0665 Y-11.9065
G01 X14.0714 Y-11.8926
G01 X14.0777 Y-11.8793
G01 X14.0853 Y-11.8667
G01 X14.0940 Y-11.8548
G01 X14.1039 Y-11.8439
G01 X14.1148 Y-11.8340
G01 X14.1267 Y-11.8253
G01 X14.1393 Y-11.8177
G01 X14.1526 Y-11.8114
G01 X14.1665 Y-11.8065
G01 X14.1807 Y-11.8029
G01 X14.1953 Y-11.8007
G01 X14.2100 Y-11.8000
G01 X14.2247 Y-11.8007
G01 X14.2393 Y-11.8029
G01 X14.2535 Y-11.8065
G01 X14.2674 Y-11.8114
G01 X14.2807 Y-11.8177
G01 X14.2933 Y-11.8253
G01 X14.3052 Y-11.8340
G01 X14.3161 Y-11.8439
G01 X14.3260 Y-11.8548
G01 X14.3347 Y-11.8667
G01 X14.3423 Y-11.8793
G01 X14.3486 Y-11.8926
G01 X14.3535 Y-11.9065
G01 X14.3571 Y-11.9207
G01 X14.3593 Y-11.9353
G01 X14.3600 Y-11.9500
G00 X14.3600 Y-11.9500
G01 F60.00
G01 Z-0.6500
G01 F50.00
G01 X14.3593 Y-11.9647
G01 X14.3571 Y-11.9793
G01 X14.3535 Y-11.9935
G01 X14.3486 Y-12.0074
G01 X14.3423 Y-12.0207
G01 X14.3347 Y-12.0333
G01 X14.3260 Y-12.0452
G01 X14.3161 Y-12.0561
G01 X14.3052 Y-12.0660
G01 X14.2933 Y-12.0747
G01 X14.2807 Y-12.0823
G01 X14.2674 Y-12.0886
G01 X14.2535 Y-12.0935
G01 X14.2393 Y-12.0971
G01 X14.2247 Y-12.0993
G01 X14.2100 Y-12.1000
G01 X14.1953 Y-12.0993
G01 X14.1807 Y-12.0971
G01 X14.1665 Y-12.0935
G01 X14.1526 Y-12.0886
G01 X14.1393 Y-12.0823
G01 X14.1267 Y-12.0747
G01 X14.1148 Y-12.0660
G01 X14.1039 Y-12.0561
G01 X14.0940 Y-12.0452
G01 X14.0853 Y-12.0333
G01 X14.0777 Y-12.0207
G01 X14.0714 Y-12.0074
G01 X14.0665 Y-11.9935
G01 X14.0629 Y-11.9793
G01 X14.0607 Y-11.9647
G01 X14.0600 Y-11.9500
G01 X14.0607 Y-11.9353
G01 X14.0629 Y-11.9207
G01 X14.0665 Y-11.9065
G01 X14.0714 Y-11.8926
G01 X14.0777 Y-11.8793
G01 X14.0853 Y-11.8667
G01 X14.0940 Y-11.8548
G01 X14.1039 Y-11.8439
G01 X14.1148 Y-11.8340
G01 X14.1267 Y-11.8253
G01 X14.1393 Y-11.8177
G01 X14.1526 Y-11.8114
G01 X14.1665 Y-11.8065
G01 X14.1807 Y-11.8029
G01 X14.1953 Y-11.8007
G01 X14.2100 Y-11.8000
G01 X14.2247 Y-11.8007
G01 X14.2393 Y-11.8029
G01 X14.2535 Y-11.8065
G01 X14.2674 Y-11.8114
G01 X14.2807 Y-11.8177
G01 X14.2933 Y-11.8253
G01 X14.3052 Y-11.8340
G01 X14.3161 Y-11.8439
G01 X14.3260 Y-11.8548
G01 X14.3347 Y-11.8667
G01 X14.3423 Y-11.8793
G01 X14.3486 Y-11.8926
G01 X14.3535 Y-11.9065
G01 X14.3571 Y-11.9207
G01 X14.3593 Y-11.9353
G01 X14.3600 Y-11.9500
G00 X14.3600 Y-11.9500
G01 F60.00
G01 Z-0.7000
G01 F50.00
G01 X14.3593 Y-11.9647
G01 X14.3571 Y-11.9793
G01 X14.3535 Y-11.9935
G01 X14.3486 Y-12.0074
G01 X14.3423 Y-12.0207
G01 X14.3347 Y-12.0333
G01 X14.3260 Y-12.0452
G01 X14.3161 Y-12.0561
G01 X14.3052 Y-12.0660
G01 X14.2933 Y-12.0747
G01 X14.2807 Y-12.0823
G01 X14.2674 Y-12.0886
G01 X14.2535 Y-12.0935
G01 X14.2393 Y-12.0971
G01 X14.2247 Y-12.0993
G01 X14.2100 Y-12.1000
G01 X14.1953 Y-12.0993
G01 X14.1807 Y-12.0971
G01 X14.1665 Y-12.0935
G01 X14.1526 Y-12.0886
G01 X14.1393 Y-12.0823
G01 X14.1267 Y-12.0747
G01 X14.1148 Y-12.0660
G01 X14.1039 Y-12.0561
G01 X14.0940 Y-12.0452
G01 X14.0853 Y-12.0333
G01 X14.0777 Y-12.0207
G01 X14.0714 Y-12.0074
G01 X14.0665 Y-11.9935
G01 X14.0629 Y-11.9793
G01 X14.0607 Y-11.9647
G01 X14.0600 Y-11.9500
G01 X14.0607 Y-11.9353
G01 X14.0629 Y-11.9207
G01 X14.0665 Y-11.9065
G01 X14.0714 Y-11.8926
G01 X14.0777 Y-11.8793
G01 X14.0853 Y-11.8667
G01 X14.0940 Y-11.8548
G01 X14.1039 Y-11.8439
G01 X14.1148 Y-11.8340
G01 X14.1267 Y-11.8253
G01 X14.1393 Y-11.8177
G01 X14.1526 Y-11.8114
G01 X14.1665 Y-11.8065
G01 X14.1807 Y-11.8029
G01 X14.1953 Y-11.8007
G01 X14.2100 Y-11.8000
G01 X14.2247 Y-11.8007
G01 X14.2393 Y-11.8029
G01 X14.2535 Y-11.8065
G01 X14.2674 Y-11.8114
G01 X14.2807 Y-11.8177
G01 X14.2933 Y-11.8253
G01 X14.3052 Y-11.8340
G01 X14.3161 Y-11.8439
G01 X14.3260 Y-11.8548
G01 X14.3347 Y-11.8667
G01 X14.3423 Y-11.8793
G01 X14.3486 Y-11.8926
G01 X14.3535 Y-11.9065
G01 X14.3571 Y-11.9207
G01 X14.3593 Y-11.9353
G01 X14.3600 Y-11.9500
G00 X14.3600 Y-11.9500
G01 F60.00
G01 Z-0.7500
G01 F50.00
G01 X14.3593 Y-11.9647
G01 X14.3571 Y-11.9793
G01 X14.3535 Y-11.9935
G01 X14.3486 Y-12.0074
G01 X14.3423 Y-12.0207
G01 X14.3347 Y-12.0333
G01 X14.3260 Y-12.0452
G01 X14.3161 Y-12.0561
G01 X14.3052 Y-12.0660
G01 X14.2933 Y-12.0747
G01 X14.2807 Y-12.0823
G01 X14.2674 Y-12.0886
G01 X14.2535 Y-12.0935
G01 X14.2393 Y-12.0971
G01 X14.2247 Y-12.0993
G01 X14.2100 Y-12.1000
G01 X14.1953 Y-12.0993
G01 X14.1807 Y-12.0971
G01 X14.1665 Y-12.0935
G01 X14.1526 Y-12.0886
G01 X14.1393 Y-12.0823
G01 X14.1267 Y-12.0747
G01 X14.1148 Y-12.0660
G01 X14.1039 Y-12.0561
G01 X14.0940 Y-12.0452
G01 X14.0853 Y-12.0333
G01 X14.0777 Y-12.0207
G01 X14.0714 Y-12.0074
G01 X14.0665 Y-11.9935
G01 X14.0629 Y-11.9793
G01 X14.0607 Y-11.9647
G01 X14.0600 Y-11.9500
G01 X14.0607 Y-11.9353
G01 X14.0629 Y-11.9207
G01 X14.0665 Y-11.9065
G01 X14.0714 Y-11.8926
G01 X14.0777 Y-11.8793
G01 X14.0853 Y-11.8667
G01 X14.0940 Y-11.8548
G01 X14.1039 Y-11.8439
G01 X14.1148 Y-11.8340
G01 X14.1267 Y-11.8253
G01 X14.1393 Y-11.8177
G01 X14.1526 Y-11.8114
G01 X14.1665 Y-11.8065
G01 X14.1807 Y-11.8029
G01 X14.1953 Y-11.8007
G01 X14.2100 Y-11.8000
G01 X14.2247 Y-11.8007
G01 X14.2393 Y-11.8029
G01 X14.2535 Y-11.8065
G01 X14.2674 Y-11.8114
G01 X14.2807 Y-11.8177
G01 X14.2933 Y-11.8253
G01 X14.3052 Y-11.8340
G01 X14.3161 Y-11.8439
G01 X14.3260 Y-11.8548
G01 X14.3347 Y-11.8667
G01 X14.3423 Y-11.8793
G01 X14.3486 Y-11.8926
G01 X14.3535 Y-11.9065
G01 X14.3571 Y-11.9207
G01 X14.3593 Y-11.9353
G01 X14.3600 Y-11.9500
G00 X14.3600 Y-11.9500
G01 F60.00
G01 Z-0.8000
G01 F50.00
G01 X14.3593 Y-11.9647
G01 X14.3571 Y-11.9793
G01 X14.3535 Y-11.9935
G01 X14.3486 Y-12.0074
G01 X14.3423 Y-12.0207
G01 X14.3347 Y-12.0333
G01 X14.3260 Y-12.0452
G01 X14.3161 Y-12.0561
G01 X14.3052 Y-12.0660
G01 X14.2933 Y-12.0747
G01 X14.2807 Y-12.0823
G01 X14.2674 Y-12.0886
G01 X14.2535 Y-12.0935
G01 X14.2393 Y-12.0971
G01 X14.2247 Y-12.0993
G01 X14.2100 Y-12.1000
G01 X14.1953 Y-12.0993
G01 X14.1807 Y-12.0971
G01 X14.1665 Y-12.0935
G01 X14.1526 Y-12.0886
G01 X14.1393 Y-12.0823
G01 X14.1267 Y-12.0747
G01 X14.1148 Y-12.0660
G01 X14.1039 Y-12.0561
G01 X14.0940 Y-12.0452
G01 X14.0853 Y-12.0333
G01 X14.0777 Y-12.0207
G01 X14.0714 Y-12.0074
G01 X14.0665 Y-11.9935
G01 X14.0629 Y-11.9793
G01 X14.0607 Y-11.9647
G01 X14.0600 Y-11.9500
G01 X14.0607 Y-11.9353
G01 X14.0629 Y-11.9207
G01 X14.0665 Y-11.9065
G01 X14.0714 Y-11.8926
G01 X14.0777 Y-11.8793
G01 X14.0853 Y-11.8667
G01 X14.0940 Y-11.8548
G01 X14.1039 Y-11.8439
G01 X14.1148 Y-11.8340
G01 X14.1267 Y-11.8253
G01 X14.1393 Y-11.8177
G01 X14.1526 Y-11.8114
G01 X14.1665 Y-11.8065
G01 X14.1807 Y-11.8029
G01 X14.1953 Y-11.8007
G01 X14.2100 Y-11.8000
G01 X14.2247 Y-11.8007
G01 X14.2393 Y-11.8029
G01 X14.2535 Y-11.8065
G01 X14.2674 Y-11.8114
G01 X14.2807 Y-11.8177
G01 X14.2933 Y-11.8253
G01 X14.3052 Y-11.8340
G01 X14.3161 Y-11.8439
G01 X14.3260 Y-11.8548
G01 X14.3347 Y-11.8667
G01 X14.3423 Y-11.8793
G01 X14.3486 Y-11.8926
G01 X14.3535 Y-11.9065
G01 X14.3571 Y-11.9207
G01 X14.3593 Y-11.9353
G01 X14.3600 Y-11.9500
G00 X14.3600 Y-11.9500
G01 F60.00
G01 Z-0.8500
G01 F50.00
G01 X14.3593 Y-11.9647
G01 X14.3571 Y-11.9793
G01 X14.3535 Y-11.9935
G01 X14.3486 Y-12.0074
G01 X14.3423 Y-12.0207
G01 X14.3347 Y-12.0333
G01 X14.3260 Y-12.0452
G01 X14.3161 Y-12.0561
G01 X14.3052 Y-12.0660
G01 X14.2933 Y-12.0747
G01 X14.2807 Y-12.0823
G01 X14.2674 Y-12.0886
G01 X14.2535 Y-12.0935
G01 X14.2393 Y-12.0971
G01 X14.2247 Y-12.0993
G01 X14.2100 Y-12.1000
G01 X14.1953 Y-12.0993
G01 X14.1807 Y-12.0971
G01 X14.1665 Y-12.0935
G01 X14.1526 Y-12.0886
G01 X14.1393 Y-12.0823
G01 X14.1267 Y-12.0747
G01 X14.1148 Y-12.0660
G01 X14.1039 Y-12.0561
G01 X14.0940 Y-12.0452
G01 X14.0853 Y-12.0333
G01 X14.0777 Y-12.0207
G01 X14.0714 Y-12.0074
G01 X14.0665 Y-11.9935
G01 X14.0629 Y-11.9793
G01 X14.0607 Y-11.9647
G01 X14.0600 Y-11.9500
G01 X14.0607 Y-11.9353
G01 X14.0629 Y-11.9207
G01 X14.0665 Y-11.9065
G01 X14.0714 Y-11.8926
G01 X14.0777 Y-11.8793
G01 X14.0853 Y-11.8667
G01 X14.0940 Y-11.8548
G01 X14.1039 Y-11.8439
G01 X14.1148 Y-11.8340
G01 X14.1267 Y-11.8253
G01 X14.1393 Y-11.8177
G01 X14.1526 Y-11.8114
G01 X14.1665 Y-11.8065
G01 X14.1807 Y-11.8029
G01 X14.1953 Y-11.8007
G01 X14.2100 Y-11.8000
G01 X14.2247 Y-11.8007
G01 X14.2393 Y-11.8029
G01 X14.2535 Y-11.8065
G01 X14.2674 Y-11.8114
G01 X14.2807 Y-11.8177
G01 X14.2933 Y-11.8253
G01 X14.3052 Y-11.8340
G01 X14.3161 Y-11.8439
G01 X14.3260 Y-11.8548
G01 X14.3347 Y-11.8667
G01 X14.3423 Y-11.8793
G01 X14.3486 Y-11.8926
G01 X14.3535 Y-11.9065
G01 X14.3571 Y-11.9207
G01 X14.3593 Y-11.9353
G01 X14.3600 Y-11.9500
G00 X14.3600 Y-11.9500
G01 F60.00
G01 Z-0.9000
G01 F50.00
G01 X14.3593 Y-11.9647
G01 X14.3571 Y-11.9793
G01 X14.3535 Y-11.9935
G01 X14.3486 Y-12.0074
G01 X14.3423 Y-12.0207
G01 X14.3347 Y-12.0333
G01 X14.3260 Y-12.0452
G01 X14.3161 Y-12.0561
G01 X14.3052 Y-12.0660
G01 X14.2933 Y-12.0747
G01 X14.2807 Y-12.0823
G01 X14.2674 Y-12.0886
G01 X14.2535 Y-12.0935
G01 X14.2393 Y-12.0971
G01 X14.2247 Y-12.0993
G01 X14.2100 Y-12.1000
G01 X14.1953 Y-12.0993
G01 X14.1807 Y-12.0971
G01 X14.1665 Y-12.0935
G01 X14.1526 Y-12.0886
G01 X14.1393 Y-12.0823
G01 X14.1267 Y-12.0747
G01 X14.1148 Y-12.0660
G01 X14.1039 Y-12.0561
G01 X14.0940 Y-12.0452
G01 X14.0853 Y-12.0333
G01 X14.0777 Y-12.0207
G01 X14.0714 Y-12.0074
G01 X14.0665 Y-11.9935
G01 X14.0629 Y-11.9793
G01 X14.0607 Y-11.9647
G01 X14.0600 Y-11.9500
G01 X14.0607 Y-11.9353
G01 X14.0629 Y-11.9207
G01 X14.0665 Y-11.9065
G01 X14.0714 Y-11.8926
G01 X14.0777 Y-11.8793
G01 X14.0853 Y-11.8667
G01 X14.0940 Y-11.8548
G01 X14.1039 Y-11.8439
G01 X14.1148 Y-11.8340
G01 X14.1267 Y-11.8253
G01 X14.1393 Y-11.8177
G01 X14.1526 Y-11.8114
G01 X14.1665 Y-11.8065
G01 X14.1807 Y-11.8029
G01 X14.1953 Y-11.8007
G01 X14.2100 Y-11.8000
G01 X14.2247 Y-11.8007
G01 X14.2393 Y-11.8029
G01 X14.2535 Y-11.8065
G01 X14.2674 Y-11.8114
G01 X14.2807 Y-11.8177
G01 X14.2933 Y-11.8253
G01 X14.3052 Y-11.8340
G01 X14.3161 Y-11.8439
G01 X14.3260 Y-11.8548
G01 X14.3347 Y-11.8667
G01 X14.3423 Y-11.8793
G01 X14.3486 Y-11.8926
G01 X14.3535 Y-11.9065
G01 X14.3571 Y-11.9207
G01 X14.3593 Y-11.9353
G01 X14.3600 Y-11.9500
G00 X14.3600 Y-11.9500
G01 F60.00
G01 Z-0.9500
G01 F50.00
G01 X14.3593 Y-11.9647
G01 X14.3571 Y-11.9793
G01 X14.3535 Y-11.9935
G01 X14.3486 Y-12.0074
G01 X14.3423 Y-12.0207
G01 X14.3347 Y-12.0333
G01 X14.3260 Y-12.0452
G01 X14.3161 Y-12.0561
G01 X14.3052 Y-12.0660
G01 X14.2933 Y-12.0747
G01 X14.2807 Y-12.0823
G01 X14.2674 Y-12.0886
G01 X14.2535 Y-12.0935
G01 X14.2393 Y-12.0971
G01 X14.2247 Y-12.0993
G01 X14.2100 Y-12.1000
G01 X14.1953 Y-12.0993
G01 X14.1807 Y-12.0971
G01 X14.1665 Y-12.0935
G01 X14.1526 Y-12.0886
G01 X14.1393 Y-12.0823
G01 X14.1267 Y-12.0747
G01 X14.1148 Y-12.0660
G01 X14.1039 Y-12.0561
G01 X14.0940 Y-12.0452
G01 X14.0853 Y-12.0333
G01 X14.0777 Y-12.0207
G01 X14.0714 Y-12.0074
G01 X14.0665 Y-11.9935
G01 X14.0629 Y-11.9793
G01 X14.0607 Y-11.9647
G01 X14.0600 Y-11.9500
G01 X14.0607 Y-11.9353
G01 X14.0629 Y-11.9207
G01 X14.0665 Y-11.9065
G01 X14.0714 Y-11.8926
G01 X14.0777 Y-11.8793
G01 X14.0853 Y-11.8667
G01 X14.0940 Y-11.8548
G01 X14.1039 Y-11.8439
G01 X14.1148 Y-11.8340
G01 X14.1267 Y-11.8253
G01 X14.1393 Y-11.8177
G01 X14.1526 Y-11.8114
G01 X14.1665 Y-11.8065
G01 X14.1807 Y-11.8029
G01 X14.1953 Y-11.8007
G01 X14.2100 Y-11.8000
G01 X14.2247 Y-11.8007
G01 X14.2393 Y-11.8029
G01 X14.2535 Y-11.8065
G01 X14.2674 Y-11.8114
G01 X14.2807 Y-11.8177
G01 X14.2933 Y-11.8253
G01 X14.3052 Y-11.8340
G01 X14.3161 Y-11.8439
G01 X14.3260 Y-11.8548
G01 X14.3347 Y-11.8667
G01 X14.3423 Y-11.8793
G01 X14.3486 Y-11.8926
G01 X14.3535 Y-11.9065
G01 X14.3571 Y-11.9207
G01 X14.3593 Y-11.9353
G01 X14.3600 Y-11.9500
G00 X14.3600 Y-11.9500
G01 F60.00
G01 Z-1.0000
G01 F50.00
G01 X14.3593 Y-11.9647
G01 X14.3571 Y-11.9793
G01 X14.3535 Y-11.9935
G01 X14.3486 Y-12.0074
G01 X14.3423 Y-12.0207
G01 X14.3347 Y-12.0333
G01 X14.3260 Y-12.0452
G01 X14.3161 Y-12.0561
G01 X14.3052 Y-12.0660
G01 X14.2933 Y-12.0747
G01 X14.2807 Y-12.0823
G01 X14.2674 Y-12.0886
G01 X14.2535 Y-12.0935
G01 X14.2393 Y-12.0971
G01 X14.2247 Y-12.0993
G01 X14.2100 Y-12.1000
G01 X14.1953 Y-12.0993
G01 X14.1807 Y-12.0971
G01 X14.1665 Y-12.0935
G01 X14.1526 Y-12.0886
G01 X14.1393 Y-12.0823
G01 X14.1267 Y-12.0747
G01 X14.1148 Y-12.0660
G01 X14.1039 Y-12.0561
G01 X14.0940 Y-12.0452
G01 X14.0853 Y-12.0333
G01 X14.0777 Y-12.0207
G01 X14.0714 Y-12.0074
G01 X14.0665 Y-11.9935
G01 X14.0629 Y-11.9793
G01 X14.0607 Y-11.9647
G01 X14.0600 Y-11.9500
G01 X14.0607 Y-11.9353
G01 X14.0629 Y-11.9207
G01 X14.0665 Y-11.9065
G01 X14.0714 Y-11.8926
G01 X14.0777 Y-11.8793
G01 X14.0853 Y-11.8667
G01 X14.0940 Y-11.8548
G01 X14.1039 Y-11.8439
G01 X14.1148 Y-11.8340
G01 X14.1267 Y-11.8253
G01 X14.1393 Y-11.8177
G01 X14.1526 Y-11.8114
G01 X14.1665 Y-11.8065
G01 X14.1807 Y-11.8029
G01 X14.1953 Y-11.8007
G01 X14.2100 Y-11.8000
G01 X14.2247 Y-11.8007
G01 X14.2393 Y-11.8029
G01 X14.2535 Y-11.8065
G01 X14.2674 Y-11.8114
G01 X14.2807 Y-11.8177
G01 X14.2933 Y-11.8253
G01 X14.3052 Y-11.8340
G01 X14.3161 Y-11.8439
G01 X14.3260 Y-11.8548
G01 X14.3347 Y-11.8667
G01 X14.3423 Y-11.8793
G01 X14.3486 Y-11.8926
G01 X14.3535 Y-11.9065
G01 X14.3571 Y-11.9207
G01 X14.3593 Y-11.9353
G01 X14.3600 Y-11.9500
G00 X14.3600 Y-11.9500
G01 F60.00
G01 Z-1.0500
G01 F50.00
G01 X14.3593 Y-11.9647
G01 X14.3571 Y-11.9793
G01 X14.3535 Y-11.9935
G01 X14.3486 Y-12.0074
G01 X14.3423 Y-12.0207
G01 X14.3347 Y-12.0333
G01 X14.3260 Y-12.0452
G01 X14.3161 Y-12.0561
G01 X14.3052 Y-12.0660
G01 X14.2933 Y-12.0747
G01 X14.2807 Y-12.0823
G01 X14.2674 Y-12.0886
G01 X14.2535 Y-12.0935
G01 X14.2393 Y-12.0971
G01 X14.2247 Y-12.0993
G01 X14.2100 Y-12.1000
G01 X14.1953 Y-12.0993
G01 X14.1807 Y-12.0971
G01 X14.1665 Y-12.0935
G01 X14.1526 Y-12.0886
G01 X14.1393 Y-12.0823
G01 X14.1267 Y-12.0747
G01 X14.1148 Y-12.0660
G01 X14.1039 Y-12.0561
G01 X14.0940 Y-12.0452
G01 X14.0853 Y-12.0333
G01 X14.0777 Y-12.0207
G01 X14.0714 Y-12.0074
G01 X14.0665 Y-11.9935
G01 X14.0629 Y-11.9793
G01 X14.0607 Y-11.9647
G01 X14.0600 Y-11.9500
G01 X14.0607 Y-11.9353
G01 X14.0629 Y-11.9207
G01 X14.0665 Y-11.9065
G01 X14.0714 Y-11.8926
G01 X14.0777 Y-11.8793
G01 X14.0853 Y-11.8667
G01 X14.0940 Y-11.8548
G01 X14.1039 Y-11.8439
G01 X14.1148 Y-11.8340
G01 X14.1267 Y-11.8253
G01 X14.1393 Y-11.8177
G01 X14.1526 Y-11.8114
G01 X14.1665 Y-11.8065
G01 X14.1807 Y-11.8029
G01 X14.1953 Y-11.8007
G01 X14.2100 Y-11.8000
G01 X14.2247 Y-11.8007
G01 X14.2393 Y-11.8029
G01 X14.2535 Y-11.8065
G01 X14.2674 Y-11.8114
G01 X14.2807 Y-11.8177
G01 X14.2933 Y-11.8253
G01 X14.3052 Y-11.8340
G01 X14.3161 Y-11.8439
G01 X14.3260 Y-11.8548
G01 X14.3347 Y-11.8667
G01 X14.3423 Y-11.8793
G01 X14.3486 Y-11.8926
G01 X14.3535 Y-11.9065
G01 X14.3571 Y-11.9207
G01 X14.3593 Y-11.9353
G01 X14.3600 Y-11.9500
G00 X14.3600 Y-11.9500
G01 F60.00
G01 Z-1.1000
G01 F50.00
G01 X14.3593 Y-11.9647
G01 X14.3571 Y-11.9793
G01 X14.3535 Y-11.9935
G01 X14.3486 Y-12.0074
G01 X14.3423 Y-12.0207
G01 X14.3347 Y-12.0333
G01 X14.3260 Y-12.0452
G01 X14.3161 Y-12.0561
G01 X14.3052 Y-12.0660
G01 X14.2933 Y-12.0747
G01 X14.2807 Y-12.0823
G01 X14.2674 Y-12.0886
G01 X14.2535 Y-12.0935
G01 X14.2393 Y-12.0971
G01 X14.2247 Y-12.0993
G01 X14.2100 Y-12.1000
G01 X14.1953 Y-12.0993
G01 X14.1807 Y-12.0971
G01 X14.1665 Y-12.0935
G01 X14.1526 Y-12.0886
G01 X14.1393 Y-12.0823
G01 X14.1267 Y-12.0747
G01 X14.1148 Y-12.0660
G01 X14.1039 Y-12.0561
G01 X14.0940 Y-12.0452
G01 X14.0853 Y-12.0333
G01 X14.0777 Y-12.0207
G01 X14.0714 Y-12.0074
G01 X14.0665 Y-11.9935
G01 X14.0629 Y-11.9793
G01 X14.0607 Y-11.9647
G01 X14.0600 Y-11.9500
G01 X14.0607 Y-11.9353
G01 X14.0629 Y-11.9207
G01 X14.0665 Y-11.9065
G01 X14.0714 Y-11.8926
G01 X14.0777 Y-11.8793
G01 X14.0853 Y-11.8667
G01 X14.0940 Y-11.8548
G01 X14.1039 Y-11.8439
G01 X14.1148 Y-11.8340
G01 X14.1267 Y-11.8253
G01 X14.1393 Y-11.8177
G01 X14.1526 Y-11.8114
G01 X14.1665 Y-11.8065
G01 X14.1807 Y-11.8029
G01 X14.1953 Y-11.8007
G01 X14.2100 Y-11.8000
G01 X14.2247 Y-11.8007
G01 X14.2393 Y-11.8029
G01 X14.2535 Y-11.8065
G01 X14.2674 Y-11.8114
G01 X14.2807 Y-11.8177
G01 X14.2933 Y-11.8253
G01 X14.3052 Y-11.8340
G01 X14.3161 Y-11.8439
G01 X14.3260 Y-11.8548
G01 X14.3347 Y-11.8667
G01 X14.3423 Y-11.8793
G01 X14.3486 Y-11.8926
G01 X14.3535 Y-11.9065
G01 X14.3571 Y-11.9207
G01 X14.3593 Y-11.9353
G01 X14.3600 Y-11.9500
G00 X14.3600 Y-11.9500
G01 F60.00
G01 Z-1.1500
G01 F50.00
G01 X14.3593 Y-11.9647
G01 X14.3571 Y-11.9793
G01 X14.3535 Y-11.9935
G01 X14.3486 Y-12.0074
G01 X14.3423 Y-12.0207
G01 X14.3347 Y-12.0333
G01 X14.3260 Y-12.0452
G01 X14.3161 Y-12.0561
G01 X14.3052 Y-12.0660
G01 X14.2933 Y-12.0747
G01 X14.2807 Y-12.0823
G01 X14.2674 Y-12.0886
G01 X14.2535 Y-12.0935
G01 X14.2393 Y-12.0971
G01 X14.2247 Y-12.0993
G01 X14.2100 Y-12.1000
G01 X14.1953 Y-12.0993
G01 X14.1807 Y-12.0971
G01 X14.1665 Y-12.0935
G01 X14.1526 Y-12.0886
G01 X14.1393 Y-12.0823
G01 X14.1267 Y-12.0747
G01 X14.1148 Y-12.0660
G01 X14.1039 Y-12.0561
G01 X14.0940 Y-12.0452
G01 X14.0853 Y-12.0333
G01 X14.0777 Y-12.0207
G01 X14.0714 Y-12.0074
G01 X14.0665 Y-11.9935
G01 X14.0629 Y-11.9793
G01 X14.0607 Y-11.9647
G01 X14.0600 Y-11.9500
G01 X14.0607 Y-11.9353
G01 X14.0629 Y-11.9207
G01 X14.0665 Y-11.9065
G01 X14.0714 Y-11.8926
G01 X14.0777 Y-11.8793
G01 X14.0853 Y-11.8667
G01 X14.0940 Y-11.8548
G01 X14.1039 Y-11.8439
G01 X14.1148 Y-11.8340
G01 X14.1267 Y-11.8253
G01 X14.1393 Y-11.8177
G01 X14.1526 Y-11.8114
G01 X14.1665 Y-11.8065
G01 X14.1807 Y-11.8029
G01 X14.1953 Y-11.8007
G01 X14.2100 Y-11.8000
G01 X14.2247 Y-11.8007
G01 X14.2393 Y-11.8029
G01 X14.2535 Y-11.8065
G01 X14.2674 Y-11.8114
G01 X14.2807 Y-11.8177
G01 X14.2933 Y-11.8253
G01 X14.3052 Y-11.8340
G01 X14.3161 Y-11.8439
G01 X14.3260 Y-11.8548
G01 X14.3347 Y-11.8667
G01 X14.3423 Y-11.8793
G01 X14.3486 Y-11.8926
G01 X14.3535 Y-11.9065
G01 X14.3571 Y-11.9207
G01 X14.3593 Y-11.9353
G01 X14.3600 Y-11.9500
G00 X14.3600 Y-11.9500
G01 F60.00
G01 Z-1.2000
G01 F50.00
G01 X14.3593 Y-11.9647
G01 X14.3571 Y-11.9793
G01 X14.3535 Y-11.9935
G01 X14.3486 Y-12.0074
G01 X14.3423 Y-12.0207
G01 X14.3347 Y-12.0333
G01 X14.3260 Y-12.0452
G01 X14.3161 Y-12.0561
G01 X14.3052 Y-12.0660
G01 X14.2933 Y-12.0747
G01 X14.2807 Y-12.0823
G01 X14.2674 Y-12.0886
G01 X14.2535 Y-12.0935
G01 X14.2393 Y-12.0971
G01 X14.2247 Y-12.0993
G01 X14.2100 Y-12.1000
G01 X14.1953 Y-12.0993
G01 X14.1807 Y-12.0971
G01 X14.1665 Y-12.0935
G01 X14.1526 Y-12.0886
G01 X14.1393 Y-12.0823
G01 X14.1267 Y-12.0747
G01 X14.1148 Y-12.0660
G01 X14.1039 Y-12.0561
G01 X14.0940 Y-12.0452
G01 X14.0853 Y-12.0333
G01 X14.0777 Y-12.0207
G01 X14.0714 Y-12.0074
G01 X14.0665 Y-11.9935
G01 X14.0629 Y-11.9793
G01 X14.0607 Y-11.9647
G01 X14.0600 Y-11.9500
G01 X14.0607 Y-11.9353
G01 X14.0629 Y-11.9207
G01 X14.0665 Y-11.9065
G01 X14.0714 Y-11.8926
G01 X14.0777 Y-11.8793
G01 X14.0853 Y-11.8667
G01 X14.0940 Y-11.8548
G01 X14.1039 Y-11.8439
G01 X14.1148 Y-11.8340
G01 X14.1267 Y-11.8253
G01 X14.1393 Y-11.8177
G01 X14.1526 Y-11.8114
G01 X14.1665 Y-11.8065
G01 X14.1807 Y-11.8029
G01 X14.1953 Y-11.8007
G01 X14.2100 Y-11.8000
G01 X14.2247 Y-11.8007
G01 X14.2393 Y-11.8029
G01 X14.2535 Y-11.8065
G01 X14.2674 Y-11.8114
G01 X14.2807 Y-11.8177
G01 X14.2933 Y-11.8253
G01 X14.3052 Y-11.8340
G01 X14.3161 Y-11.8439
G01 X14.3260 Y-11.8548
G01 X14.3347 Y-11.8667
G01 X14.3423 Y-11.8793
G01 X14.3486 Y-11.8926
G01 X14.3535 Y-11.9065
G01 X14.3571 Y-11.9207
G01 X14.3593 Y-11.9353
G01 X14.3600 Y-11.9500
G00 X14.3600 Y-11.9500
G01 F60.00
G01 Z-1.2500
G01 F50.00
G01 X14.3593 Y-11.9647
G01 X14.3571 Y-11.9793
G01 X14.3535 Y-11.9935
G01 X14.3486 Y-12.0074
G01 X14.3423 Y-12.0207
G01 X14.3347 Y-12.0333
G01 X14.3260 Y-12.0452
G01 X14.3161 Y-12.0561
G01 X14.3052 Y-12.0660
G01 X14.2933 Y-12.0747
G01 X14.2807 Y-12.0823
G01 X14.2674 Y-12.0886
G01 X14.2535 Y-12.0935
G01 X14.2393 Y-12.0971
G01 X14.2247 Y-12.0993
G01 X14.2100 Y-12.1000
G01 X14.1953 Y-12.0993
G01 X14.1807 Y-12.0971
G01 X14.1665 Y-12.0935
G01 X14.1526 Y-12.0886
G01 X14.1393 Y-12.0823
G01 X14.1267 Y-12.0747
G01 X14.1148 Y-12.0660
G01 X14.1039 Y-12.0561
G01 X14.0940 Y-12.0452
G01 X14.0853 Y-12.0333
G01 X14.0777 Y-12.0207
G01 X14.0714 Y-12.0074
G01 X14.0665 Y-11.9935
G01 X14.0629 Y-11.9793
G01 X14.0607 Y-11.9647
G01 X14.0600 Y-11.9500
G01 X14.0607 Y-11.9353
G01 X14.0629 Y-11.9207
G01 X14.0665 Y-11.9065
G01 X14.0714 Y-11.8926
G01 X14.0777 Y-11.8793
G01 X14.0853 Y-11.8667
G01 X14.0940 Y-11.8548
G01 X14.1039 Y-11.8439
G01 X14.1148 Y-11.8340
G01 X14.1267 Y-11.8253
G01 X14.1393 Y-11.8177
G01 X14.1526 Y-11.8114
G01 X14.1665 Y-11.8065
G01 X14.1807 Y-11.8029
G01 X14.1953 Y-11.8007
G01 X14.2100 Y-11.8000
G01 X14.2247 Y-11.8007
G01 X14.2393 Y-11.8029
G01 X14.2535 Y-11.8065
G01 X14.2674 Y-11.8114
G01 X14.2807 Y-11.8177
G01 X14.2933 Y-11.8253
G01 X14.3052 Y-11.8340
G01 X14.3161 Y-11.8439
G01 X14.3260 Y-11.8548
G01 X14.3347 Y-11.8667
G01 X14.3423 Y-11.8793
G01 X14.3486 Y-11.8926
G01 X14.3535 Y-11.9065
G01 X14.3571 Y-11.9207
G01 X14.3593 Y-11.9353
G01 X14.3600 Y-11.9500
G00 X14.3600 Y-11.9500
G01 F60.00
G01 Z-1.3000
G01 F50.00
G01 X14.3593 Y-11.9647
G01 X14.3571 Y-11.9793
G01 X14.3535 Y-11.9935
G01 X14.3486 Y-12.0074
G01 X14.3423 Y-12.0207
G01 X14.3347 Y-12.0333
G01 X14.3260 Y-12.0452
G01 X14.3161 Y-12.0561
G01 X14.3052 Y-12.0660
G01 X14.2933 Y-12.0747
G01 X14.2807 Y-12.0823
G01 X14.2674 Y-12.0886
G01 X14.2535 Y-12.0935
G01 X14.2393 Y-12.0971
G01 X14.2247 Y-12.0993
G01 X14.2100 Y-12.1000
G01 X14.1953 Y-12.0993
G01 X14.1807 Y-12.0971
G01 X14.1665 Y-12.0935
G01 X14.1526 Y-12.0886
G01 X14.1393 Y-12.0823
G01 X14.1267 Y-12.0747
G01 X14.1148 Y-12.0660
G01 X14.1039 Y-12.0561
G01 X14.0940 Y-12.0452
G01 X14.0853 Y-12.0333
G01 X14.0777 Y-12.0207
G01 X14.0714 Y-12.0074
G01 X14.0665 Y-11.9935
G01 X14.0629 Y-11.9793
G01 X14.0607 Y-11.9647
G01 X14.0600 Y-11.9500
G01 X14.0607 Y-11.9353
G01 X14.0629 Y-11.9207
G01 X14.0665 Y-11.9065
G01 X14.0714 Y-11.8926
G01 X14.0777 Y-11.8793
G01 X14.0853 Y-11.8667
G01 X14.0940 Y-11.8548
G01 X14.1039 Y-11.8439
G01 X14.1148 Y-11.8340
G01 X14.1267 Y-11.8253
G01 X14.1393 Y-11.8177
G01 X14.1526 Y-11.8114
G01 X14.1665 Y-11.8065
G01 X14.1807 Y-11.8029
G01 X14.1953 Y-11.8007
G01 X14.2100 Y-11.8000
G01 X14.2247 Y-11.8007
G01 X14.2393 Y-11.8029
G01 X14.2535 Y-11.8065
G01 X14.2674 Y-11.8114
G01 X14.2807 Y-11.8177
G01 X14.2933 Y-11.8253
G01 X14.3052 Y-11.8340
G01 X14.3161 Y-11.8439
G01 X14.3260 Y-11.8548
G01 X14.3347 Y-11.8667
G01 X14.3423 Y-11.8793
G01 X14.3486 Y-11.8926
G01 X14.3535 Y-11.9065
G01 X14.3571 Y-11.9207
G01 X14.3593 Y-11.9353
G01 X14.3600 Y-11.9500
G00 X14.3600 Y-11.9500
G01 F60.00
G01 Z-1.3500
G01 F50.00
G01 X14.3593 Y-11.9647
G01 X14.3571 Y-11.9793
G01 X14.3535 Y-11.9935
G01 X14.3486 Y-12.0074
G01 X14.3423 Y-12.0207
G01 X14.3347 Y-12.0333
G01 X14.3260 Y-12.0452
G01 X14.3161 Y-12.0561
G01 X14.3052 Y-12.0660
G01 X14.2933 Y-12.0747
G01 X14.2807 Y-12.0823
G01 X14.2674 Y-12.0886
G01 X14.2535 Y-12.0935
G01 X14.2393 Y-12.0971
G01 X14.2247 Y-12.0993
G01 X14.2100 Y-12.1000
G01 X14.1953 Y-12.0993
G01 X14.1807 Y-12.0971
G01 X14.1665 Y-12.0935
G01 X14.1526 Y-12.0886
G01 X14.1393 Y-12.0823
G01 X14.1267 Y-12.0747
G01 X14.1148 Y-12.0660
G01 X14.1039 Y-12.0561
G01 X14.0940 Y-12.0452
G01 X14.0853 Y-12.0333
G01 X14.0777 Y-12.0207
G01 X14.0714 Y-12.0074
G01 X14.0665 Y-11.9935
G01 X14.0629 Y-11.9793
G01 X14.0607 Y-11.9647
G01 X14.0600 Y-11.9500
G01 X14.0607 Y-11.9353
G01 X14.0629 Y-11.9207
G01 X14.0665 Y-11.9065
G01 X14.0714 Y-11.8926
G01 X14.0777 Y-11.8793
G01 X14.0853 Y-11.8667
G01 X14.0940 Y-11.8548
G01 X14.1039 Y-11.8439
G01 X14.1148 Y-11.8340
G01 X14.1267 Y-11.8253
G01 X14.1393 Y-11.8177
G01 X14.1526 Y-11.8114
G01 X14.1665 Y-11.8065
G01 X14.1807 Y-11.8029
G01 X14.1953 Y-11.8007
G01 X14.2100 Y-11.8000
G01 X14.2247 Y-11.8007
G01 X14.2393 Y-11.8029
G01 X14.2535 Y-11.8065
G01 X14.2674 Y-11.8114
G01 X14.2807 Y-11.8177
G01 X14.2933 Y-11.8253
G01 X14.3052 Y-11.8340
G01 X14.3161 Y-11.8439
G01 X14.3260 Y-11.8548
G01 X14.3347 Y-11.8667
G01 X14.3423 Y-11.8793
G01 X14.3486 Y-11.8926
G01 X14.3535 Y-11.9065
G01 X14.3571 Y-11.9207
G01 X14.3593 Y-11.9353
G01 X14.3600 Y-11.9500
G00 X14.3600 Y-11.9500
G01 F60.00
G01 Z-1.4000
G01 F50.00
G01 X14.3593 Y-11.9647
G01 X14.3571 Y-11.9793
G01 X14.3535 Y-11.9935
G01 X14.3486 Y-12.0074
G01 X14.3423 Y-12.0207
G01 X14.3347 Y-12.0333
G01 X14.3260 Y-12.0452
G01 X14.3161 Y-12.0561
G01 X14.3052 Y-12.0660
G01 X14.2933 Y-12.0747
G01 X14.2807 Y-12.0823
G01 X14.2674 Y-12.0886
G01 X14.2535 Y-12.0935
G01 X14.2393 Y-12.0971
G01 X14.2247 Y-12.0993
G01 X14.2100 Y-12.1000
G01 X14.1953 Y-12.0993
G01 X14.1807 Y-12.0971
G01 X14.1665 Y-12.0935
G01 X14.1526 Y-12.0886
G01 X14.1393 Y-12.0823
G01 X14.1267 Y-12.0747
G01 X14.1148 Y-12.0660
G01 X14.1039 Y-12.0561
G01 X14.0940 Y-12.0452
G01 X14.0853 Y-12.0333
G01 X14.0777 Y-12.0207
G01 X14.0714 Y-12.0074
G01 X14.0665 Y-11.9935
G01 X14.0629 Y-11.9793
G01 X14.0607 Y-11.9647
G01 X14.0600 Y-11.9500
G01 X14.0607 Y-11.9353
G01 X14.0629 Y-11.9207
G01 X14.0665 Y-11.9065
G01 X14.0714 Y-11.8926
G01 X14.0777 Y-11.8793
G01 X14.0853 Y-11.8667
G01 X14.0940 Y-11.8548
G01 X14.1039 Y-11.8439
G01 X14.1148 Y-11.8340
G01 X14.1267 Y-11.8253
G01 X14.1393 Y-11.8177
G01 X14.1526 Y-11.8114
G01 X14.1665 Y-11.8065
G01 X14.1807 Y-11.8029
G01 X14.1953 Y-11.8007
G01 X14.2100 Y-11.8000
G01 X14.2247 Y-11.8007
G01 X14.2393 Y-11.8029
G01 X14.2535 Y-11.8065
G01 X14.2674 Y-11.8114
G01 X14.2807 Y-11.8177
G01 X14.2933 Y-11.8253
G01 X14.3052 Y-11.8340
G01 X14.3161 Y-11.8439
G01 X14.3260 Y-11.8548
G01 X14.3347 Y-11.8667
G01 X14.3423 Y-11.8793
G01 X14.3486 Y-11.8926
G01 X14.3535 Y-11.9065
G01 X14.3571 Y-11.9207
G01 X14.3593 Y-11.9353
G01 X14.3600 Y-11.9500
G00 X14.3600 Y-11.9500
G01 F60.00
G01 Z-1.4500
G01 F50.00
G01 X14.3593 Y-11.9647
G01 X14.3571 Y-11.9793
G01 X14.3535 Y-11.9935
G01 X14.3486 Y-12.0074
G01 X14.3423 Y-12.0207
G01 X14.3347 Y-12.0333
G01 X14.3260 Y-12.0452
G01 X14.3161 Y-12.0561
G01 X14.3052 Y-12.0660
G01 X14.2933 Y-12.0747
G01 X14.2807 Y-12.0823
G01 X14.2674 Y-12.0886
G01 X14.2535 Y-12.0935
G01 X14.2393 Y-12.0971
G01 X14.2247 Y-12.0993
G01 X14.2100 Y-12.1000
G01 X14.1953 Y-12.0993
G01 X14.1807 Y-12.0971
G01 X14.1665 Y-12.0935
G01 X14.1526 Y-12.0886
G01 X14.1393 Y-12.0823
G01 X14.1267 Y-12.0747
G01 X14.1148 Y-12.0660
G01 X14.1039 Y-12.0561
G01 X14.0940 Y-12.0452
G01 X14.0853 Y-12.0333
G01 X14.0777 Y-12.0207
G01 X14.0714 Y-12.0074
G01 X14.0665 Y-11.9935
G01 X14.0629 Y-11.9793
G01 X14.0607 Y-11.9647
G01 X14.0600 Y-11.9500
G01 X14.0607 Y-11.9353
G01 X14.0629 Y-11.9207
G01 X14.0665 Y-11.9065
G01 X14.0714 Y-11.8926
G01 X14.0777 Y-11.8793
G01 X14.0853 Y-11.8667
G01 X14.0940 Y-11.8548
G01 X14.1039 Y-11.8439
G01 X14.1148 Y-11.8340
G01 X14.1267 Y-11.8253
G01 X14.1393 Y-11.8177
G01 X14.1526 Y-11.8114
G01 X14.1665 Y-11.8065
G01 X14.1807 Y-11.8029
G01 X14.1953 Y-11.8007
G01 X14.2100 Y-11.8000
G01 X14.2247 Y-11.8007
G01 X14.2393 Y-11.8029
G01 X14.2535 Y-11.8065
G01 X14.2674 Y-11.8114
G01 X14.2807 Y-11.8177
G01 X14.2933 Y-11.8253
G01 X14.3052 Y-11.8340
G01 X14.3161 Y-11.8439
G01 X14.3260 Y-11.8548
G01 X14.3347 Y-11.8667
G01 X14.3423 Y-11.8793
G01 X14.3486 Y-11.8926
G01 X14.3535 Y-11.9065
G01 X14.3571 Y-11.9207
G01 X14.3593 Y-11.9353
G01 X14.3600 Y-11.9500
G00 X14.3600 Y-11.9500
G01 F60.00
G01 Z-1.5000
G01 F50.00
G01 X14.3593 Y-11.9647
G01 X14.3571 Y-11.9793
G01 X14.3535 Y-11.9935
G01 X14.3486 Y-12.0074
G01 X14.3423 Y-12.0207
G01 X14.3347 Y-12.0333
G01 X14.3260 Y-12.0452
G01 X14.3161 Y-12.0561
G01 X14.3052 Y-12.0660
G01 X14.2933 Y-12.0747
G01 X14.2807 Y-12.0823
G01 X14.2674 Y-12.0886
G01 X14.2535 Y-12.0935
G01 X14.2393 Y-12.0971
G01 X14.2247 Y-12.0993
G01 X14.2100 Y-12.1000
G01 X14.1953 Y-12.0993
G01 X14.1807 Y-12.0971
G01 X14.1665 Y-12.0935
G01 X14.1526 Y-12.0886
G01 X14.1393 Y-12.0823
G01 X14.1267 Y-12.0747
G01 X14.1148 Y-12.0660
G01 X14.1039 Y-12.0561
G01 X14.0940 Y-12.0452
G01 X14.0853 Y-12.0333
G01 X14.0777 Y-12.0207
G01 X14.0714 Y-12.0074
G01 X14.0665 Y-11.9935
G01 X14.0629 Y-11.9793
G01 X14.0607 Y-11.9647
G01 X14.0600 Y-11.9500
G01 X14.0607 Y-11.9353
G01 X14.0629 Y-11.9207
G01 X14.0665 Y-11.9065
G01 X14.0714 Y-11.8926
G01 X14.0777 Y-11.8793
G01 X14.0853 Y-11.8667
G01 X14.0940 Y-11.8548
G01 X14.1039 Y-11.8439
G01 X14.1148 Y-11.8340
G01 X14.1267 Y-11.8253
G01 X14.1393 Y-11.8177
G01 X14.1526 Y-11.8114
G01 X14.1665 Y-11.8065
G01 X14.1807 Y-11.8029
G01 X14.1953 Y-11.8007
G01 X14.2100 Y-11.8000
G01 X14.2247 Y-11.8007
G01 X14.2393 Y-11.8029
G01 X14.2535 Y-11.8065
G01 X14.2674 Y-11.8114
G01 X14.2807 Y-11.8177
G01 X14.2933 Y-11.8253
G01 X14.3052 Y-11.8340
G01 X14.3161 Y-11.8439
G01 X14.3260 Y-11.8548
G01 X14.3347 Y-11.8667
G01 X14.3423 Y-11.8793
G01 X14.3486 Y-11.8926
G01 X14.3535 Y-11.9065
G01 X14.3571 Y-11.9207
G01 X14.3593 Y-11.9353
G01 X14.3600 Y-11.9500
G00 X14.3600 Y-11.9500
G01 F60.00
G01 Z-1.5500
G01 F50.00
G01 X14.3593 Y-11.9647
G01 X14.3571 Y-11.9793
G01 X14.3535 Y-11.9935
G01 X14.3486 Y-12.0074
G01 X14.3423 Y-12.0207
G01 X14.3347 Y-12.0333
G01 X14.3260 Y-12.0452
G01 X14.3161 Y-12.0561
G01 X14.3052 Y-12.0660
G01 X14.2933 Y-12.0747
G01 X14.2807 Y-12.0823
G01 X14.2674 Y-12.0886
G01 X14.2535 Y-12.0935
G01 X14.2393 Y-12.0971
G01 X14.2247 Y-12.0993
G01 X14.2100 Y-12.1000
G01 X14.1953 Y-12.0993
G01 X14.1807 Y-12.0971
G01 X14.1665 Y-12.0935
G01 X14.1526 Y-12.0886
G01 X14.1393 Y-12.0823
G01 X14.1267 Y-12.0747
G01 X14.1148 Y-12.0660
G01 X14.1039 Y-12.0561
G01 X14.0940 Y-12.0452
G01 X14.0853 Y-12.0333
G01 X14.0777 Y-12.0207
G01 X14.0714 Y-12.0074
G01 X14.0665 Y-11.9935
G01 X14.0629 Y-11.9793
G01 X14.0607 Y-11.9647
G01 X14.0600 Y-11.9500
G01 X14.0607 Y-11.9353
G01 X14.0629 Y-11.9207
G01 X14.0665 Y-11.9065
G01 X14.0714 Y-11.8926
G01 X14.0777 Y-11.8793
G01 X14.0853 Y-11.8667
G01 X14.0940 Y-11.8548
G01 X14.1039 Y-11.8439
G01 X14.1148 Y-11.8340
G01 X14.1267 Y-11.8253
G01 X14.1393 Y-11.8177
G01 X14.1526 Y-11.8114
G01 X14.1665 Y-11.8065
G01 X14.1807 Y-11.8029
G01 X14.1953 Y-11.8007
G01 X14.2100 Y-11.8000
G01 X14.2247 Y-11.8007
G01 X14.2393 Y-11.8029
G01 X14.2535 Y-11.8065
G01 X14.2674 Y-11.8114
G01 X14.2807 Y-11.8177
G01 X14.2933 Y-11.8253
G01 X14.3052 Y-11.8340
G01 X14.3161 Y-11.8439
G01 X14.3260 Y-11.8548
G01 X14.3347 Y-11.8667
G01 X14.3423 Y-11.8793
G01 X14.3486 Y-11.8926
G01 X14.3535 Y-11.9065
G01 X14.3571 Y-11.9207
G01 X14.3593 Y-11.9353
G01 X14.3600 Y-11.9500
G00 X14.3600 Y-11.9500
G01 F60.00
G01 Z-1.6000
G01 F50.00
G01 X14.3593 Y-11.9647
G01 X14.3571 Y-11.9793
G01 X14.3535 Y-11.9935
G01 X14.3486 Y-12.0074
G01 X14.3423 Y-12.0207
G01 X14.3347 Y-12.0333
G01 X14.3260 Y-12.0452
G01 X14.3161 Y-12.0561
G01 X14.3052 Y-12.0660
G01 X14.2933 Y-12.0747
G01 X14.2807 Y-12.0823
G01 X14.2674 Y-12.0886
G01 X14.2535 Y-12.0935
G01 X14.2393 Y-12.0971
G01 X14.2247 Y-12.0993
G01 X14.2100 Y-12.1000
G01 X14.1953 Y-12.0993
G01 X14.1807 Y-12.0971
G01 X14.1665 Y-12.0935
G01 X14.1526 Y-12.0886
G01 X14.1393 Y-12.0823
G01 X14.1267 Y-12.0747
G01 X14.1148 Y-12.0660
G01 X14.1039 Y-12.0561
G01 X14.0940 Y-12.0452
G01 X14.0853 Y-12.0333
G01 X14.0777 Y-12.0207
G01 X14.0714 Y-12.0074
G01 X14.0665 Y-11.9935
G01 X14.0629 Y-11.9793
G01 X14.0607 Y-11.9647
G01 X14.0600 Y-11.9500
G01 X14.0607 Y-11.9353
G01 X14.0629 Y-11.9207
G01 X14.0665 Y-11.9065
G01 X14.0714 Y-11.8926
G01 X14.0777 Y-11.8793
G01 X14.0853 Y-11.8667
G01 X14.0940 Y-11.8548
G01 X14.1039 Y-11.8439
G01 X14.1148 Y-11.8340
G01 X14.1267 Y-11.8253
G01 X14.1393 Y-11.8177
G01 X14.1526 Y-11.8114
G01 X14.1665 Y-11.8065
G01 X14.1807 Y-11.8029
G01 X14.1953 Y-11.8007
G01 X14.2100 Y-11.8000
G01 X14.2247 Y-11.8007
G01 X14.2393 Y-11.8029
G01 X14.2535 Y-11.8065
G01 X14.2674 Y-11.8114
G01 X14.2807 Y-11.8177
G01 X14.2933 Y-11.8253
G01 X14.3052 Y-11.8340
G01 X14.3161 Y-11.8439
G01 X14.3260 Y-11.8548
G01 X14.3347 Y-11.8667
G01 X14.3423 Y-11.8793
G01 X14.3486 Y-11.8926
G01 X14.3535 Y-11.9065
G01 X14.3571 Y-11.9207
G01 X14.3593 Y-11.9353
G01 X14.3600 Y-11.9500
G00 Z2.0000
G00 X16.9000 Y-11.9500
G01 F60.00
G01 Z-0.0500
G01 F50.00
G01 X16.8993 Y-11.9647
G01 X16.8971 Y-11.9793
G01 X16.8935 Y-11.9935
G01 X16.8886 Y-12.0074
G01 X16.8823 Y-12.0207
G01 X16.8747 Y-12.0333
G01 X16.8660 Y-12.0452
G01 X16.8561 Y-12.0561
G01 X16.8452 Y-12.0660
G01 X16.8333 Y-12.0747
G01 X16.8207 Y-12.0823
G01 X16.8074 Y-12.0886
G01 X16.7935 Y-12.0935
G01 X16.7793 Y-12.0971
G01 X16.7647 Y-12.0993
G01 X16.7500 Y-12.1000
G01 X16.7353 Y-12.0993
G01 X16.7207 Y-12.0971
G01 X16.7065 Y-12.0935
G01 X16.6926 Y-12.0886
G01 X16.6793 Y-12.0823
G01 X16.6667 Y-12.0747
G01 X16.6548 Y-12.0660
G01 X16.6439 Y-12.0561
G01 X16.6340 Y-12.0452
G01 X16.6253 Y-12.0333
G01 X16.6177 Y-12.0207
G01 X16.6114 Y-12.0074
G01 X16.6065 Y-11.9935
G01 X16.6029 Y-11.9793
G01 X16.6007 Y-11.9647
G01 X16.6000 Y-11.9500
G01 X16.6007 Y-11.9353
G01 X16.6029 Y-11.9207
G01 X16.6065 Y-11.9065
G01 X16.6114 Y-11.8926
G01 X16.6177 Y-11.8793
G01 X16.6253 Y-11.8667
G01 X16.6340 Y-11.8548
G01 X16.6439 Y-11.8439
G01 X16.6548 Y-11.8340
G01 X16.6667 Y-11.8253
G01 X16.6793 Y-11.8177
G01 X16.6926 Y-11.8114
G01 X16.7065 Y-11.8065
G01 X16.7207 Y-11.8029
G01 X16.7353 Y-11.8007
G01 X16.7500 Y-11.8000
G01 X16.7647 Y-11.8007
G01 X16.7793 Y-11.8029
G01 X16.7935 Y-11.8065
G01 X16.8074 Y-11.8114
G01 X16.8207 Y-11.8177
G01 X16.8333 Y-11.8253
G01 X16.8452 Y-11.8340
G01 X16.8561 Y-11.8439
G01 X16.8660 Y-11.8548
G01 X16.8747 Y-11.8667
G01 X16.8823 Y-11.8793
G01 X16.8886 Y-11.8926
G01 X16.8935 Y-11.9065
G01 X16.8971 Y-11.9207
G01 X16.8993 Y-11.9353
G01 X16.9000 Y-11.9500
G00 X16.9000 Y-11.9500
G01 F60.00
G01 Z-0.1000
G01 F50.00
G01 X16.8993 Y-11.9647
G01 X16.8971 Y-11.9793
G01 X16.8935 Y-11.9935
G01 X16.8886 Y-12.0074
G01 X16.8823 Y-12.0207
G01 X16.8747 Y-12.0333
G01 X16.8660 Y-12.0452
G01 X16.8561 Y-12.0561
G01 X16.8452 Y-12.0660
G01 X16.8333 Y-12.0747
G01 X16.8207 Y-12.0823
G01 X16.8074 Y-12.0886
G01 X16.7935 Y-12.0935
G01 X16.7793 Y-12.0971
G01 X16.7647 Y-12.0993
G01 X16.7500 Y-12.1000
G01 X16.7353 Y-12.0993
G01 X16.7207 Y-12.0971
G01 X16.7065 Y-12.0935
G01 X16.6926 Y-12.0886
G01 X16.6793 Y-12.0823
G01 X16.6667 Y-12.0747
G01 X16.6548 Y-12.0660
G01 X16.6439 Y-12.0561
G01 X16.6340 Y-12.0452
G01 X16.6253 Y-12.0333
G01 X16.6177 Y-12.0207
G01 X16.6114 Y-12.0074
G01 X16.6065 Y-11.9935
G01 X16.6029 Y-11.9793
G01 X16.6007 Y-11.9647
G01 X16.6000 Y-11.9500
G01 X16.6007 Y-11.9353
G01 X16.6029 Y-11.9207
G01 X16.6065 Y-11.9065
G01 X16.6114 Y-11.8926
G01 X16.6177 Y-11.8793
G01 X16.6253 Y-11.8667
G01 X16.6340 Y-11.8548
G01 X16.6439 Y-11.8439
G01 X16.6548 Y-11.8340
G01 X16.6667 Y-11.8253
G01 X16.6793 Y-11.8177
G01 X16.6926 Y-11.8114
G01 X16.7065 Y-11.8065
G01 X16.7207 Y-11.8029
G01 X16.7353 Y-11.8007
G01 X16.7500 Y-11.8000
G01 X16.7647 Y-11.8007
G01 X16.7793 Y-11.8029
G01 X16.7935 Y-11.8065
G01 X16.8074 Y-11.8114
G01 X16.8207 Y-11.8177
G01 X16.8333 Y-11.8253
G01 X16.8452 Y-11.8340
G01 X16.8561 Y-11.8439
G01 X16.8660 Y-11.8548
G01 X16.8747 Y-11.8667
G01 X16.8823 Y-11.8793
G01 X16.8886 Y-11.8926
G01 X16.8935 Y-11.9065
G01 X16.8971 Y-11.9207
G01 X16.8993 Y-11.9353
G01 X16.9000 Y-11.9500
G00 X16.9000 Y-11.9500
G01 F60.00
G01 Z-0.1500
G01 F50.00
G01 X16.8993 Y-11.9647
G01 X16.8971 Y-11.9793
G01 X16.8935 Y-11.9935
G01 X16.8886 Y-12.0074
G01 X16.8823 Y-12.0207
G01 X16.8747 Y-12.0333
G01 X16.8660 Y-12.0452
G01 X16.8561 Y-12.0561
G01 X16.8452 Y-12.0660
G01 X16.8333 Y-12.0747
G01 X16.8207 Y-12.0823
G01 X16.8074 Y-12.0886
G01 X16.7935 Y-12.0935
G01 X16.7793 Y-12.0971
G01 X16.7647 Y-12.0993
G01 X16.7500 Y-12.1000
G01 X16.7353 Y-12.0993
G01 X16.7207 Y-12.0971
G01 X16.7065 Y-12.0935
G01 X16.6926 Y-12.0886
G01 X16.6793 Y-12.0823
G01 X16.6667 Y-12.0747
G01 X16.6548 Y-12.0660
G01 X16.6439 Y-12.0561
G01 X16.6340 Y-12.0452
G01 X16.6253 Y-12.0333
G01 X16.6177 Y-12.0207
G01 X16.6114 Y-12.0074
G01 X16.6065 Y-11.9935
G01 X16.6029 Y-11.9793
G01 X16.6007 Y-11.9647
G01 X16.6000 Y-11.9500
G01 X16.6007 Y-11.9353
G01 X16.6029 Y-11.9207
G01 X16.6065 Y-11.9065
G01 X16.6114 Y-11.8926
G01 X16.6177 Y-11.8793
G01 X16.6253 Y-11.8667
G01 X16.6340 Y-11.8548
G01 X16.6439 Y-11.8439
G01 X16.6548 Y-11.8340
G01 X16.6667 Y-11.8253
G01 X16.6793 Y-11.8177
G01 X16.6926 Y-11.8114
G01 X16.7065 Y-11.8065
G01 X16.7207 Y-11.8029
G01 X16.7353 Y-11.8007
G01 X16.7500 Y-11.8000
G01 X16.7647 Y-11.8007
G01 X16.7793 Y-11.8029
G01 X16.7935 Y-11.8065
G01 X16.8074 Y-11.8114
G01 X16.8207 Y-11.8177
G01 X16.8333 Y-11.8253
G01 X16.8452 Y-11.8340
G01 X16.8561 Y-11.8439
G01 X16.8660 Y-11.8548
G01 X16.8747 Y-11.8667
G01 X16.8823 Y-11.8793
G01 X16.8886 Y-11.8926
G01 X16.8935 Y-11.9065
G01 X16.8971 Y-11.9207
G01 X16.8993 Y-11.9353
G01 X16.9000 Y-11.9500
G00 X16.9000 Y-11.9500
G01 F60.00
G01 Z-0.2000
G01 F50.00
G01 X16.8993 Y-11.9647
G01 X16.8971 Y-11.9793
G01 X16.8935 Y-11.9935
G01 X16.8886 Y-12.0074
G01 X16.8823 Y-12.0207
G01 X16.8747 Y-12.0333
G01 X16.8660 Y-12.0452
G01 X16.8561 Y-12.0561
G01 X16.8452 Y-12.0660
G01 X16.8333 Y-12.0747
G01 X16.8207 Y-12.0823
G01 X16.8074 Y-12.0886
G01 X16.7935 Y-12.0935
G01 X16.7793 Y-12.0971
G01 X16.7647 Y-12.0993
G01 X16.7500 Y-12.1000
G01 X16.7353 Y-12.0993
G01 X16.7207 Y-12.0971
G01 X16.7065 Y-12.0935
G01 X16.6926 Y-12.0886
G01 X16.6793 Y-12.0823
G01 X16.6667 Y-12.0747
G01 X16.6548 Y-12.0660
G01 X16.6439 Y-12.0561
G01 X16.6340 Y-12.0452
G01 X16.6253 Y-12.0333
G01 X16.6177 Y-12.0207
G01 X16.6114 Y-12.0074
G01 X16.6065 Y-11.9935
G01 X16.6029 Y-11.9793
G01 X16.6007 Y-11.9647
G01 X16.6000 Y-11.9500
G01 X16.6007 Y-11.9353
G01 X16.6029 Y-11.9207
G01 X16.6065 Y-11.9065
