(G-CODE GENERATED BY FLATCAM v8.993 - www.flatcam.org - Version Date: 2020/06/05)

(Name: Syntez2_Ф1_верх.gbr_iso_combined_cnc)
(Type: G-code from Geometry)
(Units: MM)

(Created on Wednesday, 23 September 2020 at 23:30)

(This preprocessor is the default preprocessor used by FlatCAM.)
(It is made to work with MACH3 compatible motion controllers.)

(TOOL DIAMETER: 0.13 mm)
(Feedrate_XY: 20.0 mm/min)
(Feedrate_Z: 60.0 mm/min)
(Feedrate rapids 1500.0 mm/min)

(Z_Cut: -0.06 mm)
(Z_Move: 2.0 mm)
(Z Start: None mm)
(Z End: 25.0 mm)
(Steps per circle: 128)
(Preprocessor Geometry: default)

(X range:    0.7026 ...   98.5514  mm)
(Y range:  -33.1463 ...   -0.6259  mm)

(Spindle Speed: None RPM)
G21
G90
G94



G01 F20.00
G00 Z2.0000

M03
G00 X1.1616 Y-1.6368
G01 F60.00
G01 Z-0.0600
G01 F20.00
G01 X1.1570 Y-1.6402
G01 X1.1515 Y-1.6416
G01 X1.1459 Y-1.6408
G01 X1.1410 Y-1.6379
G01 X1.1377 Y-1.6333
G01 X1.1363 Y-1.6278
G01 X1.1371 Y-1.6222
G01 X1.1400 Y-1.6173
G01 X1.4743 Y-1.2830
G01 X1.4785 Y-1.2804
G01 X1.4841 Y-1.2793
G01 X1.4897 Y-1.2804
G01 X1.4939 Y-1.2830
G01 X1.4975 Y-1.2882
G01 X1.4986 Y-1.2946
G01 X1.4986 Y-2.1818
G01 X1.4982 Y-2.1861
G01 X1.4969 Y-2.1894
G01 X1.4944 Y-2.1929
G01 X1.4916 Y-2.1951
G01 X1.4883 Y-2.1965
G01 X1.4841 Y-2.1971
G01 X1.4773 Y-2.1954
G01 X1.4738 Y-2.1929
G01 X1.4716 Y-2.1901
G01 X1.4696 Y-2.1833
G01 X1.4696 Y-1.4850
G01 X1.4689 Y-1.4763
G01 X1.4670 Y-1.4677
G01 X1.4640 Y-1.4595
G01 X1.4599 Y-1.4517
G01 X1.4522 Y-1.4416
G01 X1.4426 Y-1.4331
G01 X1.4316 Y-1.4267
G01 X1.4196 Y-1.4226
G01 X1.4070 Y-1.4209
G01 X1.3942 Y-1.4217
G01 X1.3819 Y-1.4249
G01 X1.3705 Y-1.4305
G01 X1.3586 Y-1.4399
G01 X1.1616 Y-1.6368
G00 Z2.0000
G00 X1.7831 Y-2.0242
G01 F60.00
G01 Z-0.0600
G01 F20.00
G01 X1.7811 Y-2.0195
G01 X1.7807 Y-2.0146
G01 X1.7821 Y-2.0098
G01 X1.7849 Y-2.0057
G01 X1.7890 Y-2.0029
G01 X1.7938 Y-2.0016
G01 X1.7987 Y-2.0019
G01 X1.8033 Y-2.0039
G01 X1.8081 Y-2.0092
G01 X1.8622 Y-2.0992
G01 X1.8685 Y-2.1074
G01 X1.8754 Y-2.1139
G01 X1.8831 Y-2.1194
G01 X1.8909 Y-2.1234
G01 X1.9869 Y-2.1634
G01 X2.0007 Y-2.1672
G01 X2.0103 Y-2.1681
G01 X2.1134 Y-2.1681
G01 X2.1285 Y-2.1661
G01 X2.1376 Y-2.1631
G01 X2.2357 Y-2.1221
G01 X2.2426 Y-2.1182
G01 X2.2496 Y-2.1129
G01 X2.2602 Y-2.1012
G01 X2.3055 Y-2.0260
G01 X2.3093 Y-2.0181
G01 X2.3120 Y-2.0098
G01 X2.3139 Y-1.9956
G01 X2.3139 Y-1.9253
G01 X2.3127 Y-1.9142
G01 X2.3093 Y-1.9028
G01 X2.3051 Y-1.8942
G01 X2.2620 Y-1.8223
G01 X2.2558 Y-1.8141
G01 X2.2490 Y-1.8075
G01 X2.2419 Y-1.8023
G01 X2.2335 Y-1.7978
G01 X2.1216 Y-1.7510
G01 X2.1187 Y-1.7489
G01 X2.1160 Y-1.7457
G01 X2.1146 Y-1.7424
G01 X2.1140 Y-1.7382
G01 X2.1146 Y-1.7340
G01 X2.1160 Y-1.7307
G01 X2.1182 Y-1.7279
G01 X2.1216 Y-1.7254
G01 X2.2335 Y-1.6786
G01 X2.2419 Y-1.6741
G01 X2.2490 Y-1.6689
G01 X2.2558 Y-1.6623
G01 X2.2620 Y-1.6541
G01 X2.3051 Y-1.5822
G01 X2.3093 Y-1.5736
G01 X2.3127 Y-1.5622
G01 X2.3139 Y-1.5511
G01 X2.3139 Y-1.4808
G01 X2.3120 Y-1.4666
G01 X2.3093 Y-1.4583
G01 X2.3055 Y-1.4504
G01 X2.2593 Y-1.3739
G01 X2.2483 Y-1.3625
G01 X2.2357 Y-1.3543
G01 X2.1376 Y-1.3133
G01 X2.1285 Y-1.3103
G01 X2.1134 Y-1.3083
G01 X2.0103 Y-1.3083
G01 X1.9999 Y-1.3093
G01 X1.9861 Y-1.3133
G01 X1.8909 Y-1.3530
G01 X1.8798 Y-1.3591
G01 X1.8701 Y-1.3673
G01 X1.8626 Y-1.3765
G01 X1.8055 Y-1.4707
G01 X1.8020 Y-1.4732
G01 X1.7980 Y-1.4746
G01 X1.7938 Y-1.4748
G01 X1.7896 Y-1.4738
G01 X1.7860 Y-1.4716
G01 X1.7831 Y-1.4685
G01 X1.7813 Y-1.4646
G01 X1.7807 Y-1.4604
G01 X1.7813 Y-1.4562
G01 X1.7831 Y-1.4522
G01 X1.8490 Y-1.3425
G01 X1.8527 Y-1.3381
G01 X1.8570 Y-1.3356
G01 X1.9917 Y-1.2797
G01 X2.1313 Y-1.2796
G01 X2.2705 Y-1.3376
G01 X2.2747 Y-1.3425
G01 X2.3406 Y-1.4522
G01 X2.3426 Y-1.4569
G01 X2.3430 Y-1.4612
G01 X2.3430 Y-1.5707
G01 X2.3424 Y-1.5757
G01 X2.2747 Y-1.6894
G01 X2.2664 Y-1.6995
G01 X2.2621 Y-1.7062
G01 X2.2567 Y-1.7186
G01 X2.2540 Y-1.7318
G01 X2.2537 Y-1.7414
G01 X2.2549 Y-1.7509
G01 X2.2572 Y-1.7593
G01 X2.2610 Y-1.7681
G01 X2.2660 Y-1.7763
G01 X2.2747 Y-1.7870
G01 X2.3406 Y-1.8967
G01 X2.3424 Y-1.9007
G01 X2.3430 Y-1.9042
G01 X2.3430 Y-2.0152
G01 X2.3424 Y-2.0202
G01 X2.2735 Y-2.1358
G01 X2.2705 Y-2.1388
G01 X2.2667 Y-2.1408
G01 X2.1313 Y-2.1968
G01 X1.9917 Y-2.1967
G01 X1.8570 Y-2.1408
G01 X1.8527 Y-2.1383
G01 X1.8490 Y-2.1339
G01 X1.7831 Y-2.0242
G00 Z2.0000
G00 X2.6251 Y-1.4612
G01 F60.00
G01 Z-0.0600
G01 F20.00
G01 X2.6255 Y-1.4569
G01 X2.6275 Y-1.4522
G01 X2.6933 Y-1.3425
G01 X2.6970 Y-1.3381
G01 X2.7013 Y-1.3356
G01 X2.8361 Y-1.2797
G01 X2.9757 Y-1.2796
G01 X3.1111 Y-1.3356
G01 X3.1149 Y-1.3376
G01 X3.1179 Y-1.3406
G01 X3.1850 Y-1.4523
G01 X3.1874 Y-1.4590
G01 X3.1874 Y-2.0152
G01 X3.1870 Y-2.0195
G01 X3.1850 Y-2.0242
G01 X3.1191 Y-2.1339
G01 X3.1149 Y-2.1388
G01 X2.9757 Y-2.1968
G01 X2.8404 Y-2.1971
G01 X2.8333 Y-2.1957
G01 X2.7013 Y-2.1408
G01 X2.6975 Y-2.1388
G01 X2.6945 Y-2.1357
G01 X2.6275 Y-2.0242
G01 X2.6251 Y-2.0174
G01 X2.6251 Y-1.4612
G00 Z2.0000
G00 X3.1491 Y-1.4490
G01 F60.00
G01 Z-0.0600
G01 F20.00
G01 X3.1055 Y-1.3765
G01 X3.0991 Y-1.3684
G01 X3.0909 Y-1.3610
G01 X3.0843 Y-1.3566
G01 X3.0765 Y-1.3527
G01 X2.9812 Y-1.3130
G01 X2.9674 Y-1.3092
G01 X2.9578 Y-1.3083
G01 X2.8547 Y-1.3083
G01 X2.8389 Y-1.3105
G01 X2.8305 Y-1.3133
G01 X2.7316 Y-1.3547
G01 X2.7241 Y-1.3591
G01 X2.7173 Y-1.3645
G01 X2.7112 Y-1.3708
G01 X2.7060 Y-1.3779
G01 X2.6614 Y-1.4525
G01 X2.6567 Y-1.4643
G01 X2.6544 Y-1.4768
G01 X2.6542 Y-1.9956
G01 X2.6550 Y-2.0043
G01 X2.6567 Y-2.0121
G01 X2.6630 Y-2.0267
G01 X2.7073 Y-2.1005
G01 X2.7155 Y-2.1102
G01 X2.7261 Y-2.1186
G01 X2.7352 Y-2.1234
G01 X2.8305 Y-2.1631
G01 X2.8420 Y-2.1666
G01 X2.8547 Y-2.1681
G01 X2.9602 Y-2.1680
G01 X2.9705 Y-2.1666
G01 X2.9805 Y-2.1637
G01 X3.0794 Y-2.1224
G01 X3.0876 Y-2.1177
G01 X3.0946 Y-2.1124
G01 X3.1012 Y-2.1056
G01 X3.1064 Y-2.0985
G01 X3.1510 Y-2.0239
G01 X3.1560 Y-2.0113
G01 X3.1582 Y-1.9979
G01 X3.1584 Y-1.4816
G01 X3.1577 Y-1.4729
G01 X3.1560 Y-1.4651
G01 X3.1531 Y-1.4568
G01 X3.1491 Y-1.4490
G00 Z2.0000
G00 X3.4695 Y-1.6834
G01 F60.00
G01 Z-0.0600
G01 F20.00
G01 X3.4703 Y-1.6777
G01 X3.4728 Y-1.6734
G01 X3.4772 Y-1.6698
G01 X3.4826 Y-1.6681
G01 X3.4882 Y-1.6687
G01 X3.4932 Y-1.6714
G01 X3.4968 Y-1.6758
G01 X3.4985 Y-1.6812
G01 X3.4985 Y-2.0458
G01 X3.5001 Y-2.0594
G01 X3.5042 Y-2.0715
G01 X3.5106 Y-2.0827
G01 X3.5451 Y-2.1287
G01 X3.5542 Y-2.1376
G01 X3.5648 Y-2.1447
G01 X3.5736 Y-2.1485
G01 X3.5837 Y-2.1512
G01 X3.6741 Y-2.1662
G01 X3.6852 Y-2.1670
G01 X3.6939 Y-2.1662
G01 X3.7851 Y-2.1510
G01 X3.7943 Y-2.1485
G01 X3.8038 Y-2.1443
G01 X3.8137 Y-2.1377
G01 X3.8228 Y-2.1287
G01 X3.8574 Y-2.0827
G01 X3.8641 Y-2.0708
G01 X3.8680 Y-2.0586
G01 X3.8695 Y-2.0458
G01 X3.8695 Y-1.6812
G01 X3.8706 Y-1.6770
G01 X3.8728 Y-1.6734
G01 X3.8759 Y-1.6705
G01 X3.8798 Y-1.6687
G01 X3.8840 Y-1.6681
G01 X3.8882 Y-1.6687
G01 X3.8921 Y-1.6705
G01 X3.8952 Y-1.6734
G01 X3.8977 Y-1.6777
G01 X3.8985 Y-1.6834
G01 X3.8985 Y-2.1818
G01 X3.8974 Y-2.1882
G01 X3.8932 Y-2.1938
G01 X3.8868 Y-2.1968
G01 X3.8798 Y-2.1965
G01 X3.8754 Y-2.1943
G01 X3.8635 Y-2.1847
G01 X3.8536 Y-2.1794
G01 X3.8406 Y-2.1754
G01 X3.8271 Y-2.1742
G01 X3.8183 Y-2.1750
G01 X3.6830 Y-2.1971
G01 X3.5475 Y-2.1746
G01 X3.5431 Y-2.1728
G01 X3.5394 Y-2.1697
G01 X3.4728 Y-2.0809
G01 X3.4706 Y-2.0771
G01 X3.4696 Y-2.0736
G01 X3.4695 Y-1.6834
G00 Z2.0000
G00 X4.1806 Y-1.4612
G01 F60.00
G01 Z-0.0600
G01 F20.00
G01 X4.1810 Y-1.4569
G01 X4.1830 Y-1.4522
G01 X4.2489 Y-1.3425
G01 X4.2526 Y-1.3381
G01 X4.2569 Y-1.3356
G01 X4.3916 Y-1.2797
G01 X4.5312 Y-1.2796
G01 X4.6667 Y-1.3356
G01 X4.6705 Y-1.3376
G01 X4.6735 Y-1.3407
G01 X4.7405 Y-1.4522
G01 X4.7429 Y-1.4590
G01 X4.7429 Y-2.0152
G01 X4.7425 Y-2.0195
G01 X4.7405 Y-2.0242
G01 X4.6747 Y-2.1339
G01 X4.6705 Y-2.1388
G01 X4.5312 Y-2.1968
G01 X4.3959 Y-2.1971
G01 X4.3888 Y-2.1957
G01 X4.2569 Y-2.1408
G01 X4.2531 Y-2.1388
G01 X4.2501 Y-2.1358
G01 X4.1830 Y-2.0242
G01 X4.1806 Y-2.0174
G01 X4.1806 Y-1.4612
G00 Z2.0000
G00 X4.7046 Y-1.4490
G01 F60.00
G01 Z-0.0600
G01 F20.00
G01 X4.6611 Y-1.3766
G01 X4.6542 Y-1.3679
G01 X4.6465 Y-1.3610
G01 X4.6399 Y-1.3566
G01 X4.6320 Y-1.3527
G01 X4.5367 Y-1.3130
G01 X4.5229 Y-1.3092
G01 X4.5133 Y-1.3083
G01 X4.4102 Y-1.3083
G01 X4.3944 Y-1.3105
G01 X4.3860 Y-1.3133
G01 X4.2872 Y-1.3547
G01 X4.2797 Y-1.3591
G01 X4.2729 Y-1.3645
G01 X4.2668 Y-1.3708
G01 X4.2616 Y-1.3779
G01 X4.2170 Y-1.4525
G01 X4.2122 Y-1.4643
G01 X4.2099 Y-1.4769
G01 X4.2097 Y-1.9956
G01 X4.2120 Y-2.0113
G01 X4.2146 Y-2.0189
G01 X4.2185 Y-2.0267
G01 X4.2629 Y-2.1005
G01 X4.2711 Y-2.1102
G01 X4.2817 Y-2.1186
G01 X4.2908 Y-2.1234
G01 X4.3860 Y-2.1631
G01 X4.3975 Y-2.1666
G01 X4.4102 Y-2.1681
G01 X4.5157 Y-2.1680
G01 X4.5260 Y-2.1666
G01 X4.5360 Y-2.1637
G01 X4.6349 Y-2.1224
G01 X4.6426 Y-2.1182
G01 X4.6501 Y-2.1124
G01 X4.6563 Y-2.1062
G01 X4.6620 Y-2.0985
G01 X4.7066 Y-2.0239
G01 X4.7115 Y-2.0113
G01 X4.7137 Y-1.9980
G01 X4.7139 Y-1.4816
G01 X4.7132 Y-1.4729
G01 X4.7115 Y-1.4651
G01 X4.7086 Y-1.4568
G01 X4.7046 Y-1.4490
G00 Z2.0000
G00 X5.0250 Y-2.1279
G01 F60.00
G01 Z-0.0600
G01 F20.00
G01 X5.0254 Y-2.1236
G01 X5.0274 Y-2.1189
G01 X5.0959 Y-2.0058
G01 X5.4924 Y-1.6745
G01 X5.5002 Y-1.6642
G01 X5.5502 Y-1.5808
G01 X5.5555 Y-1.5684
G01 X5.5580 Y-1.5551
G01 X5.5582 Y-1.4792
G01 X5.5567 Y-1.4682
G01 X5.5536 Y-1.4583
G01 X5.5490 Y-1.4490
G01 X5.5041 Y-1.3746
G01 X5.4991 Y-1.3685
G01 X5.4927 Y-1.3625
G01 X5.4856 Y-1.3574
G01 X5.4786 Y-1.3536
G01 X5.3811 Y-1.3130
G01 X5.3681 Y-1.3093
G01 X5.3577 Y-1.3083
G01 X5.2546 Y-1.3083
G01 X5.2388 Y-1.3105
G01 X5.2304 Y-1.3133
G01 X5.1352 Y-1.3530
G01 X5.1274 Y-1.3570
G01 X5.1203 Y-1.3620
G01 X5.1128 Y-1.3690
G01 X5.1065 Y-1.3772
G01 X5.0512 Y-1.4691
G01 X5.0476 Y-1.4725
G01 X5.0430 Y-1.4745
G01 X5.0381 Y-1.4748
G01 X5.0333 Y-1.4735
G01 X5.0287 Y-1.4701
G01 X5.0258 Y-1.4653
G01 X5.0250 Y-1.4597
G01 X5.0264 Y-1.4542
G01 X5.0933 Y-1.3425
G01 X5.0970 Y-1.3381
G01 X5.1013 Y-1.3356
G01 X5.2332 Y-1.2807
G01 X5.2403 Y-1.2793
G01 X5.3756 Y-1.2796
G01 X5.5137 Y-1.3369
G01 X5.5165 Y-1.3390
G01 X5.5191 Y-1.3425
G01 X5.5867 Y-1.4562
G01 X5.5873 Y-1.4612
G01 X5.5873 Y-1.5707
G01 X5.5869 Y-1.5750
G01 X5.5856 Y-1.5783
G01 X5.5191 Y-1.6894
G01 X5.5160 Y-1.6933
G01 X5.1205 Y-2.0235
G01 X5.1126 Y-2.0337
G01 X5.0876 Y-2.0760
G01 X5.0845 Y-2.0842
G01 X5.0827 Y-2.0919
G01 X5.0818 Y-2.0998
G01 X5.0819 Y-2.1086
G01 X5.0836 Y-2.1188
G01 X5.0873 Y-2.1294
G01 X5.0922 Y-2.1385
G01 X5.0991 Y-2.1473
G01 X5.1067 Y-2.1543
G01 X5.1161 Y-2.1604
G01 X5.1263 Y-2.1648
G01 X5.1364 Y-2.1672
G01 X5.1467 Y-2.1681
G01 X5.5735 Y-2.1681
G01 X5.5803 Y-2.1701
G01 X5.5831 Y-2.1723
G01 X5.5856 Y-2.1758
G01 X5.5873 Y-2.1826
G01 X5.5869 Y-2.1861
G01 X5.5853 Y-2.1901
G01 X5.5831 Y-2.1929
G01 X5.5796 Y-2.1954
G01 X5.5763 Y-2.1967
G01 X5.5720 Y-2.1971
G01 X5.0381 Y-2.1971
G01 X5.0333 Y-2.1957
G01 X5.0297 Y-2.1934
G01 X5.0270 Y-2.1901
G01 X5.0253 Y-2.1854
G01 X5.0250 Y-2.1279
G00 Z2.0000
G00 X7.6545 Y-1.2859
G01 F60.00
G01 Z-0.0600
G01 F20.00
G01 X7.6552 Y-1.2796
G01 X7.6581 Y-1.2728
G01 X7.7306 Y-1.1520
G01 X7.7352 Y-1.1462
G01 X7.7424 Y-1.1418
G01 X7.8915 Y-1.0800
G01 X7.8978 Y-1.0793
G01 X8.0481 Y-1.0797
G01 X8.1982 Y-1.1418
G01 X8.2037 Y-1.1448
G01 X8.2084 Y-1.1495
G01 X8.2827 Y-1.2729
G01 X8.2849 Y-1.2775
G01 X8.2861 Y-1.2829
G01 X8.2862 Y-1.8954
G01 X8.2855 Y-1.9017
G01 X8.2826 Y-1.9085
G01 X8.2100 Y-2.0293
G01 X8.2037 Y-2.0365
G01 X8.1982 Y-2.0395
G01 X8.0481 Y-2.1016
G01 X7.8978 Y-2.1020
G01 X7.8926 Y-2.1016
G01 X7.8876 Y-2.1000
G01 X7.7424 Y-2.0395
G01 X7.7369 Y-2.0365
G01 X7.7322 Y-2.0318
G01 X7.6581 Y-1.9085
G01 X7.6558 Y-1.9038
G01 X7.6546 Y-1.8984
G01 X7.6545 Y-1.2859
G00 Z2.0000
G00 X8.2319 Y-1.2759
G01 F60.00
G01 Z-0.0600
G01 F20.00
G01 X8.1845 Y-1.1972
G01 X8.1777 Y-1.1884
G01 X8.1695 Y-1.1809
G01 X8.1622 Y-1.1761
G01 X8.1551 Y-1.1726
G01 X8.0505 Y-1.1290
G01 X8.0366 Y-1.1252
G01 X8.0270 Y-1.1243
G01 X7.9137 Y-1.1243
G01 X7.8979 Y-1.1265
G01 X7.8895 Y-1.1293
G01 X7.7812 Y-1.1746
G01 X7.7737 Y-1.1791
G01 X7.7669 Y-1.1845
G01 X7.7608 Y-1.1908
G01 X7.7556 Y-1.1978
G01 X7.7072 Y-1.2787
G01 X7.7021 Y-1.2912
G01 X7.6998 Y-1.3038
G01 X7.6996 Y-1.8736
G01 X7.7002 Y-1.8815
G01 X7.7021 Y-1.8901
G01 X7.7084 Y-1.9047
G01 X7.7570 Y-1.9854
G01 X7.7657 Y-1.9957
G01 X7.7764 Y-2.0040
G01 X7.7848 Y-2.0084
G01 X7.8895 Y-2.0520
G01 X7.9010 Y-2.0555
G01 X7.9137 Y-2.0570
G01 X8.0294 Y-2.0569
G01 X8.0397 Y-2.0555
G01 X8.0497 Y-2.0526
G01 X8.1580 Y-2.0074
G01 X8.1662 Y-2.0027
G01 X8.1737 Y-1.9968
G01 X8.1803 Y-1.9899
G01 X8.1854 Y-1.9828
G01 X8.2338 Y-1.9019
G01 X8.2388 Y-1.8893
G01 X8.2410 Y-1.8759
G01 X8.2412 Y-1.3086
G01 X8.2405 Y-1.2998
G01 X8.2386 Y-1.2912
G01 X8.2356 Y-1.2830
G01 X8.2319 Y-1.2759
G00 Z2.0000
G00 X8.5834 Y-1.5303
G01 F60.00
G01 Z-0.0600
G01 F20.00
G01 X8.5847 Y-1.5219
G01 X8.5892 Y-1.5144
G01 X8.5963 Y-1.5091
G01 X8.6048 Y-1.5070
G01 X8.6135 Y-1.5083
G01 X8.6210 Y-1.5128
G01 X8.6263 Y-1.5199
G01 X8.6283 Y-1.5273
G01 X8.6284 Y-1.9289
G01 X8.6300 Y-1.9425
G01 X8.6344 Y-1.9554
G01 X8.6410 Y-1.9665
G01 X8.6782 Y-2.0160
G01 X8.6872 Y-2.0250
G01 X8.6986 Y-2.0324
G01 X8.7075 Y-2.0361
G01 X8.7167 Y-2.0385
G01 X8.8160 Y-2.0550
G01 X8.8279 Y-2.0557
G01 X8.8366 Y-2.0549
G01 X8.9358 Y-2.0383
G01 X8.9451 Y-2.0358
G01 X8.9546 Y-2.0316
G01 X8.9652 Y-2.0245
G01 X8.9741 Y-2.0154
G01 X9.0113 Y-1.9658
G01 X9.0180 Y-1.9539
G01 X9.0219 Y-1.9417
G01 X9.0234 Y-1.9289
G01 X9.0235 Y-1.5273
G01 X9.0251 Y-1.5209
G01 X9.0285 Y-1.5152
G01 X9.0334 Y-1.5108
G01 X9.0394 Y-1.5079
G01 X9.0459 Y-1.5070
G01 X9.0524 Y-1.5079
G01 X9.0584 Y-1.5108
G01 X9.0633 Y-1.5152
G01 X9.0671 Y-1.5219
G01 X9.0684 Y-1.5303
G01 X9.0684 Y-2.0787
G01 X9.0680 Y-2.0839
G01 X9.0663 Y-2.0891
G01 X9.0633 Y-2.0938
G01 X9.0602 Y-2.0969
G01 X9.0555 Y-2.0999
G01 X9.0503 Y-2.1016
G01 X9.0459 Y-2.1020
G01 X9.0404 Y-2.1013
G01 X9.0343 Y-2.0988
G01 X9.0212 Y-2.0882
G01 X9.0100 Y-2.0821
G01 X8.9970 Y-2.0781
G01 X8.9834 Y-2.0769
G01 X8.9746 Y-2.0776
G01 X8.8304 Y-2.1016
G01 X8.8243 Y-2.1020
G01 X8.6744 Y-2.0771
G01 X8.6675 Y-2.0743
G01 X8.6618 Y-2.0695
G01 X8.5883 Y-1.9715
G01 X8.5851 Y-1.9660
G01 X8.5836 Y-1.9606
G01 X8.5834 Y-1.5303
G00 Z2.0000
G00 X9.3889 Y-1.5520
G01 F60.00
G01 Z-0.0600
G01 F20.00
G01 X9.3816 Y-1.5511
G01 X9.3756 Y-1.5482
G01 X9.3700 Y-1.5429
G01 X9.3669 Y-1.5371
G01 X9.3656 Y-1.5295
G01 X9.3665 Y-1.5230
G01 X9.3694 Y-1.5170
G01 X9.3747 Y-1.5114
G01 X9.3805 Y-1.5083
G01 X9.3859 Y-1.5071
G01 X9.4504 Y-1.5069
G01 X9.4599 Y-1.5057
G01 X9.4699 Y-1.5029
G01 X9.4827 Y-1.4964
G01 X9.4943 Y-1.4868
G01 X9.5030 Y-1.4754
G01 X9.5092 Y-1.4616
G01 X9.5114 Y-1.4523
G01 X9.5123 Y-1.4428
G01 X9.5124 Y-1.0996
G01 X9.5132 Y-1.0953
G01 X9.5155 Y-1.0902
G01 X9.5189 Y-1.0859
G01 X9.5223 Y-1.0831
G01 X9.5272 Y-1.0806
G01 X9.5315 Y-1.0795
G01 X9.5359 Y-1.0793
G01 X9.5413 Y-1.0802
G01 X9.5473 Y-1.0831
G01 X9.5529 Y-1.0884
G01 X9.5560 Y-1.0942
G01 X9.5573 Y-1.1007
G01 X9.5573 Y-1.4428
G01 X9.5583 Y-1.4531
G01 X9.5611 Y-1.4639
G01 X9.5666 Y-1.4754
G01 X9.5742 Y-1.4856
G01 X9.5836 Y-1.4942
G01 X9.5953 Y-1.5011
G01 X9.6066 Y-1.5050
G01 X9.6176 Y-1.5068
G01 X9.6806 Y-1.5070
G01 X9.6869 Y-1.5077
G01 X9.6939 Y-1.5108
G01 X9.6995 Y-1.5161
G01 X9.7026 Y-1.5219
G01 X9.7039 Y-1.5295
G01 X9.7030 Y-1.5360
G01 X9.6995 Y-1.5429
G01 X9.6939 Y-1.5482
G01 X9.6869 Y-1.5513
G01 X9.6806 Y-1.5520
G01 X9.6176 Y-1.5522
G01 X9.6058 Y-1.5542
G01 X9.5946 Y-1.5583
G01 X9.5836 Y-1.5648
G01 X9.5737 Y-1.5740
G01 X9.5658 Y-1.5850
G01 X9.5604 Y-1.5974
G01 X9.5580 Y-1.6075
G01 X9.5573 Y-1.6170
G01 X9.5573 Y-1.9774
G01 X9.5581 Y-1.9870
G01 X9.5599 Y-1.9956
G01 X9.5630 Y-2.0039
G01 X9.5675 Y-2.0123
G01 X9.5728 Y-2.0194
G01 X9.5789 Y-2.0258
G01 X9.5889 Y-2.0339
G01 X9.5963 Y-2.0385
G01 X9.6043 Y-2.0421
G01 X9.6174 Y-2.0454
G01 X9.6309 Y-2.0459
G01 X9.6442 Y-2.0436
G01 X9.6775 Y-2.0329
G01 X9.6863 Y-2.0331
G01 X9.6934 Y-2.0360
G01 X9.6984 Y-2.0403
G01 X9.7015 Y-2.0449
G01 X9.7034 Y-2.0501
G01 X9.7039 Y-2.0556
G01 X9.7031 Y-2.0611
G01 X9.7005 Y-2.0671
G01 X9.6970 Y-2.0714
G01 X9.6925 Y-2.0747
G01 X9.6142 Y-2.1012
G01 X9.6088 Y-2.1020
G01 X9.6023 Y-2.1013
G01 X9.5973 Y-2.0993
G01 X9.5931 Y-2.0963
G01 X9.5210 Y-2.0362
G01 X9.5154 Y-2.0299
G01 X9.5129 Y-2.0238
G01 X9.5123 Y-2.0176
G01 X9.5123 Y-1.6170
G01 X9.5118 Y-1.6091
G01 X9.5101 Y-1.6005
G01 X9.5046 Y-1.5864
G01 X9.4959 Y-1.5740
G01 X9.4847 Y-1.5639
G01 X9.4714 Y-1.5567
G01 X9.4615 Y-1.5536
G01 X9.4512 Y-1.5522
G01 X9.3889 Y-1.5520
G00 Z2.0000
G00 X10.4680 Y-1.5681
G01 F60.00
G01 Z-0.0600
G01 F20.00
G01 X10.7297 Y-1.5681
G01 X10.7393 Y-1.5673
G01 X10.7540 Y-1.5634
G01 X10.8593 Y-1.5194
G01 X10.8691 Y-1.5142
G01 X10.8778 Y-1.5074
G01 X10.8838 Y-1.5010
G01 X10.8885 Y-1.4946
G01 X10.9370 Y-1.4137
G01 X10.9427 Y-1.3988
G01 X10.9447 Y-1.3838
G01 X10.9446 Y-1.3070
G01 X10.9437 Y-1.2982
G01 X10.9414 Y-1.2889
G01 X10.9354 Y-1.2759
G01 X10.8889 Y-1.1985
G01 X10.8812 Y-1.1884
G01 X10.8711 Y-1.1795
G01 X10.8600 Y-1.1733
G01 X10.7532 Y-1.1287
G01 X10.7448 Y-1.1261
G01 X10.7361 Y-1.1247
G01 X10.4649 Y-1.1244
G01 X10.4538 Y-1.1259
G01 X10.4432 Y-1.1293
G01 X10.4326 Y-1.1349
G01 X10.4238 Y-1.1417
G01 X10.4158 Y-1.1506
G01 X10.4093 Y-1.1616
G01 X10.4050 Y-1.1736
G01 X10.4032 Y-1.1854
G01 X10.4034 Y-1.5094
G01 X10.4056 Y-1.5212
G01 X10.4100 Y-1.5323
G01 X10.4163 Y-1.5424
G01 X10.4244 Y-1.5512
G01 X10.4339 Y-1.5584
G01 X10.4447 Y-1.5637
G01 X10.4561 Y-1.5670
G01 X10.4680 Y-1.5681
G00 Z2.0000
G00 X10.3580 Y-2.0787
G01 F60.00
G01 Z-0.0600
G01 F20.00
G01 X10.3580 Y-1.1026
G01 X10.3587 Y-1.0963
G01 X10.3612 Y-1.0902
G01 X10.3646 Y-1.0859
G01 X10.3689 Y-1.0825
G01 X10.3740 Y-1.0802
G01 X10.3794 Y-1.0793
G01 X10.7494 Y-1.0794
G01 X10.7566 Y-1.0813
G01 X10.9054 Y-1.1436
G01 X10.9097 Y-1.1470
G01 X10.9135 Y-1.1520
G01 X10.9861 Y-1.2728
G01 X10.9888 Y-1.2786
G01 X10.9897 Y-1.2859
G01 X10.9897 Y-1.4065
G01 X10.9890 Y-1.4128
G01 X10.9861 Y-1.4196
G01 X10.9135 Y-1.5404
G01 X10.9081 Y-1.5469
G01 X10.9017 Y-1.5506
G01 X10.7548 Y-1.6118
G01 X10.7464 Y-1.6131
G01 X10.4641 Y-1.6133
G01 X10.4523 Y-1.6151
G01 X10.4410 Y-1.6190
G01 X10.4300 Y-1.6255
G01 X10.4210 Y-1.6333
G01 X10.4136 Y-1.6427
G01 X10.4083 Y-1.6525
G01 X10.4046 Y-1.6639
G01 X10.4031 Y-1.6758
G01 X10.4028 Y-2.0828
G01 X10.3998 Y-2.0911
G01 X10.3939 Y-2.0976
G01 X10.3870 Y-2.1011
G01 X10.3783 Y-2.1019
G01 X10.3709 Y-2.0999
G01 X10.3638 Y-2.0946
G01 X10.3593 Y-2.0871
G01 X10.3580 Y-2.0787
G00 Z2.0000
G00 X11.2869 Y-1.6892
G01 F60.00
G01 Z-0.0600
G01 F20.00
G01 X11.2876 Y-1.6829
G01 X11.2905 Y-1.6761
G01 X11.3630 Y-1.5553
G01 X11.3684 Y-1.5488
G01 X11.3751 Y-1.5450
G01 X11.5232 Y-1.5078
G01 X11.5294 Y-1.5070
G01 X11.5356 Y-1.5078
G01 X11.6808 Y-1.5441
G01 X11.6867 Y-1.5463
G01 X11.6912 Y-1.5495
G01 X11.6958 Y-1.5553
G01 X11.7683 Y-1.6761
G01 X11.7710 Y-1.6819
G01 X11.7719 Y-1.6892
G01 X11.7715 Y-1.9373
G01 X11.7683 Y-1.9452
G01 X11.6928 Y-2.0702
G01 X11.6869 Y-2.0749
G01 X11.6809 Y-2.0771
G01 X11.5299 Y-2.1020
G01 X11.3798 Y-2.0775
G01 X11.3728 Y-2.0753
G01 X11.3675 Y-2.0717
G01 X11.3630 Y-2.0660
G01 X11.2905 Y-1.9452
G01 X11.2873 Y-1.9373
G01 X11.2869 Y-1.6892
G00 Z2.0000
G00 X11.7269 Y-1.9087
G01 F60.00
G01 Z-0.0600
G01 F20.00
G01 X11.7269 Y-1.7126
G01 X11.7256 Y-1.7000
G01 X11.7225 Y-1.6892
G01 X11.7180 Y-1.6799
G01 X11.6746 Y-1.6075
G01 X11.6699 Y-1.6011
G01 X11.6639 Y-1.5947
G01 X11.6517 Y-1.5858
G01 X11.6378 Y-1.5799
G01 X11.5436 Y-1.5563
G01 X11.5286 Y-1.5547
G01 X11.5144 Y-1.5565
G01 X11.4195 Y-1.5804
G01 X11.4121 Y-1.5832
G01 X11.4044 Y-1.5874
G01 X11.3973 Y-1.5926
G01 X11.3915 Y-1.5981
G01 X11.3838 Y-1.6082
G01 X11.3404 Y-1.6806
G01 X11.3360 Y-1.6900
G01 X11.3330 Y-1.7007
G01 X11.3319 Y-1.7126
G01 X11.3319 Y-1.9087
G01 X11.3339 Y-1.9245
G01 X11.3396 Y-1.9393
G01 X11.3821 Y-2.0102
G01 X11.3867 Y-2.0166
G01 X11.3927 Y-2.0229
G01 X11.3994 Y-2.0284
G01 X11.4061 Y-2.0326
G01 X11.4133 Y-2.0359
G01 X11.4216 Y-2.0385
G01 X11.5258 Y-2.0557
G01 X11.5401 Y-2.0549
G01 X11.6333 Y-2.0394
G01 X11.6432 Y-2.0368
G01 X11.6534 Y-2.0322
G01 X11.6619 Y-2.0265
G01 X11.6700 Y-2.0190
G01 X11.6763 Y-2.0108
G01 X11.7203 Y-1.9372
G01 X11.7253 Y-1.9229
G01 X11.7269 Y-1.9087
G00 Z2.0000
G00 X12.3328 Y-2.0871
G01 F60.00
G01 Z-0.0600
G01 F20.00
G01 X12.3298 Y-2.0927
G01 X12.3251 Y-2.0975
G01 X12.3193 Y-2.1007
G01 X12.3127 Y-2.1020
G01 X12.3061 Y-2.1013
G01 X12.2999 Y-2.0988
G01 X12.2948 Y-2.0945
G01 X12.2911 Y-2.0889
G01 X12.0710 Y-1.5386
G01 X12.0692 Y-1.5314
G01 X12.0696 Y-1.5248
G01 X12.0719 Y-1.5186
G01 X12.0759 Y-1.5134
G01 X12.0803 Y-1.5100
G01 X12.0853 Y-1.5079
G01 X12.0908 Y-1.5070
G01 X12.0952 Y-1.5073
G01 X12.0994 Y-1.5084
G01 X12.1043 Y-1.5109
G01 X12.1085 Y-1.5146
G01 X12.1116 Y-1.5191
G01 X12.2512 Y-1.8679
G01 X12.2558 Y-1.8772
G01 X12.2604 Y-1.8838
G01 X12.2662 Y-1.8903
G01 X12.2722 Y-1.8955
G01 X12.2796 Y-1.9003
G01 X12.2875 Y-1.9041
G01 X12.2950 Y-1.9066
G01 X12.3029 Y-1.9082
G01 X12.3116 Y-1.9088
G01 X12.3211 Y-1.9081
G01 X12.3297 Y-1.9062
G01 X12.3379 Y-1.9032
G01 X12.3457 Y-1.8991
G01 X12.3528 Y-1.8940
G01 X12.3592 Y-1.8880
G01 X12.3647 Y-1.8812
G01 X12.3693 Y-1.8737
G01 X12.5104 Y-1.5219
G01 X12.5141 Y-1.5154
G01 X12.5190 Y-1.5108
G01 X12.5272 Y-1.5074
G01 X12.5316 Y-1.5070
G01 X12.5371 Y-1.5077
G01 X12.5413 Y-1.5092
G01 X12.5460 Y-1.5122
G01 X12.5516 Y-1.5191
G01 X12.6746 Y-1.8263
G01 X12.6792 Y-1.8356
G01 X12.6837 Y-1.8422
G01 X12.6895 Y-1.8487
G01 X12.7022 Y-1.8583
G01 X12.7093 Y-1.8619
G01 X12.7176 Y-1.8648
G01 X12.7261 Y-1.8666
G01 X12.7341 Y-1.8672
G01 X12.7428 Y-1.8667
G01 X12.7522 Y-1.8649
G01 X12.7612 Y-1.8617
G01 X12.7689 Y-1.8576
G01 X12.7761 Y-1.8525
G01 X12.7830 Y-1.8460
G01 X12.7885 Y-1.8391
G01 X12.7929 Y-1.8316
G01 X12.7978 Y-1.8189
G01 X12.8772 Y-1.5216
G01 X12.8798 Y-1.5167
G01 X12.8834 Y-1.5126
G01 X12.8880 Y-1.5095
G01 X12.8932 Y-1.5076
G01 X12.8986 Y-1.5070
G01 X12.9041 Y-1.5077
G01 X12.9102 Y-1.5104
G01 X12.9145 Y-1.5138
G01 X12.9178 Y-1.5182
G01 X12.9202 Y-1.5244
G01 X12.9208 Y-1.5298
G01 X12.9199 Y-1.5361
G01 X12.7736 Y-2.0845
G01 X12.7713 Y-2.0904
G01 X12.7673 Y-2.0957
G01 X12.7629 Y-2.0990
G01 X12.7578 Y-2.1011
G01 X12.7524 Y-2.1020
G01 X12.7480 Y-2.1017
G01 X12.7427 Y-2.1002
G01 X12.7380 Y-2.0974
G01 X12.7347 Y-2.0944
G01 X12.7316 Y-2.0899
G01 X12.5920 Y-1.7411
G01 X12.5874 Y-1.7318
G01 X12.5828 Y-1.7252
G01 X12.5770 Y-1.7187
G01 X12.5643 Y-1.7091
G01 X12.5572 Y-1.7055
G01 X12.5489 Y-1.7026
G01 X12.5332 Y-1.7002
G01 X12.5244 Y-1.7006
G01 X12.5150 Y-1.7024
G01 X12.5067 Y-1.7052
G01 X12.4982 Y-1.7095
G01 X12.4910 Y-1.7145
G01 X12.4845 Y-1.7204
G01 X12.4785 Y-1.7278
G01 X12.4739 Y-1.7353
G01 X12.3328 Y-2.0871
G00 Z2.0000
G00 X12.7384 Y-1.9321
G01 F60.00
G01 Z-0.0600
G01 F20.00
G01 X12.7471 Y-1.9316
G01 X12.7435 Y-1.9450
G01 X12.7384 Y-1.9321
G00 Z2.0000
G00 X13.2180 Y-1.8954
G01 F60.00
G01 Z-0.0600
G01 F20.00
G01 X13.2180 Y-1.6892
G01 X13.2187 Y-1.6829
G01 X13.2216 Y-1.6761
G01 X13.2941 Y-1.5553
G01 X13.2979 Y-1.5503
G01 X13.3032 Y-1.5463
G01 X13.3091 Y-1.5441
G01 X13.4543 Y-1.5078
G01 X13.4605 Y-1.5070
G01 X13.4667 Y-1.5078
G01 X13.6119 Y-1.5441
G01 X13.6186 Y-1.5468
G01 X13.6248 Y-1.5521
G01 X13.7002 Y-1.6409
G01 X13.7023 Y-1.6462
G01 X13.7030 Y-1.6526
G01 X13.7030 Y-1.7751
G01 X13.7021 Y-1.7805
G01 X13.6992 Y-1.7865
G01 X13.6956 Y-1.7907
G01 X13.6901 Y-1.7944
G01 X13.6849 Y-1.7961
G01 X13.6797 Y-1.7965
G01 X13.3280 Y-1.7965
G01 X13.3185 Y-1.7972
G01 X13.3077 Y-1.7998
G01 X13.2974 Y-1.8042
G01 X13.2881 Y-1.8103
G01 X13.2794 Y-1.8185
G01 X13.2723 Y-1.8281
G01 X13.2674 Y-1.8382
G01 X13.2643 Y-1.8489
G01 X13.2631 Y-1.8599
G01 X13.2631 Y-1.8875
G01 X13.2640 Y-1.8971
G01 X13.2834 Y-1.9767
G01 X13.2892 Y-1.9888
G01 X13.2975 Y-1.9995
G01 X13.3077 Y-2.0083
G01 X13.3196 Y-2.0147
G01 X13.4098 Y-2.0523
G01 X13.4220 Y-2.0558
G01 X13.4332 Y-2.0570
G01 X13.5450 Y-2.0569
G01 X13.5568 Y-2.0552
G01 X13.5682 Y-2.0513
G01 X13.6711 Y-1.9979
G01 X13.6763 Y-1.9963
G01 X13.6818 Y-1.9959
G01 X13.6893 Y-1.9977
G01 X13.6958 Y-2.0019
G01 X13.7005 Y-2.0080
G01 X13.7026 Y-2.0142
G01 X13.7029 Y-2.0208
G01 X13.7008 Y-2.0282
G01 X13.6963 Y-2.0345
G01 X13.6902 Y-2.0388
G01 X13.5743 Y-2.0991
G01 X13.5686 Y-2.1014
G01 X13.5624 Y-2.1020
G01 X13.4173 Y-2.1020
G01 X13.4099 Y-2.1010
G01 X13.2619 Y-2.0395
G01 X13.2572 Y-2.0371
G01 X13.2530 Y-2.0334
G01 X13.2499 Y-2.0289
G01 X13.2477 Y-2.0229
G01 X13.2188 Y-1.9022
G01 X13.2180 Y-1.8954
G00 Z2.0000
G00 X13.3438 Y-1.7515
G01 F60.00
G01 Z-0.0600
G01 F20.00
G01 X13.5938 Y-1.7515
G01 X13.6025 Y-1.7508
G01 X13.6103 Y-1.7491
G01 X13.6222 Y-1.7445
G01 X13.6329 Y-1.7377
G01 X13.6427 Y-1.7283
G01 X13.6499 Y-1.7178
G01 X13.6549 Y-1.7061
G01 X13.6576 Y-1.6936
G01 X13.6578 Y-1.6794
G01 X13.6556 Y-1.6669
G01 X13.6514 Y-1.6558
G01 X13.6453 Y-1.6456
G01 X13.6066 Y-1.6003
G01 X13.6002 Y-1.5942
G01 X13.5931 Y-1.5891
G01 X13.5853 Y-1.5849
G01 X13.5770 Y-1.5819
G01 X13.4755 Y-1.5565
G01 X13.4613 Y-1.5547
G01 X13.4463 Y-1.5563
G01 X13.3529 Y-1.5797
G01 X13.3424 Y-1.5836
G01 X13.3328 Y-1.5892
G01 X13.3248 Y-1.5958
G01 X13.3176 Y-1.6042
G01 X13.2853 Y-1.6579
G01 X13.2809 Y-1.6699
G01 X13.2788 Y-1.6832
G01 X13.2796 Y-1.6968
G01 X13.2828 Y-1.7091
G01 X13.2884 Y-1.7205
G01 X13.2967 Y-1.7313
G01 X13.3070 Y-1.7401
G01 X13.3181 Y-1.7462
G01 X13.3303 Y-1.7500
G01 X13.3438 Y-1.7515
G00 Z2.0000
G00 X14.0002 Y-1.5303
G01 F60.00
G01 Z-0.0600
G01 F20.00
G01 X14.0019 Y-1.5209
G01 X14.0068 Y-1.5136
G01 X14.0141 Y-1.5087
G01 X14.0227 Y-1.5070
G01 X14.0292 Y-1.5079
G01 X14.0361 Y-1.5114
G01 X14.0502 Y-1.5267
G01 X14.0631 Y-1.5358
G01 X14.0764 Y-1.5411
G01 X14.0897 Y-1.5434
G01 X14.1055 Y-1.5425
G01 X14.1140 Y-1.5403
G01 X14.1214 Y-1.5374
G01 X14.1330 Y-1.5304
G01 X14.1568 Y-1.5109
G01 X14.1628 Y-1.5080
G01 X14.1683 Y-1.5070
G01 X14.3193 Y-1.5072
G01 X14.3266 Y-1.5096
G01 X14.3327 Y-1.5144
G01 X14.3368 Y-1.5209
G01 X14.3385 Y-1.5284
G01 X14.3372 Y-1.5371
G01 X14.3334 Y-1.5438
G01 X14.3276 Y-1.5488
G01 X14.3204 Y-1.5516
G01 X14.1979 Y-1.5521
G01 X14.1854 Y-1.5540
G01 X14.1735 Y-1.5582
G01 X14.1601 Y-1.5666
G01 X14.0680 Y-1.6434
G01 X14.0601 Y-1.6514
G01 X14.0534 Y-1.6613
G01 X14.0474 Y-1.6761
G01 X14.0453 Y-1.6912
G01 X14.0452 Y-2.0806
G01 X14.0431 Y-2.0891
G01 X14.0386 Y-2.0954
G01 X14.0323 Y-2.0999
G01 X14.0238 Y-2.1020
G01 X14.0151 Y-2.1007
G01 X14.0076 Y-2.0962
G01 X14.0023 Y-2.0891
G01 X14.0002 Y-2.0806
G01 X14.0002 Y-1.5303
G00 Z2.0000
G00 X15.2789 Y-1.6904
G01 F60.00
G01 Z-0.0600
G01 F20.00
G01 X15.4846 Y-1.6904
G01 X15.4957 Y-1.6894
G01 X15.5043 Y-1.6873
G01 X15.5132 Y-1.6838
G01 X15.5208 Y-1.6794
G01 X15.5277 Y-1.6740
G01 X15.5344 Y-1.6671
G01 X15.5396 Y-1.6600
G01 X15.5438 Y-1.6523
G01 X15.5469 Y-1.6441
G01 X15.5489 Y-1.6348
G01 X15.5496 Y-1.6244
G01 X15.5488 Y-1.6149
G01 X15.5463 Y-1.6048
G01 X15.4418 Y-1.3261
G01 X15.4348 Y-1.3136
G01 X15.4254 Y-1.3029
G01 X15.4138 Y-1.2945
G01 X15.4006 Y-1.2889
G01 X15.3897 Y-1.2866
G01 X15.3794 Y-1.2862
G01 X15.3684 Y-1.2875
G01 X15.3585 Y-1.2905
G01 X15.3484 Y-1.2953
G01 X15.3394 Y-1.3018
G01 X15.3316 Y-1.3098
G01 X15.3257 Y-1.3182
G01 X15.3209 Y-1.3283
G01 X15.2168 Y-1.6063
G01 X15.2141 Y-1.6212
G01 X15.2149 Y-1.6363
G01 X15.2191 Y-1.6509
G01 X15.2267 Y-1.6640
G01 X15.2370 Y-1.6750
G01 X15.2497 Y-1.6834
G01 X15.2639 Y-1.6886
G01 X15.2789 Y-1.6904
G00 Z2.0000
G00 X15.5503 Y-1.7354
G01 F60.00
G01 Z-0.0600
G01 F20.00
G01 X15.2117 Y-1.7355
G01 X15.2030 Y-1.7363
G01 X15.1937 Y-1.7385
G01 X15.1855 Y-1.7417
G01 X15.1779 Y-1.7459
G01 X15.1703 Y-1.7517
G01 X15.1636 Y-1.7585
G01 X15.1576 Y-1.7669
G01 X15.1533 Y-1.7754
G01 X15.0348 Y-2.0904
G01 X15.0308 Y-2.0957
G01 X15.0264 Y-2.0990
G01 X15.0213 Y-2.1012
G01 X15.0159 Y-2.1020
G01 X15.0104 Y-2.1015
G01 X15.0052 Y-2.0997
G01 X15.0005 Y-2.0967
G01 X14.9962 Y-2.0917
G01 X14.9938 Y-2.0868
G01 X14.9927 Y-2.0814
G01 X14.9929 Y-2.0759
G01 X14.9943 Y-2.0708
G01 X15.3604 Y-1.0946
G01 X15.3627 Y-1.0899
G01 X15.3662 Y-1.0856
G01 X15.3706 Y-1.0822
G01 X15.3757 Y-1.0801
G01 X15.3835 Y-1.0793
G01 X15.3920 Y-1.0817
G01 X15.3990 Y-1.0872
G01 X15.4032 Y-1.0946
G01 X15.7692 Y-2.0708
G01 X15.7709 Y-2.0792
G01 X15.7697 Y-2.0868
G01 X15.7653 Y-2.0944
G01 X15.7593 Y-2.0992
G01 X15.7509 Y-2.1019
G01 X15.7454 Y-2.1018
G01 X15.7411 Y-2.1008
G01 X15.7335 Y-2.0964
G01 X15.7299 Y-2.0923
G01 X15.7277 Y-2.0884
G01 X15.6111 Y-1.7776
G01 X15.6067 Y-1.7683
G01 X15.6019 Y-1.7610
G01 X15.5961 Y-1.7544
G01 X15.5902 Y-1.7491
G01 X15.5829 Y-1.7442
G01 X15.5751 Y-1.7404
G01 X15.5676 Y-1.7378
G01 X15.5590 Y-1.7360
G01 X15.5503 Y-1.7354
G00 Z2.0000
G00 X16.0914 Y-2.3465
G01 F60.00
G01 Z-0.0600
G01 F20.00
G01 X16.0851 Y-2.3458
G01 X16.0790 Y-2.3433
G01 X16.0739 Y-2.3391
G01 X16.0702 Y-2.3336
G01 X16.0683 Y-2.3273
G01 X16.0683 Y-2.3207
G01 X16.0702 Y-2.3144
G01 X16.0739 Y-2.3089
G01 X16.0800 Y-2.3041
G01 X16.0873 Y-2.3017
G01 X16.1225 Y-2.3014
G01 X16.1351 Y-2.2997
G01 X16.1471 Y-2.2956
G01 X16.1580 Y-2.2893
G01 X16.1647 Y-2.2837
G01 X16.1707 Y-2.2773
G01 X16.2032 Y-2.2341
G01 X16.2100 Y-2.2213
G01 X16.2138 Y-2.2082
G01 X16.2148 Y-2.1970
G01 X16.2148 Y-1.5284
G01 X16.2157 Y-1.5230
G01 X16.2174 Y-1.5189
G01 X16.2206 Y-1.5144
G01 X16.2239 Y-1.5114
G01 X16.2277 Y-1.5091
G01 X16.2329 Y-1.5074
G01 X16.2417 Y-1.5074
G01 X16.2489 Y-1.5102
G01 X16.2547 Y-1.5152
G01 X16.2585 Y-1.5219
G01 X16.2598 Y-1.5303
G01 X16.2594 Y-2.2306
G01 X16.2576 Y-2.2359
G01 X16.2548 Y-2.2404
G01 X16.1824 Y-2.3369
G01 X16.1763 Y-2.3428
G01 X16.1704 Y-2.3456
G01 X16.1650 Y-2.3465
G01 X16.0914 Y-2.3465
G00 Z2.0000
G00 X23.1514 Y-3.8770
G01 F60.00
G01 Z-0.0600
G01 F20.00
G01 X23.1614 Y-3.9217
G01 X23.1741 Y-3.9673
G01 X23.1889 Y-4.0123
G01 X23.2054 Y-4.0550
G01 X23.2259 Y-4.1012
G01 X23.2464 Y-4.1421
G01 X23.2698 Y-4.1833
G01 X23.2951 Y-4.2233
G01 X23.3215 Y-4.2608
G01 X23.3526 Y-4.3006
G01 X23.3825 Y-4.3353
G01 X23.4151 Y-4.3696
G01 X23.4494 Y-4.4022
G01 X23.4841 Y-4.4321
G01 X23.5239 Y-4.4632
G01 X23.5614 Y-4.4896
G01 X23.6014 Y-4.5149
G01 X23.6426 Y-4.5383
G01 X23.6835 Y-4.5588
G01 X23.7297 Y-4.5793
G01 X23.7724 Y-4.5958
G01 X23.8174 Y-4.6106
G01 X23.8630 Y-4.6233
G01 X23.9077 Y-4.6333
G01 X23.9575 Y-4.6420
G01 X24.0029 Y-4.6476
G01 X24.0501 Y-4.6510
G01 X24.0975 Y-4.6522
G01 X24.1433 Y-4.6511
G01 X24.1937 Y-4.6474
G01 X24.2391 Y-4.6418
G01 X24.2858 Y-4.6337
G01 X24.3320 Y-4.6233
G01 X24.3761 Y-4.6111
G01 X24.4241 Y-4.5952
G01 X24.4668 Y-4.5787
G01 X24.5101 Y-4.5595
G01 X24.5524 Y-4.5383
G01 X24.5922 Y-4.5157
G01 X24.6336 Y-4.4896
G01 X24.6723 Y-4.4623
G01 X24.7084 Y-4.4342
G01 X24.7467 Y-4.4011
G01 X24.7799 Y-4.3696
G01 X24.8125 Y-4.3353
G01 X24.8435 Y-4.2994
G01 X24.8716 Y-4.2633
G01 X24.9007 Y-4.2220
G01 X24.9252 Y-4.1833
G01 X24.9486 Y-4.1421
G01 X24.9698 Y-4.0998
G01 X24.9887 Y-4.0572
G01 X25.0096 Y-4.0018
G01 X25.5451 Y-4.0015
G01 X25.5453 Y-4.7846
G01 X25.5472 Y-4.7964
G01 X25.5513 Y-4.8076
G01 X25.5574 Y-4.8179
G01 X25.5653 Y-4.8269
G01 X25.5747 Y-4.8343
G01 X25.5852 Y-4.8399
G01 X25.5966 Y-4.8434
G01 X25.6085 Y-4.8448
G01 X27.0101 Y-4.8448
G01 X27.0243 Y-4.8432
G01 X27.0372 Y-4.8389
G01 X27.0449 Y-4.8347
G01 X27.0519 Y-4.8295
G01 X27.0583 Y-4.8235
G01 X27.0637 Y-4.8166
G01 X27.0682 Y-4.8090
G01 X27.0716 Y-4.8009
G01 X27.0740 Y-4.7917
G01 X27.0750 Y-4.7830
G01 X27.0751 Y-4.0006
G01 X27.4762 Y-4.0004
G01 X27.4774 Y-4.0496
G01 X27.4808 Y-4.0968
G01 X27.4866 Y-4.1438
G01 X27.4951 Y-4.1920
G01 X27.5051 Y-4.2367
G01 X27.5173 Y-4.2808
G01 X27.5321 Y-4.3258
G01 X27.5497 Y-4.3715
G01 X27.5696 Y-4.4162
G01 X27.5901 Y-4.4571
G01 X27.6127 Y-4.4969
G01 X27.6380 Y-4.5370
G01 X27.6661 Y-4.5770
G01 X27.6952 Y-4.6144
G01 X27.7273 Y-4.6514
G01 X27.7588 Y-4.6846
G01 X27.7920 Y-4.7161
G01 X27.8290 Y-4.7482
G01 X27.8676 Y-4.7782
G01 X27.9051 Y-4.8046
G01 X27.9437 Y-4.8291
G01 X27.9849 Y-4.8525
G01 X28.0286 Y-4.8745
G01 X28.0719 Y-4.8937
G01 X28.1161 Y-4.9108
G01 X28.1626 Y-4.9261
G01 X28.2067 Y-4.9383
G01 X28.2514 Y-4.9483
G01 X28.2996 Y-4.9568
G01 X28.3482 Y-4.9627
G01 X28.3938 Y-4.9660
G01 X28.4396 Y-4.9672
G01 X28.4886 Y-4.9660
G01 X28.5358 Y-4.9626
G01 X28.5844 Y-4.9565
G01 X28.6295 Y-4.9487
G01 X28.6741 Y-4.9386
G01 X28.7213 Y-4.9256
G01 X28.7670 Y-4.9105
G01 X28.8105 Y-4.8937
G01 X28.8523 Y-4.8752
G01 X28.8961 Y-4.8533
G01 X28.9373 Y-4.8299
G01 X28.9760 Y-4.8054
G01 X29.0173 Y-4.7763
G01 X29.0534 Y-4.7482
G01 X29.0893 Y-4.7172
G01 X29.1236 Y-4.6846
G01 X29.1551 Y-4.6514
G01 X29.1882 Y-4.6131
G01 X29.2163 Y-4.5770
G01 X29.2427 Y-4.5396
G01 X29.2697 Y-4.4969
G01 X29.2923 Y-4.4571
G01 X29.3135 Y-4.4148
G01 X29.3327 Y-4.3715
G01 X29.3492 Y-4.3288
G01 X29.3646 Y-4.2823
G01 X29.3776 Y-4.2351
G01 X29.3877 Y-4.1905
G01 X29.3958 Y-4.1438
G01 X29.4016 Y-4.0968
G01 X29.4049 Y-4.0511
G01 X29.4062 Y-4.0014
G01 X29.4050 Y-3.9548
G01 X29.4017 Y-3.9092
G01 X29.3958 Y-3.8606
G01 X29.3873 Y-3.8124
G01 X29.3773 Y-3.7677
G01 X29.3651 Y-3.7236
G01 X29.3492 Y-3.6756
G01 X29.3327 Y-3.6329
G01 X29.3142 Y-3.5911
G01 X29.2923 Y-3.5473
G01 X29.2681 Y-3.5047
G01 X29.2436 Y-3.4661
G01 X29.2163 Y-3.4274
G01 X29.1872 Y-3.3900
G01 X29.1573 Y-3.3553
G01 X29.1236 Y-3.3198
G01 X29.0904 Y-3.2883
G01 X29.0521 Y-3.2552
G01 X29.0160 Y-3.2271
G01 X28.9773 Y-3.1998
G01 X28.9373 Y-3.1745
G01 X28.8961 Y-3.1511
G01 X28.8538 Y-3.1299
G01 X28.8105 Y-3.1107
G01 X28.7663 Y-3.0936
G01 X28.7313 Y-3.0820
G01 X28.7313 Y-2.9288
G01 X29.0718 Y-2.9286
G01 X29.0866 Y-2.9255
G01 X29.1010 Y-2.9187
G01 X29.1127 Y-2.9092
G01 X29.1220 Y-2.8972
G01 X29.1259 Y-2.8894
G01 X29.1288 Y-2.8811
G01 X29.1305 Y-2.8733
G01 X29.1312 Y-2.8646
G01 X29.1312 Y-1.8659
G01 X29.6440 Y-1.4263
G01 X51.5959 Y-1.4263
G01 X51.5960 Y-3.3609
G01 X49.3548 Y-5.5791
G01 X46.7120 Y-5.5791
G01 X46.6909 Y-5.5802
G01 X46.6700 Y-5.5833
G01 X46.6411 Y-5.5912
G01 X46.6186 Y-5.6005
G01 X46.5925 Y-5.6154
G01 X46.5688 Y-5.6338
G01 X46.4197 Y-5.7827
G01 X46.4112 Y-5.7925
G01 X46.4006 Y-5.8069
G01 X46.3884 Y-5.8270
G01 X46.3798 Y-5.8454
G01 X46.3722 Y-5.8668
G01 X46.3673 Y-5.8873
G01 X46.3638 Y-5.9156
G01 X46.3634 Y-6.1689
G01 X43.0835 Y-6.1727
G01 X43.0725 Y-6.1698
G01 X43.0614 Y-6.1688
G01 X41.9614 Y-6.1688
G01 X41.9487 Y-6.1700
G01 X41.9359 Y-6.1740
G01 X39.3237 Y-6.1771
G01 X39.2879 Y-6.1789
G01 X39.2540 Y-6.1839
G01 X39.2334 Y-6.1885
G01 X39.2007 Y-6.1985
G01 X39.1690 Y-6.2116
G01 X39.1502 Y-6.2211
G01 X39.1209 Y-6.2388
G01 X39.0934 Y-6.2592
G01 X39.0782 Y-6.2723
G01 X39.0032 Y-6.2723
G01 X38.9905 Y-6.2737
G01 X38.9791 Y-6.2772
G01 X38.9679 Y-6.2833
G01 X38.9586 Y-6.2908
G01 X38.9509 Y-6.2999
G01 X38.9459 Y-6.3081
G01 X38.9425 Y-6.3162
G01 X38.9401 Y-6.3254
G01 X38.9390 Y-6.3349
G01 X38.9390 Y-6.6713
G01 X38.2592 Y-6.6705
G01 X38.2588 Y-6.2777
G01 X38.2571 Y-6.2683
G01 X38.2536 Y-6.2586
G01 X38.2491 Y-6.2501
G01 X38.2429 Y-6.2418
G01 X38.2354 Y-6.2347
G01 X38.2269 Y-6.2287
G01 X38.2183 Y-6.2245
G01 X38.2084 Y-6.2215
G01 X38.1942 Y-6.2199
G01 X36.8942 Y-6.2199
G01 X36.8831 Y-6.2209
G01 X36.8723 Y-6.2237
G01 X36.8629 Y-6.2280
G01 X36.8536 Y-6.2342
G01 X36.8455 Y-6.2418
G01 X36.8389 Y-6.2508
G01 X36.8338 Y-6.2608
G01 X36.8306 Y-6.2714
G01 X36.8292 Y-6.2825
G01 X36.8296 Y-7.6921
G01 X36.8318 Y-7.7030
G01 X36.8361 Y-7.7141
G01 X36.8425 Y-7.7243
G01 X36.8500 Y-7.7325
G01 X36.8588 Y-7.7394
G01 X36.8693 Y-7.7450
G01 X36.8800 Y-7.7483
G01 X36.8918 Y-7.7499
G01 X38.1942 Y-7.7499
G01 X38.2061 Y-7.7488
G01 X38.2161 Y-7.7461
G01 X38.2255 Y-7.7418
G01 X38.2342 Y-7.7361
G01 X38.2418 Y-7.7291
G01 X38.2482 Y-7.7210
G01 X38.2533 Y-7.7120
G01 X38.2568 Y-7.7022
G01 X38.2587 Y-7.6929
G01 X38.2592 Y-7.3008
G01 X38.9390 Y-7.3015
G01 X38.9395 Y-7.6453
G01 X38.9414 Y-7.6546
G01 X38.9449 Y-7.6644
G01 X38.9500 Y-7.6734
G01 X38.9558 Y-7.6810
G01 X38.9628 Y-7.6875
G01 X38.9713 Y-7.6935
G01 X38.9799 Y-7.6977
G01 X38.9890 Y-7.7005
G01 X39.0040 Y-7.7023
G01 X40.6040 Y-7.7023
G01 X40.6167 Y-7.7011
G01 X40.6274 Y-7.6979
G01 X40.6367 Y-7.6935
G01 X40.6452 Y-7.6875
G01 X40.6532 Y-7.6798
G01 X40.6593 Y-7.6714
G01 X40.6641 Y-7.6622
G01 X40.6672 Y-7.6523
G01 X40.6689 Y-7.6413
G01 X40.6690 Y-6.9058
G01 X46.3877 Y-6.8991
G01 X47.1024 Y-7.6131
G01 X47.1282 Y-7.6343
G01 X47.1441 Y-7.6456
G01 X47.1735 Y-7.6633
G01 X47.1909 Y-7.6721
G01 X47.2087 Y-7.6799
G01 X47.2410 Y-7.6914
G01 X47.2742 Y-7.6998
G01 X47.2942 Y-7.7033
G01 X47.3275 Y-7.7066
G01 X47.3470 Y-7.7071
G01 X51.0800 Y-7.7071
G01 X51.1158 Y-7.7054
G01 X51.1336 Y-7.7032
G01 X51.1543 Y-7.6995
G01 X52.0619 Y-7.7049
G01 X52.0618 Y-8.5655
G01 X51.0645 Y-8.5688
G01 X50.6614 Y-8.5688
G01 X50.6503 Y-8.5698
G01 X50.6388 Y-8.5729
G01 X50.6273 Y-8.5785
G01 X50.6172 Y-8.5862
G01 X50.5149 Y-8.6884
G01 X50.5092 Y-8.6951
G01 X50.5048 Y-8.7018
G01 X50.5010 Y-8.7097
G01 X50.4983 Y-8.7180
G01 X50.4964 Y-8.7338
G01 X50.4964 Y-9.1338
G01 X50.4982 Y-9.1488
G01 X50.5008 Y-9.1572
G01 X50.5041 Y-9.1644
G01 X50.5132 Y-9.1775
G01 X50.6166 Y-9.2809
G01 X50.6253 Y-9.2878
G01 X50.6351 Y-9.2932
G01 X50.6456 Y-9.2969
G01 X50.6566 Y-9.2986
G01 X51.7614 Y-9.2988
G01 X51.7694 Y-9.2983
G01 X51.7777 Y-9.2967
G01 X52.4282 Y-9.2946
G01 X52.4476 Y-9.2941
G01 X52.4816 Y-9.2905
G01 X52.5167 Y-9.2835
G01 X52.5509 Y-9.2730
G01 X52.5824 Y-9.2599
G01 X52.6140 Y-9.2431
G01 X52.6318 Y-9.2318
G01 X52.6592 Y-9.2114
G01 X52.6845 Y-9.1884
G01 X52.7086 Y-9.1620
G01 X52.7215 Y-9.1453
G01 X52.7404 Y-9.1169
G01 X52.7572 Y-9.0853
G01 X52.7703 Y-9.0538
G01 X52.7769 Y-9.0338
G01 X52.7852 Y-9.0006
G01 X52.7904 Y-8.9652
G01 X52.7921 Y-8.9295
G01 X52.7917 Y-7.3234
G01 X52.7882 Y-7.2886
G01 X52.7813 Y-7.2536
G01 X52.7710 Y-7.2194
G01 X52.7574 Y-7.1864
G01 X52.7406 Y-7.1549
G01 X52.7208 Y-7.1252
G01 X52.6983 Y-7.0975
G01 X52.6737 Y-7.0728
G01 X52.6468 Y-7.0505
G01 X52.6297 Y-7.0383
G01 X52.6005 Y-7.0207
G01 X52.5683 Y-7.0053
G01 X52.5362 Y-6.9936
G01 X52.5160 Y-6.9879
G01 X52.4826 Y-6.9811
G01 X52.4478 Y-6.9774
G01 X51.7843 Y-6.9730
G01 X51.7733 Y-6.9699
G01 X51.7614 Y-6.9688
G01 X50.6614 Y-6.9688
G01 X50.6456 Y-6.9707
G01 X50.6380 Y-6.9732
G01 X50.6301 Y-6.9769
G01 X49.9451 Y-6.9768
G01 X49.8639 Y-6.8957
G01 X49.8639 Y-5.9621
G01 X52.1333 Y-3.7158
G01 X52.1538 Y-3.6934
G01 X52.1724 Y-3.6685
G01 X52.1885 Y-3.6418
G01 X52.2016 Y-3.6145
G01 X52.2125 Y-3.5844
G01 X52.2201 Y-3.5543
G01 X52.2247 Y-3.5235
G01 X52.2262 Y-3.4932
G01 X52.2261 Y-1.4263
G01 X56.6760 Y-1.4263
G01 X56.6760 Y-8.7312
G01 X56.6776 Y-8.7628
G01 X56.6823 Y-8.7941
G01 X56.6902 Y-8.8248
G01 X56.7011 Y-8.8545
G01 X56.7149 Y-8.8829
G01 X56.7311 Y-8.9092
G01 X58.3796 Y-11.3043
G01 X58.3796 Y-12.5084
G01 X58.3803 Y-12.5171
G01 X58.3824 Y-12.5265
G01 X58.3855 Y-12.5347
G01 X58.3901 Y-12.5430
G01 X58.4004 Y-12.5552
G01 X58.4126 Y-12.5642
G01 X58.4273 Y-12.5702
G01 X58.4422 Y-12.5726
G01 X59.1125 Y-12.5726
G01 X59.5180 Y-13.5139
G01 X59.5067 Y-13.5242
G01 X59.4982 Y-13.5368
G01 X59.4928 Y-13.5509
G01 X59.4909 Y-13.5659
G01 X59.4909 Y-15.1683
G01 X59.4927 Y-15.1817
G01 X59.4975 Y-15.1952
G01 X59.5047 Y-15.2067
G01 X59.5141 Y-15.2164
G01 X59.5253 Y-15.2240
G01 X59.5378 Y-15.2291
G01 X59.5503 Y-15.2315
G01 X59.5657 Y-15.2317
G01 X58.7633 Y-17.1838
G01 X58.7573 Y-17.1996
G01 X58.7490 Y-17.2276
G01 X58.7428 Y-17.2593
G01 X58.7401 Y-17.2867
G01 X58.7397 Y-17.3028
G01 X58.7397 Y-17.7633
G01 X58.6961 Y-17.7639
G01 X58.6829 Y-17.7671
G01 X58.6707 Y-17.7730
G01 X58.6583 Y-17.7829
G01 X58.6490 Y-17.7949
G01 X58.6428 Y-17.8087
G01 X58.6399 Y-17.8243
G01 X58.6398 Y-18.8979
G01 X57.2744 Y-20.2660
G01 X57.2623 Y-20.2801
G01 X57.2458 Y-20.3024
G01 X57.2283 Y-20.3316
G01 X57.2164 Y-20.3567
G01 X57.2103 Y-20.3725
G01 X57.2017 Y-20.4006
G01 X57.1978 Y-20.4180
G01 X57.1934 Y-20.4477
G01 X57.1919 Y-20.4786
G01 X57.1919 Y-27.8232
G01 X53.4307 Y-27.8232
G01 X52.3617 Y-26.7542
G01 X52.3388 Y-26.7334
G01 X52.3146 Y-26.7154
G01 X52.2860 Y-26.6983
G01 X52.2722 Y-26.6915
G01 X52.2466 Y-26.6809
G01 X52.2155 Y-26.6713
G01 X52.1836 Y-26.6651
G01 X52.1560 Y-26.6624
G01 X52.1397 Y-26.6619
G01 X51.9006 Y-26.6619
G01 X51.9006 Y-26.5755
G01 X51.8994 Y-26.5652
G01 X51.8968 Y-26.5560
G01 X51.8933 Y-26.5480
G01 X51.8887 Y-26.5405
G01 X51.8832 Y-26.5337
G01 X51.8774 Y-26.5282
G01 X51.8704 Y-26.5230
G01 X51.8634 Y-26.5191
G01 X51.8552 Y-26.5159
G01 X51.8467 Y-26.5139
G01 X51.8356 Y-26.5129
G01 X51.1851 Y-26.5129
G01 X50.4094 Y-25.7372
G01 X50.7999 Y-25.3463
G01 X50.8138 Y-25.3294
G01 X50.8256 Y-25.3119
G01 X50.8355 Y-25.2933
G01 X50.8430 Y-25.2753
G01 X50.8497 Y-25.2536
G01 X50.8538 Y-25.2329
G01 X50.8559 Y-25.2119
G01 X50.8558 Y-25.1892
G01 X50.8523 Y-25.1609
G01 X50.8474 Y-25.1404
G01 X50.8398 Y-25.1190
G01 X50.8308 Y-25.0999
G01 X50.8199 Y-25.0818
G01 X50.8074 Y-25.0649
G01 X50.7932 Y-25.0492
G01 X50.7763 Y-25.0340
G01 X50.7530 Y-25.0177
G01 X50.7345 Y-25.0076
G01 X50.7136 Y-24.9988
G01 X50.6941 Y-24.9929
G01 X50.6711 Y-24.9883
G01 X50.6427 Y-24.9862
G01 X50.6200 Y-24.9873
G01 X50.5976 Y-24.9907
G01 X50.5702 Y-24.9983
G01 X50.5491 Y-25.0069
G01 X50.5292 Y-25.0177
G01 X50.5059 Y-25.0340
G01 X50.4890 Y-25.0492
G01 X49.9962 Y-25.5420
G01 X49.0150 Y-25.5420
G01 X49.0064 Y-25.5368
G01 X48.9968 Y-25.5329
G01 X48.9867 Y-25.5306
G01 X48.9772 Y-25.5299
G01 X48.3764 Y-25.5299
G01 X48.3645 Y-25.5311
G01 X48.3523 Y-25.5348
G01 X48.3438 Y-25.5391
G01 X48.3360 Y-25.5447
G01 X48.3290 Y-25.5512
G01 X48.3232 Y-25.5588
G01 X48.3188 Y-25.5664
G01 X48.3152 Y-25.5753
G01 X48.3130 Y-25.5846
G01 X48.3122 Y-25.5941
G01 X48.3121 Y-27.2088
G01 X48.3057 Y-27.2379
G01 X48.3042 Y-27.2500
G01 X48.3033 Y-27.2687
G01 X48.3033 Y-28.2648
G01 X46.8840 Y-29.1988
G01 X46.8680 Y-29.2116
G01 X46.8580 Y-29.2211
G01 X46.8447 Y-29.2356
G01 X46.8320 Y-29.2526
G01 X46.8210 Y-29.2708
G01 X46.8125 Y-29.2886
G01 X46.8075 Y-29.3015
G01 X46.8014 Y-29.3218
G01 X46.7965 Y-29.3501
G01 X46.7952 Y-29.3721
G01 X46.7952 Y-30.0476
G01 X46.7956 Y-30.0597
G01 X46.7974 Y-30.0784
G01 X46.8034 Y-30.1062
G01 X46.8034 Y-32.0017
G01 X46.8048 Y-32.0136
G01 X46.8083 Y-32.0250
G01 X46.8144 Y-32.0362
G01 X46.8219 Y-32.0455
G01 X46.8316 Y-32.0537
G01 X46.8421 Y-32.0595
G01 X46.8534 Y-32.0633
G01 X46.8652 Y-32.0650
G01 X47.1684 Y-32.0651
G01 X47.1779 Y-32.0644
G01 X47.1880 Y-32.0621
G01 X47.1976 Y-32.0582
G01 X47.2065 Y-32.0528
G01 X47.2144 Y-32.0461
G01 X47.2211 Y-32.0382
G01 X47.2265 Y-32.0293
G01 X47.2306 Y-32.0190
G01 X47.2328 Y-32.0088
G01 X47.2334 Y-32.0001
G01 X47.2334 Y-30.0001
G01 X47.2315 Y-29.9843
G01 X47.2290 Y-29.9767
G01 X47.2254 Y-29.9688
G01 X47.2254 Y-29.4888
G01 X48.6366 Y-28.5604
G01 X48.6466 Y-28.5533
G01 X48.6619 Y-28.5409
G01 X48.6759 Y-28.5272
G01 X48.6840 Y-28.5180
G01 X48.6958 Y-28.5023
G01 X48.7024 Y-28.4920
G01 X48.7118 Y-28.4747
G01 X48.7175 Y-28.4621
G01 X48.7241 Y-28.4436
G01 X48.7289 Y-28.4245
G01 X48.7313 Y-28.4109
G01 X48.7332 Y-28.3921
G01 X48.7335 Y-27.6599
G01 X48.9780 Y-27.6599
G01 X48.9931 Y-27.6579
G01 X50.1706 Y-27.6579
G01 X50.1706 Y-27.8779
G01 X50.1720 Y-27.8914
G01 X50.1750 Y-27.9013
G01 X50.1794 Y-27.9106
G01 X50.1854 Y-27.9191
G01 X50.1925 Y-27.9266
G01 X50.2008 Y-27.9328
G01 X50.2100 Y-27.9376
G01 X50.2198 Y-27.9410
G01 X50.2300 Y-27.9427
G01 X51.8428 Y-27.9425
G01 X51.8537 Y-27.9403
G01 X51.8641 Y-27.9363
G01 X51.8737 Y-27.9306
G01 X51.8821 Y-27.9233
G01 X51.8892 Y-27.9147
G01 X51.8947 Y-27.9050
G01 X51.8985 Y-27.8945
G01 X51.9004 Y-27.8835
G01 X51.9006 Y-27.2921
G01 X52.0084 Y-27.2921
G01 X53.0880 Y-28.3713
G01 X53.1015 Y-28.3829
G01 X53.1238 Y-28.3994
G01 X53.1531 Y-28.4170
G01 X53.1781 Y-28.4288
G01 X53.1940 Y-28.4350
G01 X53.2221 Y-28.4436
G01 X53.2395 Y-28.4475
G01 X53.2693 Y-28.4519
G01 X53.3002 Y-28.4534
G01 X57.5086 Y-28.4534
G01 X57.5395 Y-28.4517
G01 X57.5548 Y-28.4498
G01 X57.5820 Y-28.4443
G01 X57.6132 Y-28.4350
G01 X57.6417 Y-28.4232
G01 X57.6704 Y-28.4078
G01 X57.6934 Y-28.3923
G01 X57.7057 Y-28.3829
G01 X57.7298 Y-28.3611
G01 X57.7511 Y-28.3376
G01 X57.7690 Y-28.3134
G01 X57.7841 Y-28.2882
G01 X57.7925 Y-28.2716
G01 X57.8037 Y-28.2445
G01 X57.8123 Y-28.2164
G01 X57.8164 Y-28.1982
G01 X57.8206 Y-28.1692
G01 X57.8221 Y-28.1391
G01 X57.8221 Y-20.6090
G01 X58.6399 Y-19.7899
G01 X58.6399 Y-20.0283
G01 X58.6406 Y-20.0378
G01 X58.6425 Y-20.0464
G01 X58.6458 Y-20.0554
G01 X58.6500 Y-20.0631
G01 X58.6557 Y-20.0708
G01 X58.6618 Y-20.0770
G01 X58.6695 Y-20.0828
G01 X58.6771 Y-20.0871
G01 X58.6853 Y-20.0903
G01 X58.6946 Y-20.0925
G01 X58.7049 Y-20.0933
G01 X59.4081 Y-20.0932
G01 X59.4168 Y-20.0922
G01 X59.4253 Y-20.0900
G01 X59.4334 Y-20.0867
G01 X59.4410 Y-20.0823
G01 X59.4480 Y-20.0770
G01 X59.4546 Y-20.0701
G01 X59.4598 Y-20.0631
G01 X59.4640 Y-20.0554
G01 X59.4683 Y-20.0425
G01 X59.4699 Y-20.0283
G01 X59.4698 Y-17.8259
G01 X59.4674 Y-17.8110
G01 X59.4614 Y-17.7963
G01 X59.4519 Y-17.7835
G01 X59.4396 Y-17.7734
G01 X59.4274 Y-17.7674
G01 X59.4143 Y-17.7640
G01 X59.4056 Y-17.7633
G01 X59.3699 Y-17.7633
G01 X59.3699 Y-17.3658
G01 X60.2471 Y-15.2317
G01 X60.8567 Y-15.2317
G01 X60.8662 Y-15.2309
G01 X60.8755 Y-15.2287
G01 X60.8837 Y-15.2255
G01 X60.8920 Y-15.2207
G01 X60.9030 Y-15.2115
G01 X60.9121 Y-15.1994
G01 X60.9181 Y-15.1856
G01 X60.9208 Y-15.1707
G01 X60.9209 Y-14.7819
G01 X65.4048 Y-14.7819
G01 X65.4267 Y-14.7813
G01 X65.4640 Y-14.7776
G01 X65.4856 Y-14.7739
G01 X65.5063 Y-14.7693
G01 X65.5444 Y-14.7577
G01 X65.5820 Y-14.7422
G01 X72.0961 Y-11.6681
G01 X72.1187 Y-11.6895
G01 X72.1577 Y-11.7231
G01 X72.2001 Y-11.7563
G01 X72.2422 Y-11.7859
G01 X72.2850 Y-11.8130
G01 X72.3326 Y-11.8400
G01 X72.3786 Y-11.8631
G01 X72.4249 Y-11.8837
G01 X72.4751 Y-11.9031
G01 X72.5263 Y-11.9200
G01 X72.5751 Y-11.9335
G01 X72.6253 Y-11.9448
G01 X72.6792 Y-11.9541
G01 X72.7295 Y-11.9603
G01 X72.7801 Y-11.9640
G01 X72.8339 Y-11.9654
G01 X72.8877 Y-11.9640
G01 X72.9383 Y-11.9603
G01 X72.9886 Y-11.9541
G01 X73.0417 Y-11.9449
G01 X73.0927 Y-11.9335
G01 X73.1415 Y-11.9200
G01 X73.1934 Y-11.9029
G01 X73.2415 Y-11.8843
G01 X73.2878 Y-11.8638
G01 X73.3359 Y-11.8396
G01 X73.3828 Y-11.8130
G01 X73.4256 Y-11.7859
G01 X73.4683 Y-11.7558
G01 X73.5095 Y-11.7237
G01 X73.5479 Y-11.6906
G01 X73.5870 Y-11.6535
G01 X73.6230 Y-11.6156
G01 X73.6561 Y-11.5772
G01 X73.6898 Y-11.5342
G01 X73.7194 Y-11.4921
G01 X73.7482 Y-11.4465
G01 X73.7739 Y-11.4010
G01 X73.7966 Y-11.3557
G01 X73.8172 Y-11.3094
G01 X73.8366 Y-11.2592
G01 X73.8530 Y-11.2096
G01 X73.8670 Y-11.1592
G01 X73.8784 Y-11.1082
G01 X73.8874 Y-11.0567
G01 X73.8938 Y-11.0048
G01 X73.8976 Y-10.9527
G01 X73.8989 Y-10.8988
G01 X73.8976 Y-10.8481
G01 X73.8936 Y-10.7944
G01 X73.8871 Y-10.7426
G01 X73.8784 Y-10.6926
G01 X73.8692 Y-10.6513
G01 X74.7430 Y-9.7594
G01 X75.2139 Y-9.6478
G01 X75.2466 Y-9.6789
G01 X75.2862 Y-9.7131
G01 X75.3274 Y-9.7452
G01 X75.3701 Y-9.7753
G01 X75.4143 Y-9.8033
G01 X75.4598 Y-9.8290
G01 X75.5065 Y-9.8525
G01 X75.5542 Y-9.8737
G01 X75.6030 Y-9.8925
G01 X75.6526 Y-9.9089
G01 X75.7030 Y-9.9229
G01 X75.7540 Y-9.9343
G01 X75.8055 Y-9.9433
G01 X75.8574 Y-9.9497
G01 X75.9095 Y-9.9535
G01 X75.9618 Y-9.9548
G01 X76.0141 Y-9.9535
G01 X76.0646 Y-9.9498
G01 X76.1181 Y-9.9433
G01 X76.1711 Y-9.9340
G01 X76.2206 Y-9.9229
G01 X76.2694 Y-9.9094
G01 X76.3221 Y-9.8920
G01 X76.3694 Y-9.8737
G01 X76.4157 Y-9.8532
G01 X76.4638 Y-9.8290
G01 X76.5164 Y-9.7988
G01 X78.7407 Y-9.7988
G01 X78.7560 Y-9.7977
G01 X78.7694 Y-9.7950
G01 X78.7839 Y-9.7901
G01 X78.7983 Y-9.7829
G01 X78.8097 Y-9.7752
G01 X78.8212 Y-9.7651
G01 X80.1712 Y-8.4152
G01 X80.1817 Y-8.4029
G01 X80.1900 Y-8.3900
G01 X80.1959 Y-8.3777
G01 X80.2009 Y-8.3623
G01 X80.2036 Y-8.3473
G01 X80.2043 Y-8.3344
G01 X80.2043 Y-4.1354
G01 X81.7641 Y-2.5756
G01 X84.9629 Y-2.5756
G01 X86.2449 Y-3.8576
G01 X86.2449 Y-7.7796
G01 X86.2460 Y-7.7949
G01 X86.2485 Y-7.8075
G01 X86.2533 Y-7.8221
G01 X86.2588 Y-7.8337
G01 X86.2670 Y-7.8467
G01 X86.2752 Y-7.8566
G01 X86.2863 Y-7.8672
G01 X86.2967 Y-7.8749
G01 X86.3107 Y-7.8828
G01 X86.3265 Y-7.8889
G01 X86.3430 Y-7.8926
G01 X86.3599 Y-7.8938
G01 X89.8962 Y-7.8938
G01 X89.8962 Y-12.8596
G01 X89.8977 Y-12.8773
G01 X89.9024 Y-12.8960
G01 X89.9094 Y-12.9123
G01 X89.9188 Y-12.9273
G01 X89.9304 Y-12.9407
G01 X89.9440 Y-12.9521
G01 X89.9606 Y-12.9621
G01 X89.9770 Y-12.9686
G01 X89.9943 Y-12.9726
G01 X90.0112 Y-12.9738
G01 X91.9210 Y-12.9737
G01 X91.9379 Y-12.9718
G01 X91.9534 Y-12.9676
G01 X91.9668 Y-12.9621
G01 X91.9814 Y-12.9535
G01 X91.9940 Y-12.9435
G01 X92.0056 Y-12.9312
G01 X92.0153 Y-12.9172
G01 X92.0228 Y-12.9021
G01 X92.0263 Y-12.8922
G01 X92.0290 Y-12.8812
G01 X92.0307 Y-12.8701
G01 X92.0312 Y-12.8588
G01 X92.0312 Y-7.8938
G01 X98.2670 Y-7.8938
G01 X98.2775 Y-7.8933
G01 X98.2886 Y-7.8916
G01 X98.2996 Y-7.8889
G01 X98.3102 Y-7.8851
G01 X98.3204 Y-7.8802
G01 X98.3294 Y-7.8749
G01 X98.3386 Y-7.8682
G01 X98.3464 Y-7.8612
G01 X98.3595 Y-7.8460
G01 X98.3653 Y-7.8372
G01 X98.3705 Y-7.8273
G01 X98.3745 Y-7.8176
G01 X98.3778 Y-7.8067
G01 X98.3800 Y-7.7957
G01 X98.3811 Y-7.7844
G01 X98.3812 Y-0.9517
G01 X98.3799 Y-0.9348
G01 X98.3758 Y-0.9176
G01 X98.3684 Y-0.8997
G01 X98.3591 Y-0.8846
G01 X98.3475 Y-0.8712
G01 X98.3347 Y-0.8601
G01 X98.3197 Y-0.8507
G01 X98.3034 Y-0.8437
G01 X98.2839 Y-0.8388
G01 X98.2662 Y-0.8375
G01 X77.7874 Y-0.8375
G01 X77.7698 Y-0.8388
G01 X77.7596 Y-0.8409
G01 X77.7489 Y-0.8441
G01 X77.7385 Y-0.8484
G01 X77.7286 Y-0.8537
G01 X77.7192 Y-0.8599
G01 X77.7105 Y-0.8669
G01 X77.7025 Y-0.8748
G01 X77.6959 Y-0.8829
G01 X77.2182 Y-1.5198
G01 X77.2100 Y-1.5329
G01 X77.2033 Y-1.5477
G01 X77.1993 Y-1.5609
G01 X77.1967 Y-1.5761
G01 X77.1962 Y-1.5875
G01 X77.1962 Y-6.9374
G01 X76.2646 Y-7.8689
G01 X76.2206 Y-7.8567
G01 X76.1696 Y-7.8453
G01 X76.1181 Y-7.8363
G01 X76.0662 Y-7.8299
G01 X76.0141 Y-7.8261
G01 X75.9618 Y-7.8248
G01 X75.9095 Y-7.8261
G01 X75.8574 Y-7.8299
G01 X75.8055 Y-7.8363
G01 X75.7540 Y-7.8453
G01 X75.7030 Y-7.8567
G01 X75.6526 Y-7.8707
G01 X75.6030 Y-7.8871
G01 X75.5542 Y-7.9059
G01 X75.5065 Y-7.9271
G01 X75.4598 Y-7.9506
G01 X75.4143 Y-7.9763
G01 X75.3701 Y-8.0043
G01 X75.3274 Y-8.0344
G01 X75.2862 Y-8.0665
G01 X75.2466 Y-8.1007
G01 X75.2087 Y-8.1367
G01 X75.1727 Y-8.1746
G01 X75.1391 Y-8.2136
G01 X75.1064 Y-8.2554
G01 X75.0763 Y-8.2981
G01 X75.0483 Y-8.3423
G01 X75.0229 Y-8.3871
G01 X74.9991 Y-8.4345
G01 X74.9782 Y-8.4815
G01 X74.9593 Y-8.5303
G01 X74.9535 Y-8.5477
G01 X74.3233 Y-8.6970
G01 X74.2946 Y-8.7046
G01 X74.2678 Y-8.7132
G01 X74.2407 Y-8.7234
G01 X74.2142 Y-8.7349
G01 X74.1883 Y-8.7479
G01 X74.1631 Y-8.7621
G01 X74.1387 Y-8.7776
G01 X74.1151 Y-8.7943
G01 X74.0937 Y-8.8112
G01 X74.0706 Y-8.8313
G01 X74.0498 Y-8.8514
G01 X73.0615 Y-9.8603
G01 X73.0409 Y-9.8557
G01 X72.9910 Y-9.8470
G01 X72.9391 Y-9.8406
G01 X72.8862 Y-9.8367
G01 X72.8347 Y-9.8354
G01 X72.7816 Y-9.8367
G01 X72.7295 Y-9.8405
G01 X72.6776 Y-9.8469
G01 X72.6269 Y-9.8557
G01 X72.5751 Y-9.8673
G01 X72.5247 Y-9.8813
G01 X72.4751 Y-9.8977
G01 X72.4263 Y-9.9165
G01 X72.3786 Y-9.9377
G01 X72.3319 Y-9.9612
G01 X72.2864 Y-9.9869
G01 X72.2422 Y-10.0149
G01 X72.1995 Y-10.0450
G01 X72.1571 Y-10.0782
G01 X72.1187 Y-10.1113
G01 X72.0820 Y-10.1462
G01 X72.0448 Y-10.1852
G01 X72.0096 Y-10.2260
G01 X71.9785 Y-10.2660
G01 X71.9493 Y-10.3074
G01 X71.9204 Y-10.3529
G01 X71.8947 Y-10.3984
G01 X71.8712 Y-10.4451
G01 X71.8494 Y-10.4943
G01 X71.8312 Y-10.5416
G01 X71.8152 Y-10.5897
G01 X71.8008 Y-10.6416
G01 X71.7891 Y-10.6942
G01 X71.7804 Y-10.7441
G01 X71.7742 Y-10.7944
G01 X71.7702 Y-10.8481
G01 X71.7690 Y-10.9043
G01 X65.3118 Y-13.9515
G01 X60.9209 Y-13.9515
G01 X60.9207 Y-13.5619
G01 X60.9179 Y-13.5471
G01 X60.9117 Y-13.5333
G01 X60.9019 Y-13.5207
G01 X60.8900 Y-13.5114
G01 X60.8822 Y-13.5073
G01 X60.8740 Y-13.5043
G01 X60.8654 Y-13.5024
G01 X60.8567 Y-13.5017
G01 X60.1990 Y-13.5017
G01 X59.7905 Y-12.5536
G01 X59.7986 Y-12.5437
G01 X59.8047 Y-12.5325
G01 X59.8084 Y-12.5203
G01 X59.8096 Y-12.5076
G01 X59.8096 Y-10.9068
G01 X59.8088 Y-10.8973
G01 X59.8066 Y-10.8880
G01 X59.8030 Y-10.8791
G01 X59.7982 Y-10.8708
G01 X59.7877 Y-10.8589
G01 X59.7752 Y-10.8503
G01 X59.7612 Y-10.8447
G01 X59.7462 Y-10.8426
G01 X58.8270 Y-10.8426
G01 X57.3062 Y-8.6332
G01 X57.3062 Y-7.4984
G01 X60.3083 Y-7.4984
G01 X60.3089 Y-7.5420
G01 X60.3121 Y-7.5552
G01 X60.3180 Y-7.5674
G01 X60.3279 Y-7.5798
G01 X60.3399 Y-7.5891
G01 X60.3544 Y-7.5955
G01 X60.3701 Y-7.5982
G01 X62.5813 Y-7.5978
G01 X62.5922 Y-7.5955
G01 X62.6025 Y-7.5914
G01 X62.6120 Y-7.5855
G01 X62.6204 Y-7.5781
G01 X62.6273 Y-7.5694
G01 X62.6327 Y-7.5596
G01 X62.6364 Y-7.5491
G01 X62.6381 Y-7.5381
G01 X62.6383 Y-6.8333
G01 X62.6376 Y-6.8238
G01 X62.6357 Y-6.8152
G01 X62.6321 Y-6.8055
G01 X62.6269 Y-6.7965
G01 X62.6209 Y-6.7891
G01 X62.6133 Y-6.7821
G01 X62.6046 Y-6.7764
G01 X62.5952 Y-6.7721
G01 X62.5852 Y-6.7694
G01 X62.5749 Y-6.7683
G01 X60.3725 Y-6.7683
G01 X60.3567 Y-6.7704
G01 X60.3420 Y-6.7764
G01 X60.3291 Y-6.7857
G01 X60.3188 Y-6.7979
G01 X60.3124 Y-6.8107
G01 X60.3090 Y-6.8238
G01 X60.3083 Y-6.8325
G01 X60.3083 Y-6.8682
G01 X57.3062 Y-6.8682
G01 X57.3059 Y-1.0965
G01 X57.3045 Y-1.0787
G01 X57.3002 Y-1.0497
G01 X57.2931 Y-1.0213
G01 X57.2872 Y-1.0035
G01 X57.2760 Y-0.9765
G01 X57.2622 Y-0.9506
G01 X57.2522 Y-0.9348
G01 X57.2347 Y-0.9113
G01 X57.2150 Y-0.8895
G01 X57.2027 Y-0.8777
G01 X57.1801 Y-0.8591
G01 X57.1648 Y-0.8483
G01 X57.1396 Y-0.8333
G01 X57.1132 Y-0.8207
G01 X57.0958 Y-0.8140
G01 X57.0684 Y-0.8057
G01 X57.0358 Y-0.7993
G01 X57.0082 Y-0.7966
G01 X56.9911 Y-0.7961
G01 X52.0642 Y-0.7961
G01 X52.0464 Y-0.7869
G01 X52.0308 Y-0.7800
G01 X52.0156 Y-0.7742
G01 X51.9883 Y-0.7659
G01 X51.9556 Y-0.7595
G01 X51.9280 Y-0.7568
G01 X51.9110 Y-0.7563
G01 X51.8939 Y-0.7568
G01 X51.8663 Y-0.7595
G01 X51.8336 Y-0.7659
G01 X51.8180 Y-0.7703
G01 X51.7911 Y-0.7800
G01 X51.7755 Y-0.7869
G01 X51.7578 Y-0.7961
G01 X29.5274 Y-0.7961
G01 X29.4964 Y-0.7976
G01 X29.4624 Y-0.8029
G01 X29.4347 Y-0.8100
G01 X29.4181 Y-0.8157
G01 X29.4017 Y-0.8222
G01 X29.3761 Y-0.8348
G01 X29.3469 Y-0.8529
G01 X29.3223 Y-0.8720
G01 X28.9410 Y-1.1988
G01 X27.7646 Y-1.1988
G01 X27.7496 Y-1.2009
G01 X27.7356 Y-1.2065
G01 X27.7231 Y-1.2151
G01 X27.7126 Y-1.2270
G01 X27.7078 Y-1.2353
G01 X27.7042 Y-1.2442
G01 X27.7020 Y-1.2535
G01 X27.7012 Y-1.2638
G01 X27.7012 Y-2.8638
G01 X27.7026 Y-2.8773
G01 X27.7056 Y-2.8872
G01 X27.7096 Y-2.8958
G01 X27.7150 Y-2.9038
G01 X27.7220 Y-2.9114
G01 X27.7301 Y-2.9178
G01 X27.7391 Y-2.9229
G01 X27.7481 Y-2.9262
G01 X27.7582 Y-2.9283
G01 X28.1010 Y-2.9288
G01 X28.1010 Y-3.0994
G01 X28.0719 Y-3.1107
G01 X28.0301 Y-3.1292
G01 X27.9870 Y-3.1508
G01 X27.9451 Y-3.1745
G01 X27.9038 Y-3.2007
G01 X27.8664 Y-3.2271
G01 X27.8303 Y-3.2552
G01 X27.7937 Y-3.2867
G01 X27.7583 Y-3.3204
G01 X27.7267 Y-3.3536
G01 X27.7125 Y-3.3700
G01 X25.0092 Y-3.3716
G01 X24.9887 Y-3.3172
G01 X24.9698 Y-3.2746
G01 X24.9486 Y-3.2323
G01 X24.9252 Y-3.1911
G01 X24.9007 Y-3.1524
G01 X24.8716 Y-3.1111
G01 X24.8435 Y-3.0750
G01 X24.8125 Y-3.0391
G01 X24.7799 Y-3.0048
G01 X24.7467 Y-2.9733
G01 X24.7084 Y-2.9402
G01 X24.6723 Y-2.9121
G01 X24.6323 Y-2.8840
G01 X24.5936 Y-2.8595
G01 X24.5524 Y-2.8361
G01 X24.5101 Y-2.8149
G01 X24.4683 Y-2.7963
G01 X24.4211 Y-2.7781
G01 X24.3776 Y-2.7638
G01 X24.3320 Y-2.7511
G01 X24.2858 Y-2.7407
G01 X24.2391 Y-2.7326
G01 X24.1921 Y-2.7268
G01 X24.1464 Y-2.7235
G01 X24.0959 Y-2.7222
G01 X24.0501 Y-2.7234
G01 X24.0021 Y-2.7269
G01 X23.9559 Y-2.7326
G01 X23.9092 Y-2.7407
G01 X23.8630 Y-2.7511
G01 X23.8159 Y-2.7642
G01 X23.7709 Y-2.7792
G01 X23.7282 Y-2.7957
G01 X23.6864 Y-2.8142
G01 X23.6426 Y-2.8361
G01 X23.6028 Y-2.8587
G01 X23.5614 Y-2.8848
G01 X23.5227 Y-2.9121
G01 X23.4853 Y-2.9412
G01 X23.4494 Y-2.9722
G01 X23.4151 Y-3.0048
G01 X23.3825 Y-3.0391
G01 X23.3515 Y-3.0750
G01 X23.3224 Y-3.1124
G01 X23.2951 Y-3.1511
G01 X23.2698 Y-3.1911
G01 X23.2464 Y-3.2323
G01 X23.2245 Y-3.2761
G01 X23.2060 Y-3.3179
G01 X23.1895 Y-3.3606
G01 X23.1745 Y-3.4056
G01 X23.1614 Y-3.4527
G01 X23.1514 Y-3.4974
G01 X23.1429 Y-3.5456
G01 X23.1371 Y-3.5926
G01 X23.1337 Y-3.6398
G01 X23.1325 Y-3.6872
G01 X23.1337 Y-3.7346
G01 X23.1371 Y-3.7818
G01 X23.1429 Y-3.8288
G01 X23.1514 Y-3.8770
G00 Z2.0000
G00 X23.1514 Y-6.4170
G01 F60.00
G01 Z-0.0600
G01 F20.00
G01 X23.1614 Y-6.4617
G01 X23.1741 Y-6.5073
G01 X23.1889 Y-6.5523
G01 X23.2054 Y-6.5950
G01 X23.2259 Y-6.6412
G01 X23.2464 Y-6.6821
G01 X23.2698 Y-6.7233
G01 X23.2951 Y-6.7633
G01 X23.3215 Y-6.8008
G01 X23.3526 Y-6.8406
G01 X23.3825 Y-6.8753
G01 X23.4151 Y-6.9096
G01 X23.4494 Y-6.9422
G01 X23.4841 Y-6.9721
G01 X23.5227 Y-7.0023
G01 X23.5601 Y-7.0287
G01 X23.6028 Y-7.0557
G01 X23.6426 Y-7.0783
G01 X23.6849 Y-7.0995
G01 X23.7282 Y-7.1187
G01 X23.7709 Y-7.1352
G01 X23.8189 Y-7.1511
G01 X23.8630 Y-7.1633
G01 X23.9092 Y-7.1737
G01 X23.9559 Y-7.1818
G01 X24.0013 Y-7.1874
G01 X24.0517 Y-7.1911
G01 X24.0975 Y-7.1922
G01 X24.1449 Y-7.1910
G01 X24.1921 Y-7.1876
G01 X24.2375 Y-7.1820
G01 X24.2873 Y-7.1733
G01 X24.3320 Y-7.1633
G01 X24.3761 Y-7.1511
G01 X24.4241 Y-7.1352
G01 X24.4668 Y-7.1187
G01 X24.5101 Y-7.0995
G01 X24.5524 Y-7.0783
G01 X24.5922 Y-7.0557
G01 X24.6343 Y-7.0291
G01 X24.6723 Y-7.0023
G01 X24.7097 Y-6.9732
G01 X24.7456 Y-6.9422
G01 X24.7787 Y-6.9107
G01 X24.8136 Y-6.8741
G01 X24.8435 Y-6.8394
G01 X24.8721 Y-6.8027
G01 X24.9007 Y-6.7620
G01 X24.9252 Y-6.7233
G01 X24.9486 Y-6.6821
G01 X24.9698 Y-6.6398
G01 X24.9887 Y-6.5972
G01 X25.0096 Y-6.5418
G01 X25.5451 Y-6.5415
G01 X25.5451 Y-6.6806
G01 X25.5458 Y-6.6893
G01 X25.5477 Y-6.6979
G01 X25.5510 Y-6.7069
G01 X25.5561 Y-6.7159
G01 X25.5619 Y-6.7235
G01 X25.5689 Y-6.7300
G01 X25.5767 Y-6.7356
G01 X25.5852 Y-6.7399
G01 X25.5943 Y-6.7429
G01 X25.6037 Y-6.7445
G01 X27.0101 Y-6.7448
G01 X27.0196 Y-6.7441
G01 X27.0297 Y-6.7418
G01 X27.0393 Y-6.7379
G01 X27.0482 Y-6.7325
G01 X27.0561 Y-6.7258
G01 X27.0628 Y-6.7179
G01 X27.0682 Y-6.7090
G01 X27.0721 Y-6.6994
G01 X27.0743 Y-6.6901
G01 X27.0751 Y-6.6814
G01 X27.0751 Y-6.5406
G01 X27.4762 Y-6.5404
G01 X27.4762 Y-7.4446
G01 X27.4772 Y-7.4533
G01 X27.4792 Y-7.4618
G01 X27.4824 Y-7.4700
G01 X27.4863 Y-7.4770
G01 X27.4915 Y-7.4840
G01 X27.4975 Y-7.4904
G01 X27.5044 Y-7.4958
G01 X27.5120 Y-7.5003
G01 X27.5262 Y-7.5054
G01 X27.5412 Y-7.5072
G01 X29.3412 Y-7.5072
G01 X29.3531 Y-7.5061
G01 X29.3653 Y-7.5026
G01 X29.3739 Y-7.4984
G01 X29.3818 Y-7.4929
G01 X29.3888 Y-7.4864
G01 X29.3948 Y-7.4790
G01 X29.3996 Y-7.4707
G01 X29.4029 Y-7.4626
G01 X29.4052 Y-7.4533
G01 X29.4062 Y-7.4438
G01 X29.4062 Y-5.8107
G01 X29.7736 Y-5.4433
G01 X31.5911 Y-5.4433
G01 X31.6153 Y-5.4416
G01 X31.6382 Y-5.4365
G01 X31.6557 Y-5.4302
G01 X31.6760 Y-5.4199
G01 X31.6907 Y-5.4099
G01 X31.7072 Y-5.3956
G01 X32.3825 Y-4.7203
G01 X32.3934 Y-4.7083
G01 X32.4030 Y-4.6953
G01 X32.4150 Y-4.6742
G01 X32.4237 Y-4.6515
G01 X32.4291 Y-4.6278
G01 X32.4308 Y-4.6044
G01 X32.4308 Y-2.8464
G01 X32.6914 Y-2.5858
G01 X43.5083 Y-2.5858
G01 X43.9239 Y-3.0013
G01 X43.9156 Y-3.3877
G01 X43.7132 Y-3.5901
G01 X43.7065 Y-3.5990
G01 X43.7010 Y-3.6097
G01 X43.6978 Y-3.6203
G01 X43.6964 Y-3.6314
G01 X43.6969 Y-4.7418
G01 X43.6988 Y-4.7511
G01 X43.7020 Y-4.7601
G01 X43.7065 Y-4.7686
G01 X43.7122 Y-4.7763
G01 X43.8160 Y-4.8803
G01 X43.8246 Y-4.8874
G01 X43.8343 Y-4.8929
G01 X43.8448 Y-4.8967
G01 X43.8558 Y-4.8986
G01 X44.2614 Y-4.8988
G01 X44.2772 Y-4.8969
G01 X44.2855 Y-4.8942
G01 X44.2927 Y-4.8907
G01 X44.3001 Y-4.8860
G01 X44.3062 Y-4.8809
G01 X44.4085 Y-4.7786
G01 X44.4154 Y-4.7699
G01 X44.4208 Y-4.7601
G01 X44.4250 Y-4.7473
G01 X44.4264 Y-4.7338
G01 X44.4264 Y-3.6338
G01 X44.4258 Y-3.6251
G01 X44.4238 Y-3.6157
G01 X44.4202 Y-3.6060
G01 X44.4154 Y-3.5977
G01 X44.4096 Y-3.5901
G01 X44.2449 Y-3.4254
G01 X44.2554 Y-2.9304
G01 X44.2538 Y-2.9114
G01 X44.2490 Y-2.8886
G01 X44.2409 Y-2.8667
G01 X44.2321 Y-2.8498
G01 X44.2193 Y-2.8313
G01 X44.2071 Y-2.8177
G01 X43.6881 Y-2.2990
G01 X43.6684 Y-2.2836
G01 X43.6458 Y-2.2709
G01 X43.6323 Y-2.2654
G01 X43.6183 Y-2.2611
G01 X43.5937 Y-2.2566
G01 X43.5767 Y-2.2558
G01 X32.6230 Y-2.2558
G01 X32.5996 Y-2.2574
G01 X32.5751 Y-2.2629
G01 X32.5510 Y-2.2723
G01 X32.5381 Y-2.2792
G01 X32.5260 Y-2.2873
G01 X32.5069 Y-2.3035
G01 X32.1435 Y-2.6672
G01 X32.1295 Y-2.6850
G01 X32.1195 Y-2.7016
G01 X32.1104 Y-2.7224
G01 X32.1043 Y-2.7442
G01 X32.1015 Y-2.7618
G01 X32.1008 Y-2.7780
G01 X32.1008 Y-4.5352
G01 X31.5227 Y-5.1133
G01 X29.7052 Y-5.1133
G01 X29.6890 Y-5.1140
G01 X29.6730 Y-5.1164
G01 X29.6496 Y-5.1229
G01 X29.6288 Y-5.1320
G01 X29.6122 Y-5.1420
G01 X29.5938 Y-5.1565
G01 X29.1729 Y-5.5772
G01 X27.5412 Y-5.5772
G01 X27.5301 Y-5.5782
G01 X27.5193 Y-5.5810
G01 X27.5113 Y-5.5845
G01 X27.5038 Y-5.5891
G01 X27.4964 Y-5.5951
G01 X27.4905 Y-5.6016
G01 X27.4854 Y-5.6088
G01 X27.4815 Y-5.6166
G01 X27.4786 Y-5.6249
G01 X27.4768 Y-5.6335
G01 X27.4762 Y-5.6422
G01 X27.4762 Y-5.9101
G01 X27.0751 Y-5.9104
G01 X27.0749 Y-5.3742
G01 X27.0730 Y-5.3632
G01 X27.0695 Y-5.3535
G01 X27.0646 Y-5.3444
G01 X27.0583 Y-5.3361
G01 X27.0507 Y-5.3291
G01 X27.0421 Y-5.3232
G01 X27.0327 Y-5.3189
G01 X27.0220 Y-5.3159
G01 X27.0101 Y-5.3148
G01 X25.6101 Y-5.3148
G01 X25.6014 Y-5.3154
G01 X25.5920 Y-5.3174
G01 X25.5823 Y-5.3210
G01 X25.5740 Y-5.3258
G01 X25.5659 Y-5.3322
G01 X25.5594 Y-5.3392
G01 X25.5539 Y-5.3471
G01 X25.5495 Y-5.3564
G01 X25.5467 Y-5.3656
G01 X25.5453 Y-5.3750
G01 X25.5451 Y-5.9112
G01 X25.0092 Y-5.9116
G01 X24.9884 Y-5.8564
G01 X24.9698 Y-5.8146
G01 X24.9478 Y-5.7709
G01 X24.9252 Y-5.7311
G01 X24.8999 Y-5.6911
G01 X24.8726 Y-5.6524
G01 X24.8435 Y-5.6150
G01 X24.8125 Y-5.5791
G01 X24.7810 Y-5.5460
G01 X24.7444 Y-5.5111
G01 X24.7097 Y-5.4812
G01 X24.6723 Y-5.4521
G01 X24.6336 Y-5.4248
G01 X24.5936 Y-5.3995
G01 X24.5524 Y-5.3761
G01 X24.5101 Y-5.3549
G01 X24.4668 Y-5.3357
G01 X24.4241 Y-5.3192
G01 X24.3761 Y-5.3033
G01 X24.3320 Y-5.2911
G01 X24.2858 Y-5.2807
G01 X24.2391 Y-5.2726
G01 X24.1921 Y-5.2668
G01 X24.1449 Y-5.2634
G01 X24.0991 Y-5.2622
G01 X24.0486 Y-5.2635
G01 X24.0029 Y-5.2668
G01 X23.9551 Y-5.2728
G01 X23.9092 Y-5.2807
G01 X23.8630 Y-5.2911
G01 X23.8174 Y-5.3038
G01 X23.7724 Y-5.3186
G01 X23.7282 Y-5.3357
G01 X23.6849 Y-5.3549
G01 X23.6426 Y-5.3761
G01 X23.6000 Y-5.4003
G01 X23.5614 Y-5.4248
G01 X23.5239 Y-5.4512
G01 X23.4866 Y-5.4802
G01 X23.4494 Y-5.5122
G01 X23.4163 Y-5.5437
G01 X23.3825 Y-5.5791
G01 X23.3515 Y-5.6150
G01 X23.3224 Y-5.6524
G01 X23.2960 Y-5.6898
G01 X23.2698 Y-5.7311
G01 X23.2464 Y-5.7723
G01 X23.2252 Y-5.8146
G01 X23.2060 Y-5.8579
G01 X23.1889 Y-5.9021
G01 X23.1741 Y-5.9471
G01 X23.1614 Y-5.9927
G01 X23.1510 Y-6.0389
G01 X23.1429 Y-6.0856
G01 X23.1371 Y-6.1326
G01 X23.1337 Y-6.1798
G01 X23.1325 Y-6.2272
G01 X23.1337 Y-6.2746
G01 X23.1371 Y-6.3218
G01 X23.1429 Y-6.3688
G01 X23.1514 Y-6.4170
G00 Z2.0000
G00 X24.4625 Y-7.8022
G01 F60.00
G01 Z-0.0600
G01 F20.00
G01 X24.4625 Y-7.7322
G01 X25.1325 Y-7.7322
G01 X25.1325 Y-8.4022
G01 X25.0625 Y-8.4022
G01 X25.0625 Y-7.8648
G01 X25.0606 Y-7.8514
G01 X25.0563 Y-7.8394
G01 X25.0497 Y-7.8285
G01 X25.0412 Y-7.8190
G01 X25.0323 Y-7.8123
G01 X25.0216 Y-7.8068
G01 X25.0102 Y-7.8034
G01 X24.9991 Y-7.8022
G01 X24.4625 Y-7.8022
G00 Z2.0000
G00 X23.1325 Y-8.4022
G01 F60.00
G01 Z-0.0600
G01 F20.00
G01 X23.0625 Y-8.4022
G01 X23.0625 Y-7.7322
G01 X23.7325 Y-7.7322
G01 X23.7325 Y-7.8022
G01 X23.1951 Y-7.8022
G01 X23.1825 Y-7.8040
G01 X23.1704 Y-7.8081
G01 X23.1588 Y-7.8150
G01 X23.1493 Y-7.8235
G01 X23.1422 Y-7.8331
G01 X23.1371 Y-7.8431
G01 X23.1337 Y-7.8545
G01 X23.1325 Y-7.8656
G01 X23.1325 Y-8.4022
G00 Z2.0000
G00 X23.0625 Y-9.8022
G01 F60.00
G01 Z-0.0600
G01 F20.00
G01 X23.0625 Y-9.1322
G01 X23.1325 Y-9.1322
G01 X23.1325 Y-9.6696
G01 X23.1344 Y-9.6830
G01 X23.1387 Y-9.6950
G01 X23.1453 Y-9.7059
G01 X23.1538 Y-9.7154
G01 X23.1634 Y-9.7225
G01 X23.1734 Y-9.7276
G01 X23.1840 Y-9.7308
G01 X23.1959 Y-9.7322
G01 X23.7325 Y-9.7322
G01 X23.7325 Y-9.8022
G01 X23.0625 Y-9.8022
G00 Z2.0000
G00 X24.4625 Y-9.8022
G01 F60.00
G01 Z-0.0600
G01 F20.00
G01 X24.4625 Y-9.7322
G01 X24.9999 Y-9.7322
G01 X25.0117 Y-9.7306
G01 X25.0238 Y-9.7266
G01 X25.0343 Y-9.7208
G01 X25.0435 Y-9.7132
G01 X25.0515 Y-9.7033
G01 X25.0572 Y-9.6928
G01 X25.0609 Y-9.6814
G01 X25.0625 Y-9.6696
G01 X25.0625 Y-9.1322
G01 X25.1325 Y-9.1322
G01 X25.1325 Y-9.8022
G01 X24.4625 Y-9.8022
G00 Z2.0000
G00 X25.1813 Y-12.0361
G01 F60.00
G01 Z-0.0600
G01 F20.00
G01 X26.4813 Y-12.0361
G01 X26.4900 Y-12.0355
G01 X26.4986 Y-12.0337
G01 X26.5076 Y-12.0305
G01 X26.5167 Y-12.0256
G01 X26.5250 Y-12.0193
G01 X26.5315 Y-12.0123
G01 X26.5371 Y-12.0045
G01 X26.5417 Y-11.9952
G01 X26.5445 Y-11.9861
G01 X26.5461 Y-11.9767
G01 X26.5463 Y-11.4863
G01 X27.2158 Y-11.4863
G01 X29.4950 Y-13.7654
G01 X29.5088 Y-13.7780
G01 X29.5184 Y-13.7855
G01 X29.5346 Y-13.7964
G01 X29.5465 Y-13.8032
G01 X29.5635 Y-13.8112
G01 X29.5756 Y-13.8158
G01 X29.5942 Y-13.8214
G01 X29.6134 Y-13.8253
G01 X29.6270 Y-13.8270
G01 X29.6465 Y-13.8279
G01 X35.8501 Y-13.8275
G01 X40.8242 Y-13.2310
G01 X40.8459 Y-13.2273
G01 X40.8731 Y-13.2193
G01 X40.8926 Y-13.2109
G01 X40.9119 Y-13.2003
G01 X40.9343 Y-13.1843
G01 X40.9501 Y-13.1701
G01 X42.4215 Y-11.6988
G01 X43.0630 Y-11.6988
G01 X43.0749 Y-11.6974
G01 X43.0855 Y-11.6942
G01 X43.0955 Y-11.6891
G01 X43.1045 Y-11.6825
G01 X43.2101 Y-11.5769
G01 X43.2191 Y-11.5637
G01 X43.2226 Y-11.5557
G01 X43.2248 Y-11.5480
G01 X43.2264 Y-11.5338
G01 X43.2263 Y-11.1306
G01 X43.2246 Y-11.1188
G01 X43.2208 Y-11.1075
G01 X43.2154 Y-11.0977
G01 X43.2079 Y-11.0884
G01 X43.1039 Y-10.9846
G01 X43.0962 Y-10.9789
G01 X43.0877 Y-10.9744
G01 X43.0780 Y-10.9709
G01 X43.0686 Y-10.9692
G01 X41.9606 Y-10.9688
G01 X41.9511 Y-10.9696
G01 X41.9418 Y-10.9718
G01 X41.9336 Y-10.9750
G01 X41.9253 Y-10.9798
G01 X41.9154 Y-10.9878
G01 X41.7132 Y-11.1901
G01 X41.7069 Y-11.1984
G01 X41.7017 Y-11.2082
G01 X41.6983 Y-11.2180
G01 X41.6966 Y-11.2290
G01 X41.6964 Y-11.4354
G01 X41.6980 Y-11.4480
G01 X41.7017 Y-11.4594
G01 X41.7074 Y-11.4699
G01 X41.7143 Y-11.4786
G01 X41.8738 Y-11.6381
G01 X40.6991 Y-12.8128
G01 X35.8248 Y-13.3977
G01 X29.7356 Y-13.3977
G01 X27.4570 Y-11.1191
G01 X27.4481 Y-11.1108
G01 X27.4330 Y-11.0985
G01 X27.4168 Y-11.0876
G01 X27.4063 Y-11.0815
G01 X27.3887 Y-11.0731
G01 X27.3774 Y-11.0687
G01 X27.3658 Y-11.0649
G01 X27.3469 Y-11.0603
G01 X27.3349 Y-11.0582
G01 X27.3155 Y-11.0564
G01 X26.5463 Y-11.0561
G01 X26.5460 Y-10.5647
G01 X26.5439 Y-10.5538
G01 X26.5401 Y-10.5433
G01 X26.5349 Y-10.5343
G01 X26.5278 Y-10.5257
G01 X26.5194 Y-10.5184
G01 X26.5098 Y-10.5127
G01 X26.5002 Y-10.5089
G01 X26.4893 Y-10.5066
G01 X25.1805 Y-10.5061
G01 X25.1663 Y-10.5079
G01 X25.1535 Y-10.5123
G01 X25.1419 Y-10.5194
G01 X25.1321 Y-10.5286
G01 X25.1255 Y-10.5377
G01 X25.1207 Y-10.5477
G01 X25.1174 Y-10.5592
G01 X25.1163 Y-10.5703
G01 X25.1163 Y-11.9735
G01 X25.1179 Y-11.9853
G01 X25.1219 Y-11.9974
G01 X25.1282 Y-12.0085
G01 X25.1365 Y-12.0182
G01 X25.1459 Y-12.0256
G01 X25.1572 Y-12.0315
G01 X25.1686 Y-12.0349
G01 X25.1813 Y-12.0361
G00 Z2.0000
G00 X24.7198 Y-13.4274
G01 F60.00
G01 Z-0.0600
G01 F20.00
G01 X24.7114 Y-13.4261
G01 X24.7039 Y-13.4216
G01 X24.6986 Y-13.4145
G01 X24.6965 Y-13.4060
G01 X24.6978 Y-13.3973
G01 X24.7023 Y-13.3898
G01 X24.7094 Y-13.3845
G01 X24.7179 Y-13.3824
G01 X25.3068 Y-13.3824
G01 X25.3133 Y-13.3837
G01 X25.3191 Y-13.3868
G01 X25.3238 Y-13.3915
G01 X25.3273 Y-13.3984
G01 X25.3281 Y-13.4071
G01 X25.3273 Y-13.4114
G01 X25.3250 Y-13.4165
G01 X25.3216 Y-13.4208
G01 X25.3182 Y-13.4236
G01 X25.3133 Y-13.4261
G01 X25.3090 Y-13.4272
G01 X25.0991 Y-13.4274
G01 X25.0834 Y-13.4296
G01 X25.0758 Y-13.4321
G01 X25.0679 Y-13.4359
G01 X25.0606 Y-13.4407
G01 X25.0545 Y-13.4459
G01 X25.0446 Y-13.4583
G01 X25.0405 Y-13.4661
G01 X25.0377 Y-13.4736
G01 X25.0356 Y-13.4829
G01 X25.0349 Y-13.4924
G01 X25.0349 Y-14.3819
G01 X25.0340 Y-14.3892
G01 X25.0305 Y-14.3961
G01 X25.0258 Y-14.4008
G01 X25.0189 Y-14.4043
G01 X25.0135 Y-14.4052
G01 X25.0091 Y-14.4050
G01 X25.0048 Y-14.4039
G01 X24.9999 Y-14.4014
G01 X24.9965 Y-14.3986
G01 X24.9931 Y-14.3943
G01 X24.9908 Y-14.3892
G01 X24.9899 Y-14.3838
G01 X24.9899 Y-13.4924
G01 X24.9892 Y-13.4829
G01 X24.9871 Y-13.4736
G01 X24.9836 Y-13.4647
G01 X24.9793 Y-13.4570
G01 X24.9741 Y-13.4500
G01 X24.9679 Y-13.4438
G01 X24.9610 Y-13.4384
G01 X24.9526 Y-13.4337
G01 X24.9445 Y-13.4305
G01 X24.9360 Y-13.4284
G01 X24.9249 Y-13.4274
G01 X24.7198 Y-13.4274
G00 Z2.0000
G00 X23.7909 Y-13.9774
G01 F60.00
G01 Z-0.0600
G01 F20.00
G01 X23.7825 Y-13.9761
G01 X23.7758 Y-13.9723
G01 X23.7708 Y-13.9665
G01 X23.7678 Y-13.9582
G01 X23.7680 Y-13.9505
G01 X23.7714 Y-13.9424
G01 X23.7767 Y-13.9368
G01 X23.7846 Y-13.9331
G01 X23.7909 Y-13.9324
G01 X24.0007 Y-13.9322
G01 X24.0117 Y-13.9304
G01 X24.0230 Y-13.9265
G01 X24.0334 Y-13.9205
G01 X24.0419 Y-13.9133
G01 X24.0491 Y-13.9048
G01 X24.0547 Y-13.8951
G01 X24.0586 Y-13.8847
G01 X24.0606 Y-13.8737
G01 X24.0614 Y-13.7060
G01 X24.0642 Y-13.6988
G01 X24.0692 Y-13.6930
G01 X24.0759 Y-13.6892
G01 X24.0824 Y-13.6879
G01 X24.0900 Y-13.6888
G01 X24.0969 Y-13.6923
G01 X24.1022 Y-13.6979
G01 X24.1056 Y-13.7060
G01 X24.1064 Y-13.8745
G01 X24.1088 Y-13.8862
G01 X24.1137 Y-13.8980
G01 X24.1208 Y-13.9086
G01 X24.1292 Y-13.9171
G01 X24.1376 Y-13.9231
G01 X24.1469 Y-13.9277
G01 X24.1568 Y-13.9308
G01 X24.1671 Y-13.9322
G01 X24.3801 Y-13.9326
G01 X24.3874 Y-13.9350
G01 X24.3935 Y-13.9398
G01 X24.3976 Y-13.9463
G01 X24.3993 Y-13.9538
G01 X24.3980 Y-13.9625
G01 X24.3942 Y-13.9692
G01 X24.3884 Y-13.9742
G01 X24.3801 Y-13.9772
G01 X24.1671 Y-13.9776
G01 X24.1568 Y-13.9790
G01 X24.1469 Y-13.9821
G01 X24.1376 Y-13.9867
G01 X24.1292 Y-13.9927
G01 X24.1208 Y-14.0012
G01 X24.1137 Y-14.0118
G01 X24.1088 Y-14.0236
G01 X24.1064 Y-14.0353
G01 X24.1056 Y-14.2037
G01 X24.1028 Y-14.2109
G01 X24.0978 Y-14.2167
G01 X24.0911 Y-14.2205
G01 X24.0846 Y-14.2218
G01 X24.0759 Y-14.2205
G01 X24.0692 Y-14.2167
G01 X24.0642 Y-14.2109
G01 X24.0614 Y-14.2037
G01 X24.0606 Y-14.0353
G01 X24.0582 Y-14.0236
G01 X24.0533 Y-14.0118
G01 X24.0462 Y-14.0012
G01 X24.0378 Y-13.9927
G01 X24.0294 Y-13.9867
G01 X24.0201 Y-13.9821
G01 X24.0102 Y-13.9790
G01 X23.9999 Y-13.9776
G01 X23.7909 Y-13.9774
G00 Z2.0000
G00 X25.6303 Y-14.3685
G01 F60.00
G01 Z-0.0600
G01 F20.00
G01 X25.9581 Y-13.9315
G01 X25.9634 Y-13.9226
G01 X25.9670 Y-13.9138
G01 X25.9693 Y-13.9045
G01 X25.9702 Y-13.8942
G01 X25.9694 Y-13.8839
G01 X25.9673 Y-13.8746
G01 X25.9634 Y-13.8650
G01 X25.9581 Y-13.8561
G01 X25.6292 Y-13.4175
G01 X25.6271 Y-13.4136
G01 X25.6256 Y-13.4083
G01 X25.6260 Y-13.3995
G01 X25.6275 Y-13.3954
G01 X25.6304 Y-13.3907
G01 X25.6335 Y-13.3876
G01 X25.6382 Y-13.3846
G01 X25.6456 Y-13.3825
G01 X25.6533 Y-13.3830
G01 X25.6603 Y-13.3861
G01 X25.6652 Y-13.3905
G01 X25.9656 Y-13.7906
G01 X25.9755 Y-13.7998
G01 X25.9879 Y-13.8072
G01 X26.0007 Y-13.8114
G01 X26.0142 Y-13.8129
G01 X26.0285 Y-13.8114
G01 X26.0421 Y-13.8068
G01 X26.0543 Y-13.7994
G01 X26.0646 Y-13.7894
G01 X26.3647 Y-13.3897
G01 X26.3689 Y-13.3861
G01 X26.3728 Y-13.3840
G01 X26.3814 Y-13.3824
G01 X26.3858 Y-13.3828
G01 X26.3910 Y-13.3846
G01 X26.3948 Y-13.3869
G01 X26.3988 Y-13.3907
G01 X26.4022 Y-13.3964
G01 X26.4038 Y-13.4039
G01 X26.4028 Y-13.4116
G01 X26.4000 Y-13.4175
G01 X26.0711 Y-13.8561
G01 X26.0661 Y-13.8643
G01 X26.0627 Y-13.8723
G01 X26.0602 Y-13.8815
G01 X26.0591 Y-13.8910
G01 X26.0595 Y-13.9014
G01 X26.0615 Y-13.9115
G01 X26.0654 Y-13.9219
G01 X26.0706 Y-13.9309
G01 X26.3137 Y-14.2549
G01 X26.3231 Y-14.2646
G01 X26.3350 Y-14.2725
G01 X26.3484 Y-14.2776
G01 X26.3625 Y-14.2796
G01 X26.3712 Y-14.2793
G01 X26.3791 Y-14.2780
G01 X26.3875 Y-14.2755
G01 X26.3947 Y-14.2723
G01 X26.4022 Y-14.2677
G01 X26.4084 Y-14.2628
G01 X26.4145 Y-14.2564
G01 X26.4196 Y-14.2494
G01 X26.4256 Y-14.2373
G01 X26.4413 Y-14.1899
G01 X26.4614 Y-14.1379
G01 X26.4839 Y-14.0870
G01 X26.5090 Y-14.0372
G01 X26.5365 Y-13.9887
G01 X26.5663 Y-13.9416
G01 X26.5984 Y-13.8960
G01 X26.6327 Y-13.8521
G01 X26.6691 Y-13.8099
G01 X26.7075 Y-13.7695
G01 X26.7479 Y-13.7311
G01 X26.7901 Y-13.6947
G01 X26.8340 Y-13.6604
G01 X26.8796 Y-13.6283
G01 X26.9267 Y-13.5985
G01 X26.9752 Y-13.5710
G01 X27.0250 Y-13.5459
G01 X27.0759 Y-13.5234
G01 X27.1279 Y-13.5033
G01 X27.1809 Y-13.4858
G01 X27.2346 Y-13.4710
G01 X27.2890 Y-13.4587
G01 X27.3439 Y-13.4492
G01 X27.3992 Y-13.4424
G01 X27.4548 Y-13.4383
G01 X27.5105 Y-13.4369
G01 X27.5662 Y-13.4383
G01 X27.6218 Y-13.4424
G01 X27.6771 Y-13.4492
G01 X27.7320 Y-13.4587
G01 X27.7864 Y-13.4710
G01 X27.8401 Y-13.4858
G01 X27.8931 Y-13.5033
G01 X27.9451 Y-13.5234
G01 X27.9960 Y-13.5459
G01 X28.0458 Y-13.5710
G01 X28.0943 Y-13.5985
G01 X28.1414 Y-13.6283
G01 X28.1870 Y-13.6604
G01 X28.2309 Y-13.6947
G01 X28.2731 Y-13.7311
G01 X28.3141 Y-13.7701
G01 X29.7271 Y-15.1831
G01 X29.7736 Y-15.2325
G01 X29.7802 Y-15.2383
G01 X29.7868 Y-15.2427
G01 X29.8015 Y-15.2490
G01 X29.8100 Y-15.2508
G01 X29.8196 Y-15.2515
G01 X30.7707 Y-15.2515
G01 X30.7826 Y-15.2504
G01 X30.7941 Y-15.2472
G01 X30.8020 Y-15.2435
G01 X30.8094 Y-15.2387
G01 X30.8161 Y-15.2330
G01 X30.8224 Y-15.2259
G01 X30.8273 Y-15.2185
G01 X30.8311 Y-15.2106
G01 X30.8338 Y-15.2023
G01 X30.8353 Y-15.1937
G01 X30.8357 Y-14.8517
G01 X32.5057 Y-14.8517
G01 X32.5057 Y-16.4217
G01 X30.8357 Y-16.4217
G01 X30.8355 Y-16.0814
G01 X30.8322 Y-16.0658
G01 X30.8252 Y-16.0515
G01 X30.8149 Y-16.0393
G01 X30.8020 Y-16.0300
G01 X30.7873 Y-16.0241
G01 X30.7715 Y-16.0220
G01 X30.1208 Y-16.0220
G01 X30.1105 Y-16.0228
G01 X30.1019 Y-16.0248
G01 X30.0945 Y-16.0276
G01 X30.0867 Y-16.0316
G01 X30.0802 Y-16.0362
G01 X30.0737 Y-16.0422
G01 X30.0681 Y-16.0489
G01 X30.0635 Y-16.0563
G01 X30.0602 Y-16.0636
G01 X30.0565 Y-16.0774
G01 X30.0548 Y-16.0980
G01 X30.0480 Y-16.1533
G01 X30.0385 Y-16.2082
G01 X30.0262 Y-16.2626
G01 X30.0114 Y-16.3163
G01 X29.9939 Y-16.3693
G01 X29.9738 Y-16.4213
G01 X29.9513 Y-16.4722
G01 X29.9262 Y-16.5220
G01 X29.8987 Y-16.5705
G01 X29.8689 Y-16.6176
G01 X29.8368 Y-16.6632
G01 X29.8025 Y-16.7071
G01 X29.7661 Y-16.7493
G01 X29.7277 Y-16.7897
G01 X29.6873 Y-16.8281
G01 X29.6451 Y-16.8645
G01 X29.6012 Y-16.8988
G01 X29.5556 Y-16.9309
G01 X29.5085 Y-16.9607
G01 X29.4600 Y-16.9882
G01 X29.4102 Y-17.0133
G01 X29.3593 Y-17.0358
G01 X29.3073 Y-17.0559
G01 X29.2543 Y-17.0734
G01 X29.2006 Y-17.0882
G01 X29.1462 Y-17.1005
G01 X29.0913 Y-17.1100
G01 X29.0360 Y-17.1168
G01 X28.9804 Y-17.1209
G01 X28.9247 Y-17.1223
G01 X28.8690 Y-17.1209
G01 X28.8134 Y-17.1168
G01 X28.7581 Y-17.1100
G01 X28.7032 Y-17.1005
G01 X28.6488 Y-17.0882
G01 X28.5951 Y-17.0734
G01 X28.5421 Y-17.0559
G01 X28.4901 Y-17.0358
G01 X28.4392 Y-17.0133
G01 X28.3894 Y-16.9882
G01 X28.3409 Y-16.9607
G01 X28.2938 Y-16.9309
G01 X28.2482 Y-16.8988
G01 X28.2043 Y-16.8645
G01 X28.1621 Y-16.8281
G01 X28.1211 Y-16.7891
G01 X26.7081 Y-15.3761
G01 X26.6691 Y-15.3351
G01 X26.6327 Y-15.2929
G01 X26.5984 Y-15.2490
G01 X26.5663 Y-15.2034
G01 X26.5365 Y-15.1563
G01 X26.5090 Y-15.1078
G01 X26.4839 Y-15.0580
G01 X26.4614 Y-15.0071
G01 X26.4413 Y-14.9551
G01 X26.4238 Y-14.9021
G01 X26.4090 Y-14.8484
G01 X26.3967 Y-14.7940
G01 X26.3872 Y-14.7391
G01 X26.3804 Y-14.6838
G01 X26.3763 Y-14.6282
G01 X26.3749 Y-14.5725
G01 X26.3763 Y-14.5168
G01 X26.3822 Y-14.4415
G01 X26.3808 Y-14.4287
G01 X26.3766 Y-14.4158
G01 X26.3692 Y-14.4034
G01 X26.0666 Y-14.0007
G01 X26.0586 Y-13.9918
G01 X26.0491 Y-13.9846
G01 X26.0384 Y-13.9792
G01 X26.0269 Y-13.9759
G01 X26.0150 Y-13.9747
G01 X26.0039 Y-13.9756
G01 X25.9923 Y-13.9786
G01 X25.9815 Y-13.9838
G01 X25.9718 Y-13.9908
G01 X25.9626 Y-14.0007
G01 X25.6645 Y-14.3979
G01 X25.6574 Y-14.4031
G01 X25.6489 Y-14.4052
G01 X25.6412 Y-14.4042
G01 X25.6335 Y-14.4000
G01 X25.6280 Y-14.3932
G01 X25.6255 Y-14.3848
G01 X25.6264 Y-14.3760
G01 X25.6303 Y-14.3685
G00 Z2.0000
G00 X26.4018 Y-14.3392
G01 F60.00
G01 Z-0.0600
G01 F20.00
G01 X26.4047 Y-14.3383
G01 X26.4039 Y-14.3421
G01 X26.4018 Y-14.3392
G00 Z2.0000
G00 X26.4658 Y-14.7819
G01 F60.00
G01 Z-0.0600
G01 F20.00
G01 X26.4769 Y-14.8314
G01 X26.4904 Y-14.8803
G01 X26.5073 Y-14.9315
G01 X26.5261 Y-14.9802
G01 X26.5466 Y-15.0266
G01 X26.5708 Y-15.0748
G01 X26.5966 Y-15.1203
G01 X26.6237 Y-15.1631
G01 X26.6547 Y-15.2072
G01 X26.6879 Y-15.2497
G01 X26.7210 Y-15.2880
G01 X26.7565 Y-15.3254
G01 X28.1713 Y-16.7401
G01 X28.2097 Y-16.7767
G01 X28.2500 Y-16.8113
G01 X28.2900 Y-16.8425
G01 X28.3314 Y-16.8717
G01 X28.3769 Y-16.9006
G01 X28.4224 Y-16.9264
G01 X28.4691 Y-16.9499
G01 X28.5184 Y-16.9717
G01 X28.5657 Y-16.9899
G01 X28.6139 Y-17.0058
G01 X28.6658 Y-17.0203
G01 X28.7168 Y-17.0317
G01 X28.7699 Y-17.0409
G01 X28.8219 Y-17.0472
G01 X28.8724 Y-17.0509
G01 X28.9231 Y-17.0522
G01 X28.9770 Y-17.0509
G01 X29.0291 Y-17.0471
G01 X29.0810 Y-17.0407
G01 X29.1341 Y-17.0314
G01 X29.1836 Y-17.0203
G01 X29.2325 Y-17.0068
G01 X29.2821 Y-16.9904
G01 X29.3324 Y-16.9711
G01 X29.3803 Y-16.9499
G01 X29.4270 Y-16.9264
G01 X29.4738 Y-16.8998
G01 X29.5167 Y-16.8726
G01 X29.5581 Y-16.8435
G01 X29.6000 Y-16.8108
G01 X29.6402 Y-16.7762
G01 X29.6781 Y-16.7401
G01 X29.7142 Y-16.7022
G01 X29.7493 Y-16.6614
G01 X29.7805 Y-16.6214
G01 X29.8097 Y-16.5800
G01 X29.8378 Y-16.5358
G01 X29.8644 Y-16.4890
G01 X29.8882 Y-16.4415
G01 X29.9091 Y-16.3944
G01 X29.9284 Y-16.3441
G01 X29.9443 Y-16.2960
G01 X29.9579 Y-16.2471
G01 X29.9696 Y-16.1954
G01 X29.9787 Y-16.1430
G01 X29.9851 Y-16.0903
G01 X29.9890 Y-16.0374
G01 X29.9902 Y-15.9867
G01 X29.9894 Y-15.9519
G01 X30.9057 Y-15.9519
G01 X30.9057 Y-16.2867
G01 X30.9063 Y-16.2954
G01 X30.9085 Y-16.3056
G01 X30.9126 Y-16.3159
G01 X30.9180 Y-16.3248
G01 X30.9247 Y-16.3327
G01 X30.9326 Y-16.3394
G01 X30.9415 Y-16.3448
G01 X30.9511 Y-16.3487
G01 X30.9612 Y-16.3510
G01 X30.9707 Y-16.3517
G01 X32.3731 Y-16.3517
G01 X32.3834 Y-16.3505
G01 X32.3933 Y-16.3476
G01 X32.4027 Y-16.3433
G01 X32.4113 Y-16.3374
G01 X32.4189 Y-16.3304
G01 X32.4252 Y-16.3221
G01 X32.4304 Y-16.3123
G01 X32.4338 Y-16.3025
G01 X32.4357 Y-16.2867
G01 X32.4357 Y-14.9851
G01 X32.4350 Y-14.9772
G01 X32.4331 Y-14.9686
G01 X32.4269 Y-14.9540
G01 X32.4224 Y-14.9473
G01 X32.4167 Y-14.9407
G01 X32.4041 Y-14.9309
G01 X32.3963 Y-14.9270
G01 X32.3880 Y-14.9241
G01 X32.3794 Y-14.9223
G01 X32.3707 Y-14.9217
G01 X30.9707 Y-14.9217
G01 X30.9612 Y-14.9224
G01 X30.9511 Y-14.9247
G01 X30.9415 Y-14.9286
G01 X30.9326 Y-14.9340
G01 X30.9247 Y-14.9407
G01 X30.9180 Y-14.9486
G01 X30.9126 Y-14.9575
G01 X30.9085 Y-14.9678
G01 X30.9063 Y-14.9780
G01 X30.9057 Y-14.9867
G01 X30.9057 Y-15.3216
G01 X29.7569 Y-15.3216
G01 X29.7478 Y-15.3101
G01 X29.7147 Y-15.2717
G01 X29.6781 Y-15.2333
G01 X28.2639 Y-13.8191
G01 X28.2260 Y-13.7830
G01 X28.1852 Y-13.7479
G01 X28.1452 Y-13.7167
G01 X28.1038 Y-13.6875
G01 X28.0583 Y-13.6586
G01 X28.0128 Y-13.6328
G01 X27.9661 Y-13.6093
G01 X27.9168 Y-13.5875
G01 X27.8695 Y-13.5693
G01 X27.8213 Y-13.5534
G01 X27.7694 Y-13.5389
G01 X27.7168 Y-13.5272
G01 X27.6668 Y-13.5185
G01 X27.6165 Y-13.5123
G01 X27.5628 Y-13.5083
G01 X27.5105 Y-13.5070
G01 X27.4566 Y-13.5084
G01 X27.4061 Y-13.5121
G01 X27.3557 Y-13.5183
G01 X27.3026 Y-13.5275
G01 X27.2501 Y-13.5393
G01 X27.2012 Y-13.5529
G01 X27.1531 Y-13.5688
G01 X27.1028 Y-13.5881
G01 X27.0535 Y-13.6100
G01 X27.0082 Y-13.6328
G01 X26.9641 Y-13.6578
G01 X26.9185 Y-13.6866
G01 X26.8745 Y-13.7176
G01 X26.8333 Y-13.7499
G01 X26.7950 Y-13.7830
G01 X26.7582 Y-13.8180
G01 X26.7210 Y-13.8570
G01 X26.6859 Y-13.8978
G01 X26.6547 Y-13.9378
G01 X26.6255 Y-13.9792
G01 X26.5966 Y-14.0247
G01 X26.5701 Y-14.0716
G01 X26.5473 Y-14.1169
G01 X26.5267 Y-14.1633
G01 X26.5073 Y-14.2135
G01 X26.4909 Y-14.2632
G01 X26.4766 Y-14.3152
G01 X26.4655 Y-14.3646
G01 X26.4568 Y-14.4146
G01 X26.4501 Y-14.4681
G01 X26.4463 Y-14.5202
G01 X26.4450 Y-14.5741
G01 X26.4463 Y-14.6248
G01 X26.4500 Y-14.6753
G01 X26.4565 Y-14.7288
G01 X26.4658 Y-14.7819
G00 Z2.0000
G00 X27.3041 Y-10.9860
G01 F60.00
G01 Z-0.0600
G01 F20.00
G01 X27.3189 Y-10.9864
G01 X27.3467 Y-10.9891
G01 X27.3742 Y-10.9946
G01 X27.4010 Y-11.0027
G01 X27.4268 Y-11.0134
G01 X27.4515 Y-11.0266
G01 X27.4748 Y-11.0422
G01 X27.4964 Y-11.0599
G01 X29.7456 Y-13.3086
G01 X29.7522 Y-13.3144
G01 X29.7588 Y-13.3188
G01 X29.7659 Y-13.3224
G01 X29.7742 Y-13.3253
G01 X29.7828 Y-13.3270
G01 X29.7915 Y-13.3276
G01 X35.8230 Y-13.3273
G01 X40.6444 Y-12.7488
G01 X40.6561 Y-12.7463
G01 X40.6665 Y-12.7420
G01 X40.6747 Y-12.7370
G01 X40.6826 Y-12.7302
G01 X41.7287 Y-11.6841
G01 X41.7385 Y-11.6715
G01 X41.7449 Y-11.6570
G01 X41.7468 Y-11.6492
G01 X41.7477 Y-11.6405
G01 X41.7463 Y-11.6247
G01 X41.7442 Y-11.6170
G01 X41.7408 Y-11.6089
G01 X41.7363 Y-11.6014
G01 X41.7304 Y-11.5939
G01 X41.6664 Y-11.5299
G01 X41.6529 Y-11.5143
G01 X41.6455 Y-11.5032
G01 X41.6366 Y-11.4855
G01 X41.6304 Y-11.4666
G01 X41.6278 Y-11.4536
G01 X41.6263 Y-11.4330
G01 X41.6263 Y-11.2346
G01 X41.6270 Y-11.2206
G01 X41.6304 Y-11.2010
G01 X41.6366 Y-11.1821
G01 X41.6455 Y-11.1644
G01 X41.6593 Y-11.1434
G01 X41.6628 Y-11.1353
G01 X41.6652 Y-11.1269
G01 X41.6666 Y-11.1142
G01 X41.6656 Y-11.1023
G01 X41.6622 Y-11.0901
G01 X41.6565 Y-11.0787
G01 X41.6481 Y-11.0681
G01 X41.6377 Y-11.0594
G01 X41.6257 Y-11.0531
G01 X41.6127 Y-11.0494
G01 X41.5992 Y-11.0485
G01 X41.5858 Y-11.0504
G01 X41.5731 Y-11.0550
G01 X41.5622 Y-11.0617
G01 X41.5556 Y-11.0675
G01 X41.1948 Y-11.4283
G01 X41.1823 Y-11.4402
G01 X41.1568 Y-11.4610
G01 X41.1295 Y-11.4793
G01 X41.1152 Y-11.4874
G01 X41.1005 Y-11.4948
G01 X41.0701 Y-11.5074
G01 X41.0386 Y-11.5169
G01 X41.0064 Y-11.5234
G01 X40.9736 Y-11.5266
G01 X40.9564 Y-11.5270
G01 X40.8037 Y-11.5273
G01 X40.7920 Y-11.5296
G01 X40.7816 Y-11.5336
G01 X40.7720 Y-11.5393
G01 X40.7630 Y-11.5472
G01 X40.7556 Y-11.5566
G01 X40.7504 Y-11.5664
G01 X40.7467 Y-11.5778
G01 X40.7451 Y-11.5896
G01 X40.7451 Y-12.0268
G01 X39.1751 Y-12.0268
G01 X39.1751 Y-10.3568
G01 X40.7451 Y-10.3568
G01 X40.7451 Y-10.7730
G01 X40.7459 Y-10.7833
G01 X40.7495 Y-10.7963
G01 X40.7552 Y-10.8077
G01 X40.7630 Y-10.8178
G01 X40.7727 Y-10.8261
G01 X40.7845 Y-10.8327
G01 X40.7966 Y-10.8365
G01 X40.8093 Y-10.8379
G01 X40.8228 Y-10.8367
G01 X40.8320 Y-10.8342
G01 X40.8400 Y-10.8307
G01 X40.8482 Y-10.8256
G01 X40.8549 Y-10.8200
G01 X41.3547 Y-10.3203
G01 X41.3797 Y-10.2977
G01 X41.4061 Y-10.2781
G01 X41.4343 Y-10.2612
G01 X41.4640 Y-10.2471
G01 X41.4794 Y-10.2412
G01 X41.5109 Y-10.2317
G01 X41.5431 Y-10.2252
G01 X41.5759 Y-10.2220
G01 X41.5931 Y-10.2216
G01 X41.7564 Y-10.2216
G01 X41.7714 Y-10.2197
G01 X41.7848 Y-10.2147
G01 X41.7969 Y-10.2068
G01 X41.8255 Y-10.1786
G01 X41.8329 Y-10.1692
G01 X41.8372 Y-10.1616
G01 X41.8406 Y-10.1527
G01 X41.8426 Y-10.1441
G01 X41.8434 Y-10.1346
G01 X41.8429 Y-10.1258
G01 X41.8411 Y-10.1165
G01 X41.8382 Y-10.1082
G01 X41.8338 Y-10.0997
G01 X41.8249 Y-10.0884
G01 X41.6664 Y-9.9299
G01 X41.6529 Y-9.9143
G01 X41.6455 Y-9.9032
G01 X41.6393 Y-9.8916
G01 X41.6321 Y-9.8730
G01 X41.6278 Y-9.8536
G01 X41.6263 Y-9.8330
G01 X41.6265 Y-9.6272
G01 X41.6289 Y-9.6074
G01 X41.6342 Y-9.5883
G01 X41.6393 Y-9.5760
G01 X41.6455 Y-9.5644
G01 X41.6529 Y-9.5533
G01 X41.6613 Y-9.5431
G01 X41.8244 Y-9.3798
G01 X41.8325 Y-9.3699
G01 X41.8372 Y-9.3616
G01 X41.8408 Y-9.3519
G01 X41.8428 Y-9.3425
G01 X41.8434 Y-9.3322
G01 X41.8423 Y-9.3219
G01 X41.8399 Y-9.3127
G01 X41.8357 Y-9.3032
G01 X41.8303 Y-9.2946
G01 X41.9385 Y-9.2947
G01 X41.9495 Y-9.2977
G01 X41.9614 Y-9.2988
G01 X43.0614 Y-9.2988
G01 X43.0733 Y-9.2977
G01 X43.0843 Y-9.2946
G01 X43.1925 Y-9.2947
G01 X43.1878 Y-9.3018
G01 X43.1840 Y-9.3097
G01 X43.1813 Y-9.3180
G01 X43.1798 Y-9.3266
G01 X43.1794 Y-9.3354
G01 X43.1802 Y-9.3441
G01 X43.1822 Y-9.3527
G01 X43.1853 Y-9.3609
G01 X43.1899 Y-9.3692
G01 X43.1962 Y-9.3775
G01 X43.2564 Y-9.4377
G01 X43.2658 Y-9.4481
G01 X43.2737 Y-9.4588
G01 X43.2835 Y-9.4760
G01 X43.2886 Y-9.4883
G01 X43.2924 Y-9.5010
G01 X43.2958 Y-9.5206
G01 X43.2965 Y-9.5346
G01 X43.2965 Y-9.9330
G01 X43.2958 Y-9.9470
G01 X43.2939 Y-9.9602
G01 X43.2907 Y-9.9730
G01 X43.2835 Y-9.9916
G01 X43.2773 Y-10.0032
G01 X43.2699 Y-10.0143
G01 X43.2564 Y-10.0299
G01 X43.1979 Y-10.0884
G01 X43.1903 Y-10.0977
G01 X43.1856 Y-10.1060
G01 X43.1824 Y-10.1142
G01 X43.1802 Y-10.1235
G01 X43.1794 Y-10.1330
G01 X43.1801 Y-10.1433
G01 X43.1824 Y-10.1534
G01 X43.1867 Y-10.1637
G01 X43.1922 Y-10.1725
G01 X43.1979 Y-10.1792
G01 X43.2615 Y-10.2431
G01 X43.2699 Y-10.2533
G01 X43.2773 Y-10.2644
G01 X43.2862 Y-10.2821
G01 X43.2907 Y-10.2946
G01 X43.2939 Y-10.3074
G01 X43.2963 Y-10.3272
G01 X43.2965 Y-10.7330
G01 X43.2958 Y-10.7470
G01 X43.2939 Y-10.7602
G01 X43.2907 Y-10.7730
G01 X43.2835 Y-10.7916
G01 X43.2773 Y-10.8032
G01 X43.2699 Y-10.8143
G01 X43.2564 Y-10.8299
G01 X43.1979 Y-10.8884
G01 X43.1903 Y-10.8977
G01 X43.1856 Y-10.9060
G01 X43.1824 Y-10.9142
G01 X43.1802 Y-10.9235
G01 X43.1794 Y-10.9330
G01 X43.1801 Y-10.9433
G01 X43.1824 Y-10.9534
G01 X43.1867 Y-10.9637
G01 X43.1922 Y-10.9725
G01 X43.1979 Y-10.9792
G01 X43.2615 Y-11.0431
G01 X43.2737 Y-11.0588
G01 X43.2805 Y-11.0701
G01 X43.2862 Y-11.0821
G01 X43.2924 Y-11.1010
G01 X43.2950 Y-11.1140
G01 X43.2965 Y-11.1346
G01 X43.2963 Y-11.5404
G01 X43.2939 Y-11.5602
G01 X43.2907 Y-11.5730
G01 X43.2835 Y-11.5916
G01 X43.2773 Y-11.6032
G01 X43.2658 Y-11.6195
G01 X43.2564 Y-11.6299
G01 X43.1575 Y-11.7288
G01 X43.1471 Y-11.7382
G01 X43.1308 Y-11.7497
G01 X43.1192 Y-11.7559
G01 X43.1069 Y-11.7610
G01 X43.0878 Y-11.7663
G01 X43.0746 Y-11.7682
G01 X43.0606 Y-11.7689
G01 X42.4758 Y-11.7689
G01 X42.4663 Y-11.7699
G01 X42.4570 Y-11.7722
G01 X42.4482 Y-11.7758
G01 X42.4400 Y-11.7808
G01 X42.4315 Y-11.7879
G01 X41.0008 Y-13.2186
G01 X40.9802 Y-13.2374
G01 X40.9585 Y-13.2536
G01 X40.9471 Y-13.2610
G01 X40.9233 Y-13.2740
G01 X40.8983 Y-13.2847
G01 X40.8855 Y-13.2891
G01 X40.8593 Y-13.2961
G01 X40.8318 Y-13.3007
G01 X35.8726 Y-13.8958
G01 X35.8547 Y-13.8974
G01 X35.8367 Y-13.8980
G01 X29.6473 Y-13.8980
G01 X29.6325 Y-13.8976
G01 X29.6047 Y-13.8949
G01 X29.5772 Y-13.8894
G01 X29.5637 Y-13.8857
G01 X29.5374 Y-13.8762
G01 X29.5121 Y-13.8643
G01 X29.4881 Y-13.8499
G01 X29.4766 Y-13.8418
G01 X29.4550 Y-13.8241
G01 X29.4443 Y-13.8139
G01 X27.2058 Y-11.5754
G01 X27.1953 Y-11.5669
G01 X27.1832 Y-11.5607
G01 X27.1725 Y-11.5576
G01 X27.1607 Y-11.5564
G01 X26.6797 Y-11.5564
G01 X26.6678 Y-11.5578
G01 X26.6564 Y-11.5613
G01 X26.6459 Y-11.5669
G01 X26.6365 Y-11.5743
G01 X26.6282 Y-11.5839
G01 X26.6222 Y-11.5943
G01 X26.6181 Y-11.6064
G01 X26.6163 Y-11.6190
G01 X26.6163 Y-12.1061
G01 X25.0463 Y-12.1061
G01 X25.0463 Y-10.4361
G01 X26.6163 Y-10.4361
G01 X26.6164 Y-10.9242
G01 X26.6187 Y-10.9384
G01 X26.6236 Y-10.9510
G01 X26.6311 Y-10.9623
G01 X26.6407 Y-10.9718
G01 X26.6493 Y-10.9776
G01 X26.6587 Y-10.9820
G01 X26.6686 Y-10.9848
G01 X26.6797 Y-10.9860
G01 X27.3041 Y-10.9860
G00 Z2.0000
G00 X27.4829 Y-9.5261
G01 F60.00
G01 Z-0.0600
G01 F20.00
G01 X27.4820 Y-9.5645
G01 X27.4830 Y-9.6045
G01 X27.4859 Y-9.6444
G01 X27.4906 Y-9.6825
G01 X27.4980 Y-9.7251
G01 X27.5064 Y-9.7625
G01 X27.5176 Y-9.8026
G01 X27.5296 Y-9.8391
G01 X27.5440 Y-9.8764
G01 X27.5602 Y-9.9130
G01 X27.5782 Y-9.9487
G01 X27.5980 Y-9.9835
G01 X27.6194 Y-10.0173
G01 X27.6424 Y-10.0500
G01 X27.6660 Y-10.0803
G01 X27.6931 Y-10.1118
G01 X27.7196 Y-10.1397
G01 X27.7509 Y-10.1694
G01 X27.7800 Y-10.1945
G01 X27.8115 Y-10.2191
G01 X27.8442 Y-10.2421
G01 X27.8780 Y-10.2635
G01 X27.9128 Y-10.2833
G01 X27.9471 Y-10.3006
G01 X27.9866 Y-10.3181
G01 X28.0224 Y-10.3319
G01 X28.0604 Y-10.3444
G01 X28.0990 Y-10.3551
G01 X28.1372 Y-10.3637
G01 X28.1790 Y-10.3709
G01 X28.2171 Y-10.3756
G01 X28.2570 Y-10.3785
G01 X28.2970 Y-10.3795
G01 X28.3354 Y-10.3786
G01 X28.3785 Y-10.3754
G01 X28.4166 Y-10.3707
G01 X28.4560 Y-10.3638
G01 X28.4950 Y-10.3551
G01 X28.5320 Y-10.3449
G01 X28.5731 Y-10.3313
G01 X28.6089 Y-10.3175
G01 X28.6462 Y-10.3009
G01 X28.6812 Y-10.2833
G01 X28.7160 Y-10.2635
G01 X28.7498 Y-10.2421
G01 X28.7812 Y-10.2200
G01 X28.8153 Y-10.1935
G01 X28.8443 Y-10.1684
G01 X28.8727 Y-10.1414
G01 X28.9009 Y-10.1118
G01 X28.9260 Y-10.0828
G01 X28.9521 Y-10.0494
G01 X28.9746 Y-10.0173
G01 X28.9956 Y-9.9842
G01 X29.0154 Y-9.9494
G01 X29.0226 Y-9.9351
G01 X30.0420 Y-10.0118
G01 X30.0424 Y-10.4106
G01 X30.0444 Y-10.4207
G01 X30.0479 Y-10.4305
G01 X30.0530 Y-10.4395
G01 X30.0594 Y-10.4476
G01 X30.0670 Y-10.4546
G01 X30.0757 Y-10.4603
G01 X30.0851 Y-10.4646
G01 X30.0951 Y-10.4673
G01 X30.1070 Y-10.4684
G01 X31.5094 Y-10.4684
G01 X31.5205 Y-10.4670
G01 X31.5304 Y-10.4640
G01 X31.5397 Y-10.4596
G01 X31.5488 Y-10.4531
G01 X31.5567 Y-10.4452
G01 X31.5628 Y-10.4368
G01 X31.5674 Y-10.4275
G01 X31.5706 Y-10.4169
G01 X31.5720 Y-10.4034
G01 X31.5720 Y-9.1010
G01 X31.5706 Y-9.0899
G01 X31.5676 Y-9.0800
G01 X31.5628 Y-9.0700
G01 X31.5567 Y-9.0616
G01 X31.5495 Y-9.0542
G01 X31.5404 Y-9.0476
G01 X31.5304 Y-9.0428
G01 X31.5205 Y-9.0398
G01 X31.5070 Y-9.0384
G01 X30.1070 Y-9.0384
G01 X30.0928 Y-9.0400
G01 X30.0836 Y-9.0428
G01 X30.0750 Y-9.0468
G01 X30.0664 Y-9.0527
G01 X30.0594 Y-9.0592
G01 X30.0534 Y-9.0666
G01 X30.0482 Y-9.0756
G01 X30.0448 Y-9.0845
G01 X30.0427 Y-9.0939
G01 X30.0420 Y-9.1034
G01 X30.0420 Y-9.3798
G01 X29.0699 Y-9.3067
G01 X29.0641 Y-9.2892
G01 X29.0497 Y-9.2519
G01 X29.0338 Y-9.2160
G01 X29.0161 Y-9.1810
G01 X28.9960 Y-9.1455
G01 X28.9755 Y-9.1130
G01 X28.9511 Y-9.0784
G01 X28.9270 Y-9.0475
G01 X28.9009 Y-9.0172
G01 X28.8733 Y-8.9882
G01 X28.8455 Y-8.9617
G01 X28.8128 Y-8.9335
G01 X28.7825 Y-8.9099
G01 X28.7491 Y-8.8864
G01 X28.7160 Y-8.8655
G01 X28.6812 Y-8.8457
G01 X28.6455 Y-8.8277
G01 X28.6104 Y-8.8122
G01 X28.5701 Y-8.7966
G01 X28.5336 Y-8.7846
G01 X28.4950 Y-8.7739
G01 X28.4560 Y-8.7652
G01 X28.4166 Y-8.7583
G01 X28.3769 Y-8.7534
G01 X28.3386 Y-8.7506
G01 X28.2954 Y-8.7495
G01 X28.2570 Y-8.7505
G01 X28.2155 Y-8.7536
G01 X28.1774 Y-8.7583
G01 X28.1380 Y-8.7652
G01 X28.0990 Y-8.7739
G01 X28.0620 Y-8.7841
G01 X28.0209 Y-8.7977
G01 X27.9851 Y-8.8115
G01 X27.9471 Y-8.8284
G01 X27.9128 Y-8.8457
G01 X27.8780 Y-8.8655
G01 X27.8442 Y-8.8869
G01 X27.8115 Y-8.9099
G01 X27.7800 Y-8.9345
G01 X27.7497 Y-8.9606
G01 X27.7207 Y-8.9882
G01 X27.6942 Y-9.0160
G01 X27.6660 Y-9.0487
G01 X27.6424 Y-9.0790
G01 X27.6185 Y-9.1130
G01 X27.5980 Y-9.1455
G01 X27.5782 Y-9.1803
G01 X27.5602 Y-9.2160
G01 X27.5440 Y-9.2526
G01 X27.5296 Y-9.2899
G01 X27.5171 Y-9.3279
G01 X27.5064 Y-9.3665
G01 X27.4980 Y-9.4039
G01 X27.4906 Y-9.4465
G01 X27.4859 Y-9.4846
G01 X27.4829 Y-9.5261
G00 Z2.0000
G00 X29.9720 Y-9.2342
G01 F60.00
G01 Z-0.0600
G01 F20.00
G01 X29.9720 Y-8.9684
G01 X31.6420 Y-8.9684
G01 X31.6420 Y-10.5384
G01 X29.9720 Y-10.5384
G01 X29.9718 Y-10.1324
G01 X29.9690 Y-10.1176
G01 X29.9624 Y-10.1031
G01 X29.9530 Y-10.0912
G01 X29.9405 Y-10.0814
G01 X29.9275 Y-10.0755
G01 X29.9127 Y-10.0724
G01 X29.0988 Y-10.0112
G01 X29.0860 Y-10.0122
G01 X29.0730 Y-10.0158
G01 X29.0610 Y-10.0221
G01 X29.0511 Y-10.0302
G01 X29.0439 Y-10.0388
G01 X29.0328 Y-10.0562
G01 X29.0078 Y-10.0917
G01 X28.9811 Y-10.1259
G01 X28.9527 Y-10.1588
G01 X28.9228 Y-10.1903
G01 X28.8913 Y-10.2202
G01 X28.8584 Y-10.2486
G01 X28.8242 Y-10.2753
G01 X28.7887 Y-10.3003
G01 X28.7520 Y-10.3236
G01 X28.7142 Y-10.3450
G01 X28.6754 Y-10.3645
G01 X28.6357 Y-10.3821
G01 X28.5951 Y-10.3977
G01 X28.5539 Y-10.4114
G01 X28.5120 Y-10.4230
G01 X28.4697 Y-10.4325
G01 X28.4269 Y-10.4399
G01 X28.3837 Y-10.4452
G01 X28.3404 Y-10.4484
G01 X28.2970 Y-10.4495
G01 X28.2536 Y-10.4484
G01 X28.2103 Y-10.4452
G01 X28.1671 Y-10.4399
G01 X28.1243 Y-10.4325
G01 X28.0820 Y-10.4230
G01 X28.0401 Y-10.4114
G01 X27.9989 Y-10.3977
G01 X27.9583 Y-10.3821
G01 X27.9186 Y-10.3645
G01 X27.8798 Y-10.3450
G01 X27.8420 Y-10.3236
G01 X27.8053 Y-10.3003
G01 X27.7698 Y-10.2753
G01 X27.7356 Y-10.2486
G01 X27.7027 Y-10.2202
G01 X27.6712 Y-10.1903
G01 X27.6413 Y-10.1588
G01 X27.6129 Y-10.1259
G01 X27.5862 Y-10.0917
G01 X27.5612 Y-10.0562
G01 X27.5379 Y-10.0195
G01 X27.5165 Y-9.9817
G01 X27.4970 Y-9.9429
G01 X27.4794 Y-9.9032
G01 X27.4638 Y-9.8626
G01 X27.4501 Y-9.8214
G01 X27.4385 Y-9.7795
G01 X27.4290 Y-9.7372
G01 X27.4216 Y-9.6944
G01 X27.4163 Y-9.6512
G01 X27.4131 Y-9.6079
G01 X27.4120 Y-9.5645
G01 X27.4131 Y-9.5211
G01 X27.4163 Y-9.4778
G01 X27.4216 Y-9.4346
G01 X27.4290 Y-9.3918
G01 X27.4385 Y-9.3495
G01 X27.4501 Y-9.3076
G01 X27.4638 Y-9.2664
G01 X27.4794 Y-9.2258
G01 X27.4970 Y-9.1861
G01 X27.5165 Y-9.1473
G01 X27.5379 Y-9.1095
G01 X27.5612 Y-9.0728
G01 X27.5862 Y-9.0373
G01 X27.6129 Y-9.0031
G01 X27.6413 Y-8.9702
G01 X27.6712 Y-8.9387
G01 X27.7027 Y-8.9088
G01 X27.7356 Y-8.8804
G01 X27.7698 Y-8.8537
G01 X27.8053 Y-8.8287
G01 X27.8420 Y-8.8054
G01 X27.8798 Y-8.7840
G01 X27.9186 Y-8.7645
G01 X27.9583 Y-8.7469
G01 X27.9989 Y-8.7313
G01 X28.0401 Y-8.7176
G01 X28.0820 Y-8.7060
G01 X28.1243 Y-8.6965
G01 X28.1671 Y-8.6891
G01 X28.2103 Y-8.6838
G01 X28.2536 Y-8.6806
G01 X28.2970 Y-8.6795
G01 X28.3404 Y-8.6806
G01 X28.3837 Y-8.6838
G01 X28.4269 Y-8.6891
G01 X28.4697 Y-8.6965
G01 X28.5120 Y-8.7060
G01 X28.5539 Y-8.7176
G01 X28.5951 Y-8.7313
G01 X28.6357 Y-8.7469
G01 X28.6754 Y-8.7645
G01 X28.7142 Y-8.7840
G01 X28.7520 Y-8.8054
G01 X28.7887 Y-8.8287
G01 X28.8242 Y-8.8537
G01 X28.8584 Y-8.8804
G01 X28.8913 Y-8.9088
G01 X28.9228 Y-8.9387
G01 X28.9527 Y-8.9702
G01 X28.9811 Y-9.0031
G01 X29.0078 Y-9.0373
G01 X29.0328 Y-9.0728
G01 X29.0561 Y-9.1095
G01 X29.0775 Y-9.1473
G01 X29.0970 Y-9.1861
G01 X29.1066 Y-9.2075
G01 X29.1120 Y-9.2164
G01 X29.1187 Y-9.2242
G01 X29.1272 Y-9.2314
G01 X29.1368 Y-9.2370
G01 X29.1465 Y-9.2407
G01 X29.1598 Y-9.2431
G01 X29.9077 Y-9.2992
G01 X29.9204 Y-9.2978
G01 X29.9325 Y-9.2939
G01 X29.9437 Y-9.2878
G01 X29.9529 Y-9.2802
G01 X29.9610 Y-9.2703
G01 X29.9670 Y-9.2591
G01 X29.9707 Y-9.2469
G01 X29.9720 Y-9.2342
G00 Z2.0000
G00 X32.3437 Y-9.4770
G01 F60.00
G01 Z-0.0600
G01 F20.00
G01 X32.2737 Y-9.4770
G01 X32.2737 Y-8.9736
G01 X32.8271 Y-8.9736
G01 X32.8271 Y-9.0436
G01 X32.4055 Y-9.0437
G01 X32.3937 Y-9.0454
G01 X32.3816 Y-9.0495
G01 X32.3706 Y-9.0559
G01 X32.3616 Y-9.0638
G01 X32.3547 Y-9.0725
G01 X32.3490 Y-9.0830
G01 X32.3453 Y-9.0944
G01 X32.3438 Y-9.1054
G01 X32.3437 Y-9.4770
G00 Z2.0000
G00 X32.3437 Y-10.0403
G01 F60.00
G01 Z-0.0600
G01 F20.00
G01 X32.3437 Y-10.4086
G01 X32.3444 Y-10.4181
G01 X32.3470 Y-10.4290
G01 X32.3518 Y-10.4399
G01 X32.3580 Y-10.4492
G01 X32.3662 Y-10.4578
G01 X32.3760 Y-10.4648
G01 X32.3861 Y-10.4695
G01 X32.3976 Y-10.4726
G01 X32.4087 Y-10.4736
G01 X33.8087 Y-10.4736
G01 X33.8174 Y-10.4730
G01 X33.8260 Y-10.4712
G01 X33.8350 Y-10.4680
G01 X33.8435 Y-10.4635
G01 X33.8512 Y-10.4578
G01 X33.8584 Y-10.4504
G01 X33.8640 Y-10.4427
G01 X33.8684 Y-10.4342
G01 X33.8716 Y-10.4252
G01 X33.8733 Y-10.4158
G01 X33.8737 Y-10.0403
G01 X33.9437 Y-10.0403
G01 X33.9437 Y-10.5436
G01 X32.2737 Y-10.5436
G01 X32.2737 Y-10.0403
G01 X32.3437 Y-10.0403
G00 Z2.0000
G00 X33.3904 Y-9.0436
G01 F60.00
G01 Z-0.0600
G01 F20.00
G01 X33.3904 Y-8.9736
G01 X33.9437 Y-8.9736
G01 X33.9437 Y-9.4770
G01 X33.8737 Y-9.4770
G01 X33.8736 Y-9.1046
G01 X33.8711 Y-9.0905
G01 X33.8660 Y-9.0780
G01 X33.8584 Y-9.0668
G01 X33.8487 Y-9.0574
G01 X33.8400 Y-9.0517
G01 X33.8306 Y-9.0474
G01 X33.8206 Y-9.0447
G01 X33.8103 Y-9.0436
G01 X33.3904 Y-9.0436
G00 Z2.0000
G00 X34.6646 Y-10.0402
G01 F60.00
G01 Z-0.0600
G01 F20.00
G01 X34.6650 Y-10.4157
G01 X34.6667 Y-10.4251
G01 X34.6699 Y-10.4341
G01 X34.6743 Y-10.4426
G01 X34.6804 Y-10.4510
G01 X34.6871 Y-10.4577
G01 X34.6948 Y-10.4634
G01 X34.7040 Y-10.4682
G01 X34.7130 Y-10.4714
G01 X34.7209 Y-10.4729
G01 X34.7296 Y-10.4735
G01 X36.3296 Y-10.4735
G01 X36.3407 Y-10.4725
G01 X36.3522 Y-10.4694
G01 X36.3630 Y-10.4643
G01 X36.3721 Y-10.4577
G01 X36.3798 Y-10.4497
G01 X36.3865 Y-10.4398
G01 X36.3913 Y-10.4289
G01 X36.3939 Y-10.4180
G01 X36.3946 Y-10.4085
G01 X36.3946 Y-10.0401
G01 X36.4646 Y-10.0401
G01 X36.4646 Y-10.5435
G01 X34.5946 Y-10.5435
G01 X34.5946 Y-10.0402
G01 X34.6646 Y-10.0402
G00 Z2.0000
G00 X35.2480 Y-9.0435
G01 F60.00
G01 Z-0.0600
G01 F20.00
G01 X34.7280 Y-9.0435
G01 X34.7193 Y-9.0443
G01 X34.7100 Y-9.0465
G01 X34.7018 Y-9.0497
G01 X34.6935 Y-9.0545
G01 X34.6825 Y-9.0637
G01 X34.6734 Y-9.0758
G01 X34.6674 Y-9.0896
G01 X34.6648 Y-9.1037
G01 X34.6646 Y-9.4769
G01 X34.5946 Y-9.4769
G01 X34.5946 Y-8.9735
G01 X35.2480 Y-8.9735
G01 X35.2480 Y-9.0435
G00 Z2.0000
G00 X35.8113 Y-9.0435
G01 F60.00
G01 Z-0.0600
G01 F20.00
G01 X35.8113 Y-8.9735
G01 X36.4646 Y-8.9735
G01 X36.4646 Y-9.4768
G01 X36.3946 Y-9.4768
G01 X36.3944 Y-9.1037
G01 X36.3918 Y-9.0896
G01 X36.3858 Y-9.0758
G01 X36.3772 Y-9.0643
G01 X36.3657 Y-9.0545
G01 X36.3574 Y-9.0497
G01 X36.3492 Y-9.0465
G01 X36.3399 Y-9.0443
G01 X36.3312 Y-9.0435
G01 X35.8113 Y-9.0435
G00 Z2.0000
G00 X34.2767 Y-7.2420
G01 F60.00
G01 Z-0.0600
G01 F20.00
G01 X34.3071 Y-7.2076
G01 X34.8642 Y-7.3306
G01 X34.8642 Y-7.3799
G01 X34.8451 Y-7.3698
G01 X34.8238 Y-7.3629
G01 X34.2767 Y-7.2420
G00 Z2.0000
G00 X34.8656 Y-6.2661
G01 F60.00
G01 Z-0.0600
G01 F20.00
G01 X34.8642 Y-6.2833
G01 X34.8642 Y-6.3471
G01 X34.5143 Y-6.2698
G01 X34.5068 Y-6.2432
G01 X34.5011 Y-6.2258
G01 X34.7662 Y-6.2844
G01 X34.7803 Y-6.2867
G01 X34.8026 Y-6.2872
G01 X34.8246 Y-6.2838
G01 X34.8457 Y-6.2768
G01 X34.8656 Y-6.2661
G00 Z2.0000
G00 X34.0036 Y-5.6322
G01 F60.00
G01 Z-0.0600
G01 F20.00
G01 X33.9616 Y-5.6111
G01 X33.9154 Y-5.5906
G01 X33.8682 Y-5.5724
G01 X33.8258 Y-5.5584
G01 X34.0241 Y-5.5584
G01 X34.0147 Y-5.5758
G01 X34.0083 Y-5.5938
G01 X34.0046 Y-5.6126
G01 X34.0036 Y-5.6322
G00 Z2.0000
G00 X33.7828 Y-4.9982
G01 F60.00
G01 Z-0.0600
G01 F20.00
G01 X33.8202 Y-4.9878
G01 X33.8712 Y-4.9709
G01 X33.9168 Y-4.9532
G01 X33.9601 Y-4.9340
G01 X33.9846 Y-4.9218
G01 X33.9853 Y-4.9425
G01 X33.9888 Y-4.9613
G01 X33.9956 Y-4.9808
G01 X34.0050 Y-4.9982
G01 X33.7828 Y-4.9982
G00 Z2.0000
G00 X33.0374 Y-4.9982
G01 F60.00
G01 Z-0.0600
G01 F20.00
G01 X33.0468 Y-4.9808
G01 X33.0536 Y-4.9613
G01 X33.0571 Y-4.9425
G01 X33.0578 Y-4.9218
G01 X33.0823 Y-4.9340
G01 X33.1256 Y-4.9532
G01 X33.1712 Y-4.9709
G01 X33.2222 Y-4.9878
G01 X33.2596 Y-4.9982
G01 X33.0374 Y-4.9982
G00 Z2.0000
G00 X33.0183 Y-5.5584
G01 F60.00
G01 Z-0.0600
G01 F20.00
G01 X33.2166 Y-5.5584
G01 X33.1742 Y-5.5724
G01 X33.1270 Y-5.5906
G01 X33.0808 Y-5.6111
G01 X33.0388 Y-5.6322
G01 X33.0378 Y-5.6126
G01 X33.0341 Y-5.5938
G01 X33.0277 Y-5.5758
G01 X33.0183 Y-5.5584
G00 Z2.0000
G00 X31.9035 Y-5.3906
G01 F60.00
G01 Z-0.0600
G01 F20.00
G01 X31.8998 Y-5.3868
G01 X32.1591 Y-5.1276
G01 X32.1628 Y-5.1314
G01 X31.9035 Y-5.3906
G00 Z2.0000
G00 X31.8891 Y-5.4970
G01 F60.00
G01 Z-0.0600
G01 F20.00
G01 X31.8840 Y-5.4796
G01 X31.8768 Y-5.4636
G01 X31.8675 Y-5.4487
G01 X31.8563 Y-5.4352
G01 X31.8433 Y-5.4234
G01 X31.8289 Y-5.4134
G01 X31.8133 Y-5.4054
G01 X31.7955 Y-5.3992
G01 X32.1735 Y-5.0212
G01 X32.1787 Y-5.0387
G01 X32.1859 Y-5.0547
G01 X32.1951 Y-5.0695
G01 X32.2064 Y-5.0830
G01 X32.2193 Y-5.0949
G01 X32.2337 Y-5.1049
G01 X32.2493 Y-5.1129
G01 X32.2671 Y-5.1190
G01 X31.8891 Y-5.4970
G00 Z2.0000
G00 X31.4789 Y-5.6350
G01 F60.00
G01 Z-0.0600
G01 F20.00
G01 X31.5133 Y-5.6545
G01 X31.5562 Y-5.6816
G01 X31.5956 Y-5.7093
G01 X31.6046 Y-5.7144
G01 X31.6167 Y-5.7185
G01 X31.6293 Y-5.7203
G01 X31.6420 Y-5.7195
G01 X31.6551 Y-5.7159
G01 X31.6665 Y-5.7102
G01 X31.6765 Y-5.7024
G01 X31.8133 Y-5.5649
G01 X31.8183 Y-5.5576
G01 X31.8218 Y-5.5505
G01 X31.8248 Y-5.5422
G01 X31.8264 Y-5.5344
G01 X31.8271 Y-5.5257
G01 X31.8267 Y-5.5177
G01 X31.8253 Y-5.5099
G01 X31.8228 Y-5.5015
G01 X31.8183 Y-5.4921
G01 X31.8129 Y-5.4843
G01 X31.8058 Y-5.4767
G01 X31.7976 Y-5.4704
G01 X31.7884 Y-5.4654
G01 X31.7787 Y-5.4620
G01 X31.7685 Y-5.4602
G01 X31.7589 Y-5.4599
G01 X31.7463 Y-5.4618
G01 X31.7350 Y-5.4658
G01 X31.7019 Y-5.4857
G01 X31.6811 Y-5.4955
G01 X31.6594 Y-5.5033
G01 X31.6370 Y-5.5089
G01 X31.6141 Y-5.5123
G01 X31.6026 Y-5.5131
G01 X31.5070 Y-5.5136
G01 X31.4975 Y-5.5149
G01 X31.4876 Y-5.5178
G01 X31.4796 Y-5.5215
G01 X31.4716 Y-5.5267
G01 X31.4650 Y-5.5325
G01 X31.4588 Y-5.5397
G01 X31.4540 Y-5.5471
G01 X31.4500 Y-5.5558
G01 X31.4474 Y-5.5650
G01 X31.4461 Y-5.5737
G01 X31.4461 Y-5.5832
G01 X31.4474 Y-5.5919
G01 X31.4500 Y-5.6011
G01 X31.4536 Y-5.6091
G01 X31.4583 Y-5.6165
G01 X31.4644 Y-5.6238
G01 X31.4710 Y-5.6297
G01 X31.4789 Y-5.6350
G00 Z2.0000
G00 X31.4670 Y-4.9833
G01 F60.00
G01 Z-0.0600
G01 F20.00
G01 X31.4708 Y-4.9814
G01 X31.4689 Y-4.9833
G01 X31.4670 Y-4.9833
G00 Z2.0000
G00 X31.9604 Y-4.4918
G01 F60.00
G01 Z-0.0600
G01 F20.00
G01 X31.9690 Y-4.4747
G01 X31.9708 Y-4.4710
G01 X31.9708 Y-4.4814
G01 X31.9604 Y-4.4918
G00 Z2.0000
G00 X32.5010 Y-4.5470
G01 F60.00
G01 Z-0.0600
G01 F20.00
G01 X32.5006 Y-4.6151
G01 X32.4984 Y-4.6381
G01 X32.4939 Y-4.6607
G01 X32.4908 Y-4.6719
G01 X32.4872 Y-4.6828
G01 X32.4784 Y-4.7041
G01 X32.4675 Y-4.7245
G01 X32.4613 Y-4.7342
G01 X32.4476 Y-4.7528
G01 X32.4400 Y-4.7615
G01 X32.2540 Y-4.9480
G01 X32.2460 Y-4.9579
G01 X32.2405 Y-4.9685
G01 X32.2371 Y-4.9791
G01 X32.2356 Y-4.9902
G01 X32.2361 Y-5.0021
G01 X32.2385 Y-5.0130
G01 X32.2432 Y-5.0240
G01 X32.2498 Y-5.0340
G01 X32.2574 Y-5.0421
G01 X32.2699 Y-5.0507
G01 X32.2839 Y-5.0562
G01 X32.2989 Y-5.0584
G01 X32.3140 Y-5.0570
G01 X32.3216 Y-5.0548
G01 X32.3297 Y-5.0514
G01 X32.3573 Y-5.0337
G01 X32.3695 Y-5.0268
G01 X32.3948 Y-5.0149
G01 X32.4078 Y-5.0098
G01 X32.4211 Y-5.0054
G01 X32.4483 Y-4.9986
G01 X32.4759 Y-4.9945
G01 X32.5047 Y-4.9931
G01 X32.9311 Y-4.9930
G01 X32.9445 Y-4.9910
G01 X32.9564 Y-4.9865
G01 X32.9673 Y-4.9799
G01 X32.9766 Y-4.9712
G01 X32.9833 Y-4.9622
G01 X32.9883 Y-4.9523
G01 X32.9915 Y-4.9416
G01 X32.9929 Y-4.9305
G01 X32.9923 Y-4.9194
G01 X32.9899 Y-4.9085
G01 X32.9856 Y-4.8982
G01 X32.9792 Y-4.8881
G01 X32.9733 Y-4.8816
G01 X32.9667 Y-4.8759
G01 X32.9462 Y-4.8628
G01 X32.9047 Y-4.8335
G01 X32.8646 Y-4.8023
G01 X32.8261 Y-4.7691
G01 X32.7894 Y-4.7340
G01 X32.7543 Y-4.6973
G01 X32.7211 Y-4.6588
G01 X32.6899 Y-4.6187
G01 X32.6606 Y-4.5772
G01 X32.6335 Y-4.5343
G01 X32.6200 Y-4.5109
G01 X32.6146 Y-4.5039
G01 X32.6090 Y-4.4983
G01 X32.6014 Y-4.4925
G01 X32.5937 Y-4.4882
G01 X32.5848 Y-4.4848
G01 X32.5755 Y-4.4827
G01 X32.5660 Y-4.4820
G01 X32.5564 Y-4.4827
G01 X32.5471 Y-4.4848
G01 X32.5389 Y-4.4879
G01 X32.5305 Y-4.4925
G01 X32.5235 Y-4.4978
G01 X32.5173 Y-4.5039
