(G-CODE GENERATED BY FLATCAM v8.993 - www.flatcam.org - Version Date: 2020/06/05)

(Name: Syntez2_Ф2_низ.gbr_iso_combined_cnc)
(Type: G-code from Geometry)
(Units: MM)

(Created on Thursday, 08 October 2020 at 07:08)

(This preprocessor is the default preprocessor used by FlatCAM.)
(It is made to work with MACH3 compatible motion controllers.)

(TOOL DIAMETER: 0.15 mm)
(Feedrate_XY: 60.0 mm/min)
(Feedrate_Z: 70.0 mm/min)
(Feedrate rapids 1500.0 mm/min)

(Z_Cut: -0.07 mm)
(Z_Move: 2.0 mm)
(Z Start: None mm)
(Z End: 25.0 mm)
(Steps per circle: 128)
(Preprocessor Geometry: default)

(X range:  -97.1658 ...   -3.1786  mm)
(Y range:  -32.3217 ...   -0.6376  mm)

(Spindle Speed: None RPM)
G21
G90
G94



G01 F60.00
G00 Z2.0000

M03
G00 X-3.1786 Y-4.9608
G01 F70.00
G01 Z-0.0700
G01 F60.00
G01 X-3.1803 Y-5.0307
G01 X-3.1855 Y-5.1005
G01 X-3.1940 Y-5.1699
G01 X-3.2060 Y-5.2388
G01 X-3.2213 Y-5.3070
G01 X-3.2400 Y-5.3744
G01 X-3.2619 Y-5.4409
G01 X-3.2871 Y-5.5061
G01 X-3.3154 Y-5.5701
G01 X-3.3469 Y-5.6325
G01 X-3.3814 Y-5.6934
G01 X-3.4188 Y-5.7525
G01 X-3.4590 Y-5.8097
G01 X-3.5021 Y-5.8648
G01 X-3.5478 Y-5.9178
G01 X-3.5960 Y-5.9684
G01 X-3.6466 Y-6.0166
G01 X-3.6996 Y-6.0623
G01 X-3.7547 Y-6.1054
G01 X-3.8119 Y-6.1456
G01 X-3.8710 Y-6.1830
G01 X-3.9319 Y-6.2175
G01 X-3.9943 Y-6.2490
G01 X-4.0583 Y-6.2773
G01 X-4.1235 Y-6.3025
G01 X-4.1900 Y-6.3244
G01 X-4.2574 Y-6.3431
G01 X-4.3256 Y-6.3584
G01 X-4.3945 Y-6.3704
G01 X-4.4639 Y-6.3789
G01 X-4.5337 Y-6.3841
G01 X-4.6036 Y-6.3858
G01 X-4.6735 Y-6.3841
G01 X-4.7433 Y-6.3789
G01 X-4.8127 Y-6.3704
G01 X-4.8816 Y-6.3584
G01 X-4.9498 Y-6.3431
G01 X-5.0172 Y-6.3244
G01 X-5.0837 Y-6.3025
G01 X-5.1489 Y-6.2773
G01 X-5.2129 Y-6.2490
G01 X-5.2753 Y-6.2175
G01 X-5.3362 Y-6.1830
G01 X-5.3953 Y-6.1456
G01 X-5.4525 Y-6.1054
G01 X-5.5076 Y-6.0623
G01 X-5.5606 Y-6.0166
G01 X-5.6112 Y-5.9684
G01 X-5.6594 Y-5.9178
G01 X-5.7051 Y-5.8648
G01 X-5.7482 Y-5.8097
G01 X-5.7884 Y-5.7525
G01 X-5.8258 Y-5.6934
G01 X-5.8603 Y-5.6325
G01 X-5.8918 Y-5.5701
G01 X-5.9201 Y-5.5061
G01 X-5.9453 Y-5.4409
G01 X-5.9672 Y-5.3744
G01 X-5.9859 Y-5.3070
G01 X-6.0012 Y-5.2388
G01 X-6.0132 Y-5.1699
G01 X-6.0217 Y-5.1005
G01 X-6.0269 Y-5.0307
G01 X-6.0286 Y-4.9608
G01 X-6.0269 Y-4.8909
G01 X-6.0217 Y-4.8211
G01 X-6.0132 Y-4.7517
G01 X-6.0012 Y-4.6828
G01 X-5.9859 Y-4.6146
G01 X-5.9672 Y-4.5472
G01 X-5.9453 Y-4.4807
G01 X-5.9201 Y-4.4155
G01 X-5.8918 Y-4.3515
G01 X-5.8603 Y-4.2891
G01 X-5.8258 Y-4.2282
G01 X-5.7884 Y-4.1691
G01 X-5.7482 Y-4.1119
G01 X-5.7051 Y-4.0568
G01 X-5.6594 Y-4.0038
G01 X-5.6112 Y-3.9532
G01 X-5.5606 Y-3.9050
G01 X-5.5076 Y-3.8593
G01 X-5.4525 Y-3.8162
G01 X-5.3953 Y-3.7760
G01 X-5.3362 Y-3.7386
G01 X-5.2753 Y-3.7041
G01 X-5.2129 Y-3.6726
G01 X-5.1489 Y-3.6443
G01 X-5.0837 Y-3.6191
G01 X-5.0172 Y-3.5972
G01 X-4.9498 Y-3.5785
G01 X-4.8816 Y-3.5632
G01 X-4.8127 Y-3.5512
G01 X-4.7433 Y-3.5427
G01 X-4.6735 Y-3.5375
G01 X-4.6036 Y-3.5358
G01 X-4.5337 Y-3.5375
G01 X-4.4639 Y-3.5427
G01 X-4.3945 Y-3.5512
G01 X-4.3256 Y-3.5632
G01 X-4.2574 Y-3.5785
G01 X-4.1900 Y-3.5972
G01 X-4.1235 Y-3.6191
G01 X-4.0583 Y-3.6443
G01 X-3.9943 Y-3.6726
G01 X-3.9319 Y-3.7041
G01 X-3.8710 Y-3.7386
G01 X-3.8119 Y-3.7760
G01 X-3.7547 Y-3.8162
G01 X-3.6996 Y-3.8593
G01 X-3.6466 Y-3.9050
G01 X-3.5960 Y-3.9532
G01 X-3.5478 Y-4.0038
G01 X-3.5021 Y-4.0568
G01 X-3.4590 Y-4.1119
G01 X-3.4188 Y-4.1691
G01 X-3.3814 Y-4.2282
G01 X-3.3469 Y-4.2891
G01 X-3.3154 Y-4.3515
G01 X-3.2871 Y-4.4155
G01 X-3.2619 Y-4.4807
G01 X-3.2400 Y-4.5472
G01 X-3.2213 Y-4.6146
G01 X-3.2060 Y-4.6828
G01 X-3.1940 Y-4.7517
G01 X-3.1855 Y-4.8211
G01 X-3.1803 Y-4.8909
G01 X-3.1786 Y-4.9608
G00 Z2.0000
G00 X-3.2536 Y-4.9608
G01 F70.00
G01 Z-0.0700
G01 F60.00
G01 X-3.2553 Y-5.0270
G01 X-3.2601 Y-5.0931
G01 X-3.2683 Y-5.1589
G01 X-3.2796 Y-5.2242
G01 X-3.2941 Y-5.2888
G01 X-3.3118 Y-5.3527
G01 X-3.3326 Y-5.4156
G01 X-3.3564 Y-5.4774
G01 X-3.3833 Y-5.5380
G01 X-3.4130 Y-5.5972
G01 X-3.4457 Y-5.6548
G01 X-3.4812 Y-5.7108
G01 X-3.5193 Y-5.7650
G01 X-3.5601 Y-5.8172
G01 X-3.6033 Y-5.8674
G01 X-3.6490 Y-5.9154
G01 X-3.6970 Y-5.9611
G01 X-3.7472 Y-6.0043
G01 X-3.7994 Y-6.0451
G01 X-3.8536 Y-6.0832
G01 X-3.9096 Y-6.1187
G01 X-3.9672 Y-6.1514
G01 X-4.0264 Y-6.1811
G01 X-4.0870 Y-6.2080
G01 X-4.1488 Y-6.2318
G01 X-4.2117 Y-6.2526
G01 X-4.2756 Y-6.2703
G01 X-4.3402 Y-6.2848
G01 X-4.4055 Y-6.2961
G01 X-4.4713 Y-6.3043
G01 X-4.5374 Y-6.3091
G01 X-4.6036 Y-6.3108
G01 X-4.6698 Y-6.3091
G01 X-4.7359 Y-6.3043
G01 X-4.8017 Y-6.2961
G01 X-4.8670 Y-6.2848
G01 X-4.9316 Y-6.2703
G01 X-4.9955 Y-6.2526
G01 X-5.0584 Y-6.2318
G01 X-5.1202 Y-6.2080
G01 X-5.1808 Y-6.1811
G01 X-5.2400 Y-6.1514
G01 X-5.2976 Y-6.1187
G01 X-5.3536 Y-6.0832
G01 X-5.4078 Y-6.0451
G01 X-5.4600 Y-6.0043
G01 X-5.5102 Y-5.9611
G01 X-5.5582 Y-5.9154
G01 X-5.6039 Y-5.8674
G01 X-5.6471 Y-5.8172
G01 X-5.6879 Y-5.7650
G01 X-5.7260 Y-5.7108
G01 X-5.7615 Y-5.6548
G01 X-5.7942 Y-5.5972
G01 X-5.8239 Y-5.5380
G01 X-5.8508 Y-5.4774
G01 X-5.8746 Y-5.4156
G01 X-5.8954 Y-5.3527
G01 X-5.9131 Y-5.2888
G01 X-5.9276 Y-5.2242
G01 X-5.9389 Y-5.1589
G01 X-5.9471 Y-5.0931
G01 X-5.9519 Y-5.0270
G01 X-5.9536 Y-4.9608
G01 X-5.9519 Y-4.8946
G01 X-5.9471 Y-4.8285
G01 X-5.9389 Y-4.7627
G01 X-5.9276 Y-4.6974
G01 X-5.9131 Y-4.6328
G01 X-5.8954 Y-4.5689
G01 X-5.8746 Y-4.5060
G01 X-5.8508 Y-4.4442
G01 X-5.8239 Y-4.3836
G01 X-5.7942 Y-4.3244
G01 X-5.7615 Y-4.2668
G01 X-5.7260 Y-4.2108
G01 X-5.6879 Y-4.1566
G01 X-5.6471 Y-4.1044
G01 X-5.6039 Y-4.0542
G01 X-5.5582 Y-4.0062
G01 X-5.5102 Y-3.9605
G01 X-5.4600 Y-3.9173
G01 X-5.4078 Y-3.8765
G01 X-5.3536 Y-3.8384
G01 X-5.2976 Y-3.8029
G01 X-5.2400 Y-3.7702
G01 X-5.1808 Y-3.7405
G01 X-5.1202 Y-3.7136
G01 X-5.0584 Y-3.6898
G01 X-4.9955 Y-3.6690
G01 X-4.9316 Y-3.6513
G01 X-4.8670 Y-3.6368
G01 X-4.8017 Y-3.6255
G01 X-4.7359 Y-3.6173
G01 X-4.6698 Y-3.6125
G01 X-4.6036 Y-3.6108
G01 X-4.5374 Y-3.6125
G01 X-4.4713 Y-3.6173
G01 X-4.4055 Y-3.6255
G01 X-4.3402 Y-3.6368
G01 X-4.2756 Y-3.6513
G01 X-4.2117 Y-3.6690
G01 X-4.1488 Y-3.6898
G01 X-4.0870 Y-3.7136
G01 X-4.0264 Y-3.7405
G01 X-3.9672 Y-3.7702
G01 X-3.9096 Y-3.8029
G01 X-3.8536 Y-3.8384
G01 X-3.7994 Y-3.8765
G01 X-3.7472 Y-3.9173
G01 X-3.6970 Y-3.9605
G01 X-3.6490 Y-4.0062
G01 X-3.6033 Y-4.0542
G01 X-3.5601 Y-4.1044
G01 X-3.5193 Y-4.1566
G01 X-3.4812 Y-4.2108
G01 X-3.4457 Y-4.2668
G01 X-3.4130 Y-4.3244
G01 X-3.3833 Y-4.3836
G01 X-3.3564 Y-4.4442
G01 X-3.3326 Y-4.5060
G01 X-3.3118 Y-4.5689
G01 X-3.2941 Y-4.6328
G01 X-3.2796 Y-4.6974
G01 X-3.2683 Y-4.7627
G01 X-3.2601 Y-4.8285
G01 X-3.2553 Y-4.8946
G01 X-3.2536 Y-4.9608
G00 Z2.0000
G00 X-3.3287 Y-4.9608
G01 F70.00
G01 Z-0.0700
G01 F60.00
G01 X-3.3302 Y-5.0234
G01 X-3.3348 Y-5.0858
G01 X-3.3425 Y-5.1479
G01 X-3.3532 Y-5.2095
G01 X-3.3669 Y-5.2706
G01 X-3.3836 Y-5.3309
G01 X-3.4032 Y-5.3903
G01 X-3.4257 Y-5.4487
G01 X-3.4511 Y-5.5059
G01 X-3.4792 Y-5.5618
G01 X-3.5101 Y-5.6162
G01 X-3.5435 Y-5.6691
G01 X-3.5796 Y-5.7203
G01 X-3.6181 Y-5.7696
G01 X-3.6589 Y-5.8170
G01 X-3.7021 Y-5.8623
G01 X-3.7474 Y-5.9055
G01 X-3.7948 Y-5.9463
G01 X-3.8441 Y-5.9848
G01 X-3.8953 Y-6.0209
G01 X-3.9482 Y-6.0543
G01 X-4.0026 Y-6.0852
G01 X-4.0585 Y-6.1133
G01 X-4.1157 Y-6.1387
G01 X-4.1741 Y-6.1612
G01 X-4.2335 Y-6.1808
G01 X-4.2938 Y-6.1975
G01 X-4.3549 Y-6.2112
G01 X-4.4165 Y-6.2219
G01 X-4.4786 Y-6.2296
G01 X-4.5410 Y-6.2342
G01 X-4.6036 Y-6.2357
G01 X-4.6662 Y-6.2342
G01 X-4.7286 Y-6.2296
G01 X-4.7907 Y-6.2219
G01 X-4.8523 Y-6.2112
G01 X-4.9134 Y-6.1975
G01 X-4.9737 Y-6.1808
G01 X-5.0331 Y-6.1612
G01 X-5.0915 Y-6.1387
G01 X-5.1487 Y-6.1133
G01 X-5.2046 Y-6.0852
G01 X-5.2590 Y-6.0543
G01 X-5.3119 Y-6.0209
G01 X-5.3631 Y-5.9848
G01 X-5.4124 Y-5.9463
G01 X-5.4598 Y-5.9055
G01 X-5.5051 Y-5.8623
G01 X-5.5483 Y-5.8170
G01 X-5.5891 Y-5.7696
G01 X-5.6276 Y-5.7203
G01 X-5.6637 Y-5.6691
G01 X-5.6971 Y-5.6162
G01 X-5.7280 Y-5.5618
G01 X-5.7561 Y-5.5059
G01 X-5.7815 Y-5.4487
G01 X-5.8040 Y-5.3903
G01 X-5.8236 Y-5.3309
G01 X-5.8403 Y-5.2706
G01 X-5.8540 Y-5.2095
G01 X-5.8647 Y-5.1479
G01 X-5.8724 Y-5.0858
G01 X-5.8770 Y-5.0234
G01 X-5.8785 Y-4.9608
G01 X-5.8770 Y-4.8982
G01 X-5.8724 Y-4.8358
G01 X-5.8647 Y-4.7737
G01 X-5.8540 Y-4.7121
G01 X-5.8403 Y-4.6510
G01 X-5.8236 Y-4.5907
G01 X-5.8040 Y-4.5313
G01 X-5.7815 Y-4.4729
G01 X-5.7561 Y-4.4157
G01 X-5.7280 Y-4.3598
G01 X-5.6971 Y-4.3054
G01 X-5.6637 Y-4.2525
G01 X-5.6276 Y-4.2013
G01 X-5.5891 Y-4.1520
G01 X-5.5483 Y-4.1046
G01 X-5.5051 Y-4.0593
G01 X-5.4598 Y-4.0161
G01 X-5.4124 Y-3.9753
G01 X-5.3631 Y-3.9368
G01 X-5.3119 Y-3.9007
G01 X-5.2590 Y-3.8673
G01 X-5.2046 Y-3.8364
G01 X-5.1487 Y-3.8083
G01 X-5.0915 Y-3.7829
G01 X-5.0331 Y-3.7604
G01 X-4.9737 Y-3.7408
G01 X-4.9134 Y-3.7241
G01 X-4.8523 Y-3.7104
G01 X-4.7907 Y-3.6997
G01 X-4.7286 Y-3.6920
G01 X-4.6662 Y-3.6874
G01 X-4.6036 Y-3.6859
G01 X-4.5410 Y-3.6874
G01 X-4.4786 Y-3.6920
G01 X-4.4165 Y-3.6997
G01 X-4.3549 Y-3.7104
G01 X-4.2938 Y-3.7241
G01 X-4.2335 Y-3.7408
G01 X-4.1741 Y-3.7604
G01 X-4.1157 Y-3.7829
G01 X-4.0585 Y-3.8083
G01 X-4.0026 Y-3.8364
G01 X-3.9482 Y-3.8673
G01 X-3.8953 Y-3.9007
G01 X-3.8441 Y-3.9368
G01 X-3.7948 Y-3.9753
G01 X-3.7474 Y-4.0161
G01 X-3.7021 Y-4.0593
G01 X-3.6589 Y-4.1046
G01 X-3.6181 Y-4.1520
G01 X-3.5796 Y-4.2013
G01 X-3.5435 Y-4.2525
G01 X-3.5101 Y-4.3054
G01 X-3.4792 Y-4.3598
G01 X-3.4511 Y-4.4157
G01 X-3.4257 Y-4.4729
G01 X-3.4032 Y-4.5313
G01 X-3.3836 Y-4.5907
G01 X-3.3669 Y-4.6510
G01 X-3.3532 Y-4.7121
G01 X-3.3425 Y-4.7737
G01 X-3.3348 Y-4.8358
G01 X-3.3302 Y-4.8982
G01 X-3.3287 Y-4.9608
G00 Z2.0000
G00 X-3.4037 Y-4.9608
G01 F70.00
G01 Z-0.0700
G01 F60.00
G01 X-3.4051 Y-5.0197
G01 X-3.4095 Y-5.0784
G01 X-3.4167 Y-5.1369
G01 X-3.4267 Y-5.1949
G01 X-3.4397 Y-5.2524
G01 X-3.4554 Y-5.3091
G01 X-3.4738 Y-5.3650
G01 X-3.4950 Y-5.4200
G01 X-3.5189 Y-5.4738
G01 X-3.5454 Y-5.5264
G01 X-3.5744 Y-5.5777
G01 X-3.6059 Y-5.6274
G01 X-3.6398 Y-5.6756
G01 X-3.6761 Y-5.7220
G01 X-3.7145 Y-5.7666
G01 X-3.7551 Y-5.8093
G01 X-3.7978 Y-5.8499
G01 X-3.8424 Y-5.8883
G01 X-3.8888 Y-5.9246
G01 X-3.9370 Y-5.9585
G01 X-3.9867 Y-5.9900
G01 X-4.0380 Y-6.0190
G01 X-4.0906 Y-6.0455
G01 X-4.1444 Y-6.0694
G01 X-4.1994 Y-6.0906
G01 X-4.2553 Y-6.1090
G01 X-4.3120 Y-6.1247
G01 X-4.3695 Y-6.1377
G01 X-4.4275 Y-6.1477
G01 X-4.4860 Y-6.1549
G01 X-4.5447 Y-6.1593
G01 X-4.6036 Y-6.1607
G01 X-4.6625 Y-6.1593
G01 X-4.7212 Y-6.1549
G01 X-4.7797 Y-6.1477
G01 X-4.8377 Y-6.1377
G01 X-4.8952 Y-6.1247
G01 X-4.9519 Y-6.1090
G01 X-5.0078 Y-6.0906
G01 X-5.0628 Y-6.0694
G01 X-5.1166 Y-6.0455
G01 X-5.1692 Y-6.0190
G01 X-5.2205 Y-5.9900
G01 X-5.2702 Y-5.9585
G01 X-5.3184 Y-5.9246
G01 X-5.3648 Y-5.8883
G01 X-5.4094 Y-5.8499
G01 X-5.4521 Y-5.8093
G01 X-5.4927 Y-5.7666
G01 X-5.5311 Y-5.7220
G01 X-5.5674 Y-5.6756
G01 X-5.6013 Y-5.6274
G01 X-5.6328 Y-5.5777
G01 X-5.6618 Y-5.5264
G01 X-5.6883 Y-5.4738
G01 X-5.7122 Y-5.4200
G01 X-5.7334 Y-5.3650
G01 X-5.7518 Y-5.3091
G01 X-5.7675 Y-5.2524
G01 X-5.7805 Y-5.1949
G01 X-5.7905 Y-5.1369
G01 X-5.7977 Y-5.0784
G01 X-5.8021 Y-5.0197
G01 X-5.8035 Y-4.9608
G01 X-5.8021 Y-4.9019
G01 X-5.7977 Y-4.8432
G01 X-5.7905 Y-4.7847
G01 X-5.7805 Y-4.7267
G01 X-5.7675 Y-4.6692
G01 X-5.7518 Y-4.6125
G01 X-5.7334 Y-4.5566
G01 X-5.7122 Y-4.5016
G01 X-5.6883 Y-4.4478
G01 X-5.6618 Y-4.3952
G01 X-5.6328 Y-4.3439
G01 X-5.6013 Y-4.2942
G01 X-5.5674 Y-4.2460
G01 X-5.5311 Y-4.1996
G01 X-5.4927 Y-4.1550
G01 X-5.4521 Y-4.1123
G01 X-5.4094 Y-4.0717
G01 X-5.3648 Y-4.0333
G01 X-5.3184 Y-3.9970
G01 X-5.2702 Y-3.9631
G01 X-5.2205 Y-3.9316
G01 X-5.1692 Y-3.9026
G01 X-5.1166 Y-3.8761
G01 X-5.0628 Y-3.8522
G01 X-5.0078 Y-3.8310
G01 X-4.9519 Y-3.8126
G01 X-4.8952 Y-3.7969
G01 X-4.8377 Y-3.7839
G01 X-4.7797 Y-3.7739
G01 X-4.7212 Y-3.7667
G01 X-4.6625 Y-3.7623
G01 X-4.6036 Y-3.7609
G01 X-4.5447 Y-3.7623
G01 X-4.4860 Y-3.7667
G01 X-4.4275 Y-3.7739
G01 X-4.3695 Y-3.7839
G01 X-4.3120 Y-3.7969
G01 X-4.2553 Y-3.8126
G01 X-4.1994 Y-3.8310
G01 X-4.1444 Y-3.8522
G01 X-4.0906 Y-3.8761
G01 X-4.0380 Y-3.9026
G01 X-3.9867 Y-3.9316
G01 X-3.9370 Y-3.9631
G01 X-3.8888 Y-3.9970
G01 X-3.8424 Y-4.0333
G01 X-3.7978 Y-4.0717
G01 X-3.7551 Y-4.1123
G01 X-3.7145 Y-4.1550
G01 X-3.6761 Y-4.1996
G01 X-3.6398 Y-4.2460
G01 X-3.6059 Y-4.2942
G01 X-3.5744 Y-4.3439
G01 X-3.5454 Y-4.3952
G01 X-3.5189 Y-4.4478
G01 X-3.4950 Y-4.5016
G01 X-3.4738 Y-4.5566
G01 X-3.4554 Y-4.6125
G01 X-3.4397 Y-4.6692
G01 X-3.4267 Y-4.7267
G01 X-3.4167 Y-4.7847
G01 X-3.4095 Y-4.8432
G01 X-3.4051 Y-4.9019
G01 X-3.4037 Y-4.9608
G00 Z2.0000
G00 X-12.6964 Y-11.4695
G01 F70.00
G01 Z-0.0700
G01 F60.00
G01 X-12.6977 Y-11.4168
G01 X-12.7016 Y-11.3641
G01 X-12.7080 Y-11.3118
G01 X-12.7171 Y-11.2598
G01 X-12.7286 Y-11.2083
G01 X-12.7427 Y-11.1574
G01 X-12.7592 Y-11.1073
G01 X-12.7782 Y-11.0581
G01 X-12.7996 Y-11.0099
G01 X-12.8233 Y-10.9627
G01 X-12.8493 Y-10.9168
G01 X-12.8776 Y-10.8723
G01 X-12.9080 Y-10.8291
G01 X-12.9404 Y-10.7875
G01 X-12.9749 Y-10.7476
G01 X-13.0113 Y-10.7094
G01 X-13.0495 Y-10.6730
G01 X-13.0894 Y-10.6385
G01 X-13.1310 Y-10.6061
G01 X-13.1742 Y-10.5757
G01 X-13.2187 Y-10.5474
G01 X-13.2646 Y-10.5214
G01 X-13.3118 Y-10.4977
G01 X-13.3600 Y-10.4763
G01 X-13.4092 Y-10.4573
G01 X-13.4593 Y-10.4408
G01 X-13.5102 Y-10.4267
G01 X-13.5617 Y-10.4152
G01 X-13.6137 Y-10.4061
G01 X-13.6660 Y-10.3997
G01 X-13.7187 Y-10.3958
G01 X-13.7714 Y-10.3945
G01 X-13.8241 Y-10.3958
G01 X-13.8768 Y-10.3997
G01 X-13.9291 Y-10.4061
G01 X-13.9811 Y-10.4152
G01 X-14.0326 Y-10.4267
G01 X-14.0835 Y-10.4408
G01 X-14.1336 Y-10.4573
G01 X-14.1828 Y-10.4763
G01 X-14.2310 Y-10.4977
G01 X-14.2782 Y-10.5214
G01 X-14.3241 Y-10.5474
G01 X-14.3686 Y-10.5757
G01 X-14.4118 Y-10.6061
G01 X-14.4534 Y-10.6385
G01 X-14.4933 Y-10.6730
G01 X-14.5315 Y-10.7094
G01 X-14.5679 Y-10.7476
G01 X-14.6024 Y-10.7875
G01 X-14.6348 Y-10.8291
G01 X-14.6652 Y-10.8723
G01 X-14.6935 Y-10.9168
G01 X-14.7195 Y-10.9627
G01 X-14.7432 Y-11.0099
G01 X-14.7646 Y-11.0581
G01 X-14.7836 Y-11.1073
G01 X-14.8001 Y-11.1574
G01 X-14.8142 Y-11.2083
G01 X-14.8257 Y-11.2598
G01 X-14.8348 Y-11.3118
G01 X-14.8412 Y-11.3641
G01 X-14.8451 Y-11.4168
G01 X-14.8464 Y-11.4695
G01 X-14.8451 Y-11.5222
G01 X-14.8412 Y-11.5749
G01 X-14.8348 Y-11.6272
G01 X-14.8257 Y-11.6792
G01 X-14.8142 Y-11.7307
G01 X-14.8001 Y-11.7816
G01 X-14.7836 Y-11.8317
G01 X-14.7646 Y-11.8809
G01 X-14.7432 Y-11.9291
G01 X-14.7195 Y-11.9763
G01 X-14.6935 Y-12.0222
G01 X-14.6652 Y-12.0667
G01 X-14.6348 Y-12.1099
G01 X-14.6024 Y-12.1515
G01 X-14.5679 Y-12.1914
G01 X-14.5315 Y-12.2296
G01 X-14.4933 Y-12.2660
G01 X-14.4534 Y-12.3005
G01 X-14.4118 Y-12.3329
G01 X-14.3686 Y-12.3633
G01 X-14.3241 Y-12.3916
G01 X-14.2782 Y-12.4176
G01 X-14.2310 Y-12.4413
G01 X-14.1828 Y-12.4627
G01 X-14.1336 Y-12.4817
G01 X-14.0835 Y-12.4982
G01 X-14.0326 Y-12.5123
G01 X-13.9811 Y-12.5238
G01 X-13.9291 Y-12.5329
G01 X-13.8768 Y-12.5393
G01 X-13.8241 Y-12.5432
G01 X-13.7714 Y-12.5445
G01 X-13.7187 Y-12.5432
G01 X-13.6660 Y-12.5393
G01 X-13.6137 Y-12.5329
G01 X-13.5617 Y-12.5238
G01 X-13.5102 Y-12.5123
G01 X-13.4593 Y-12.4982
G01 X-13.4092 Y-12.4817
G01 X-13.3600 Y-12.4627
G01 X-13.3118 Y-12.4413
G01 X-13.2646 Y-12.4176
G01 X-13.2187 Y-12.3916
G01 X-13.1742 Y-12.3633
G01 X-13.1310 Y-12.3329
G01 X-13.0894 Y-12.3005
G01 X-13.0495 Y-12.2660
G01 X-13.0113 Y-12.2296
G01 X-12.9749 Y-12.1914
G01 X-12.9404 Y-12.1515
G01 X-12.9080 Y-12.1099
G01 X-12.8776 Y-12.0667
G01 X-12.8493 Y-12.0222
G01 X-12.8233 Y-11.9763
G01 X-12.7996 Y-11.9291
G01 X-12.7782 Y-11.8809
G01 X-12.7592 Y-11.8317
G01 X-12.7427 Y-11.7816
G01 X-12.7286 Y-11.7307
G01 X-12.7171 Y-11.6792
G01 X-12.7080 Y-11.6272
G01 X-12.7016 Y-11.5749
G01 X-12.6977 Y-11.5222
G01 X-12.6964 Y-11.4695
G00 Z2.0000
G00 X-13.4464 Y-11.4695
G01 F70.00
G01 Z-0.0700
G01 F60.00
G01 X-13.4480 Y-11.5014
G01 X-13.4527 Y-11.5329
G01 X-13.4604 Y-11.5638
G01 X-13.4712 Y-11.5939
G01 X-13.4848 Y-11.6227
G01 X-13.5012 Y-11.6500
G01 X-13.5202 Y-11.6757
G01 X-13.5416 Y-11.6993
G01 X-13.5652 Y-11.7207
G01 X-13.5909 Y-11.7397
G01 X-13.6182 Y-11.7561
G01 X-13.6470 Y-11.7697
G01 X-13.6771 Y-11.7805
G01 X-13.7080 Y-11.7882
G01 X-13.7395 Y-11.7929
G01 X-13.7714 Y-11.7945
G01 X-13.8033 Y-11.7929
G01 X-13.8348 Y-11.7882
G01 X-13.8657 Y-11.7805
G01 X-13.8958 Y-11.7697
G01 X-13.9246 Y-11.7561
G01 X-13.9519 Y-11.7397
G01 X-13.9776 Y-11.7207
G01 X-14.0012 Y-11.6993
G01 X-14.0226 Y-11.6757
G01 X-14.0416 Y-11.6500
G01 X-14.0580 Y-11.6227
G01 X-14.0716 Y-11.5939
G01 X-14.0824 Y-11.5638
G01 X-14.0901 Y-11.5329
G01 X-14.0948 Y-11.5014
G01 X-14.0964 Y-11.4695
G01 X-14.0948 Y-11.4376
G01 X-14.0901 Y-11.4061
G01 X-14.0824 Y-11.3752
G01 X-14.0716 Y-11.3451
G01 X-14.0580 Y-11.3163
G01 X-14.0416 Y-11.2890
G01 X-14.0226 Y-11.2633
G01 X-14.0012 Y-11.2397
G01 X-13.9776 Y-11.2183
G01 X-13.9519 Y-11.1993
G01 X-13.9246 Y-11.1829
G01 X-13.8958 Y-11.1693
G01 X-13.8657 Y-11.1585
G01 X-13.8348 Y-11.1508
G01 X-13.8033 Y-11.1461
G01 X-13.7714 Y-11.1445
G01 X-13.7395 Y-11.1461
G01 X-13.7080 Y-11.1508
G01 X-13.6771 Y-11.1585
G01 X-13.6470 Y-11.1693
G01 X-13.6182 Y-11.1829
G01 X-13.5909 Y-11.1993
G01 X-13.5652 Y-11.2183
G01 X-13.5416 Y-11.2397
G01 X-13.5202 Y-11.2633
G01 X-13.5012 Y-11.2890
G01 X-13.4848 Y-11.3163
G01 X-13.4712 Y-11.3451
G01 X-13.4604 Y-11.3752
G01 X-13.4527 Y-11.4061
G01 X-13.4480 Y-11.4376
G01 X-13.4464 Y-11.4695
G00 Z2.0000
G00 X-13.5214 Y-11.4695
G01 F70.00
G01 Z-0.0700
G01 F60.00
G01 X-13.5226 Y-11.4940
G01 X-13.5262 Y-11.5183
G01 X-13.5322 Y-11.5421
G01 X-13.5405 Y-11.5652
G01 X-13.5510 Y-11.5873
G01 X-13.5636 Y-11.6084
G01 X-13.5782 Y-11.6281
G01 X-13.5947 Y-11.6462
G01 X-13.6128 Y-11.6627
G01 X-13.6325 Y-11.6773
G01 X-13.6536 Y-11.6899
G01 X-13.6757 Y-11.7004
G01 X-13.6988 Y-11.7087
G01 X-13.7226 Y-11.7147
G01 X-13.7469 Y-11.7183
G01 X-13.7714 Y-11.7195
G01 X-13.7959 Y-11.7183
G01 X-13.8202 Y-11.7147
G01 X-13.8440 Y-11.7087
G01 X-13.8671 Y-11.7004
G01 X-13.8892 Y-11.6899
G01 X-13.9103 Y-11.6773
G01 X-13.9300 Y-11.6627
G01 X-13.9481 Y-11.6462
G01 X-13.9646 Y-11.6281
G01 X-13.9792 Y-11.6084
G01 X-13.9918 Y-11.5873
G01 X-14.0023 Y-11.5652
G01 X-14.0106 Y-11.5421
G01 X-14.0166 Y-11.5183
G01 X-14.0202 Y-11.4940
G01 X-14.0214 Y-11.4695
G01 X-14.0202 Y-11.4450
G01 X-14.0166 Y-11.4207
G01 X-14.0106 Y-11.3969
G01 X-14.0023 Y-11.3738
G01 X-13.9918 Y-11.3517
G01 X-13.9792 Y-11.3306
G01 X-13.9646 Y-11.3109
G01 X-13.9481 Y-11.2928
G01 X-13.9300 Y-11.2763
G01 X-13.9103 Y-11.2617
G01 X-13.8892 Y-11.2491
G01 X-13.8671 Y-11.2386
G01 X-13.8440 Y-11.2303
G01 X-13.8202 Y-11.2243
G01 X-13.7959 Y-11.2207
G01 X-13.7714 Y-11.2195
G01 X-13.7469 Y-11.2207
G01 X-13.7226 Y-11.2243
G01 X-13.6988 Y-11.2303
G01 X-13.6757 Y-11.2386
G01 X-13.6536 Y-11.2491
G01 X-13.6325 Y-11.2617
G01 X-13.6128 Y-11.2763
G01 X-13.5947 Y-11.2928
G01 X-13.5782 Y-11.3109
G01 X-13.5636 Y-11.3306
G01 X-13.5510 Y-11.3517
G01 X-13.5405 Y-11.3738
G01 X-13.5322 Y-11.3969
G01 X-13.5262 Y-11.4207
G01 X-13.5226 Y-11.4450
G01 X-13.5214 Y-11.4695
G00 Z2.0000
G00 X-13.5965 Y-11.4695
G01 F70.00
G01 Z-0.0700
G01 F60.00
G01 X-13.5973 Y-11.4866
G01 X-13.5998 Y-11.5036
G01 X-13.6040 Y-11.5203
G01 X-13.6098 Y-11.5364
G01 X-13.6171 Y-11.5520
G01 X-13.6259 Y-11.5667
G01 X-13.6362 Y-11.5805
G01 X-13.6477 Y-11.5932
G01 X-13.6604 Y-11.6047
G01 X-13.6742 Y-11.6150
G01 X-13.6889 Y-11.6238
G01 X-13.7045 Y-11.6311
G01 X-13.7206 Y-11.6369
G01 X-13.7373 Y-11.6411
G01 X-13.7543 Y-11.6436
G01 X-13.7714 Y-11.6444
G01 X-13.7885 Y-11.6436
G01 X-13.8055 Y-11.6411
G01 X-13.8222 Y-11.6369
G01 X-13.8383 Y-11.6311
G01 X-13.8539 Y-11.6238
G01 X-13.8686 Y-11.6150
G01 X-13.8824 Y-11.6047
G01 X-13.8951 Y-11.5932
G01 X-13.9066 Y-11.5805
G01 X-13.9169 Y-11.5667
G01 X-13.9257 Y-11.5520
G01 X-13.9330 Y-11.5364
G01 X-13.9388 Y-11.5203
G01 X-13.9430 Y-11.5036
G01 X-13.9455 Y-11.4866
G01 X-13.9463 Y-11.4695
G01 X-13.9455 Y-11.4524
G01 X-13.9430 Y-11.4354
G01 X-13.9388 Y-11.4187
G01 X-13.9330 Y-11.4026
G01 X-13.9257 Y-11.3870
G01 X-13.9169 Y-11.3723
G01 X-13.9066 Y-11.3585
G01 X-13.8951 Y-11.3458
G01 X-13.8824 Y-11.3343
G01 X-13.8686 Y-11.3240
G01 X-13.8539 Y-11.3152
G01 X-13.8383 Y-11.3079
G01 X-13.8222 Y-11.3021
G01 X-13.8055 Y-11.2979
G01 X-13.7885 Y-11.2954
G01 X-13.7714 Y-11.2946
G01 X-13.7543 Y-11.2954
G01 X-13.7373 Y-11.2979
G01 X-13.7206 Y-11.3021
G01 X-13.7045 Y-11.3079
G01 X-13.6889 Y-11.3152
G01 X-13.6742 Y-11.3240
G01 X-13.6604 Y-11.3343
G01 X-13.6477 Y-11.3458
G01 X-13.6362 Y-11.3585
G01 X-13.6259 Y-11.3723
G01 X-13.6171 Y-11.3870
G01 X-13.6098 Y-11.4026
G01 X-13.6040 Y-11.4187
G01 X-13.5998 Y-11.4354
G01 X-13.5973 Y-11.4524
G01 X-13.5965 Y-11.4695
G00 Z2.0000
G00 X-13.6715 Y-11.4695
G01 F70.00
G01 Z-0.0700
G01 F60.00
G01 X-13.6734 Y-11.4890
G01 X-13.6791 Y-11.5077
G01 X-13.6883 Y-11.5250
G01 X-13.7008 Y-11.5401
G01 X-13.7159 Y-11.5526
G01 X-13.7332 Y-11.5618
G01 X-13.7519 Y-11.5675
G01 X-13.7714 Y-11.5694
G01 X-13.7909 Y-11.5675
G01 X-13.8096 Y-11.5618
G01 X-13.8269 Y-11.5526
G01 X-13.8420 Y-11.5401
G01 X-13.8545 Y-11.5250
G01 X-13.8637 Y-11.5077
G01 X-13.8694 Y-11.4890
G01 X-13.8713 Y-11.4695
G01 X-13.8694 Y-11.4500
G01 X-13.8637 Y-11.4313
G01 X-13.8545 Y-11.4140
G01 X-13.8420 Y-11.3989
G01 X-13.8269 Y-11.3864
G01 X-13.8096 Y-11.3772
G01 X-13.7909 Y-11.3715
G01 X-13.7714 Y-11.3696
G01 X-13.7519 Y-11.3715
G01 X-13.7332 Y-11.3772
G01 X-13.7159 Y-11.3864
G01 X-13.7008 Y-11.3989
G01 X-13.6883 Y-11.4140
G01 X-13.6791 Y-11.4313
G01 X-13.6734 Y-11.4500
G01 X-13.6715 Y-11.4695
G00 Z2.0000
G00 X-15.0877 Y-11.5253
G01 F70.00
G01 Z-0.0700
G01 F60.00
G01 X-15.0864 Y-11.4695
G01 X-15.0877 Y-11.4137
G01 X-15.0635 Y-11.4174
G01 X-15.0414 Y-11.4185
G01 X-15.0193 Y-11.4174
G01 X-14.9951 Y-11.4137
G01 X-14.9964 Y-11.4695
G01 X-14.9951 Y-11.5253
G01 X-15.0193 Y-11.5216
G01 X-15.0414 Y-11.5205
G01 X-15.0635 Y-11.5216
G01 X-15.0877 Y-11.5253
G00 Z2.0000
G00 X-15.2364 Y-11.4695
G01 F70.00
G01 Z-0.0700
G01 F60.00
G01 X-15.2377 Y-11.4168
G01 X-15.2416 Y-11.3641
G01 X-15.2480 Y-11.3118
G01 X-15.2571 Y-11.2598
G01 X-15.2686 Y-11.2083
G01 X-15.2827 Y-11.1574
G01 X-15.2992 Y-11.1073
G01 X-15.3182 Y-11.0581
G01 X-15.3396 Y-11.0099
G01 X-15.3633 Y-10.9627
G01 X-15.3893 Y-10.9168
G01 X-15.4176 Y-10.8723
G01 X-15.4480 Y-10.8291
G01 X-15.4804 Y-10.7875
G01 X-15.5149 Y-10.7476
G01 X-15.5513 Y-10.7094
G01 X-15.5895 Y-10.6730
G01 X-15.6294 Y-10.6385
G01 X-15.6710 Y-10.6061
G01 X-15.7142 Y-10.5757
G01 X-15.7587 Y-10.5474
G01 X-15.8046 Y-10.5214
G01 X-15.8518 Y-10.4977
G01 X-15.9000 Y-10.4763
G01 X-15.9492 Y-10.4573
G01 X-15.9993 Y-10.4408
G01 X-16.0502 Y-10.4267
G01 X-16.1017 Y-10.4152
G01 X-16.1537 Y-10.4061
G01 X-16.2060 Y-10.3997
G01 X-16.2587 Y-10.3958
G01 X-16.3114 Y-10.3945
G01 X-16.3641 Y-10.3958
G01 X-16.4168 Y-10.3997
G01 X-16.4691 Y-10.4061
G01 X-16.5211 Y-10.4152
G01 X-16.5726 Y-10.4267
G01 X-16.6235 Y-10.4408
G01 X-16.6736 Y-10.4573
G01 X-16.7228 Y-10.4763
G01 X-16.7710 Y-10.4977
G01 X-16.8182 Y-10.5214
G01 X-16.8641 Y-10.5474
G01 X-16.9086 Y-10.5757
G01 X-16.9518 Y-10.6061
G01 X-16.9934 Y-10.6385
G01 X-17.0333 Y-10.6730
G01 X-17.0715 Y-10.7094
G01 X-17.1079 Y-10.7476
G01 X-17.1424 Y-10.7875
G01 X-17.1748 Y-10.8291
G01 X-17.2052 Y-10.8723
G01 X-17.2335 Y-10.9168
G01 X-17.2595 Y-10.9627
G01 X-17.2832 Y-11.0099
G01 X-17.3046 Y-11.0581
G01 X-17.3236 Y-11.1073
G01 X-17.3401 Y-11.1574
G01 X-17.3542 Y-11.2083
G01 X-17.3657 Y-11.2598
G01 X-17.3748 Y-11.3118
G01 X-17.3812 Y-11.3641
G01 X-17.3851 Y-11.4168
G01 X-17.3864 Y-11.4695
G01 X-17.3851 Y-11.5222
G01 X-17.3812 Y-11.5749
G01 X-17.3748 Y-11.6272
G01 X-17.3657 Y-11.6792
G01 X-17.3542 Y-11.7307
G01 X-17.3401 Y-11.7816
G01 X-17.3236 Y-11.8317
G01 X-17.3046 Y-11.8809
G01 X-17.2832 Y-11.9291
G01 X-17.2595 Y-11.9763
G01 X-17.2335 Y-12.0222
G01 X-17.2052 Y-12.0667
G01 X-17.1748 Y-12.1099
G01 X-17.1424 Y-12.1515
G01 X-17.1079 Y-12.1914
G01 X-17.0715 Y-12.2296
G01 X-17.0333 Y-12.2660
G01 X-16.9934 Y-12.3005
G01 X-16.9518 Y-12.3329
G01 X-16.9086 Y-12.3633
G01 X-16.8641 Y-12.3916
G01 X-16.8182 Y-12.4176
G01 X-16.7710 Y-12.4413
G01 X-16.7228 Y-12.4627
G01 X-16.6736 Y-12.4817
G01 X-16.6235 Y-12.4982
G01 X-16.5726 Y-12.5123
G01 X-16.5211 Y-12.5238
G01 X-16.4691 Y-12.5329
G01 X-16.4168 Y-12.5393
G01 X-16.3641 Y-12.5432
G01 X-16.3114 Y-12.5445
G01 X-16.2587 Y-12.5432
G01 X-16.2060 Y-12.5393
G01 X-16.1537 Y-12.5329
G01 X-16.1017 Y-12.5238
G01 X-16.0502 Y-12.5123
G01 X-15.9993 Y-12.4982
G01 X-15.9492 Y-12.4817
G01 X-15.9000 Y-12.4627
G01 X-15.8518 Y-12.4413
G01 X-15.8046 Y-12.4176
G01 X-15.7587 Y-12.3916
G01 X-15.7142 Y-12.3633
G01 X-15.6710 Y-12.3329
G01 X-15.6294 Y-12.3005
G01 X-15.5895 Y-12.2660
G01 X-15.5513 Y-12.2296
G01 X-15.5149 Y-12.1914
G01 X-15.4804 Y-12.1515
G01 X-15.4480 Y-12.1099
G01 X-15.4176 Y-12.0667
G01 X-15.3893 Y-12.0222
G01 X-15.3633 Y-11.9763
G01 X-15.3396 Y-11.9291
G01 X-15.3182 Y-11.8809
G01 X-15.2992 Y-11.8317
G01 X-15.2827 Y-11.7816
G01 X-15.2686 Y-11.7307
G01 X-15.2571 Y-11.6792
G01 X-15.2480 Y-11.6272
G01 X-15.2416 Y-11.5749
G01 X-15.2377 Y-11.5222
G01 X-15.2364 Y-11.4695
G00 Z2.0000
G00 X-15.1865 Y-11.7076
G01 F70.00
G01 Z-0.0700
G01 F60.00
G01 X-15.1831 Y-11.6920
G01 X-15.1741 Y-11.6401
G01 X-15.1671 Y-11.5841
G01 X-15.1628 Y-11.5259
G01 X-15.1614 Y-11.4695
G01 X-15.1628 Y-11.4131
G01 X-15.1671 Y-11.3549
G01 X-15.1741 Y-11.2989
G01 X-15.1831 Y-11.2470
G01 X-15.1865 Y-11.2314
G01 X-15.1785 Y-11.2543
G01 X-15.1671 Y-11.2753
G01 X-15.1597 Y-11.2858
G01 X-15.1513 Y-11.2956
G01 X-15.1337 Y-11.3118
G01 X-15.1232 Y-11.3193
G01 X-15.1121 Y-11.3258
G01 X-15.0902 Y-11.3354
G01 X-15.0670 Y-11.3413
G01 X-15.0543 Y-11.3430
G01 X-15.0414 Y-11.3435
G01 X-15.0285 Y-11.3430
G01 X-15.0158 Y-11.3413
G01 X-14.9926 Y-11.3354
G01 X-14.9806 Y-11.3307
G01 X-14.9691 Y-11.3249
G01 X-14.9491 Y-11.3118
G01 X-14.9393 Y-11.3034
G01 X-14.9303 Y-11.2943
G01 X-14.9157 Y-11.2753
G01 X-14.9043 Y-11.2543
G01 X-14.8963 Y-11.2314
G01 X-14.8997 Y-11.2470
G01 X-14.9087 Y-11.2989
G01 X-14.9157 Y-11.3549
G01 X-14.9200 Y-11.4131
G01 X-14.9214 Y-11.4695
G01 X-14.9200 Y-11.5259
G01 X-14.9157 Y-11.5841
G01 X-14.9087 Y-11.6401
G01 X-14.8997 Y-11.6920
G01 X-14.8963 Y-11.7076
G01 X-14.9043 Y-11.6847
G01 X-14.9157 Y-11.6637
G01 X-14.9231 Y-11.6532
G01 X-14.9315 Y-11.6434
G01 X-14.9491 Y-11.6272
G01 X-14.9596 Y-11.6197
G01 X-14.9707 Y-11.6132
G01 X-14.9926 Y-11.6036
G01 X-15.0158 Y-11.5977
G01 X-15.0285 Y-11.5960
G01 X-15.0414 Y-11.5955
G01 X-15.0543 Y-11.5960
G01 X-15.0670 Y-11.5977
G01 X-15.0902 Y-11.6036
G01 X-15.1022 Y-11.6083
G01 X-15.1137 Y-11.6141
G01 X-15.1337 Y-11.6272
G01 X-15.1513 Y-11.6434
G01 X-15.1597 Y-11.6532
G01 X-15.1671 Y-11.6637
G01 X-15.1785 Y-11.6847
G01 X-15.1865 Y-11.7076
G00 Z2.0000
G00 X-15.9864 Y-11.4695
G01 F70.00
G01 Z-0.0700
G01 F60.00
G01 X-15.9880 Y-11.5014
G01 X-15.9927 Y-11.5329
G01 X-16.0004 Y-11.5638
G01 X-16.0112 Y-11.5939
G01 X-16.0248 Y-11.6227
G01 X-16.0412 Y-11.6500
G01 X-16.0602 Y-11.6757
G01 X-16.0816 Y-11.6993
G01 X-16.1052 Y-11.7207
G01 X-16.1309 Y-11.7397
G01 X-16.1582 Y-11.7561
G01 X-16.1870 Y-11.7697
G01 X-16.2171 Y-11.7805
G01 X-16.2480 Y-11.7882
G01 X-16.2795 Y-11.7929
G01 X-16.3114 Y-11.7945
G01 X-16.3433 Y-11.7929
G01 X-16.3748 Y-11.7882
G01 X-16.4057 Y-11.7805
G01 X-16.4358 Y-11.7697
G01 X-16.4646 Y-11.7561
G01 X-16.4919 Y-11.7397
G01 X-16.5176 Y-11.7207
G01 X-16.5412 Y-11.6993
G01 X-16.5626 Y-11.6757
G01 X-16.5816 Y-11.6500
G01 X-16.5980 Y-11.6227
G01 X-16.6116 Y-11.5939
G01 X-16.6224 Y-11.5638
G01 X-16.6301 Y-11.5329
G01 X-16.6348 Y-11.5014
G01 X-16.6364 Y-11.4695
G01 X-16.6348 Y-11.4376
G01 X-16.6301 Y-11.4061
G01 X-16.6224 Y-11.3752
G01 X-16.6116 Y-11.3451
G01 X-16.5980 Y-11.3163
G01 X-16.5816 Y-11.2890
G01 X-16.5626 Y-11.2633
G01 X-16.5412 Y-11.2397
G01 X-16.5176 Y-11.2183
G01 X-16.4919 Y-11.1993
G01 X-16.4646 Y-11.1829
G01 X-16.4358 Y-11.1693
G01 X-16.4057 Y-11.1585
G01 X-16.3748 Y-11.1508
G01 X-16.3433 Y-11.1461
G01 X-16.3114 Y-11.1445
G01 X-16.2795 Y-11.1461
G01 X-16.2480 Y-11.1508
G01 X-16.2171 Y-11.1585
G01 X-16.1870 Y-11.1693
G01 X-16.1582 Y-11.1829
G01 X-16.1309 Y-11.1993
G01 X-16.1052 Y-11.2183
G01 X-16.0816 Y-11.2397
G01 X-16.0602 Y-11.2633
G01 X-16.0412 Y-11.2890
G01 X-16.0248 Y-11.3163
G01 X-16.0112 Y-11.3451
G01 X-16.0004 Y-11.3752
G01 X-15.9927 Y-11.4061
G01 X-15.9880 Y-11.4376
G01 X-15.9864 Y-11.4695
G00 Z2.0000
G00 X-16.0614 Y-11.4695
G01 F70.00
G01 Z-0.0700
G01 F60.00
G01 X-16.0626 Y-11.4940
G01 X-16.0662 Y-11.5183
G01 X-16.0722 Y-11.5421
G01 X-16.0805 Y-11.5652
G01 X-16.0910 Y-11.5873
G01 X-16.1036 Y-11.6084
G01 X-16.1182 Y-11.6281
G01 X-16.1347 Y-11.6462
G01 X-16.1528 Y-11.6627
G01 X-16.1725 Y-11.6773
G01 X-16.1936 Y-11.6899
G01 X-16.2157 Y-11.7004
G01 X-16.2388 Y-11.7087
G01 X-16.2626 Y-11.7147
G01 X-16.2869 Y-11.7183
G01 X-16.3114 Y-11.7195
G01 X-16.3359 Y-11.7183
G01 X-16.3602 Y-11.7147
G01 X-16.3840 Y-11.7087
G01 X-16.4071 Y-11.7004
G01 X-16.4292 Y-11.6899
G01 X-16.4503 Y-11.6773
G01 X-16.4700 Y-11.6627
G01 X-16.4881 Y-11.6462
G01 X-16.5046 Y-11.6281
G01 X-16.5192 Y-11.6084
G01 X-16.5318 Y-11.5873
G01 X-16.5423 Y-11.5652
G01 X-16.5506 Y-11.5421
G01 X-16.5566 Y-11.5183
G01 X-16.5602 Y-11.4940
G01 X-16.5614 Y-11.4695
G01 X-16.5602 Y-11.4450
G01 X-16.5566 Y-11.4207
G01 X-16.5506 Y-11.3969
G01 X-16.5423 Y-11.3738
G01 X-16.5318 Y-11.3517
G01 X-16.5192 Y-11.3306
G01 X-16.5046 Y-11.3109
G01 X-16.4881 Y-11.2928
G01 X-16.4700 Y-11.2763
G01 X-16.4503 Y-11.2617
G01 X-16.4292 Y-11.2491
G01 X-16.4071 Y-11.2386
G01 X-16.3840 Y-11.2303
G01 X-16.3602 Y-11.2243
G01 X-16.3359 Y-11.2207
G01 X-16.3114 Y-11.2195
G01 X-16.2869 Y-11.2207
G01 X-16.2626 Y-11.2243
G01 X-16.2388 Y-11.2303
G01 X-16.2157 Y-11.2386
G01 X-16.1936 Y-11.2491
G01 X-16.1725 Y-11.2617
G01 X-16.1528 Y-11.2763
G01 X-16.1347 Y-11.2928
G01 X-16.1182 Y-11.3109
G01 X-16.1036 Y-11.3306
G01 X-16.0910 Y-11.3517
G01 X-16.0805 Y-11.3738
G01 X-16.0722 Y-11.3969
G01 X-16.0662 Y-11.4207
G01 X-16.0626 Y-11.4450
G01 X-16.0614 Y-11.4695
G00 Z2.0000
G00 X-16.1365 Y-11.4695
G01 F70.00
G01 Z-0.0700
G01 F60.00
G01 X-16.1373 Y-11.4866
G01 X-16.1398 Y-11.5036
G01 X-16.1440 Y-11.5203
G01 X-16.1498 Y-11.5364
G01 X-16.1571 Y-11.5520
G01 X-16.1659 Y-11.5667
G01 X-16.1762 Y-11.5805
G01 X-16.1877 Y-11.5932
G01 X-16.2004 Y-11.6047
G01 X-16.2142 Y-11.6150
G01 X-16.2289 Y-11.6238
G01 X-16.2445 Y-11.6311
G01 X-16.2606 Y-11.6369
G01 X-16.2773 Y-11.6411
G01 X-16.2943 Y-11.6436
G01 X-16.3114 Y-11.6444
G01 X-16.3285 Y-11.6436
G01 X-16.3455 Y-11.6411
G01 X-16.3622 Y-11.6369
G01 X-16.3783 Y-11.6311
G01 X-16.3939 Y-11.6238
G01 X-16.4086 Y-11.6150
G01 X-16.4224 Y-11.6047
G01 X-16.4351 Y-11.5932
G01 X-16.4466 Y-11.5805
G01 X-16.4569 Y-11.5667
G01 X-16.4657 Y-11.5520
G01 X-16.4730 Y-11.5364
G01 X-16.4788 Y-11.5203
G01 X-16.4830 Y-11.5036
G01 X-16.4855 Y-11.4866
G01 X-16.4863 Y-11.4695
G01 X-16.4855 Y-11.4524
G01 X-16.4830 Y-11.4354
G01 X-16.4788 Y-11.4187
G01 X-16.4730 Y-11.4026
G01 X-16.4657 Y-11.3870
G01 X-16.4569 Y-11.3723
G01 X-16.4466 Y-11.3585
G01 X-16.4351 Y-11.3458
G01 X-16.4224 Y-11.3343
G01 X-16.4086 Y-11.3240
G01 X-16.3939 Y-11.3152
G01 X-16.3783 Y-11.3079
G01 X-16.3622 Y-11.3021
G01 X-16.3455 Y-11.2979
G01 X-16.3285 Y-11.2954
G01 X-16.3114 Y-11.2946
G01 X-16.2943 Y-11.2954
G01 X-16.2773 Y-11.2979
G01 X-16.2606 Y-11.3021
G01 X-16.2445 Y-11.3079
G01 X-16.2289 Y-11.3152
G01 X-16.2142 Y-11.3240
G01 X-16.2004 Y-11.3343
G01 X-16.1877 Y-11.3458
G01 X-16.1762 Y-11.3585
G01 X-16.1659 Y-11.3723
G01 X-16.1571 Y-11.3870
G01 X-16.1498 Y-11.4026
G01 X-16.1440 Y-11.4187
G01 X-16.1398 Y-11.4354
G01 X-16.1373 Y-11.4524
G01 X-16.1365 Y-11.4695
G00 Z2.0000
G00 X-16.2115 Y-11.4695
G01 F70.00
G01 Z-0.0700
G01 F60.00
G01 X-16.2134 Y-11.4890
G01 X-16.2191 Y-11.5077
G01 X-16.2283 Y-11.5250
G01 X-16.2408 Y-11.5401
G01 X-16.2559 Y-11.5526
G01 X-16.2732 Y-11.5618
G01 X-16.2919 Y-11.5675
G01 X-16.3114 Y-11.5694
G01 X-16.3309 Y-11.5675
G01 X-16.3496 Y-11.5618
G01 X-16.3669 Y-11.5526
G01 X-16.3820 Y-11.5401
G01 X-16.3945 Y-11.5250
G01 X-16.4037 Y-11.5077
G01 X-16.4094 Y-11.4890
G01 X-16.4113 Y-11.4695
G01 X-16.4094 Y-11.4500
G01 X-16.4037 Y-11.4313
G01 X-16.3945 Y-11.4140
G01 X-16.3820 Y-11.3989
G01 X-16.3669 Y-11.3864
G01 X-16.3496 Y-11.3772
G01 X-16.3309 Y-11.3715
G01 X-16.3114 Y-11.3696
G01 X-16.2919 Y-11.3715
G01 X-16.2732 Y-11.3772
G01 X-16.2559 Y-11.3864
G01 X-16.2408 Y-11.3989
G01 X-16.2283 Y-11.4140
G01 X-16.2191 Y-11.4313
G01 X-16.2134 Y-11.4500
G01 X-16.2115 Y-11.4695
G00 Z2.0000
G00 X-17.6278 Y-11.4139
G01 F70.00
G01 Z-0.0700
G01 F60.00
G01 X-17.6035 Y-11.4177
G01 X-17.5814 Y-11.4187
G01 X-17.5594 Y-11.4177
G01 X-17.5351 Y-11.4139
G01 X-17.5364 Y-11.4695
G01 X-17.5351 Y-11.5251
G01 X-17.5594 Y-11.5213
G01 X-17.5815 Y-11.5203
G01 X-17.6035 Y-11.5213
G01 X-17.6278 Y-11.5251
G01 X-17.6265 Y-11.4695
G01 X-17.6278 Y-11.4139
G00 Z2.0000
G00 X-17.7266 Y-11.7074
G01 F70.00
G01 Z-0.0700
G01 F60.00
G01 X-17.7232 Y-11.6920
G01 X-17.7142 Y-11.6401
G01 X-17.7072 Y-11.5841
G01 X-17.7029 Y-11.5259
G01 X-17.7015 Y-11.4695
G01 X-17.7029 Y-11.4131
G01 X-17.7072 Y-11.3549
G01 X-17.7142 Y-11.2989
G01 X-17.7232 Y-11.2470
G01 X-17.7266 Y-11.2316
G01 X-17.7186 Y-11.2545
G01 X-17.7072 Y-11.2755
G01 X-17.6997 Y-11.2860
G01 X-17.6913 Y-11.2958
G01 X-17.6737 Y-11.3120
G01 X-17.6632 Y-11.3195
G01 X-17.6522 Y-11.3260
G01 X-17.6302 Y-11.3356
G01 X-17.6179 Y-11.3393
G01 X-17.6053 Y-11.3418
G01 X-17.5814 Y-11.3437
G01 X-17.5686 Y-11.3432
G01 X-17.5558 Y-11.3415
G01 X-17.5327 Y-11.3356
G01 X-17.5207 Y-11.3309
G01 X-17.5091 Y-11.3252
G01 X-17.4892 Y-11.3120
G01 X-17.4716 Y-11.2958
G01 X-17.4632 Y-11.2860
G01 X-17.4557 Y-11.2755
G01 X-17.4443 Y-11.2545
G01 X-17.4363 Y-11.2316
G01 X-17.4397 Y-11.2470
G01 X-17.4487 Y-11.2989
G01 X-17.4557 Y-11.3549
G01 X-17.4600 Y-11.4131
G01 X-17.4614 Y-11.4695
G01 X-17.4600 Y-11.5259
G01 X-17.4557 Y-11.5841
G01 X-17.4487 Y-11.6401
G01 X-17.4397 Y-11.6920
G01 X-17.4363 Y-11.7074
G01 X-17.4443 Y-11.6845
G01 X-17.4557 Y-11.6635
G01 X-17.4632 Y-11.6530
G01 X-17.4716 Y-11.6432
G01 X-17.4892 Y-11.6270
G01 X-17.5091 Y-11.6138
G01 X-17.5207 Y-11.6081
G01 X-17.5327 Y-11.6034
G01 X-17.5558 Y-11.5975
G01 X-17.5686 Y-11.5958
G01 X-17.5815 Y-11.5953
G01 X-17.5943 Y-11.5958
G01 X-17.6071 Y-11.5975
G01 X-17.6302 Y-11.6034
G01 X-17.6422 Y-11.6081
G01 X-17.6538 Y-11.6138
G01 X-17.6737 Y-11.6270
G01 X-17.6913 Y-11.6432
G01 X-17.6997 Y-11.6530
G01 X-17.7072 Y-11.6635
G01 X-17.7186 Y-11.6845
G01 X-17.7266 Y-11.7074
G00 Z2.0000
G00 X-17.8596 Y-11.8839
G01 F70.00
G01 Z-0.0700
G01 F60.00
G01 X-17.8393 Y-11.8317
G01 X-17.8228 Y-11.7816
G01 X-17.8087 Y-11.7307
G01 X-17.7972 Y-11.6792
G01 X-17.7881 Y-11.6272
G01 X-17.7817 Y-11.5749
G01 X-17.7778 Y-11.5222
G01 X-17.7765 Y-11.4695
G01 X-17.7778 Y-11.4168
G01 X-17.7817 Y-11.3641
G01 X-17.7881 Y-11.3118
G01 X-17.7972 Y-11.2598
G01 X-17.8087 Y-11.2083
G01 X-17.8228 Y-11.1574
G01 X-17.8393 Y-11.1073
G01 X-17.8596 Y-11.0551
G01 X-17.7462 Y-10.9417
G01 X-17.7198 Y-11.0007
G01 X-17.6981 Y-11.0568
G01 X-17.6793 Y-11.1139
G01 X-17.6632 Y-11.1719
G01 X-17.6532 Y-11.2155
G01 X-17.6496 Y-11.2250
G01 X-17.6448 Y-11.2339
G01 X-17.6364 Y-11.2448
G01 X-17.6254 Y-11.2545
G01 X-17.6135 Y-11.2615
G01 X-17.5997 Y-11.2665
G01 X-17.5851 Y-11.2687
G01 X-17.5714 Y-11.2681
G01 X-17.5579 Y-11.2650
G01 X-17.5445 Y-11.2590
G01 X-17.5346 Y-11.2523
G01 X-17.5259 Y-11.2441
G01 X-17.5186 Y-11.2346
G01 X-17.5125 Y-11.2233
G01 X-17.5089 Y-11.2129
G01 X-17.4997 Y-11.1719
G01 X-17.4836 Y-11.1139
G01 X-17.4648 Y-11.0568
G01 X-17.4431 Y-11.0007
G01 X-17.4188 Y-10.9458
G01 X-17.3917 Y-10.8920
G01 X-17.3621 Y-10.8397
G01 X-17.3299 Y-10.7889
G01 X-17.2953 Y-10.7398
G01 X-17.2583 Y-10.6924
G01 X-17.2190 Y-10.6469
G01 X-17.1776 Y-10.6033
G01 X-17.1340 Y-10.5619
G01 X-17.0885 Y-10.5226
G01 X-17.0411 Y-10.4856
G01 X-16.9920 Y-10.4510
G01 X-16.9412 Y-10.4188
G01 X-16.8889 Y-10.3892
G01 X-16.8351 Y-10.3621
G01 X-16.7802 Y-10.3378
G01 X-16.7241 Y-10.3161
G01 X-16.6670 Y-10.2973
G01 X-16.6090 Y-10.2812
G01 X-16.5504 Y-10.2681
G01 X-16.4911 Y-10.2578
G01 X-16.4315 Y-10.2504
G01 X-16.3715 Y-10.2460
G01 X-16.3114 Y-10.2445
G01 X-16.2513 Y-10.2460
G01 X-16.1913 Y-10.2504
G01 X-16.1317 Y-10.2578
G01 X-16.0724 Y-10.2681
G01 X-16.0138 Y-10.2812
G01 X-15.9558 Y-10.2973
G01 X-15.8987 Y-10.3161
G01 X-15.8426 Y-10.3378
G01 X-15.7877 Y-10.3621
G01 X-15.7339 Y-10.3892
G01 X-15.6816 Y-10.4188
G01 X-15.6308 Y-10.4510
G01 X-15.5817 Y-10.4856
G01 X-15.5343 Y-10.5226
G01 X-15.4888 Y-10.5619
G01 X-15.4452 Y-10.6033
G01 X-15.4038 Y-10.6469
G01 X-15.3645 Y-10.6924
G01 X-15.3275 Y-10.7398
G01 X-15.2929 Y-10.7889
G01 X-15.2607 Y-10.8397
G01 X-15.2311 Y-10.8920
G01 X-15.2040 Y-10.9458
G01 X-15.1797 Y-11.0007
G01 X-15.1580 Y-11.0568
G01 X-15.1392 Y-11.1139
G01 X-15.1231 Y-11.1719
G01 X-15.1137 Y-11.2135
G01 X-15.1080 Y-11.2281
G01 X-15.1027 Y-11.2367
G01 X-15.0963 Y-11.2446
G01 X-15.0890 Y-11.2515
G01 X-15.0807 Y-11.2574
G01 X-15.0718 Y-11.2621
G01 X-15.0623 Y-11.2656
G01 X-15.0524 Y-11.2677
G01 X-15.0423 Y-11.2685
G01 X-15.0322 Y-11.2680
G01 X-15.0223 Y-11.2660
G01 X-15.0127 Y-11.2628
G01 X-15.0036 Y-11.2583
G01 X-14.9953 Y-11.2526
G01 X-14.9877 Y-11.2459
G01 X-14.9812 Y-11.2382
G01 X-14.9757 Y-11.2297
G01 X-14.9721 Y-11.2222
G01 X-14.9691 Y-11.2135
G01 X-14.9597 Y-11.1719
G01 X-14.9436 Y-11.1139
G01 X-14.9248 Y-11.0568
G01 X-14.9031 Y-11.0007
G01 X-14.8788 Y-10.9458
G01 X-14.8517 Y-10.8920
G01 X-14.8221 Y-10.8397
G01 X-14.7899 Y-10.7889
G01 X-14.7553 Y-10.7398
G01 X-14.7183 Y-10.6924
G01 X-14.6790 Y-10.6469
G01 X-14.6376 Y-10.6033
G01 X-14.5940 Y-10.5619
G01 X-14.5485 Y-10.5226
G01 X-14.5011 Y-10.4856
G01 X-14.4520 Y-10.4510
G01 X-14.4012 Y-10.4188
G01 X-14.3489 Y-10.3892
G01 X-14.2951 Y-10.3621
G01 X-14.2402 Y-10.3378
G01 X-14.1841 Y-10.3161
G01 X-14.1270 Y-10.2973
G01 X-14.0690 Y-10.2812
G01 X-14.0104 Y-10.2681
G01 X-13.9511 Y-10.2578
G01 X-13.8915 Y-10.2504
G01 X-13.8315 Y-10.2460
G01 X-13.7714 Y-10.2445
G01 X-13.7113 Y-10.2460
G01 X-13.6513 Y-10.2504
G01 X-13.5917 Y-10.2578
G01 X-13.5324 Y-10.2681
G01 X-13.4738 Y-10.2812
G01 X-13.4158 Y-10.2973
G01 X-13.3587 Y-10.3161
G01 X-13.3026 Y-10.3378
G01 X-13.2477 Y-10.3621
G01 X-13.1939 Y-10.3892
G01 X-13.1416 Y-10.4188
G01 X-13.0908 Y-10.4510
G01 X-13.0417 Y-10.4856
G01 X-12.9943 Y-10.5226
G01 X-12.9488 Y-10.5619
G01 X-12.9052 Y-10.6033
G01 X-12.8638 Y-10.6469
G01 X-12.8245 Y-10.6924
G01 X-12.7875 Y-10.7398
G01 X-12.7529 Y-10.7889
G01 X-12.7207 Y-10.8397
G01 X-12.6911 Y-10.8920
G01 X-12.6640 Y-10.9458
G01 X-12.6397 Y-11.0007
G01 X-12.6180 Y-11.0568
G01 X-12.5992 Y-11.1139
G01 X-12.5831 Y-11.1719
G01 X-12.5700 Y-11.2305
G01 X-12.5597 Y-11.2898
G01 X-12.5523 Y-11.3494
G01 X-12.5479 Y-11.4094
G01 X-12.5464 Y-11.4695
G01 X-12.5479 Y-11.5296
G01 X-12.5523 Y-11.5896
G01 X-12.5597 Y-11.6492
G01 X-12.5700 Y-11.7085
G01 X-12.5831 Y-11.7671
G01 X-12.5992 Y-11.8251
G01 X-12.6180 Y-11.8822
G01 X-12.6397 Y-11.9383
G01 X-12.6640 Y-11.9932
G01 X-12.6911 Y-12.0470
G01 X-12.7207 Y-12.0993
G01 X-12.7529 Y-12.1501
G01 X-12.7875 Y-12.1992
G01 X-12.8245 Y-12.2466
G01 X-12.8638 Y-12.2921
G01 X-12.9052 Y-12.3357
G01 X-12.9488 Y-12.3771
G01 X-12.9943 Y-12.4164
G01 X-13.0417 Y-12.4534
G01 X-13.0908 Y-12.4880
G01 X-13.1416 Y-12.5202
G01 X-13.1939 Y-12.5498
G01 X-13.2477 Y-12.5769
G01 X-13.3026 Y-12.6012
G01 X-13.3587 Y-12.6229
G01 X-13.4158 Y-12.6417
G01 X-13.4738 Y-12.6578
G01 X-13.5324 Y-12.6709
G01 X-13.5917 Y-12.6812
G01 X-13.6513 Y-12.6886
G01 X-13.7113 Y-12.6930
G01 X-13.7714 Y-12.6945
G01 X-13.8315 Y-12.6930
G01 X-13.8915 Y-12.6886
G01 X-13.9511 Y-12.6812
G01 X-14.0104 Y-12.6709
G01 X-14.0690 Y-12.6578
G01 X-14.1270 Y-12.6417
G01 X-14.1841 Y-12.6229
G01 X-14.2402 Y-12.6012
G01 X-14.2951 Y-12.5769
G01 X-14.3489 Y-12.5498
G01 X-14.4012 Y-12.5202
G01 X-14.4520 Y-12.4880
G01 X-14.5011 Y-12.4534
G01 X-14.5485 Y-12.4164
G01 X-14.5940 Y-12.3771
G01 X-14.6376 Y-12.3357
G01 X-14.6790 Y-12.2921
G01 X-14.7183 Y-12.2466
G01 X-14.7553 Y-12.1992
G01 X-14.7899 Y-12.1501
G01 X-14.8221 Y-12.0993
G01 X-14.8517 Y-12.0470
G01 X-14.8788 Y-11.9932
G01 X-14.9031 Y-11.9383
G01 X-14.9248 Y-11.8822
G01 X-14.9436 Y-11.8251
G01 X-14.9597 Y-11.7671
G01 X-14.9691 Y-11.7255
G01 X-14.9744 Y-11.7118
G01 X-14.9785 Y-11.7046
G01 X-14.9840 Y-11.6972
G01 X-14.9904 Y-11.6905
G01 X-14.9967 Y-11.6852
G01 X-15.0044 Y-11.6802
G01 X-15.0119 Y-11.6765
G01 X-15.0277 Y-11.6717
G01 X-15.0386 Y-11.6705
G01 X-15.0497 Y-11.6709
G01 X-15.0605 Y-11.6730
G01 X-15.0709 Y-11.6765
G01 X-15.0807 Y-11.6816
G01 X-15.0897 Y-11.6881
G01 X-15.0976 Y-11.6958
G01 X-15.1043 Y-11.7046
G01 X-15.1096 Y-11.7142
G01 X-15.1134 Y-11.7246
G01 X-15.1231 Y-11.7671
G01 X-15.1392 Y-11.8251
G01 X-15.1580 Y-11.8822
G01 X-15.1797 Y-11.9383
G01 X-15.2040 Y-11.9932
G01 X-15.2311 Y-12.0470
G01 X-15.2607 Y-12.0993
G01 X-15.2929 Y-12.1501
G01 X-15.3275 Y-12.1992
G01 X-15.3645 Y-12.2466
G01 X-15.4038 Y-12.2921
G01 X-15.4452 Y-12.3357
G01 X-15.4888 Y-12.3771
G01 X-15.5343 Y-12.4164
G01 X-15.5817 Y-12.4534
G01 X-15.6308 Y-12.4880
G01 X-15.6816 Y-12.5202
G01 X-15.7339 Y-12.5498
G01 X-15.7877 Y-12.5769
G01 X-15.8426 Y-12.6012
G01 X-15.8987 Y-12.6229
G01 X-15.9558 Y-12.6417
G01 X-16.0138 Y-12.6578
G01 X-16.0724 Y-12.6709
G01 X-16.1317 Y-12.6812
G01 X-16.1913 Y-12.6886
G01 X-16.2513 Y-12.6930
G01 X-16.3114 Y-12.6945
G01 X-16.3715 Y-12.6930
G01 X-16.4315 Y-12.6886
G01 X-16.4911 Y-12.6812
G01 X-16.5504 Y-12.6709
G01 X-16.6090 Y-12.6578
G01 X-16.6670 Y-12.6417
G01 X-16.7241 Y-12.6229
G01 X-16.7802 Y-12.6012
G01 X-16.8351 Y-12.5769
G01 X-16.8889 Y-12.5498
G01 X-16.9412 Y-12.5202
G01 X-16.9920 Y-12.4880
G01 X-17.0411 Y-12.4534
G01 X-17.0885 Y-12.4164
G01 X-17.1340 Y-12.3771
G01 X-17.1776 Y-12.3357
G01 X-17.2190 Y-12.2921
G01 X-17.2583 Y-12.2466
G01 X-17.2953 Y-12.1992
G01 X-17.3299 Y-12.1501
G01 X-17.3621 Y-12.0993
G01 X-17.3917 Y-12.0470
G01 X-17.4188 Y-11.9932
G01 X-17.4431 Y-11.9383
G01 X-17.4648 Y-11.8822
G01 X-17.4836 Y-11.8251
G01 X-17.4997 Y-11.7671
G01 X-17.5089 Y-11.7261
G01 X-17.5133 Y-11.7140
G01 X-17.5196 Y-11.7028
G01 X-17.5278 Y-11.6929
G01 X-17.5375 Y-11.6845
G01 X-17.5486 Y-11.6779
G01 X-17.5614 Y-11.6730
G01 X-17.5750 Y-11.6705
G01 X-17.5888 Y-11.6706
G01 X-17.6023 Y-11.6732
G01 X-17.6152 Y-11.6783
G01 X-17.6269 Y-11.6856
G01 X-17.6370 Y-11.6949
G01 X-17.6453 Y-11.7059
G01 X-17.6496 Y-11.7140
G01 X-17.6532 Y-11.7235
G01 X-17.6632 Y-11.7671
G01 X-17.6793 Y-11.8251
G01 X-17.6981 Y-11.8822
G01 X-17.7198 Y-11.9383
G01 X-17.7462 Y-11.9973
G01 X-17.8596 Y-11.8839
G00 Z2.0000
G00 X-18.5265 Y-11.4695
G01 F70.00
G01 Z-0.0700
G01 F60.00
G01 X-18.5281 Y-11.5014
G01 X-18.5328 Y-11.5329
G01 X-18.5405 Y-11.5638
G01 X-18.5513 Y-11.5939
G01 X-18.5649 Y-11.6227
G01 X-18.5813 Y-11.6500
G01 X-18.6003 Y-11.6757
G01 X-18.6217 Y-11.6993
G01 X-18.6453 Y-11.7207
G01 X-18.6710 Y-11.7397
G01 X-18.6983 Y-11.7561
G01 X-18.7271 Y-11.7697
G01 X-18.7572 Y-11.7805
G01 X-18.7881 Y-11.7882
G01 X-18.8196 Y-11.7929
G01 X-18.8515 Y-11.7945
G01 X-18.8834 Y-11.7929
G01 X-18.9149 Y-11.7882
G01 X-18.9458 Y-11.7805
G01 X-18.9759 Y-11.7697
G01 X-19.0047 Y-11.7561
G01 X-19.0320 Y-11.7397
G01 X-19.0577 Y-11.7207
G01 X-19.0813 Y-11.6993
G01 X-19.1027 Y-11.6757
G01 X-19.1217 Y-11.6500
G01 X-19.1381 Y-11.6227
G01 X-19.1517 Y-11.5939
G01 X-19.1625 Y-11.5638
G01 X-19.1702 Y-11.5329
G01 X-19.1749 Y-11.5014
G01 X-19.1765 Y-11.4695
G01 X-19.1749 Y-11.4376
G01 X-19.1702 Y-11.4061
G01 X-19.1625 Y-11.3752
G01 X-19.1517 Y-11.3451
G01 X-19.1381 Y-11.3163
G01 X-19.1217 Y-11.2890
G01 X-19.1027 Y-11.2633
G01 X-19.0813 Y-11.2397
G01 X-19.0577 Y-11.2183
G01 X-19.0320 Y-11.1993
G01 X-19.0047 Y-11.1829
G01 X-18.9759 Y-11.1693
G01 X-18.9458 Y-11.1585
G01 X-18.9149 Y-11.1508
G01 X-18.8834 Y-11.1461
G01 X-18.8515 Y-11.1445
G01 X-18.8196 Y-11.1461
G01 X-18.7881 Y-11.1508
G01 X-18.7572 Y-11.1585
G01 X-18.7271 Y-11.1693
G01 X-18.6983 Y-11.1829
G01 X-18.6710 Y-11.1993
G01 X-18.6453 Y-11.2183
G01 X-18.6217 Y-11.2397
G01 X-18.6003 Y-11.2633
G01 X-18.5813 Y-11.2890
G01 X-18.5649 Y-11.3163
G01 X-18.5513 Y-11.3451
G01 X-18.5405 Y-11.3752
G01 X-18.5328 Y-11.4061
G01 X-18.5281 Y-11.4376
G01 X-18.5265 Y-11.4695
G00 Z2.0000
G00 X-18.6015 Y-11.4695
G01 F70.00
G01 Z-0.0700
G01 F60.00
G01 X-18.6027 Y-11.4940
G01 X-18.6063 Y-11.5183
G01 X-18.6123 Y-11.5421
G01 X-18.6206 Y-11.5652
G01 X-18.6311 Y-11.5873
G01 X-18.6437 Y-11.6084
G01 X-18.6583 Y-11.6281
G01 X-18.6748 Y-11.6462
G01 X-18.6929 Y-11.6627
G01 X-18.7126 Y-11.6773
G01 X-18.7337 Y-11.6899
G01 X-18.7558 Y-11.7004
G01 X-18.7789 Y-11.7087
G01 X-18.8027 Y-11.7147
G01 X-18.8270 Y-11.7183
G01 X-18.8515 Y-11.7195
G01 X-18.8760 Y-11.7183
G01 X-18.9003 Y-11.7147
G01 X-18.9241 Y-11.7087
G01 X-18.9472 Y-11.7004
G01 X-18.9693 Y-11.6899
G01 X-18.9904 Y-11.6773
G01 X-19.0101 Y-11.6627
G01 X-19.0282 Y-11.6462
G01 X-19.0447 Y-11.6281
G01 X-19.0593 Y-11.6084
G01 X-19.0719 Y-11.5873
G01 X-19.0824 Y-11.5652
G01 X-19.0907 Y-11.5421
G01 X-19.0967 Y-11.5183
G01 X-19.1003 Y-11.4940
G01 X-19.1015 Y-11.4695
G01 X-19.1003 Y-11.4450
G01 X-19.0967 Y-11.4207
G01 X-19.0907 Y-11.3969
G01 X-19.0824 Y-11.3738
G01 X-19.0719 Y-11.3517
G01 X-19.0593 Y-11.3306
G01 X-19.0447 Y-11.3109
G01 X-19.0282 Y-11.2928
G01 X-19.0101 Y-11.2763
G01 X-18.9904 Y-11.2617
G01 X-18.9693 Y-11.2491
G01 X-18.9472 Y-11.2386
G01 X-18.9241 Y-11.2303
G01 X-18.9003 Y-11.2243
G01 X-18.8760 Y-11.2207
G01 X-18.8515 Y-11.2195
G01 X-18.8270 Y-11.2207
G01 X-18.8027 Y-11.2243
G01 X-18.7789 Y-11.2303
G01 X-18.7558 Y-11.2386
G01 X-18.7337 Y-11.2491
G01 X-18.7126 Y-11.2617
G01 X-18.6929 Y-11.2763
G01 X-18.6748 Y-11.2928
G01 X-18.6583 Y-11.3109
G01 X-18.6437 Y-11.3306
G01 X-18.6311 Y-11.3517
G01 X-18.6206 Y-11.3738
G01 X-18.6123 Y-11.3969
G01 X-18.6063 Y-11.4207
G01 X-18.6027 Y-11.4450
G01 X-18.6015 Y-11.4695
G00 Z2.0000
G00 X-18.6766 Y-11.4695
G01 F70.00
G01 Z-0.0700
G01 F60.00
G01 X-18.6774 Y-11.4866
G01 X-18.6799 Y-11.5036
G01 X-18.6841 Y-11.5203
G01 X-18.6899 Y-11.5364
G01 X-18.6972 Y-11.5520
G01 X-18.7060 Y-11.5667
G01 X-18.7163 Y-11.5805
G01 X-18.7278 Y-11.5932
G01 X-18.7405 Y-11.6047
G01 X-18.7543 Y-11.6150
G01 X-18.7690 Y-11.6238
G01 X-18.7846 Y-11.6311
G01 X-18.8007 Y-11.6369
G01 X-18.8174 Y-11.6411
G01 X-18.8344 Y-11.6436
G01 X-18.8515 Y-11.6444
G01 X-18.8686 Y-11.6436
G01 X-18.8856 Y-11.6411
G01 X-18.9023 Y-11.6369
G01 X-18.9184 Y-11.6311
G01 X-18.9340 Y-11.6238
G01 X-18.9487 Y-11.6150
G01 X-18.9625 Y-11.6047
G01 X-18.9752 Y-11.5932
G01 X-18.9867 Y-11.5805
G01 X-18.9970 Y-11.5667
G01 X-19.0058 Y-11.5520
G01 X-19.0131 Y-11.5364
G01 X-19.0189 Y-11.5203
G01 X-19.0231 Y-11.5036
G01 X-19.0256 Y-11.4866
G01 X-19.0264 Y-11.4695
G01 X-19.0256 Y-11.4524
G01 X-19.0231 Y-11.4354
G01 X-19.0189 Y-11.4187
G01 X-19.0131 Y-11.4026
G01 X-19.0058 Y-11.3870
G01 X-18.9970 Y-11.3723
G01 X-18.9867 Y-11.3585
G01 X-18.9752 Y-11.3458
G01 X-18.9625 Y-11.3343
G01 X-18.9487 Y-11.3240
G01 X-18.9340 Y-11.3152
G01 X-18.9184 Y-11.3079
G01 X-18.9023 Y-11.3021
G01 X-18.8856 Y-11.2979
G01 X-18.8686 Y-11.2954
G01 X-18.8515 Y-11.2946
G01 X-18.8344 Y-11.2954
G01 X-18.8174 Y-11.2979
G01 X-18.8007 Y-11.3021
G01 X-18.7846 Y-11.3079
G01 X-18.7690 Y-11.3152
G01 X-18.7543 Y-11.3240
G01 X-18.7405 Y-11.3343
G01 X-18.7278 Y-11.3458
G01 X-18.7163 Y-11.3585
G01 X-18.7060 Y-11.3723
G01 X-18.6972 Y-11.3870
G01 X-18.6899 Y-11.4026
G01 X-18.6841 Y-11.4187
G01 X-18.6799 Y-11.4354
G01 X-18.6774 Y-11.4524
G01 X-18.6766 Y-11.4695
G00 Z2.0000
G00 X-18.7516 Y-11.4695
G01 F70.00
G01 Z-0.0700
G01 F60.00
G01 X-18.7535 Y-11.4890
G01 X-18.7592 Y-11.5077
G01 X-18.7684 Y-11.5250
G01 X-18.7809 Y-11.5401
G01 X-18.7960 Y-11.5526
G01 X-18.8133 Y-11.5618
G01 X-18.8320 Y-11.5675
G01 X-18.8515 Y-11.5694
G01 X-18.8710 Y-11.5675
G01 X-18.8897 Y-11.5618
G01 X-18.9070 Y-11.5526
G01 X-18.9221 Y-11.5401
G01 X-18.9346 Y-11.5250
G01 X-18.9438 Y-11.5077
G01 X-18.9495 Y-11.4890
G01 X-18.9514 Y-11.4695
G01 X-18.9495 Y-11.4500
G01 X-18.9438 Y-11.4313
G01 X-18.9346 Y-11.4140
G01 X-18.9221 Y-11.3989
G01 X-18.9070 Y-11.3864
G01 X-18.8897 Y-11.3772
G01 X-18.8710 Y-11.3715
G01 X-18.8515 Y-11.3696
G01 X-18.8320 Y-11.3715
G01 X-18.8133 Y-11.3772
G01 X-18.7960 Y-11.3864
G01 X-18.7809 Y-11.3989
G01 X-18.7684 Y-11.4140
G01 X-18.7592 Y-11.4313
G01 X-18.7535 Y-11.4500
G01 X-18.7516 Y-11.4695
G00 Z2.0000
G00 X-19.3793 Y-10.3642
G01 F70.00
G01 Z-0.0700
G01 F60.00
G01 X-19.3203 Y-10.3378
G01 X-19.2642 Y-10.3161
G01 X-19.2071 Y-10.2973
G01 X-19.1491 Y-10.2812
G01 X-19.0905 Y-10.2681
G01 X-19.0312 Y-10.2578
G01 X-18.9716 Y-10.2504
G01 X-18.9116 Y-10.2460
G01 X-18.8515 Y-10.2445
G01 X-18.7914 Y-10.2460
G01 X-18.7314 Y-10.2504
G01 X-18.6718 Y-10.2578
G01 X-18.6125 Y-10.2681
G01 X-18.5539 Y-10.2812
G01 X-18.4959 Y-10.2973
G01 X-18.4388 Y-10.3161
G01 X-18.3827 Y-10.3378
G01 X-18.3237 Y-10.3642
G01 X-18.4371 Y-10.4776
G01 X-18.4893 Y-10.4573
G01 X-18.5394 Y-10.4408
G01 X-18.5903 Y-10.4267
G01 X-18.6418 Y-10.4152
G01 X-18.6938 Y-10.4061
G01 X-18.7461 Y-10.3997
G01 X-18.7988 Y-10.3958
G01 X-18.8515 Y-10.3945
G01 X-18.9042 Y-10.3958
G01 X-18.9569 Y-10.3997
G01 X-19.0092 Y-10.4061
G01 X-19.0612 Y-10.4152
G01 X-19.1127 Y-10.4267
G01 X-19.1636 Y-10.4408
G01 X-19.2137 Y-10.4573
G01 X-19.2658 Y-10.4776
G01 X-19.3793 Y-10.3642
G00 Z2.0000
G00 X-19.9568 Y-10.9417
G01 F70.00
G01 Z-0.0700
G01 F60.00
G01 X-19.8434 Y-11.0551
G01 X-19.8637 Y-11.1073
G01 X-19.8802 Y-11.1574
G01 X-19.8943 Y-11.2083
G01 X-19.9058 Y-11.2598
G01 X-19.9149 Y-11.3118
G01 X-19.9213 Y-11.3641
G01 X-19.9252 Y-11.4168
G01 X-19.9265 Y-11.4695
G01 X-19.9252 Y-11.5222
G01 X-19.9213 Y-11.5749
G01 X-19.9149 Y-11.6272
G01 X-19.9058 Y-11.6792
G01 X-19.8943 Y-11.7307
G01 X-19.8802 Y-11.7816
G01 X-19.8637 Y-11.8317
G01 X-19.8434 Y-11.8839
G01 X-19.9568 Y-11.9973
G01 X-19.9832 Y-11.9383
G01 X-20.0049 Y-11.8822
G01 X-20.0237 Y-11.8251
G01 X-20.0398 Y-11.7671
G01 X-20.0529 Y-11.7085
G01 X-20.0632 Y-11.6492
G01 X-20.0706 Y-11.5896
G01 X-20.0750 Y-11.5296
G01 X-20.0765 Y-11.4695
G01 X-20.0750 Y-11.4094
G01 X-20.0706 Y-11.3494
G01 X-20.0632 Y-11.2898
G01 X-20.0529 Y-11.2305
G01 X-20.0398 Y-11.1719
G01 X-20.0237 Y-11.1139
G01 X-20.0049 Y-11.0568
G01 X-19.9832 Y-11.0007
G01 X-19.9568 Y-10.9417
G00 Z2.0000
G00 X-19.3793 Y-12.5748
G01 F70.00
G01 Z-0.0700
G01 F60.00
G01 X-19.2658 Y-12.4614
G01 X-19.2137 Y-12.4817
G01 X-19.1636 Y-12.4982
G01 X-19.1127 Y-12.5123
G01 X-19.0612 Y-12.5238
G01 X-19.0092 Y-12.5329
G01 X-18.9569 Y-12.5393
G01 X-18.9042 Y-12.5432
G01 X-18.8515 Y-12.5445
G01 X-18.7988 Y-12.5432
G01 X-18.7461 Y-12.5393
G01 X-18.6938 Y-12.5329
G01 X-18.6418 Y-12.5238
G01 X-18.5903 Y-12.5123
G01 X-18.5394 Y-12.4982
G01 X-18.4893 Y-12.4817
G01 X-18.4371 Y-12.4614
G01 X-18.3237 Y-12.5748
G01 X-18.3827 Y-12.6012
G01 X-18.4388 Y-12.6229
G01 X-18.4959 Y-12.6417
G01 X-18.5539 Y-12.6578
G01 X-18.6125 Y-12.6709
G01 X-18.6718 Y-12.6812
G01 X-18.7314 Y-12.6886
G01 X-18.7914 Y-12.6930
G01 X-18.8515 Y-12.6945
G01 X-18.9116 Y-12.6930
G01 X-18.9716 Y-12.6886
G01 X-19.0312 Y-12.6812
G01 X-19.0905 Y-12.6709
G01 X-19.1491 Y-12.6578
G01 X-19.2071 Y-12.6417
G01 X-19.2642 Y-12.6229
G01 X-19.3203 Y-12.6012
G01 X-19.3793 Y-12.5748
G00 Z2.0000
G00 X-22.6003 Y-8.8213
G01 F70.00
G01 Z-0.0700
G01 F60.00
G01 X-22.7064 Y-8.7153
G01 X-22.3333 Y-8.3420
G01 X-22.3248 Y-8.3311
G01 X-22.3186 Y-8.3188
G01 X-22.3146 Y-8.3056
G01 X-22.3132 Y-8.2910
G01 X-22.3146 Y-8.2764
G01 X-22.3186 Y-8.2632
G01 X-22.3248 Y-8.2509
G01 X-22.3333 Y-8.2400
G01 X-22.7064 Y-7.8668
G01 X-22.6003 Y-7.7607
G01 X-22.0700 Y-8.2910
G01 X-22.6003 Y-8.8213
G00 Z2.0000
G00 X-22.6003 Y-8.7153
G01 F70.00
G01 Z-0.0700
G01 F60.00
G01 X-22.2746 Y-8.3890
G01 X-22.2666 Y-8.3789
G01 X-22.2586 Y-8.3665
G01 X-22.2526 Y-8.3551
G01 X-22.2476 Y-8.3433
G01 X-22.2436 Y-8.3310
G01 X-22.2407 Y-8.3185
G01 X-22.2388 Y-8.3039
G01 X-22.2382 Y-8.2910
G01 X-22.2388 Y-8.2781
G01 X-22.2407 Y-8.2635
G01 X-22.2436 Y-8.2510
G01 X-22.2476 Y-8.2387
G01 X-22.2526 Y-8.2269
G01 X-22.2586 Y-8.2155
G01 X-22.2666 Y-8.2031
G01 X-22.2746 Y-8.1930
G01 X-22.6003 Y-7.8667
G01 X-22.1760 Y-8.2910
G01 X-22.6003 Y-8.7153
G00 Z2.0000
G00 X-23.3360 Y-8.2910
G01 F70.00
G01 Z-0.0700
G01 F60.00
G01 X-23.3376 Y-8.3229
G01 X-23.3423 Y-8.3544
G01 X-23.3500 Y-8.3853
G01 X-23.3608 Y-8.4154
G01 X-23.3744 Y-8.4442
G01 X-23.3908 Y-8.4715
G01 X-23.4098 Y-8.4972
G01 X-23.4312 Y-8.5208
G01 X-23.4548 Y-8.5422
G01 X-23.4805 Y-8.5612
G01 X-23.5078 Y-8.5776
G01 X-23.5366 Y-8.5912
G01 X-23.5667 Y-8.6020
G01 X-23.5976 Y-8.6097
G01 X-23.6291 Y-8.6144
G01 X-23.6610 Y-8.6160
G01 X-23.6929 Y-8.6144
G01 X-23.7244 Y-8.6097
G01 X-23.7553 Y-8.6020
G01 X-23.7854 Y-8.5912
G01 X-23.8142 Y-8.5776
G01 X-23.8415 Y-8.5612
G01 X-23.8672 Y-8.5422
G01 X-23.8908 Y-8.5208
G01 X-23.9122 Y-8.4972
G01 X-23.9312 Y-8.4715
G01 X-23.9476 Y-8.4442
G01 X-23.9612 Y-8.4154
G01 X-23.9720 Y-8.3853
G01 X-23.9797 Y-8.3544
G01 X-23.9844 Y-8.3229
G01 X-23.9860 Y-8.2910
G01 X-23.9844 Y-8.2591
G01 X-23.9797 Y-8.2276
G01 X-23.9720 Y-8.1967
G01 X-23.9612 Y-8.1666
G01 X-23.9476 Y-8.1378
G01 X-23.9312 Y-8.1105
G01 X-23.9122 Y-8.0848
G01 X-23.8908 Y-8.0612
G01 X-23.8672 Y-8.0398
G01 X-23.8415 Y-8.0208
G01 X-23.8142 Y-8.0044
G01 X-23.7854 Y-7.9908
G01 X-23.7553 Y-7.9800
G01 X-23.7244 Y-7.9723
G01 X-23.6929 Y-7.9676
G01 X-23.6610 Y-7.9660
G01 X-23.6291 Y-7.9676
G01 X-23.5976 Y-7.9723
G01 X-23.5667 Y-7.9800
G01 X-23.5366 Y-7.9908
G01 X-23.5078 Y-8.0044
G01 X-23.4805 Y-8.0208
G01 X-23.4548 Y-8.0398
G01 X-23.4312 Y-8.0612
G01 X-23.4098 Y-8.0848
G01 X-23.3908 Y-8.1105
G01 X-23.3744 Y-8.1378
G01 X-23.3608 Y-8.1666
G01 X-23.3500 Y-8.1967
G01 X-23.3423 Y-8.2276
G01 X-23.3376 Y-8.2591
G01 X-23.3360 Y-8.2910
G00 Z2.0000
G00 X-23.4110 Y-8.2910
G01 F70.00
G01 Z-0.0700
G01 F60.00
G01 X-23.4122 Y-8.3155
G01 X-23.4158 Y-8.3398
G01 X-23.4218 Y-8.3636
G01 X-23.4301 Y-8.3867
G01 X-23.4406 Y-8.4088
G01 X-23.4532 Y-8.4299
G01 X-23.4678 Y-8.4496
G01 X-23.4843 Y-8.4677
G01 X-23.5024 Y-8.4842
G01 X-23.5221 Y-8.4988
G01 X-23.5432 Y-8.5114
G01 X-23.5653 Y-8.5219
G01 X-23.5884 Y-8.5302
G01 X-23.6122 Y-8.5362
G01 X-23.6365 Y-8.5398
G01 X-23.6610 Y-8.5410
G01 X-23.6855 Y-8.5398
G01 X-23.7098 Y-8.5362
G01 X-23.7336 Y-8.5302
G01 X-23.7567 Y-8.5219
G01 X-23.7788 Y-8.5114
G01 X-23.7999 Y-8.4988
G01 X-23.8196 Y-8.4842
G01 X-23.8377 Y-8.4677
G01 X-23.8542 Y-8.4496
G01 X-23.8688 Y-8.4299
G01 X-23.8814 Y-8.4088
G01 X-23.8919 Y-8.3867
G01 X-23.9002 Y-8.3636
G01 X-23.9062 Y-8.3398
G01 X-23.9098 Y-8.3155
G01 X-23.9110 Y-8.2910
G01 X-23.9098 Y-8.2665
G01 X-23.9062 Y-8.2422
G01 X-23.9002 Y-8.2184
G01 X-23.8919 Y-8.1953
G01 X-23.8814 Y-8.1732
G01 X-23.8688 Y-8.1521
G01 X-23.8542 Y-8.1324
G01 X-23.8377 Y-8.1143
G01 X-23.8196 Y-8.0978
G01 X-23.7999 Y-8.0832
G01 X-23.7788 Y-8.0706
G01 X-23.7567 Y-8.0601
G01 X-23.7336 Y-8.0518
G01 X-23.7098 Y-8.0458
G01 X-23.6855 Y-8.0422
G01 X-23.6610 Y-8.0410
G01 X-23.6365 Y-8.0422
G01 X-23.6122 Y-8.0458
G01 X-23.5884 Y-8.0518
G01 X-23.5653 Y-8.0601
G01 X-23.5432 Y-8.0706
G01 X-23.5221 Y-8.0832
G01 X-23.5024 Y-8.0978
G01 X-23.4843 Y-8.1143
G01 X-23.4678 Y-8.1324
G01 X-23.4532 Y-8.1521
G01 X-23.4406 Y-8.1732
G01 X-23.4301 Y-8.1953
G01 X-23.4218 Y-8.2184
G01 X-23.4158 Y-8.2422
G01 X-23.4122 Y-8.2665
G01 X-23.4110 Y-8.2910
G00 Z2.0000
G00 X-23.4861 Y-8.2910
G01 F70.00
G01 Z-0.0700
G01 F60.00
G01 X-23.4869 Y-8.3081
G01 X-23.4894 Y-8.3251
G01 X-23.4936 Y-8.3418
G01 X-23.4994 Y-8.3579
G01 X-23.5067 Y-8.3735
G01 X-23.5155 Y-8.3882
G01 X-23.5258 Y-8.4020
G01 X-23.5373 Y-8.4147
G01 X-23.5500 Y-8.4262
G01 X-23.5638 Y-8.4365
G01 X-23.5785 Y-8.4453
G01 X-23.5941 Y-8.4526
G01 X-23.6102 Y-8.4584
G01 X-23.6269 Y-8.4626
G01 X-23.6439 Y-8.4651
G01 X-23.6610 Y-8.4659
G01 X-23.6781 Y-8.4651
G01 X-23.6951 Y-8.4626
G01 X-23.7118 Y-8.4584
G01 X-23.7279 Y-8.4526
G01 X-23.7435 Y-8.4453
G01 X-23.7582 Y-8.4365
G01 X-23.7720 Y-8.4262
G01 X-23.7847 Y-8.4147
G01 X-23.7962 Y-8.4020
G01 X-23.8065 Y-8.3882
G01 X-23.8153 Y-8.3735
G01 X-23.8226 Y-8.3579
G01 X-23.8284 Y-8.3418
G01 X-23.8326 Y-8.3251
G01 X-23.8351 Y-8.3081
G01 X-23.8359 Y-8.2910
G01 X-23.8351 Y-8.2739
G01 X-23.8326 Y-8.2569
G01 X-23.8284 Y-8.2402
G01 X-23.8226 Y-8.2241
G01 X-23.8153 Y-8.2085
G01 X-23.8065 Y-8.1938
G01 X-23.7962 Y-8.1800
G01 X-23.7847 Y-8.1673
G01 X-23.7720 Y-8.1558
G01 X-23.7582 Y-8.1455
G01 X-23.7435 Y-8.1367
G01 X-23.7279 Y-8.1294
G01 X-23.7118 Y-8.1236
G01 X-23.6951 Y-8.1194
G01 X-23.6781 Y-8.1169
G01 X-23.6610 Y-8.1161
G01 X-23.6439 Y-8.1169
G01 X-23.6269 Y-8.1194
G01 X-23.6102 Y-8.1236
G01 X-23.5941 Y-8.1294
G01 X-23.5785 Y-8.1367
G01 X-23.5638 Y-8.1455
G01 X-23.5500 Y-8.1558
G01 X-23.5373 Y-8.1673
G01 X-23.5258 Y-8.1800
G01 X-23.5155 Y-8.1938
G01 X-23.5067 Y-8.2085
G01 X-23.4994 Y-8.2241
G01 X-23.4936 Y-8.2402
G01 X-23.4894 Y-8.2569
G01 X-23.4869 Y-8.2739
G01 X-23.4861 Y-8.2910
G00 Z2.0000
G00 X-23.5611 Y-8.2910
G01 F70.00
G01 Z-0.0700
G01 F60.00
G01 X-23.5630 Y-8.3105
G01 X-23.5687 Y-8.3292
G01 X-23.5779 Y-8.3465
G01 X-23.5904 Y-8.3616
G01 X-23.6055 Y-8.3741
G01 X-23.6228 Y-8.3833
G01 X-23.6415 Y-8.3890
G01 X-23.6610 Y-8.3909
G01 X-23.6805 Y-8.3890
G01 X-23.6992 Y-8.3833
G01 X-23.7165 Y-8.3741
G01 X-23.7316 Y-8.3616
G01 X-23.7441 Y-8.3465
G01 X-23.7533 Y-8.3292
G01 X-23.7590 Y-8.3105
G01 X-23.7609 Y-8.2910
G01 X-23.7590 Y-8.2715
G01 X-23.7533 Y-8.2528
G01 X-23.7441 Y-8.2355
G01 X-23.7316 Y-8.2204
G01 X-23.7165 Y-8.2079
G01 X-23.6992 Y-8.1987
G01 X-23.6805 Y-8.1930
G01 X-23.6610 Y-8.1911
G01 X-23.6415 Y-8.1930
G01 X-23.6228 Y-8.1987
G01 X-23.6055 Y-8.2079
G01 X-23.5904 Y-8.2204
G01 X-23.5779 Y-8.2355
G01 X-23.5687 Y-8.2528
G01 X-23.5630 Y-8.2715
G01 X-23.5611 Y-8.2910
G00 Z2.0000
G00 X-24.0853 Y-9.3517
G01 F70.00
G01 Z-0.0700
G01 F60.00
G01 X-23.7590 Y-9.6774
G01 X-23.7489 Y-9.6854
G01 X-23.7365 Y-9.6934
G01 X-23.7251 Y-9.6994
G01 X-23.7133 Y-9.7044
G01 X-23.6992 Y-9.7088
G01 X-23.6866 Y-9.7116
G01 X-23.6739 Y-9.7132
G01 X-23.6610 Y-9.7138
G01 X-23.6481 Y-9.7132
G01 X-23.6354 Y-9.7116
G01 X-23.6228 Y-9.7088
G01 X-23.6087 Y-9.7044
G01 X-23.5969 Y-9.6994
G01 X-23.5839 Y-9.6925
G01 X-23.5731 Y-9.6854
G01 X-23.5630 Y-9.6774
G01 X-23.2367 Y-9.3516
G01 X-23.6610 Y-9.7760
G01 X-24.0853 Y-9.3517
G00 Z2.0000
G00 X-24.1913 Y-9.3517
G01 F70.00
G01 Z-0.0700
G01 F60.00
G01 X-24.0853 Y-9.2456
G01 X-23.7120 Y-9.6187
G01 X-23.7011 Y-9.6272
G01 X-23.6888 Y-9.6334
G01 X-23.6747 Y-9.6375
G01 X-23.6610 Y-9.6388
G01 X-23.6473 Y-9.6375
G01 X-23.6332 Y-9.6334
G01 X-23.6209 Y-9.6272
G01 X-23.6100 Y-9.6187
G01 X-23.2367 Y-9.2456
G01 X-23.1306 Y-9.3516
G01 X-23.6610 Y-9.8820
G01 X-24.1913 Y-9.3517
G00 Z2.0000
G00 X-25.0421 Y-8.1872
G01 F70.00
G01 Z-0.0700
G01 F60.00
G01 X-25.0509 Y-8.1973
G01 X-25.0595 Y-8.2092
G01 X-25.0669 Y-8.2219
G01 X-25.0731 Y-8.2353
G01 X-25.0779 Y-8.2492
G01 X-25.0813 Y-8.2635
G01 X-25.0832 Y-8.2781
G01 X-25.0838 Y-8.2910
G01 X-25.0832 Y-8.3039
G01 X-25.0813 Y-8.3185
G01 X-25.0779 Y-8.3328
G01 X-25.0731 Y-8.3467
G01 X-25.0669 Y-8.3601
G01 X-25.0595 Y-8.3728
G01 X-25.0509 Y-8.3847
G01 X-25.0421 Y-8.3948
G01 X-25.1459 Y-8.2910
G01 X-25.0421 Y-8.1872
G00 Z2.0000
G00 X-24.7216 Y-7.7606
G01 F70.00
G01 Z-0.0700
G01 F60.00
G01 X-24.6156 Y-7.8667
G01 X-24.9887 Y-8.2400
G01 X-24.9972 Y-8.2509
G01 X-25.0038 Y-8.2640
G01 X-25.0075 Y-8.2773
G01 X-25.0088 Y-8.2910
G01 X-25.0074 Y-8.3056
G01 X-25.0034 Y-8.3188
G01 X-24.9972 Y-8.3311
G01 X-24.9887 Y-8.3420
G01 X-24.6156 Y-8.7153
G01 X-24.7216 Y-8.8214
G01 X-25.2519 Y-8.2910
G01 X-24.7216 Y-7.7606
G00 Z2.0000
G00 X-23.4524 Y-7.0146
G01 F70.00
G01 Z-0.0700
G01 F60.00
G01 X-23.2367 Y-7.2304
G01 X-23.5630 Y-6.9046
G01 X-23.5746 Y-6.8956
G01 X-23.5855 Y-6.8886
G01 X-23.5969 Y-6.8826
G01 X-23.6087 Y-6.8776
G01 X-23.6228 Y-6.8732
G01 X-23.6354 Y-6.8704
G01 X-23.6481 Y-6.8688
G01 X-23.6610 Y-6.8682
G01 X-23.6739 Y-6.8688
G01 X-23.6866 Y-6.8704
G01 X-23.6992 Y-6.8732
G01 X-23.7133 Y-6.8776
G01 X-23.7251 Y-6.8826
G01 X-23.7365 Y-6.8886
G01 X-23.7489 Y-6.8966
G01 X-23.7590 Y-6.9046
G01 X-24.0853 Y-7.2303
G01 X-23.8645 Y-7.0093
G01 X-23.8551 Y-6.9979
G01 X-23.8460 Y-6.9841
G01 X-23.8392 Y-6.9710
G01 X-23.8332 Y-6.9556
G01 X-23.8293 Y-6.9414
G01 X-23.8267 Y-6.9269
G01 X-23.8257 Y-6.9122
G01 X-23.8260 Y-6.8975
G01 X-23.8278 Y-6.8829
G01 X-23.8310 Y-6.8685
G01 X-23.8363 Y-6.8528
G01 X-23.8425 Y-6.8395
G01 X-23.8499 Y-6.8267
G01 X-23.8585 Y-6.8148
G01 X-23.8683 Y-6.8038
G01 X-23.8790 Y-6.7938
G01 X-23.8908 Y-6.7848
G01 X-23.9033 Y-6.7771
G01 X-23.9165 Y-6.7707
G01 X-23.9307 Y-6.7654
G01 X-23.9142 Y-6.7699
G01 X-23.8675 Y-6.7804
G01 X-23.8131 Y-6.7898
G01 X-23.7638 Y-6.7958
G01 X-23.7161 Y-6.7994
G01 X-23.6609 Y-6.8009
G01 X-23.6057 Y-6.7994
G01 X-23.5580 Y-6.7958
G01 X-23.5087 Y-6.7898
G01 X-23.4543 Y-6.7804
G01 X-23.4076 Y-6.7699
G01 X-23.3913 Y-6.7655
G01 X-23.4088 Y-6.7722
G01 X-23.4250 Y-6.7809
G01 X-23.4401 Y-6.7915
G01 X-23.4550 Y-6.8051
G01 X-23.4679 Y-6.8207
G01 X-23.4777 Y-6.8362
G01 X-23.4863 Y-6.8546
G01 X-23.4918 Y-6.8721
G01 X-23.4954 Y-6.8920
G01 X-23.4963 Y-6.9104
G01 X-23.4950 Y-6.9288
G01 X-23.4909 Y-6.9486
G01 X-23.4849 Y-6.9660
G01 X-23.4759 Y-6.9841
G01 X-23.4646 Y-7.0009
G01 X-23.4524 Y-7.0146
G00 Z2.0000
G00 X-23.3994 Y-6.9616
G01 F70.00
G01 Z-0.0700
G01 F60.00
G01 X-23.1306 Y-7.2304
G01 X-23.2367 Y-7.3364
G01 X-23.6100 Y-6.9633
G01 X-23.6209 Y-6.9548
G01 X-23.6332 Y-6.9486
G01 X-23.6464 Y-6.9446
G01 X-23.6610 Y-6.9432
G01 X-23.6756 Y-6.9446
G01 X-23.6888 Y-6.9486
G01 X-23.7011 Y-6.9548
G01 X-23.7120 Y-6.9633
G01 X-24.0853 Y-7.3364
G01 X-24.1913 Y-7.2303
G01 X-23.9171 Y-6.9554
G01 X-23.9108 Y-6.9463
G01 X-23.9060 Y-6.9364
G01 X-23.9026 Y-6.9259
G01 X-23.9010 Y-6.9159
G01 X-23.9007 Y-6.9049
G01 X-23.9019 Y-6.8948
G01 X-23.9047 Y-6.8841
G01 X-23.9086 Y-6.8748
G01 X-23.9148 Y-6.8646
G01 X-23.9232 Y-6.8549
G01 X-23.9324 Y-6.8472
G01 X-23.9427 Y-6.8411
G01 X-23.9530 Y-6.8370
G01 X-23.9875 Y-6.8274
G01 X-24.0399 Y-6.8101
G01 X-24.0914 Y-6.7902
G01 X-24.1419 Y-6.7679
G01 X-24.1912 Y-6.7430
G01 X-24.2393 Y-6.7158
G01 X-24.2859 Y-6.6863
G01 X-24.3310 Y-6.6545
G01 X-24.3746 Y-6.6205
G01 X-24.4164 Y-6.5845
G01 X-24.4564 Y-6.5464
G01 X-24.4945 Y-6.5064
G01 X-24.5305 Y-6.4646
G01 X-24.5645 Y-6.4210
G01 X-24.5963 Y-6.3759
G01 X-24.6258 Y-6.3293
G01 X-24.6530 Y-6.2812
G01 X-24.6779 Y-6.2319
G01 X-24.7002 Y-6.1814
G01 X-24.7201 Y-6.1299
G01 X-24.7374 Y-6.0775
G01 X-24.7522 Y-6.0242
G01 X-24.7643 Y-5.9704
G01 X-24.7737 Y-5.9160
G01 X-24.7805 Y-5.8612
G01 X-24.7845 Y-5.8061
G01 X-24.7859 Y-5.7509
G01 X-24.7845 Y-5.6957
G01 X-24.7805 Y-5.6406
G01 X-24.7737 Y-5.5858
G01 X-24.7643 Y-5.5314
G01 X-24.7522 Y-5.4776
G01 X-24.7374 Y-5.4243
G01 X-24.7201 Y-5.3719
G01 X-24.7002 Y-5.3204
G01 X-24.6779 Y-5.2699
G01 X-24.6530 Y-5.2206
G01 X-24.6258 Y-5.1725
G01 X-24.5963 Y-5.1259
G01 X-24.5645 Y-5.0808
G01 X-24.5305 Y-5.0372
G01 X-24.4945 Y-4.9954
G01 X-24.4564 Y-4.9554
G01 X-24.4164 Y-4.9173
G01 X-24.3746 Y-4.8813
G01 X-24.3310 Y-4.8473
G01 X-24.2859 Y-4.8155
G01 X-24.2393 Y-4.7860
G01 X-24.1912 Y-4.7588
G01 X-24.1419 Y-4.7339
G01 X-24.0914 Y-4.7116
G01 X-24.0399 Y-4.6917
G01 X-23.9875 Y-4.6744
G01 X-23.9342 Y-4.6596
G01 X-23.8804 Y-4.6475
G01 X-23.8260 Y-4.6381
G01 X-23.7712 Y-4.6313
G01 X-23.7161 Y-4.6273
G01 X-23.6609 Y-4.6259
G01 X-23.6057 Y-4.6273
G01 X-23.5506 Y-4.6313
G01 X-23.4958 Y-4.6381
G01 X-23.4414 Y-4.6475
G01 X-23.3876 Y-4.6596
G01 X-23.3343 Y-4.6744
G01 X-23.2819 Y-4.6917
G01 X-23.2304 Y-4.7116
G01 X-23.1799 Y-4.7339
G01 X-23.1306 Y-4.7588
G01 X-23.0825 Y-4.7860
G01 X-23.0359 Y-4.8155
G01 X-22.9908 Y-4.8473
G01 X-22.9472 Y-4.8813
G01 X-22.9054 Y-4.9173
G01 X-22.8654 Y-4.9554
G01 X-22.8273 Y-4.9954
G01 X-22.7913 Y-5.0372
G01 X-22.7573 Y-5.0808
G01 X-22.7255 Y-5.1259
G01 X-22.6960 Y-5.1725
G01 X-22.6688 Y-5.2206
G01 X-22.6439 Y-5.2699
G01 X-22.6216 Y-5.3204
G01 X-22.6017 Y-5.3719
G01 X-22.5844 Y-5.4243
G01 X-22.5696 Y-5.4776
G01 X-22.5575 Y-5.5314
G01 X-22.5481 Y-5.5858
G01 X-22.5413 Y-5.6406
G01 X-22.5373 Y-5.6957
G01 X-22.5359 Y-5.7509
G01 X-22.5373 Y-5.8061
G01 X-22.5413 Y-5.8612
G01 X-22.5481 Y-5.9160
G01 X-22.5575 Y-5.9704
G01 X-22.5696 Y-6.0242
G01 X-22.5844 Y-6.0775
G01 X-22.6017 Y-6.1299
G01 X-22.6216 Y-6.1814
G01 X-22.6439 Y-6.2319
G01 X-22.6688 Y-6.2812
G01 X-22.6960 Y-6.3293
G01 X-22.7255 Y-6.3759
G01 X-22.7573 Y-6.4210
G01 X-22.7913 Y-6.4646
G01 X-22.8273 Y-6.5064
G01 X-22.8654 Y-6.5464
G01 X-22.9054 Y-6.5845
G01 X-22.9472 Y-6.6205
G01 X-22.9908 Y-6.6545
G01 X-23.0359 Y-6.6863
G01 X-23.0825 Y-6.7158
G01 X-23.1306 Y-6.7430
G01 X-23.1799 Y-6.7679
G01 X-23.2304 Y-6.7902
G01 X-23.2819 Y-6.8101
G01 X-23.3343 Y-6.8274
G01 X-23.3733 Y-6.8386
G01 X-23.3857 Y-6.8447
G01 X-23.3967 Y-6.8530
G01 X-23.4066 Y-6.8639
G01 X-23.4145 Y-6.8773
G01 X-23.4195 Y-6.8921
G01 X-23.4213 Y-6.9067
G01 X-23.4202 Y-6.9214
G01 X-23.4160 Y-6.9364
G01 X-23.4092 Y-6.9495
G01 X-23.3994 Y-6.9616
G00 Z2.0000
G00 X-23.4109 Y-5.7509
G01 F70.00
G01 Z-0.0700
G01 F60.00
G01 X-23.4121 Y-5.7754
G01 X-23.4157 Y-5.7997
G01 X-23.4217 Y-5.8235
G01 X-23.4300 Y-5.8466
G01 X-23.4405 Y-5.8687
G01 X-23.4531 Y-5.8898
G01 X-23.4677 Y-5.9095
G01 X-23.4842 Y-5.9276
G01 X-23.5023 Y-5.9441
G01 X-23.5220 Y-5.9587
G01 X-23.5431 Y-5.9713
G01 X-23.5652 Y-5.9818
G01 X-23.5883 Y-5.9901
G01 X-23.6121 Y-5.9961
G01 X-23.6364 Y-5.9997
G01 X-23.6609 Y-6.0009
G01 X-23.6854 Y-5.9997
G01 X-23.7097 Y-5.9961
G01 X-23.7335 Y-5.9901
G01 X-23.7566 Y-5.9818
G01 X-23.7787 Y-5.9713
G01 X-23.7998 Y-5.9587
G01 X-23.8195 Y-5.9441
G01 X-23.8376 Y-5.9276
G01 X-23.8541 Y-5.9095
G01 X-23.8687 Y-5.8898
G01 X-23.8813 Y-5.8687
G01 X-23.8918 Y-5.8466
G01 X-23.9001 Y-5.8235
G01 X-23.9061 Y-5.7997
G01 X-23.9097 Y-5.7754
G01 X-23.9109 Y-5.7509
G01 X-23.9097 Y-5.7264
G01 X-23.9061 Y-5.7021
G01 X-23.9001 Y-5.6783
G01 X-23.8918 Y-5.6552
G01 X-23.8813 Y-5.6331
G01 X-23.8687 Y-5.6120
G01 X-23.8541 Y-5.5923
G01 X-23.8376 Y-5.5742
G01 X-23.8195 Y-5.5577
G01 X-23.7998 Y-5.5431
G01 X-23.7787 Y-5.5305
G01 X-23.7566 Y-5.5200
G01 X-23.7335 Y-5.5117
G01 X-23.7097 Y-5.5057
G01 X-23.6854 Y-5.5021
G01 X-23.6609 Y-5.5009
G01 X-23.6364 Y-5.5021
G01 X-23.6121 Y-5.5057
G01 X-23.5883 Y-5.5117
G01 X-23.5652 Y-5.5200
G01 X-23.5431 Y-5.5305
G01 X-23.5220 Y-5.5431
G01 X-23.5023 Y-5.5577
G01 X-23.4842 Y-5.5742
G01 X-23.4677 Y-5.5923
G01 X-23.4531 Y-5.6120
G01 X-23.4405 Y-5.6331
G01 X-23.4300 Y-5.6552
G01 X-23.4217 Y-5.6783
G01 X-23.4157 Y-5.7021
G01 X-23.4121 Y-5.7264
G01 X-23.4109 Y-5.7509
G00 Z2.0000
G00 X-23.4860 Y-5.7509
G01 F70.00
G01 Z-0.0700
G01 F60.00
G01 X-23.4868 Y-5.7680
G01 X-23.4893 Y-5.7850
G01 X-23.4935 Y-5.8017
G01 X-23.4993 Y-5.8178
G01 X-23.5066 Y-5.8334
G01 X-23.5154 Y-5.8481
G01 X-23.5257 Y-5.8619
G01 X-23.5372 Y-5.8746
G01 X-23.5499 Y-5.8861
G01 X-23.5637 Y-5.8964
G01 X-23.5784 Y-5.9052
G01 X-23.5940 Y-5.9125
G01 X-23.6101 Y-5.9183
G01 X-23.6268 Y-5.9225
G01 X-23.6438 Y-5.9250
G01 X-23.6609 Y-5.9258
G01 X-23.6780 Y-5.9250
G01 X-23.6950 Y-5.9225
G01 X-23.7117 Y-5.9183
G01 X-23.7278 Y-5.9125
G01 X-23.7434 Y-5.9052
G01 X-23.7581 Y-5.8964
G01 X-23.7719 Y-5.8861
G01 X-23.7846 Y-5.8746
G01 X-23.7961 Y-5.8619
G01 X-23.8064 Y-5.8481
G01 X-23.8152 Y-5.8334
G01 X-23.8225 Y-5.8178
G01 X-23.8283 Y-5.8017
G01 X-23.8325 Y-5.7850
G01 X-23.8350 Y-5.7680
G01 X-23.8358 Y-5.7509
G01 X-23.8350 Y-5.7338
G01 X-23.8325 Y-5.7168
G01 X-23.8283 Y-5.7001
G01 X-23.8225 Y-5.6840
G01 X-23.8152 Y-5.6684
G01 X-23.8064 Y-5.6537
G01 X-23.7961 Y-5.6399
G01 X-23.7846 Y-5.6272
G01 X-23.7719 Y-5.6157
G01 X-23.7581 Y-5.6054
G01 X-23.7434 Y-5.5966
G01 X-23.7278 Y-5.5893
G01 X-23.7117 Y-5.5835
G01 X-23.6950 Y-5.5793
G01 X-23.6780 Y-5.5768
G01 X-23.6609 Y-5.5760
G01 X-23.6438 Y-5.5768
G01 X-23.6268 Y-5.5793
G01 X-23.6101 Y-5.5835
G01 X-23.5940 Y-5.5893
G01 X-23.5784 Y-5.5966
G01 X-23.5637 Y-5.6054
G01 X-23.5499 Y-5.6157
G01 X-23.5372 Y-5.6272
G01 X-23.5257 Y-5.6399
G01 X-23.5154 Y-5.6537
G01 X-23.5066 Y-5.6684
G01 X-23.4993 Y-5.6840
G01 X-23.4935 Y-5.7001
G01 X-23.4893 Y-5.7168
G01 X-23.4868 Y-5.7338
G01 X-23.4860 Y-5.7509
G00 Z2.0000
G00 X-23.5610 Y-5.7509
G01 F70.00
G01 Z-0.0700
G01 F60.00
G01 X-23.5629 Y-5.7704
G01 X-23.5686 Y-5.7891
G01 X-23.5778 Y-5.8064
G01 X-23.5903 Y-5.8215
G01 X-23.6054 Y-5.8340
G01 X-23.6227 Y-5.8432
G01 X-23.6414 Y-5.8489
G01 X-23.6609 Y-5.8508
G01 X-23.6804 Y-5.8489
G01 X-23.6991 Y-5.8432
G01 X-23.7164 Y-5.8340
G01 X-23.7315 Y-5.8215
G01 X-23.7440 Y-5.8064
G01 X-23.7532 Y-5.7891
G01 X-23.7589 Y-5.7704
G01 X-23.7608 Y-5.7509
G01 X-23.7589 Y-5.7314
G01 X-23.7532 Y-5.7127
G01 X-23.7440 Y-5.6954
G01 X-23.7315 Y-5.6803
G01 X-23.7164 Y-5.6678
G01 X-23.6991 Y-5.6586
G01 X-23.6804 Y-5.6529
G01 X-23.6609 Y-5.6510
G01 X-23.6414 Y-5.6529
G01 X-23.6227 Y-5.6586
G01 X-23.6054 Y-5.6678
G01 X-23.5903 Y-5.6803
G01 X-23.5778 Y-5.6954
G01 X-23.5686 Y-5.7127
G01 X-23.5629 Y-5.7314
G01 X-23.5610 Y-5.7509
G00 Z2.0000
G00 X-23.3359 Y-5.7509
G01 F70.00
G01 Z-0.0700
G01 F60.00
G01 X-23.3375 Y-5.7828
G01 X-23.3422 Y-5.8143
G01 X-23.3499 Y-5.8452
G01 X-23.3607 Y-5.8753
G01 X-23.3743 Y-5.9041
G01 X-23.3907 Y-5.9314
G01 X-23.4097 Y-5.9571
G01 X-23.4311 Y-5.9807
G01 X-23.4547 Y-6.0021
G01 X-23.4804 Y-6.0211
G01 X-23.5077 Y-6.0375
G01 X-23.5365 Y-6.0511
G01 X-23.5666 Y-6.0619
G01 X-23.5975 Y-6.0696
G01 X-23.6290 Y-6.0743
G01 X-23.6609 Y-6.0759
G01 X-23.6928 Y-6.0743
G01 X-23.7243 Y-6.0696
G01 X-23.7552 Y-6.0619
G01 X-23.7853 Y-6.0511
G01 X-23.8141 Y-6.0375
G01 X-23.8414 Y-6.0211
G01 X-23.8671 Y-6.0021
G01 X-23.8907 Y-5.9807
G01 X-23.9121 Y-5.9571
G01 X-23.9311 Y-5.9314
G01 X-23.9475 Y-5.9041
G01 X-23.9611 Y-5.8753
G01 X-23.9719 Y-5.8452
G01 X-23.9796 Y-5.8143
G01 X-23.9843 Y-5.7828
G01 X-23.9859 Y-5.7509
G01 X-23.9843 Y-5.7190
G01 X-23.9796 Y-5.6875
G01 X-23.9719 Y-5.6566
G01 X-23.9611 Y-5.6265
G01 X-23.9475 Y-5.5977
G01 X-23.9311 Y-5.5704
G01 X-23.9121 Y-5.5447
G01 X-23.8907 Y-5.5211
G01 X-23.8671 Y-5.4997
G01 X-23.8414 Y-5.4807
G01 X-23.8141 Y-5.4643
G01 X-23.7853 Y-5.4507
G01 X-23.7552 Y-5.4399
G01 X-23.7243 Y-5.4322
G01 X-23.6928 Y-5.4275
G01 X-23.6609 Y-5.4259
G01 X-23.6290 Y-5.4275
G01 X-23.5975 Y-5.4322
G01 X-23.5666 Y-5.4399
G01 X-23.5365 Y-5.4507
G01 X-23.5077 Y-5.4643
G01 X-23.4804 Y-5.4807
G01 X-23.4547 Y-5.4997
G01 X-23.4311 Y-5.5211
G01 X-23.4097 Y-5.5447
G01 X-23.3907 Y-5.5704
G01 X-23.3743 Y-5.5977
G01 X-23.3607 Y-5.6265
G01 X-23.3499 Y-5.6566
G01 X-23.3422 Y-5.6875
G01 X-23.3375 Y-5.7190
G01 X-23.3359 Y-5.7509
G00 Z2.0000
G00 X-22.6859 Y-5.7509
G01 F70.00
G01 Z-0.0700
G01 F60.00
G01 X-22.6871 Y-5.7031
G01 X-22.6906 Y-5.6553
G01 X-22.6965 Y-5.6078
G01 X-22.7046 Y-5.5607
G01 X-22.7151 Y-5.5140
G01 X-22.7279 Y-5.4679
G01 X-22.7429 Y-5.4224
G01 X-22.7601 Y-5.3778
G01 X-22.7795 Y-5.3340
G01 X-22.8010 Y-5.2913
G01 X-22.8246 Y-5.2496
G01 X-22.8502 Y-5.2092
G01 X-22.8778 Y-5.1701
G01 X-22.9072 Y-5.1324
G01 X-22.9385 Y-5.0961
G01 X-22.9715 Y-5.0615
G01 X-23.0061 Y-5.0285
G01 X-23.0424 Y-4.9972
G01 X-23.0801 Y-4.9678
G01 X-23.1192 Y-4.9402
G01 X-23.1596 Y-4.9146
G01 X-23.2013 Y-4.8910
G01 X-23.2440 Y-4.8695
G01 X-23.2878 Y-4.8501
G01 X-23.3324 Y-4.8329
G01 X-23.3779 Y-4.8179
G01 X-23.4240 Y-4.8051
G01 X-23.4707 Y-4.7946
G01 X-23.5178 Y-4.7865
G01 X-23.5653 Y-4.7806
G01 X-23.6131 Y-4.7771
G01 X-23.6609 Y-4.7759
G01 X-23.7087 Y-4.7771
G01 X-23.7565 Y-4.7806
G01 X-23.8040 Y-4.7865
G01 X-23.8511 Y-4.7946
G01 X-23.8978 Y-4.8051
G01 X-23.9439 Y-4.8179
G01 X-23.9894 Y-4.8329
G01 X-24.0340 Y-4.8501
G01 X-24.0778 Y-4.8695
G01 X-24.1205 Y-4.8910
G01 X-24.1622 Y-4.9146
G01 X-24.2026 Y-4.9402
G01 X-24.2417 Y-4.9678
G01 X-24.2794 Y-4.9972
G01 X-24.3157 Y-5.0285
G01 X-24.3503 Y-5.0615
G01 X-24.3833 Y-5.0961
G01 X-24.4146 Y-5.1324
G01 X-24.4440 Y-5.1701
G01 X-24.4716 Y-5.2092
G01 X-24.4972 Y-5.2496
G01 X-24.5208 Y-5.2913
G01 X-24.5423 Y-5.3340
G01 X-24.5617 Y-5.3778
G01 X-24.5789 Y-5.4224
G01 X-24.5939 Y-5.4679
G01 X-24.6067 Y-5.5140
G01 X-24.6172 Y-5.5607
G01 X-24.6253 Y-5.6078
G01 X-24.6312 Y-5.6553
G01 X-24.6347 Y-5.7031
G01 X-24.6359 Y-5.7509
G01 X-24.6347 Y-5.7987
G01 X-24.6312 Y-5.8465
G01 X-24.6253 Y-5.8940
G01 X-24.6172 Y-5.9411
G01 X-24.6067 Y-5.9878
G01 X-24.5939 Y-6.0339
G01 X-24.5789 Y-6.0794
G01 X-24.5617 Y-6.1240
G01 X-24.5423 Y-6.1678
G01 X-24.5208 Y-6.2105
G01 X-24.4972 Y-6.2522
G01 X-24.4716 Y-6.2926
G01 X-24.4440 Y-6.3317
G01 X-24.4146 Y-6.3694
G01 X-24.3833 Y-6.4057
G01 X-24.3503 Y-6.4403
G01 X-24.3157 Y-6.4733
G01 X-24.2794 Y-6.5046
G01 X-24.2417 Y-6.5340
G01 X-24.2026 Y-6.5616
G01 X-24.1622 Y-6.5872
G01 X-24.1205 Y-6.6108
G01 X-24.0778 Y-6.6323
G01 X-24.0340 Y-6.6517
G01 X-23.9894 Y-6.6689
G01 X-23.9439 Y-6.6839
G01 X-23.8978 Y-6.6967
G01 X-23.8511 Y-6.7072
G01 X-23.8040 Y-6.7153
G01 X-23.7565 Y-6.7212
G01 X-23.7087 Y-6.7247
G01 X-23.6609 Y-6.7259
G01 X-23.6131 Y-6.7247
G01 X-23.5653 Y-6.7212
G01 X-23.5178 Y-6.7153
G01 X-23.4707 Y-6.7072
G01 X-23.4240 Y-6.6967
G01 X-23.3779 Y-6.6839
G01 X-23.3324 Y-6.6689
G01 X-23.2878 Y-6.6517
G01 X-23.2440 Y-6.6323
G01 X-23.2013 Y-6.6108
G01 X-23.1596 Y-6.5872
G01 X-23.1192 Y-6.5616
G01 X-23.0801 Y-6.5340
G01 X-23.0424 Y-6.5046
G01 X-23.0061 Y-6.4733
G01 X-22.9715 Y-6.4403
G01 X-22.9385 Y-6.4057
G01 X-22.9072 Y-6.3694
G01 X-22.8778 Y-6.3317
G01 X-22.8502 Y-6.2926
G01 X-22.8246 Y-6.2522
G01 X-22.8010 Y-6.2105
G01 X-22.7795 Y-6.1678
G01 X-22.7601 Y-6.1240
G01 X-22.7429 Y-6.0794
G01 X-22.7279 Y-6.0339
G01 X-22.7151 Y-5.9878
G01 X-22.7046 Y-5.9411
G01 X-22.6965 Y-5.8940
G01 X-22.6906 Y-5.8465
G01 X-22.6871 Y-5.7987
G01 X-22.6859 Y-5.7509
G00 Z2.0000
G00 X-22.6859 Y-3.2109
G01 F70.00
G01 Z-0.0700
G01 F60.00
G01 X-22.6871 Y-3.1631
G01 X-22.6906 Y-3.1153
G01 X-22.6965 Y-3.0678
G01 X-22.7046 Y-3.0207
G01 X-22.7151 Y-2.9740
G01 X-22.7279 Y-2.9279
G01 X-22.7429 Y-2.8824
G01 X-22.7601 Y-2.8378
G01 X-22.7795 Y-2.7940
G01 X-22.8010 Y-2.7513
G01 X-22.8246 Y-2.7096
G01 X-22.8502 Y-2.6692
G01 X-22.8778 Y-2.6301
G01 X-22.9072 Y-2.5924
G01 X-22.9385 Y-2.5561
G01 X-22.9715 Y-2.5215
G01 X-23.0061 Y-2.4885
G01 X-23.0424 Y-2.4572
G01 X-23.0801 Y-2.4278
G01 X-23.1192 Y-2.4002
G01 X-23.1596 Y-2.3746
G01 X-23.2013 Y-2.3510
G01 X-23.2440 Y-2.3295
G01 X-23.2878 Y-2.3101
G01 X-23.3324 Y-2.2929
G01 X-23.3779 Y-2.2779
G01 X-23.4240 Y-2.2651
G01 X-23.4707 Y-2.2546
G01 X-23.5178 Y-2.2465
G01 X-23.5653 Y-2.2406
G01 X-23.6131 Y-2.2371
G01 X-23.6609 Y-2.2359
G01 X-23.7087 Y-2.2371
G01 X-23.7565 Y-2.2406
G01 X-23.8040 Y-2.2465
G01 X-23.8511 Y-2.2546
G01 X-23.8978 Y-2.2651
G01 X-23.9439 Y-2.2779
G01 X-23.9894 Y-2.2929
G01 X-24.0340 Y-2.3101
G01 X-24.0778 Y-2.3295
G01 X-24.1205 Y-2.3510
G01 X-24.1622 Y-2.3746
G01 X-24.2026 Y-2.4002
G01 X-24.2417 Y-2.4278
G01 X-24.2794 Y-2.4572
G01 X-24.3157 Y-2.4885
G01 X-24.3503 Y-2.5215
G01 X-24.3833 Y-2.5561
G01 X-24.4146 Y-2.5924
G01 X-24.4440 Y-2.6301
G01 X-24.4716 Y-2.6692
G01 X-24.4972 Y-2.7096
G01 X-24.5208 Y-2.7513
G01 X-24.5423 Y-2.7940
G01 X-24.5617 Y-2.8378
G01 X-24.5789 Y-2.8824
G01 X-24.5939 Y-2.9279
G01 X-24.6067 Y-2.9740
G01 X-24.6172 Y-3.0207
G01 X-24.6253 Y-3.0678
G01 X-24.6312 Y-3.1153
G01 X-24.6347 Y-3.1631
G01 X-24.6359 Y-3.2109
G01 X-24.6347 Y-3.2587
G01 X-24.6312 Y-3.3065
G01 X-24.6253 Y-3.3540
G01 X-24.6172 Y-3.4011
G01 X-24.6067 Y-3.4478
G01 X-24.5939 Y-3.4939
G01 X-24.5789 Y-3.5394
G01 X-24.5617 Y-3.5840
G01 X-24.5423 Y-3.6278
G01 X-24.5208 Y-3.6705
G01 X-24.4972 Y-3.7122
G01 X-24.4716 Y-3.7526
G01 X-24.4440 Y-3.7917
G01 X-24.4146 Y-3.8294
G01 X-24.3833 Y-3.8657
G01 X-24.3503 Y-3.9003
G01 X-24.3157 Y-3.9333
G01 X-24.2794 Y-3.9646
G01 X-24.2417 Y-3.9940
G01 X-24.2026 Y-4.0216
G01 X-24.1622 Y-4.0472
G01 X-24.1205 Y-4.0708
G01 X-24.0778 Y-4.0923
G01 X-24.0340 Y-4.1117
G01 X-23.9894 Y-4.1289
G01 X-23.9439 Y-4.1439
G01 X-23.8978 Y-4.1567
G01 X-23.8511 Y-4.1672
G01 X-23.8040 Y-4.1753
G01 X-23.7565 Y-4.1812
G01 X-23.7087 Y-4.1847
G01 X-23.6609 Y-4.1859
G01 X-23.6131 Y-4.1847
G01 X-23.5653 Y-4.1812
G01 X-23.5178 Y-4.1753
G01 X-23.4707 Y-4.1672
G01 X-23.4240 Y-4.1567
G01 X-23.3779 Y-4.1439
G01 X-23.3324 Y-4.1289
G01 X-23.2878 Y-4.1117
G01 X-23.2440 Y-4.0923
G01 X-23.2013 Y-4.0708
G01 X-23.1596 Y-4.0472
G01 X-23.1192 Y-4.0216
G01 X-23.0801 Y-3.9940
G01 X-23.0424 Y-3.9646
G01 X-23.0061 Y-3.9333
G01 X-22.9715 Y-3.9003
G01 X-22.9385 Y-3.8657
G01 X-22.9072 Y-3.8294
G01 X-22.8778 Y-3.7917
G01 X-22.8502 Y-3.7526
G01 X-22.8246 Y-3.7122
G01 X-22.8010 Y-3.6705
G01 X-22.7795 Y-3.6278
G01 X-22.7601 Y-3.5840
G01 X-22.7429 Y-3.5394
G01 X-22.7279 Y-3.4939
G01 X-22.7151 Y-3.4478
G01 X-22.7046 Y-3.4011
G01 X-22.6965 Y-3.3540
G01 X-22.6906 Y-3.3065
G01 X-22.6871 Y-3.2587
G01 X-22.6859 Y-3.2109
G00 Z2.0000
G00 X-22.5359 Y-3.2109
G01 F70.00
G01 Z-0.0700
G01 F60.00
G01 X-22.5373 Y-3.2661
G01 X-22.5413 Y-3.3212
G01 X-22.5481 Y-3.3760
G01 X-22.5575 Y-3.4304
G01 X-22.5696 Y-3.4842
G01 X-22.5844 Y-3.5375
G01 X-22.6017 Y-3.5899
G01 X-22.6216 Y-3.6414
G01 X-22.6439 Y-3.6919
G01 X-22.6688 Y-3.7412
G01 X-22.6960 Y-3.7893
G01 X-22.7255 Y-3.8359
G01 X-22.7573 Y-3.8810
G01 X-22.7913 Y-3.9246
G01 X-22.8273 Y-3.9664
G01 X-22.8654 Y-4.0064
G01 X-22.9054 Y-4.0445
G01 X-22.9472 Y-4.0805
G01 X-22.9908 Y-4.1145
G01 X-23.0359 Y-4.1463
G01 X-23.0825 Y-4.1758
G01 X-23.1306 Y-4.2030
G01 X-23.1799 Y-4.2279
G01 X-23.2304 Y-4.2502
G01 X-23.2819 Y-4.2701
G01 X-23.3343 Y-4.2874
G01 X-23.3876 Y-4.3022
G01 X-23.4414 Y-4.3143
G01 X-23.4958 Y-4.3237
G01 X-23.5506 Y-4.3305
G01 X-23.6057 Y-4.3345
G01 X-23.6609 Y-4.3359
G01 X-23.7161 Y-4.3345
G01 X-23.7712 Y-4.3305
G01 X-23.8260 Y-4.3237
G01 X-23.8804 Y-4.3143
G01 X-23.9342 Y-4.3022
G01 X-23.9875 Y-4.2874
G01 X-24.0399 Y-4.2701
G01 X-24.0914 Y-4.2502
G01 X-24.1419 Y-4.2279
G01 X-24.1912 Y-4.2030
G01 X-24.2393 Y-4.1758
G01 X-24.2859 Y-4.1463
G01 X-24.3310 Y-4.1145
G01 X-24.3746 Y-4.0805
G01 X-24.4164 Y-4.0445
G01 X-24.4564 Y-4.0064
G01 X-24.4945 Y-3.9664
G01 X-24.5305 Y-3.9246
G01 X-24.5645 Y-3.8810
G01 X-24.5963 Y-3.8359
G01 X-24.6258 Y-3.7893
G01 X-24.6530 Y-3.7412
G01 X-24.6779 Y-3.6919
G01 X-24.7002 Y-3.6414
G01 X-24.7201 Y-3.5899
G01 X-24.7374 Y-3.5375
G01 X-24.7522 Y-3.4842
G01 X-24.7643 Y-3.4304
G01 X-24.7737 Y-3.3760
G01 X-24.7805 Y-3.3212
G01 X-24.7845 Y-3.2661
G01 X-24.7859 Y-3.2109
G01 X-24.7845 Y-3.1557
G01 X-24.7805 Y-3.1006
G01 X-24.7737 Y-3.0458
G01 X-24.7643 Y-2.9914
G01 X-24.7522 Y-2.9376
G01 X-24.7374 Y-2.8843
G01 X-24.7201 Y-2.8319
G01 X-24.7002 Y-2.7804
G01 X-24.6779 Y-2.7299
G01 X-24.6530 Y-2.6806
G01 X-24.6258 Y-2.6325
G01 X-24.5963 Y-2.5859
G01 X-24.5645 Y-2.5408
G01 X-24.5305 Y-2.4972
G01 X-24.4945 Y-2.4554
G01 X-24.4564 Y-2.4154
G01 X-24.4164 Y-2.3773
G01 X-24.3746 Y-2.3413
G01 X-24.3310 Y-2.3073
G01 X-24.2859 Y-2.2755
G01 X-24.2393 Y-2.2460
G01 X-24.1912 Y-2.2188
G01 X-24.1419 Y-2.1939
G01 X-24.0914 Y-2.1716
G01 X-24.0399 Y-2.1517
G01 X-23.9875 Y-2.1344
G01 X-23.9342 Y-2.1196
G01 X-23.8804 Y-2.1075
G01 X-23.8260 Y-2.0981
G01 X-23.7712 Y-2.0913
G01 X-23.7161 Y-2.0873
G01 X-23.6609 Y-2.0859
G01 X-23.6057 Y-2.0873
G01 X-23.5506 Y-2.0913
G01 X-23.4958 Y-2.0981
G01 X-23.4414 Y-2.1075
G01 X-23.3876 Y-2.1196
G01 X-23.3343 Y-2.1344
G01 X-23.2819 Y-2.1517
G01 X-23.2304 Y-2.1716
G01 X-23.1799 Y-2.1939
G01 X-23.1306 Y-2.2188
G01 X-23.0825 Y-2.2460
G01 X-23.0359 Y-2.2755
G01 X-22.9908 Y-2.3073
G01 X-22.9472 Y-2.3413
G01 X-22.9054 Y-2.3773
G01 X-22.8654 Y-2.4154
G01 X-22.8273 Y-2.4554
G01 X-22.7913 Y-2.4972
G01 X-22.7573 Y-2.5408
G01 X-22.7255 Y-2.5859
G01 X-22.6960 Y-2.6325
G01 X-22.6688 Y-2.6806
G01 X-22.6439 Y-2.7299
G01 X-22.6216 Y-2.7804
G01 X-22.6017 Y-2.8319
G01 X-22.5844 Y-2.8843
G01 X-22.5696 Y-2.9376
G01 X-22.5575 Y-2.9914
G01 X-22.5481 Y-3.0458
G01 X-22.5413 Y-3.1006
G01 X-22.5373 Y-3.1557
G01 X-22.5359 Y-3.2109
G00 Z2.0000
G00 X-23.3359 Y-3.2109
G01 F70.00
G01 Z-0.0700
G01 F60.00
G01 X-23.3375 Y-3.2428
G01 X-23.3422 Y-3.2743
G01 X-23.3499 Y-3.3052
G01 X-23.3607 Y-3.3353
G01 X-23.3743 Y-3.3641
G01 X-23.3907 Y-3.3914
G01 X-23.4097 Y-3.4171
G01 X-23.4311 Y-3.4407
G01 X-23.4547 Y-3.4621
G01 X-23.4804 Y-3.4811
G01 X-23.5077 Y-3.4975
G01 X-23.5365 Y-3.5111
G01 X-23.5666 Y-3.5219
G01 X-23.5975 Y-3.5296
G01 X-23.6290 Y-3.5343
G01 X-23.6609 Y-3.5359
G01 X-23.6928 Y-3.5343
G01 X-23.7243 Y-3.5296
G01 X-23.7552 Y-3.5219
G01 X-23.7853 Y-3.5111
G01 X-23.8141 Y-3.4975
G01 X-23.8414 Y-3.4811
G01 X-23.8671 Y-3.4621
G01 X-23.8907 Y-3.4407
G01 X-23.9121 Y-3.4171
G01 X-23.9311 Y-3.3914
G01 X-23.9475 Y-3.3641
G01 X-23.9611 Y-3.3353
G01 X-23.9719 Y-3.3052
G01 X-23.9796 Y-3.2743
G01 X-23.9843 Y-3.2428
G01 X-23.9859 Y-3.2109
G01 X-23.9843 Y-3.1790
G01 X-23.9796 Y-3.1475
G01 X-23.9719 Y-3.1166
G01 X-23.9611 Y-3.0865
G01 X-23.9475 Y-3.0577
G01 X-23.9311 Y-3.0304
G01 X-23.9121 Y-3.0047
G01 X-23.8907 Y-2.9811
G01 X-23.8671 Y-2.9597
G01 X-23.8414 Y-2.9407
G01 X-23.8141 Y-2.9243
G01 X-23.7853 Y-2.9107
G01 X-23.7552 Y-2.8999
G01 X-23.7243 Y-2.8922
G01 X-23.6928 Y-2.8875
G01 X-23.6609 Y-2.8859
G01 X-23.6290 Y-2.8875
G01 X-23.5975 Y-2.8922
G01 X-23.5666 Y-2.8999
G01 X-23.5365 Y-2.9107
G01 X-23.5077 Y-2.9243
G01 X-23.4804 Y-2.9407
G01 X-23.4547 Y-2.9597
G01 X-23.4311 Y-2.9811
G01 X-23.4097 Y-3.0047
G01 X-23.3907 Y-3.0304
G01 X-23.3743 Y-3.0577
G01 X-23.3607 Y-3.0865
G01 X-23.3499 Y-3.1166
G01 X-23.3422 Y-3.1475
G01 X-23.3375 Y-3.1790
G01 X-23.3359 Y-3.2109
G00 Z2.0000
G00 X-23.4109 Y-3.2109
G01 F70.00
G01 Z-0.0700
G01 F60.00
G01 X-23.4121 Y-3.2354
G01 X-23.4157 Y-3.2597
G01 X-23.4217 Y-3.2835
G01 X-23.4300 Y-3.3066
G01 X-23.4405 Y-3.3287
G01 X-23.4531 Y-3.3498
G01 X-23.4677 Y-3.3695
G01 X-23.4842 Y-3.3876
G01 X-23.5023 Y-3.4041
G01 X-23.5220 Y-3.4187
G01 X-23.5431 Y-3.4313
G01 X-23.5652 Y-3.4418
G01 X-23.5883 Y-3.4501
G01 X-23.6121 Y-3.4561
G01 X-23.6364 Y-3.4597
G01 X-23.6609 Y-3.4609
G01 X-23.6854 Y-3.4597
G01 X-23.7097 Y-3.4561
G01 X-23.7335 Y-3.4501
G01 X-23.7566 Y-3.4418
G01 X-23.7787 Y-3.4313
G01 X-23.7998 Y-3.4187
G01 X-23.8195 Y-3.4041
G01 X-23.8376 Y-3.3876
G01 X-23.8541 Y-3.3695
G01 X-23.8687 Y-3.3498
G01 X-23.8813 Y-3.3287
G01 X-23.8918 Y-3.3066
G01 X-23.9001 Y-3.2835
G01 X-23.9061 Y-3.2597
G01 X-23.9097 Y-3.2354
G01 X-23.9109 Y-3.2109
G01 X-23.9097 Y-3.1864
G01 X-23.9061 Y-3.1621
G01 X-23.9001 Y-3.1383
G01 X-23.8918 Y-3.1152
G01 X-23.8813 Y-3.0931
G01 X-23.8687 Y-3.0720
G01 X-23.8541 Y-3.0523
G01 X-23.8376 Y-3.0342
G01 X-23.8195 Y-3.0177
G01 X-23.7998 Y-3.0031
G01 X-23.7787 Y-2.9905
G01 X-23.7566 Y-2.9800
G01 X-23.7335 Y-2.9717
G01 X-23.7097 Y-2.9657
G01 X-23.6854 Y-2.9621
G01 X-23.6609 Y-2.9609
G01 X-23.6364 Y-2.9621
G01 X-23.6121 Y-2.9657
G01 X-23.5883 Y-2.9717
G01 X-23.5652 Y-2.9800
G01 X-23.5431 Y-2.9905
G01 X-23.5220 Y-3.0031
G01 X-23.5023 Y-3.0177
G01 X-23.4842 Y-3.0342
G01 X-23.4677 Y-3.0523
G01 X-23.4531 Y-3.0720
G01 X-23.4405 Y-3.0931
G01 X-23.4300 Y-3.1152
G01 X-23.4217 Y-3.1383
G01 X-23.4157 Y-3.1621
G01 X-23.4121 Y-3.1864
G01 X-23.4109 Y-3.2109
G00 Z2.0000
G00 X-23.4860 Y-3.2109
G01 F70.00
G01 Z-0.0700
G01 F60.00
G01 X-23.4868 Y-3.2280
G01 X-23.4893 Y-3.2450
G01 X-23.4935 Y-3.2617
G01 X-23.4993 Y-3.2778
G01 X-23.5066 Y-3.2934
G01 X-23.5154 Y-3.3081
G01 X-23.5257 Y-3.3219
G01 X-23.5372 Y-3.3346
G01 X-23.5499 Y-3.3461
G01 X-23.5637 Y-3.3564
G01 X-23.5784 Y-3.3652
G01 X-23.5940 Y-3.3725
G01 X-23.6101 Y-3.3783
G01 X-23.6268 Y-3.3825
G01 X-23.6438 Y-3.3850
G01 X-23.6609 Y-3.3858
G01 X-23.6780 Y-3.3850
G01 X-23.6950 Y-3.3825
G01 X-23.7117 Y-3.3783
G01 X-23.7278 Y-3.3725
G01 X-23.7434 Y-3.3652
G01 X-23.7581 Y-3.3564
G01 X-23.7719 Y-3.3461
G01 X-23.7846 Y-3.3346
G01 X-23.7961 Y-3.3219
G01 X-23.8064 Y-3.3081
G01 X-23.8152 Y-3.2934
G01 X-23.8225 Y-3.2778
G01 X-23.8283 Y-3.2617
G01 X-23.8325 Y-3.2450
G01 X-23.8350 Y-3.2280
G01 X-23.8358 Y-3.2109
G01 X-23.8350 Y-3.1938
G01 X-23.8325 Y-3.1768
G01 X-23.8283 Y-3.1601
G01 X-23.8225 Y-3.1440
G01 X-23.8152 Y-3.1284
G01 X-23.8064 Y-3.1137
G01 X-23.7961 Y-3.0999
G01 X-23.7846 Y-3.0872
G01 X-23.7719 Y-3.0757
G01 X-23.7581 Y-3.0654
G01 X-23.7434 Y-3.0566
G01 X-23.7278 Y-3.0493
G01 X-23.7117 Y-3.0435
G01 X-23.6950 Y-3.0393
G01 X-23.6780 Y-3.0368
G01 X-23.6609 Y-3.0360
G01 X-23.6438 Y-3.0368
G01 X-23.6268 Y-3.0393
G01 X-23.6101 Y-3.0435
G01 X-23.5940 Y-3.0493
G01 X-23.5784 Y-3.0566
G01 X-23.5637 Y-3.0654
G01 X-23.5499 Y-3.0757
G01 X-23.5372 Y-3.0872
G01 X-23.5257 Y-3.0999
G01 X-23.5154 Y-3.1137
G01 X-23.5066 Y-3.1284
G01 X-23.4993 Y-3.1440
G01 X-23.4935 Y-3.1601
G01 X-23.4893 Y-3.1768
G01 X-23.4868 Y-3.1938
G01 X-23.4860 Y-3.2109
G00 Z2.0000
G00 X-23.5610 Y-3.2109
G01 F70.00
G01 Z-0.0700
G01 F60.00
G01 X-23.5629 Y-3.2304
G01 X-23.5686 Y-3.2491
G01 X-23.5778 Y-3.2664
G01 X-23.5903 Y-3.2815
G01 X-23.6054 Y-3.2940
G01 X-23.6227 Y-3.3032
G01 X-23.6414 Y-3.3089
G01 X-23.6609 Y-3.3108
G01 X-23.6804 Y-3.3089
G01 X-23.6991 Y-3.3032
G01 X-23.7164 Y-3.2940
G01 X-23.7315 Y-3.2815
G01 X-23.7440 Y-3.2664
G01 X-23.7532 Y-3.2491
G01 X-23.7589 Y-3.2304
G01 X-23.7608 Y-3.2109
G01 X-23.7589 Y-3.1914
G01 X-23.7532 Y-3.1727
G01 X-23.7440 Y-3.1554
G01 X-23.7315 Y-3.1403
G01 X-23.7164 Y-3.1278
G01 X-23.6991 Y-3.1186
G01 X-23.6804 Y-3.1129
G01 X-23.6609 Y-3.1110
G01 X-23.6414 Y-3.1129
G01 X-23.6227 Y-3.1186
G01 X-23.6054 Y-3.1278
G01 X-23.5903 Y-3.1403
G01 X-23.5778 Y-3.1554
G01 X-23.5686 Y-3.1727
G01 X-23.5629 Y-3.1914
G01 X-23.5610 Y-3.2109
G00 Z2.0000
G00 X-26.8796 Y-3.5260
G01 F70.00
G01 Z-0.0700
G01 F60.00
G01 X-26.8810 Y-3.5812
G01 X-26.8850 Y-3.6363
G01 X-26.8918 Y-3.6911
G01 X-26.9012 Y-3.7455
G01 X-26.9133 Y-3.7993
G01 X-26.9281 Y-3.8526
G01 X-26.9454 Y-3.9050
G01 X-26.9653 Y-3.9565
G01 X-26.9876 Y-4.0070
G01 X-27.0125 Y-4.0563
G01 X-27.0397 Y-4.1044
G01 X-27.0692 Y-4.1510
G01 X-27.1010 Y-4.1961
G01 X-27.1350 Y-4.2397
G01 X-27.1710 Y-4.2815
G01 X-27.2091 Y-4.3215
G01 X-27.2491 Y-4.3596
G01 X-27.2909 Y-4.3956
G01 X-27.3345 Y-4.4296
G01 X-27.3796 Y-4.4614
G01 X-27.4262 Y-4.4909
G01 X-27.4743 Y-4.5181
G01 X-27.5236 Y-4.5430
G01 X-27.5741 Y-4.5653
G01 X-27.6256 Y-4.5852
G01 X-27.6780 Y-4.6025
G01 X-27.7313 Y-4.6173
G01 X-27.7851 Y-4.6294
G01 X-27.8395 Y-4.6388
G01 X-27.8943 Y-4.6456
G01 X-27.9494 Y-4.6496
G01 X-28.0046 Y-4.6510
G01 X-28.0598 Y-4.6496
G01 X-28.1149 Y-4.6456
G01 X-28.1697 Y-4.6388
G01 X-28.2241 Y-4.6294
G01 X-28.2779 Y-4.6173
G01 X-28.3312 Y-4.6025
G01 X-28.3836 Y-4.5852
G01 X-28.4351 Y-4.5653
G01 X-28.4856 Y-4.5430
G01 X-28.5349 Y-4.5181
G01 X-28.5830 Y-4.4909
G01 X-28.6296 Y-4.4614
G01 X-28.6747 Y-4.4296
G01 X-28.7183 Y-4.3956
G01 X-28.7601 Y-4.3596
G01 X-28.8001 Y-4.3215
G01 X-28.8382 Y-4.2815
G01 X-28.8742 Y-4.2397
G01 X-28.9082 Y-4.1961
G01 X-28.9400 Y-4.1510
G01 X-28.9695 Y-4.1044
G01 X-28.9967 Y-4.0563
G01 X-29.0216 Y-4.0070
G01 X-29.0439 Y-3.9565
G01 X-29.0638 Y-3.9050
G01 X-29.0811 Y-3.8526
G01 X-29.0959 Y-3.7993
G01 X-29.1080 Y-3.7455
G01 X-29.1174 Y-3.6911
G01 X-29.1242 Y-3.6363
G01 X-29.1282 Y-3.5812
G01 X-29.1296 Y-3.5260
G01 X-29.1282 Y-3.4708
G01 X-29.1242 Y-3.4157
G01 X-29.1174 Y-3.3609
G01 X-29.1080 Y-3.3065
G01 X-29.0959 Y-3.2527
G01 X-29.0811 Y-3.1994
G01 X-29.0638 Y-3.1470
G01 X-29.0439 Y-3.0955
G01 X-29.0216 Y-3.0450
G01 X-28.9967 Y-2.9957
G01 X-28.9695 Y-2.9476
G01 X-28.9400 Y-2.9010
G01 X-28.9082 Y-2.8559
G01 X-28.8742 Y-2.8123
G01 X-28.8382 Y-2.7705
G01 X-28.8001 Y-2.7305
G01 X-28.7601 Y-2.6924
G01 X-28.7183 Y-2.6564
G01 X-28.6747 Y-2.6224
G01 X-28.6296 Y-2.5906
G01 X-28.5830 Y-2.5611
G01 X-28.5349 Y-2.5339
G01 X-28.4856 Y-2.5090
G01 X-28.4351 Y-2.4867
G01 X-28.3836 Y-2.4668
G01 X-28.3312 Y-2.4495
G01 X-28.2779 Y-2.4347
G01 X-28.2241 Y-2.4226
G01 X-28.1697 Y-2.4132
G01 X-28.1149 Y-2.4064
G01 X-28.0598 Y-2.4024
G01 X-28.0046 Y-2.4010
G01 X-27.9494 Y-2.4024
G01 X-27.8943 Y-2.4064
G01 X-27.8395 Y-2.4132
G01 X-27.7851 Y-2.4226
G01 X-27.7313 Y-2.4347
G01 X-27.6780 Y-2.4495
G01 X-27.6256 Y-2.4668
G01 X-27.5741 Y-2.4867
G01 X-27.5236 Y-2.5090
G01 X-27.4743 Y-2.5339
G01 X-27.4262 Y-2.5611
G01 X-27.3796 Y-2.5906
G01 X-27.3345 Y-2.6224
G01 X-27.2909 Y-2.6564
G01 X-27.2491 Y-2.6924
G01 X-27.2091 Y-2.7305
G01 X-27.1710 Y-2.7705
G01 X-27.1350 Y-2.8123
G01 X-27.1010 Y-2.8559
G01 X-27.0692 Y-2.9010
G01 X-27.0397 Y-2.9476
G01 X-27.0125 Y-2.9957
G01 X-26.9876 Y-3.0450
G01 X-26.9653 Y-3.0955
G01 X-26.9454 Y-3.1470
G01 X-26.9281 Y-3.1994
G01 X-26.9133 Y-3.2527
G01 X-26.9012 Y-3.3065
G01 X-26.8918 Y-3.3609
G01 X-26.8850 Y-3.4157
G01 X-26.8810 Y-3.4708
G01 X-26.8796 Y-3.5260
G00 Z2.0000
G00 X-27.0296 Y-3.5260
G01 F70.00
G01 Z-0.0700
G01 F60.00
G01 X-27.0308 Y-3.4782
G01 X-27.0343 Y-3.4304
G01 X-27.0402 Y-3.3829
G01 X-27.0483 Y-3.3358
G01 X-27.0588 Y-3.2891
G01 X-27.0716 Y-3.2430
G01 X-27.0866 Y-3.1975
G01 X-27.1038 Y-3.1529
G01 X-27.1232 Y-3.1091
G01 X-27.1447 Y-3.0664
G01 X-27.1683 Y-3.0247
G01 X-27.1939 Y-2.9843
G01 X-27.2215 Y-2.9452
G01 X-27.2509 Y-2.9075
G01 X-27.2822 Y-2.8712
G01 X-27.3152 Y-2.8366
G01 X-27.3498 Y-2.8036
G01 X-27.3861 Y-2.7723
G01 X-27.4238 Y-2.7429
G01 X-27.4629 Y-2.7153
G01 X-27.5033 Y-2.6897
G01 X-27.5450 Y-2.6661
G01 X-27.5877 Y-2.6446
G01 X-27.6315 Y-2.6252
G01 X-27.6761 Y-2.6080
G01 X-27.7216 Y-2.5930
G01 X-27.7677 Y-2.5802
G01 X-27.8144 Y-2.5697
G01 X-27.8615 Y-2.5616
G01 X-27.9090 Y-2.5557
G01 X-27.9568 Y-2.5522
G01 X-28.0046 Y-2.5510
G01 X-28.0524 Y-2.5522
G01 X-28.1002 Y-2.5557
G01 X-28.1477 Y-2.5616
G01 X-28.1948 Y-2.5697
G01 X-28.2415 Y-2.5802
G01 X-28.2876 Y-2.5930
G01 X-28.3331 Y-2.6080
G01 X-28.3777 Y-2.6252
G01 X-28.4215 Y-2.6446
G01 X-28.4642 Y-2.6661
G01 X-28.5059 Y-2.6897
G01 X-28.5463 Y-2.7153
G01 X-28.5854 Y-2.7429
G01 X-28.6231 Y-2.7723
G01 X-28.6594 Y-2.8036
G01 X-28.6940 Y-2.8366
G01 X-28.7270 Y-2.8712
G01 X-28.7583 Y-2.9075
G01 X-28.7877 Y-2.9452
G01 X-28.8153 Y-2.9843
G01 X-28.8409 Y-3.0247
G01 X-28.8645 Y-3.0664
G01 X-28.8860 Y-3.1091
G01 X-28.9054 Y-3.1529
G01 X-28.9226 Y-3.1975
G01 X-28.9376 Y-3.2430
G01 X-28.9504 Y-3.2891
G01 X-28.9609 Y-3.3358
G01 X-28.9690 Y-3.3829
G01 X-28.9749 Y-3.4304
G01 X-28.9784 Y-3.4782
G01 X-28.9796 Y-3.5260
G01 X-28.9784 Y-3.5738
G01 X-28.9749 Y-3.6216
G01 X-28.9690 Y-3.6691
G01 X-28.9609 Y-3.7162
G01 X-28.9504 Y-3.7629
G01 X-28.9376 Y-3.8090
G01 X-28.9226 Y-3.8545
G01 X-28.9054 Y-3.8991
G01 X-28.8860 Y-3.9429
G01 X-28.8645 Y-3.9856
G01 X-28.8409 Y-4.0273
G01 X-28.8153 Y-4.0677
G01 X-28.7877 Y-4.1068
G01 X-28.7583 Y-4.1445
G01 X-28.7270 Y-4.1808
G01 X-28.6940 Y-4.2154
G01 X-28.6594 Y-4.2484
G01 X-28.6231 Y-4.2797
G01 X-28.5854 Y-4.3091
G01 X-28.5463 Y-4.3367
G01 X-28.5059 Y-4.3623
G01 X-28.4642 Y-4.3859
G01 X-28.4215 Y-4.4074
G01 X-28.3777 Y-4.4268
G01 X-28.3331 Y-4.4440
G01 X-28.2876 Y-4.4590
G01 X-28.2415 Y-4.4718
G01 X-28.1948 Y-4.4823
G01 X-28.1477 Y-4.4904
G01 X-28.1002 Y-4.4963
G01 X-28.0524 Y-4.4998
G01 X-28.0046 Y-4.5010
G01 X-27.9568 Y-4.4998
G01 X-27.9090 Y-4.4963
G01 X-27.8615 Y-4.4904
G01 X-27.8144 Y-4.4823
G01 X-27.7677 Y-4.4718
G01 X-27.7216 Y-4.4590
G01 X-27.6761 Y-4.4440
G01 X-27.6315 Y-4.4268
G01 X-27.5877 Y-4.4074
G01 X-27.5450 Y-4.3859
G01 X-27.5033 Y-4.3623
G01 X-27.4629 Y-4.3367
G01 X-27.4238 Y-4.3091
G01 X-27.3861 Y-4.2797
G01 X-27.3498 Y-4.2484
G01 X-27.3152 Y-4.2154
G01 X-27.2822 Y-4.1808
G01 X-27.2509 Y-4.1445
G01 X-27.2215 Y-4.1068
G01 X-27.1939 Y-4.0677
G01 X-27.1683 Y-4.0273
G01 X-27.1447 Y-3.9856
G01 X-27.1232 Y-3.9429
G01 X-27.1038 Y-3.8991
G01 X-27.0866 Y-3.8545
G01 X-27.0716 Y-3.8090
G01 X-27.0588 Y-3.7629
G01 X-27.0483 Y-3.7162
G01 X-27.0402 Y-3.6691
G01 X-27.0343 Y-3.6216
G01 X-27.0308 Y-3.5738
G01 X-27.0296 Y-3.5260
G00 Z2.0000
G00 X-27.6796 Y-3.5260
G01 F70.00
G01 Z-0.0700
G01 F60.00
G01 X-27.6812 Y-3.5579
G01 X-27.6859 Y-3.5894
G01 X-27.6936 Y-3.6203
G01 X-27.7044 Y-3.6504
G01 X-27.7180 Y-3.6792
G01 X-27.7344 Y-3.7065
G01 X-27.7534 Y-3.7322
G01 X-27.7748 Y-3.7558
G01 X-27.7984 Y-3.7772
G01 X-27.8241 Y-3.7962
G01 X-27.8514 Y-3.8126
G01 X-27.8802 Y-3.8262
G01 X-27.9103 Y-3.8370
G01 X-27.9412 Y-3.8447
G01 X-27.9727 Y-3.8494
G01 X-28.0046 Y-3.8510
G01 X-28.0365 Y-3.8494
G01 X-28.0680 Y-3.8447
G01 X-28.0989 Y-3.8370
G01 X-28.1290 Y-3.8262
G01 X-28.1578 Y-3.8126
G01 X-28.1851 Y-3.7962
G01 X-28.2108 Y-3.7772
G01 X-28.2344 Y-3.7558
G01 X-28.2558 Y-3.7322
G01 X-28.2748 Y-3.7065
G01 X-28.2912 Y-3.6792
G01 X-28.3048 Y-3.6504
G01 X-28.3156 Y-3.6203
G01 X-28.3233 Y-3.5894
G01 X-28.3280 Y-3.5579
G01 X-28.3296 Y-3.5260
G01 X-28.3280 Y-3.4941
G01 X-28.3233 Y-3.4626
G01 X-28.3156 Y-3.4317
G01 X-28.3048 Y-3.4016
G01 X-28.2912 Y-3.3728
G01 X-28.2748 Y-3.3455
G01 X-28.2558 Y-3.3198
G01 X-28.2344 Y-3.2962
G01 X-28.2108 Y-3.2748
G01 X-28.1851 Y-3.2558
G01 X-28.1578 Y-3.2394
G01 X-28.1290 Y-3.2258
G01 X-28.0989 Y-3.2150
G01 X-28.0680 Y-3.2073
G01 X-28.0365 Y-3.2026
G01 X-28.0046 Y-3.2010
G01 X-27.9727 Y-3.2026
G01 X-27.9412 Y-3.2073
G01 X-27.9103 Y-3.2150
G01 X-27.8802 Y-3.2258
G01 X-27.8514 Y-3.2394
G01 X-27.8241 Y-3.2558
G01 X-27.7984 Y-3.2748
G01 X-27.7748 Y-3.2962
G01 X-27.7534 Y-3.3198
G01 X-27.7344 Y-3.3455
G01 X-27.7180 Y-3.3728
G01 X-27.7044 Y-3.4016
G01 X-27.6936 Y-3.4317
G01 X-27.6859 Y-3.4626
G01 X-27.6812 Y-3.4941
G01 X-27.6796 Y-3.5260
G00 Z2.0000
G00 X-27.7546 Y-3.5260
G01 F70.00
G01 Z-0.0700
G01 F60.00
G01 X-27.7558 Y-3.5505
G01 X-27.7594 Y-3.5748
G01 X-27.7654 Y-3.5986
G01 X-27.7737 Y-3.6217
G01 X-27.7842 Y-3.6438
G01 X-27.7968 Y-3.6649
G01 X-27.8114 Y-3.6846
G01 X-27.8279 Y-3.7027
G01 X-27.8460 Y-3.7192
G01 X-27.8657 Y-3.7338
G01 X-27.8868 Y-3.7464
G01 X-27.9089 Y-3.7569
G01 X-27.9320 Y-3.7652
G01 X-27.9558 Y-3.7712
G01 X-27.9801 Y-3.7748
G01 X-28.0046 Y-3.7760
G01 X-28.0291 Y-3.7748
G01 X-28.0534 Y-3.7712
G01 X-28.0772 Y-3.7652
G01 X-28.1003 Y-3.7569
G01 X-28.1224 Y-3.7464
G01 X-28.1435 Y-3.7338
G01 X-28.1632 Y-3.7192
G01 X-28.1813 Y-3.7027
G01 X-28.1978 Y-3.6846
G01 X-28.2124 Y-3.6649
G01 X-28.2250 Y-3.6438
G01 X-28.2355 Y-3.6217
G01 X-28.2438 Y-3.5986
G01 X-28.2498 Y-3.5748
G01 X-28.2534 Y-3.5505
G01 X-28.2546 Y-3.5260
G01 X-28.2534 Y-3.5015
G01 X-28.2498 Y-3.4772
G01 X-28.2438 Y-3.4534
G01 X-28.2355 Y-3.4303
G01 X-28.2250 Y-3.4082
G01 X-28.2124 Y-3.3871
G01 X-28.1978 Y-3.3674
G01 X-28.1813 Y-3.3493
G01 X-28.1632 Y-3.3328
G01 X-28.1435 Y-3.3182
G01 X-28.1224 Y-3.3056
G01 X-28.1003 Y-3.2951
G01 X-28.0772 Y-3.2868
G01 X-28.0534 Y-3.2808
G01 X-28.0291 Y-3.2772
G01 X-28.0046 Y-3.2760
G01 X-27.9801 Y-3.2772
G01 X-27.9558 Y-3.2808
G01 X-27.9320 Y-3.2868
G01 X-27.9089 Y-3.2951
G01 X-27.8868 Y-3.3056
G01 X-27.8657 Y-3.3182
G01 X-27.8460 Y-3.3328
G01 X-27.8279 Y-3.3493
G01 X-27.8114 Y-3.3674
G01 X-27.7968 Y-3.3871
G01 X-27.7842 Y-3.4082
G01 X-27.7737 Y-3.4303
G01 X-27.7654 Y-3.4534
G01 X-27.7594 Y-3.4772
G01 X-27.7558 Y-3.5015
G01 X-27.7546 Y-3.5260
G00 Z2.0000
G00 X-27.8297 Y-3.5260
G01 F70.00
G01 Z-0.0700
G01 F60.00
G01 X-27.8305 Y-3.5431
G01 X-27.8330 Y-3.5601
G01 X-27.8372 Y-3.5768
G01 X-27.8430 Y-3.5929
G01 X-27.8503 Y-3.6085
G01 X-27.8591 Y-3.6232
G01 X-27.8694 Y-3.6370
G01 X-27.8809 Y-3.6497
G01 X-27.8936 Y-3.6612
G01 X-27.9074 Y-3.6715
G01 X-27.9221 Y-3.6803
G01 X-27.9377 Y-3.6876
G01 X-27.9538 Y-3.6934
G01 X-27.9705 Y-3.6976
G01 X-27.9875 Y-3.7001
G01 X-28.0046 Y-3.7009
G01 X-28.0217 Y-3.7001
G01 X-28.0387 Y-3.6976
G01 X-28.0554 Y-3.6934
G01 X-28.0715 Y-3.6876
G01 X-28.0871 Y-3.6803
G01 X-28.1018 Y-3.6715
G01 X-28.1156 Y-3.6612
G01 X-28.1283 Y-3.6497
G01 X-28.1398 Y-3.6370
G01 X-28.1501 Y-3.6232
G01 X-28.1589 Y-3.6085
G01 X-28.1662 Y-3.5929
G01 X-28.1720 Y-3.5768
G01 X-28.1762 Y-3.5601
G01 X-28.1787 Y-3.5431
G01 X-28.1795 Y-3.5260
G01 X-28.1787 Y-3.5089
G01 X-28.1762 Y-3.4919
G01 X-28.1720 Y-3.4752
G01 X-28.1662 Y-3.4591
G01 X-28.1589 Y-3.4435
G01 X-28.1501 Y-3.4288
G01 X-28.1398 Y-3.4150
G01 X-28.1283 Y-3.4023
G01 X-28.1156 Y-3.3908
G01 X-28.1018 Y-3.3805
G01 X-28.0871 Y-3.3717
G01 X-28.0715 Y-3.3644
G01 X-28.0554 Y-3.3586
G01 X-28.0387 Y-3.3544
G01 X-28.0217 Y-3.3519
G01 X-28.0046 Y-3.3511
G01 X-27.9875 Y-3.3519
G01 X-27.9705 Y-3.3544
G01 X-27.9538 Y-3.3586
G01 X-27.9377 Y-3.3644
G01 X-27.9221 Y-3.3717
G01 X-27.9074 Y-3.3805
G01 X-27.8936 Y-3.3908
G01 X-27.8809 Y-3.4023
G01 X-27.8694 Y-3.4150
G01 X-27.8591 Y-3.4288
G01 X-27.8503 Y-3.4435
G01 X-27.8430 Y-3.4591
G01 X-27.8372 Y-3.4752
G01 X-27.8330 Y-3.4919
G01 X-27.8305 Y-3.5089
G01 X-27.8297 Y-3.5260
G00 Z2.0000
G00 X-27.9047 Y-3.5260
G01 F70.00
G01 Z-0.0700
G01 F60.00
G01 X-27.9066 Y-3.5455
G01 X-27.9123 Y-3.5642
G01 X-27.9215 Y-3.5815
G01 X-27.9340 Y-3.5966
G01 X-27.9491 Y-3.6091
G01 X-27.9664 Y-3.6183
G01 X-27.9851 Y-3.6240
G01 X-28.0046 Y-3.6259
G01 X-28.0241 Y-3.6240
G01 X-28.0428 Y-3.6183
G01 X-28.0601 Y-3.6091
G01 X-28.0752 Y-3.5966
G01 X-28.0877 Y-3.5815
G01 X-28.0969 Y-3.5642
G01 X-28.1026 Y-3.5455
G01 X-28.1045 Y-3.5260
G01 X-28.1026 Y-3.5065
G01 X-28.0969 Y-3.4878
G01 X-28.0877 Y-3.4705
G01 X-28.0752 Y-3.4554
G01 X-28.0601 Y-3.4429
G01 X-28.0428 Y-3.4337
G01 X-28.0241 Y-3.4280
G01 X-28.0046 Y-3.4261
G01 X-27.9851 Y-3.4280
G01 X-27.9664 Y-3.4337
G01 X-27.9491 Y-3.4429
G01 X-27.9340 Y-3.4554
G01 X-27.9215 Y-3.4705
G01 X-27.9123 Y-3.4878
G01 X-27.9066 Y-3.5065
G01 X-27.9047 Y-3.5260
G00 Z2.0000
G00 X-29.4196 Y-3.5260
G01 F70.00
G01 Z-0.0700
G01 F60.00
G01 X-29.4210 Y-3.5812
G01 X-29.4250 Y-3.6363
G01 X-29.4318 Y-3.6911
G01 X-29.4412 Y-3.7455
G01 X-29.4533 Y-3.7993
G01 X-29.4681 Y-3.8526
G01 X-29.4854 Y-3.9050
G01 X-29.5053 Y-3.9565
G01 X-29.5276 Y-4.0070
G01 X-29.5525 Y-4.0563
G01 X-29.5797 Y-4.1044
G01 X-29.6092 Y-4.1510
G01 X-29.6410 Y-4.1961
G01 X-29.6750 Y-4.2397
G01 X-29.7110 Y-4.2815
G01 X-29.7491 Y-4.3215
G01 X-29.7891 Y-4.3596
G01 X-29.8309 Y-4.3956
G01 X-29.8745 Y-4.4296
G01 X-29.9196 Y-4.4614
G01 X-29.9662 Y-4.4909
G01 X-30.0143 Y-4.5181
G01 X-30.0636 Y-4.5430
G01 X-30.1141 Y-4.5653
G01 X-30.1656 Y-4.5852
G01 X-30.2180 Y-4.6025
G01 X-30.2713 Y-4.6173
G01 X-30.3251 Y-4.6294
G01 X-30.3795 Y-4.6388
G01 X-30.4343 Y-4.6456
G01 X-30.4894 Y-4.6496
G01 X-30.5446 Y-4.6510
G01 X-30.5998 Y-4.6496
G01 X-30.6549 Y-4.6456
G01 X-30.7097 Y-4.6388
G01 X-30.7641 Y-4.6294
G01 X-30.8179 Y-4.6173
G01 X-30.8712 Y-4.6025
G01 X-30.9236 Y-4.5852
G01 X-30.9751 Y-4.5653
G01 X-31.0256 Y-4.5430
G01 X-31.0749 Y-4.5181
G01 X-31.1230 Y-4.4909
G01 X-31.1696 Y-4.4614
G01 X-31.2147 Y-4.4296
G01 X-31.2583 Y-4.3956
G01 X-31.3001 Y-4.3596
G01 X-31.3401 Y-4.3215
G01 X-31.3782 Y-4.2815
G01 X-31.4142 Y-4.2397
G01 X-31.4482 Y-4.1961
G01 X-31.4800 Y-4.1510
G01 X-31.5095 Y-4.1044
G01 X-31.5367 Y-4.0563
G01 X-31.5616 Y-4.0070
G01 X-31.5839 Y-3.9565
G01 X-31.6038 Y-3.9050
G01 X-31.6211 Y-3.8526
G01 X-31.6359 Y-3.7993
G01 X-31.6480 Y-3.7455
G01 X-31.6574 Y-3.6911
G01 X-31.6642 Y-3.6363
G01 X-31.6682 Y-3.5812
G01 X-31.6696 Y-3.5260
G01 X-31.6682 Y-3.4708
G01 X-31.6642 Y-3.4157
G01 X-31.6574 Y-3.3609
G01 X-31.6480 Y-3.3065
G01 X-31.6359 Y-3.2527
G01 X-31.6211 Y-3.1994
G01 X-31.6038 Y-3.1470
G01 X-31.5839 Y-3.0955
G01 X-31.5616 Y-3.0450
G01 X-31.5367 Y-2.9957
G01 X-31.5095 Y-2.9476
G01 X-31.4800 Y-2.9010
G01 X-31.4482 Y-2.8559
G01 X-31.4142 Y-2.8123
G01 X-31.3782 Y-2.7705
G01 X-31.3401 Y-2.7305
G01 X-31.3001 Y-2.6924
G01 X-31.2583 Y-2.6564
G01 X-31.2147 Y-2.6224
G01 X-31.1696 Y-2.5906
G01 X-31.1230 Y-2.5611
G01 X-31.0749 Y-2.5339
G01 X-31.0256 Y-2.5090
G01 X-30.9751 Y-2.4867
G01 X-30.9236 Y-2.4668
G01 X-30.8712 Y-2.4495
G01 X-30.8179 Y-2.4347
G01 X-30.7641 Y-2.4226
G01 X-30.7097 Y-2.4132
G01 X-30.6549 Y-2.4064
G01 X-30.5998 Y-2.4024
G01 X-30.5446 Y-2.4010
G01 X-30.4894 Y-2.4024
G01 X-30.4343 Y-2.4064
G01 X-30.3795 Y-2.4132
G01 X-30.3251 Y-2.4226
G01 X-30.2713 Y-2.4347
G01 X-30.2180 Y-2.4495
G01 X-30.1656 Y-2.4668
G01 X-30.1141 Y-2.4867
G01 X-30.0636 Y-2.5090
G01 X-30.0143 Y-2.5339
G01 X-29.9662 Y-2.5611
G01 X-29.9196 Y-2.5906
G01 X-29.8745 Y-2.6224
G01 X-29.8309 Y-2.6564
G01 X-29.7891 Y-2.6924
G01 X-29.7491 Y-2.7305
G01 X-29.7110 Y-2.7705
G01 X-29.6750 Y-2.8123
G01 X-29.6410 Y-2.8559
G01 X-29.6092 Y-2.9010
G01 X-29.5797 Y-2.9476
G01 X-29.5525 Y-2.9957
G01 X-29.5276 Y-3.0450
G01 X-29.5053 Y-3.0955
G01 X-29.4854 Y-3.1470
G01 X-29.4681 Y-3.1994
G01 X-29.4533 Y-3.2527
G01 X-29.4412 Y-3.3065
G01 X-29.4318 Y-3.3609
G01 X-29.4250 Y-3.4157
G01 X-29.4210 Y-3.4708
G01 X-29.4196 Y-3.5260
G00 Z2.0000
G00 X-29.5696 Y-3.5260
G01 F70.00
G01 Z-0.0700
G01 F60.00
G01 X-29.5708 Y-3.4782
G01 X-29.5743 Y-3.4304
G01 X-29.5802 Y-3.3829
G01 X-29.5883 Y-3.3358
G01 X-29.5988 Y-3.2891
G01 X-29.6116 Y-3.2430
G01 X-29.6266 Y-3.1975
G01 X-29.6438 Y-3.1529
G01 X-29.6632 Y-3.1091
G01 X-29.6847 Y-3.0664
G01 X-29.7083 Y-3.0247
G01 X-29.7339 Y-2.9843
G01 X-29.7615 Y-2.9452
G01 X-29.7909 Y-2.9075
G01 X-29.8222 Y-2.8712
G01 X-29.8552 Y-2.8366
G01 X-29.8898 Y-2.8036
G01 X-29.9261 Y-2.7723
G01 X-29.9638 Y-2.7429
G01 X-30.0029 Y-2.7153
G01 X-30.0433 Y-2.6897
G01 X-30.0850 Y-2.6661
G01 X-30.1277 Y-2.6446
G01 X-30.1715 Y-2.6252
G01 X-30.2161 Y-2.6080
G01 X-30.2616 Y-2.5930
G01 X-30.3077 Y-2.5802
G01 X-30.3544 Y-2.5697
G01 X-30.4015 Y-2.5616
G01 X-30.4490 Y-2.5557
G01 X-30.4968 Y-2.5522
G01 X-30.5446 Y-2.5510
G01 X-30.5924 Y-2.5522
G01 X-30.6402 Y-2.5557
G01 X-30.6877 Y-2.5616
G01 X-30.7348 Y-2.5697
G01 X-30.7815 Y-2.5802
G01 X-30.8276 Y-2.5930
G01 X-30.8731 Y-2.6080
G01 X-30.9177 Y-2.6252
G01 X-30.9615 Y-2.6446
G01 X-31.0042 Y-2.6661
G01 X-31.0459 Y-2.6897
G01 X-31.0863 Y-2.7153
G01 X-31.1254 Y-2.7429
G01 X-31.1631 Y-2.7723
G01 X-31.1994 Y-2.8036
G01 X-31.2340 Y-2.8366
G01 X-31.2670 Y-2.8712
G01 X-31.2983 Y-2.9075
G01 X-31.3277 Y-2.9452
G01 X-31.3553 Y-2.9843
G01 X-31.3809 Y-3.0247
G01 X-31.4045 Y-3.0664
G01 X-31.4260 Y-3.1091
G01 X-31.4454 Y-3.1529
G01 X-31.4626 Y-3.1975
G01 X-31.4776 Y-3.2430
G01 X-31.4904 Y-3.2891
G01 X-31.5009 Y-3.3358
G01 X-31.5090 Y-3.3829
G01 X-31.5149 Y-3.4304
G01 X-31.5184 Y-3.4782
G01 X-31.5196 Y-3.5260
G01 X-31.5184 Y-3.5738
G01 X-31.5149 Y-3.6216
G01 X-31.5090 Y-3.6691
G01 X-31.5009 Y-3.7162
G01 X-31.4904 Y-3.7629
G01 X-31.4776 Y-3.8090
G01 X-31.4626 Y-3.8545
G01 X-31.4454 Y-3.8991
G01 X-31.4260 Y-3.9429
G01 X-31.4045 Y-3.9856
G01 X-31.3809 Y-4.0273
G01 X-31.3553 Y-4.0677
G01 X-31.3277 Y-4.1068
G01 X-31.2983 Y-4.1445
G01 X-31.2670 Y-4.1808
G01 X-31.2340 Y-4.2154
G01 X-31.1994 Y-4.2484
G01 X-31.1631 Y-4.2797
G01 X-31.1254 Y-4.3091
G01 X-31.0863 Y-4.3367
