(G-CODE GENERATED BY FLATCAM v8.993 - www.flatcam.org - Version Date: 2020/06/05)

(Name: Syntez2_контур.gbr_cutout_cnc)
(Type: G-code from Geometry)
(Units: MM)

(Created on Friday, 02 October 2020 at 08:15)

(This preprocessor is the default preprocessor used by FlatCAM.)
(It is made to work with MACH3 compatible motion controllers.)

(TOOL DIAMETER: 0.8 mm)
(Feedrate_XY: 60.0 mm/min)
(Feedrate_Z: 70.0 mm/min)
(Feedrate rapids 1500.0 mm/min)

(Z_Cut: -1.5999999999999999 mm)
(DepthPerCut: 0.1 mm <=>16 passes)
(Z_Move: 2.0 mm)
(Z Start: None mm)
(Z End: 25.0 mm)
(Steps per circle: 128)
(Preprocessor Geometry: default)

(X range:   -0.4414 ...   98.7074  mm)
(Y range:  -33.6001 ...    0.6397  mm)

(Spindle Speed: None RPM)
G21
G90
G94



G01 F60.00
G00 Z2.0000

M03
G00 X-0.0008 Y-14.1913
G01 F70.00
G01 Z-0.1000
G01 F60.00
G01 X-0.0273 Y-14.1833
G01 X-0.0551 Y-14.1735
G01 X-0.0868 Y-14.1603
G01 X-0.1090 Y-14.1499
G01 X-0.1350 Y-14.1361
G01 X-0.1645 Y-14.1184
G01 X-0.1849 Y-14.1048
G01 X-0.2086 Y-14.0873
G01 X-0.2352 Y-14.0655
G01 X-0.2569 Y-14.0457
G01 X-0.2777 Y-14.0248
G01 X-0.2941 Y-14.0066
G01 X-0.3129 Y-13.9839
G01 X-0.3334 Y-13.9563
G01 X-0.3496 Y-13.9317
G01 X-0.3647 Y-13.9064
G01 X-0.3785 Y-13.8804
G01 X-0.3889 Y-13.8582
G01 X-0.4021 Y-13.8265
G01 X-0.4119 Y-13.7987
G01 X-0.4203 Y-13.7705
G01 X-0.4274 Y-13.7419
G01 X-0.4322 Y-13.7178
G01 X-0.4372 Y-13.6838
G01 X-0.4400 Y-13.6545
G01 X-0.4412 Y-13.6300
G01 X-0.4414 Y-0.1190
G01 X-0.4396 Y-0.0725
G01 X-0.4366 Y-0.0432
G01 X-0.4322 Y-0.0141
G01 X-0.4263 Y0.0147
G01 X-0.4191 Y0.0432
G01 X-0.4104 Y0.0714
G01 X-0.4022 Y0.0944
G01 X-0.3891 Y0.1262
G01 X-0.3764 Y0.1527
G01 X-0.3624 Y0.1786
G01 X-0.3472 Y0.2038
G01 X-0.3308 Y0.2282
G01 X-0.3132 Y0.2518
G01 X-0.2944 Y0.2744
G01 X-0.2780 Y0.2926
G01 X-0.2573 Y0.3135
G01 X-0.2356 Y0.3334
G01 X-0.2129 Y0.3522
G01 X-0.1894 Y0.3698
G01 X-0.1650 Y0.3863
G01 X-0.1356 Y0.4040
G01 X-0.1096 Y0.4177
G01 X-0.0830 Y0.4303
G01 X-0.0558 Y0.4414
G01 X-0.0280 Y0.4513
G01 X-0.0046 Y0.4584
G01 X0.0239 Y0.4657
G01 X0.0528 Y0.4716
G01 X0.0818 Y0.4761
G01 X0.1160 Y0.4795
G01 X0.1576 Y0.4810
G01 X98.1064 Y0.6397
G01 X98.1531 Y0.6380
G01 X98.1824 Y0.6350
G01 X98.2115 Y0.6306
G01 X98.2404 Y0.6248
G01 X98.2690 Y0.6175
G01 X98.2972 Y0.6089
G01 X98.3204 Y0.6007
G01 X98.3521 Y0.5875
G01 X98.3788 Y0.5749
G01 X98.4047 Y0.5609
G01 X98.4300 Y0.5456
G01 X98.4544 Y0.5292
G01 X98.4780 Y0.5116
G01 X98.5008 Y0.4928
G01 X98.5190 Y0.4763
G01 X98.5399 Y0.4556
G01 X98.5598 Y0.4338
G01 X98.5787 Y0.4111
G01 X98.5992 Y0.3835
G01 X98.6155 Y0.3589
G01 X98.6305 Y0.3336
G01 X98.6443 Y0.3075
G01 X98.6568 Y0.2808
G01 X98.6680 Y0.2536
G01 X98.6763 Y0.2304
G01 X98.6850 Y0.2023
G01 X98.6923 Y0.1737
G01 X98.6981 Y0.1448
G01 X98.7026 Y0.1157
G01 X98.7060 Y0.0814
G01 X98.7074 Y0.0397
G01 X98.7073 Y-13.6251
G01 X98.7060 Y-13.6545
G01 X98.7026 Y-13.6887
G01 X98.6982 Y-13.7178
G01 X98.6934 Y-13.7419
G01 X98.6850 Y-13.7752
G01 X98.6779 Y-13.7987
G01 X98.6681 Y-13.8265
G01 X98.6549 Y-13.8582
G01 X98.6422 Y-13.8848
G01 X98.6283 Y-13.9107
G01 X98.6156 Y-13.9317
G01 X98.5966 Y-13.9603
G01 X98.5789 Y-13.9839
G01 X98.5633 Y-14.0029
G01 X98.5437 Y-14.0248
G01 X98.5194 Y-14.0491
G01 X98.4975 Y-14.0687
G01 X98.4785 Y-14.0843
G01 X98.4549 Y-14.1020
G01 X98.4263 Y-14.1210
G01 X98.4053 Y-14.1337
G01 X98.3794 Y-14.1476
G01 X98.3528 Y-14.1603
G01 X98.3211 Y-14.1735
G01 X98.2933 Y-14.1833
G01 X98.2651 Y-14.1917
G01 X98.2413 Y-14.1977
G01 X98.2076 Y-14.2044
G01 X98.1784 Y-14.2086
G01 X98.1491 Y-14.2114
G01 X98.1074 Y-14.2128
G01 X72.7714 Y-14.2128
G01 X72.7479 Y-14.2174
G01 X72.7236 Y-14.2210
G01 X72.6894 Y-14.2244
G01 X72.6620 Y-14.2257
G01 X72.2718 Y-14.2350
G01 X71.8968 Y-14.2618
G01 X71.5234 Y-14.3064
G01 X71.1527 Y-14.3688
G01 X70.7853 Y-14.4487
G01 X70.4221 Y-14.5460
G01 X70.0639 Y-14.6605
G01 X69.7116 Y-14.7919
G01 X69.3660 Y-14.9399
G01 X69.0278 Y-15.1042
G01 X68.6978 Y-15.2844
G01 X68.3768 Y-15.4801
G01 X68.0654 Y-15.6908
G01 X67.7644 Y-15.9162
G01 X67.4744 Y-16.1555
G01 X67.1962 Y-16.4085
G01 X66.9304 Y-16.6743
G01 X66.6774 Y-16.9525
G01 X66.4381 Y-17.2425
G01 X66.2127 Y-17.5435
G01 X66.0020 Y-17.8549
G01 X65.8063 Y-18.1759
G01 X65.6261 Y-18.5059
G01 X65.4618 Y-18.8441
G01 X65.3138 Y-19.1897
G01 X65.1824 Y-19.5420
G01 X65.0679 Y-19.9002
G01 X64.9706 Y-20.2634
G01 X64.8907 Y-20.6308
G01 X64.8283 Y-21.0015
G01 X64.7837 Y-21.3749
G01 X64.7569 Y-21.7499
G01 X64.7498 Y-22.0488
G01 X64.7533 Y-22.0840
G01 X64.7547 Y-22.1257
G01 X64.7547 Y-33.0001
G01 X64.7533 Y-33.0418
G01 X64.7505 Y-33.0711
G01 X64.7463 Y-33.1003
G01 X64.7396 Y-33.1340
G01 X64.7323 Y-33.1625
G01 X64.7252 Y-33.1860
G01 X64.7154 Y-33.2138
G01 X64.7042 Y-33.2410
G01 X64.6895 Y-33.2721
G01 X64.6756 Y-33.2980
G01 X64.6603 Y-33.3232
G01 X64.6439 Y-33.3476
G01 X64.6262 Y-33.3712
G01 X64.6074 Y-33.3939
G01 X64.5910 Y-33.4121
G01 X64.5702 Y-33.4330
G01 X64.5485 Y-33.4528
G01 X64.5219 Y-33.4746
G01 X64.4982 Y-33.4921
G01 X64.4736 Y-33.5083
G01 X64.4526 Y-33.5210
G01 X64.4267 Y-33.5349
G01 X64.3956 Y-33.5496
G01 X64.3684 Y-33.5608
G01 X64.3406 Y-33.5706
G01 X64.3124 Y-33.5790
G01 X64.2886 Y-33.5850
G01 X64.2597 Y-33.5909
G01 X64.2306 Y-33.5953
G01 X64.1964 Y-33.5987
G01 X64.1547 Y-33.6001
G01 X29.1373 Y-33.6001
G01 X29.0956 Y-33.5987
G01 X29.0614 Y-33.5953
G01 X29.0323 Y-33.5909
G01 X29.0082 Y-33.5861
G01 X28.9749 Y-33.5777
G01 X28.9468 Y-33.5691
G01 X28.9191 Y-33.5590
G01 X28.8919 Y-33.5476
G01 X28.8697 Y-33.5372
G01 X28.8394 Y-33.5210
G01 X28.8184 Y-33.5083
G01 X28.7938 Y-33.4921
G01 X28.7701 Y-33.4746
G01 X28.7472 Y-33.4560
G01 X28.7218 Y-33.4330
G01 X28.7010 Y-33.4121
G01 X28.6846 Y-33.3939
G01 X28.6628 Y-33.3673
G01 X28.6453 Y-33.3436
G01 X28.6317 Y-33.3232
G01 X28.6164 Y-33.2980
G01 X28.6025 Y-33.2721
G01 X28.5878 Y-33.2410
G01 X28.5766 Y-33.2138
G01 X28.5683 Y-33.1906
G01 X28.5584 Y-33.1578
G01 X28.5524 Y-33.1340
G01 X28.5465 Y-33.1051
G01 X28.5415 Y-33.0711
G01 X28.5391 Y-33.0467
G01 X28.5375 Y-33.0173
G01 X28.5373 Y-22.1257
G01 X28.5465 Y-21.7262
G01 X28.5188 Y-21.3515
G01 X28.4714 Y-20.9667
G01 X28.4051 Y-20.5846
G01 X28.3201 Y-20.2063
G01 X28.2167 Y-19.8326
G01 X28.0951 Y-19.4644
G01 X27.9555 Y-19.1027
G01 X27.7984 Y-18.7482
G01 X27.6241 Y-18.4019
G01 X27.4330 Y-18.0645
G01 X27.2255 Y-17.7369
G01 X27.0023 Y-17.4199
G01 X26.7637 Y-17.1142
G01 X26.5104 Y-16.8206
G01 X26.2431 Y-16.5398
G01 X25.9623 Y-16.2725
G01 X25.6687 Y-16.0192
G01 X25.3630 Y-15.7806
G01 X25.0460 Y-15.5574
G01 X24.7184 Y-15.3499
G01 X24.3810 Y-15.1588
G01 X24.0347 Y-14.9845
G01 X23.6802 Y-14.8274
G01 X23.3185 Y-14.6878
G01 X22.9503 Y-14.5662
G01 X22.5766 Y-14.4628
G01 X22.1983 Y-14.3778
G01 X21.8162 Y-14.3115
G01 X21.4314 Y-14.2641
G01 X21.0447 Y-14.2355
G01 X20.7267 Y-14.2277
G01 X20.6924 Y-14.2311
G01 X20.6503 Y-14.2326
G01 X0.2181 Y-14.2326
G01 X0.1715 Y-14.2308
G01 X0.1422 Y-14.2278
G01 X0.1131 Y-14.2234
G01 X0.0842 Y-14.2175
G01 X0.0557 Y-14.2102
G01 X0.0276 Y-14.2016
G01 X-0.0008 Y-14.1913
G00 X-0.0008 Y-14.1913
G01 F70.00
G01 Z-0.2000
G01 F60.00
G01 X-0.0273 Y-14.1833
G01 X-0.0551 Y-14.1735
G01 X-0.0868 Y-14.1603
G01 X-0.1090 Y-14.1499
G01 X-0.1350 Y-14.1361
G01 X-0.1645 Y-14.1184
G01 X-0.1849 Y-14.1048
G01 X-0.2086 Y-14.0873
G01 X-0.2352 Y-14.0655
G01 X-0.2569 Y-14.0457
G01 X-0.2777 Y-14.0248
G01 X-0.2941 Y-14.0066
G01 X-0.3129 Y-13.9839
G01 X-0.3334 Y-13.9563
G01 X-0.3496 Y-13.9317
G01 X-0.3647 Y-13.9064
G01 X-0.3785 Y-13.8804
G01 X-0.3889 Y-13.8582
G01 X-0.4021 Y-13.8265
G01 X-0.4119 Y-13.7987
G01 X-0.4203 Y-13.7705
G01 X-0.4274 Y-13.7419
G01 X-0.4322 Y-13.7178
G01 X-0.4372 Y-13.6838
G01 X-0.4400 Y-13.6545
G01 X-0.4412 Y-13.6300
G01 X-0.4414 Y-0.1190
G01 X-0.4396 Y-0.0725
G01 X-0.4366 Y-0.0432
G01 X-0.4322 Y-0.0141
G01 X-0.4263 Y0.0147
G01 X-0.4191 Y0.0432
G01 X-0.4104 Y0.0714
G01 X-0.4022 Y0.0944
G01 X-0.3891 Y0.1262
G01 X-0.3764 Y0.1527
G01 X-0.3624 Y0.1786
G01 X-0.3472 Y0.2038
G01 X-0.3308 Y0.2282
G01 X-0.3132 Y0.2518
G01 X-0.2944 Y0.2744
G01 X-0.2780 Y0.2926
G01 X-0.2573 Y0.3135
G01 X-0.2356 Y0.3334
G01 X-0.2129 Y0.3522
G01 X-0.1894 Y0.3698
G01 X-0.1650 Y0.3863
G01 X-0.1356 Y0.4040
G01 X-0.1096 Y0.4177
G01 X-0.0830 Y0.4303
G01 X-0.0558 Y0.4414
G01 X-0.0280 Y0.4513
G01 X-0.0046 Y0.4584
G01 X0.0239 Y0.4657
G01 X0.0528 Y0.4716
G01 X0.0818 Y0.4761
G01 X0.1160 Y0.4795
G01 X0.1576 Y0.4810
G01 X98.1064 Y0.6397
G01 X98.1531 Y0.6380
G01 X98.1824 Y0.6350
G01 X98.2115 Y0.6306
G01 X98.2404 Y0.6248
G01 X98.2690 Y0.6175
G01 X98.2972 Y0.6089
G01 X98.3204 Y0.6007
G01 X98.3521 Y0.5875
G01 X98.3788 Y0.5749
G01 X98.4047 Y0.5609
G01 X98.4300 Y0.5456
G01 X98.4544 Y0.5292
G01 X98.4780 Y0.5116
G01 X98.5008 Y0.4928
G01 X98.5190 Y0.4763
G01 X98.5399 Y0.4556
G01 X98.5598 Y0.4338
G01 X98.5787 Y0.4111
G01 X98.5992 Y0.3835
G01 X98.6155 Y0.3589
G01 X98.6305 Y0.3336
G01 X98.6443 Y0.3075
G01 X98.6568 Y0.2808
G01 X98.6680 Y0.2536
G01 X98.6763 Y0.2304
G01 X98.6850 Y0.2023
G01 X98.6923 Y0.1737
G01 X98.6981 Y0.1448
G01 X98.7026 Y0.1157
G01 X98.7060 Y0.0814
G01 X98.7074 Y0.0397
G01 X98.7073 Y-13.6251
G01 X98.7060 Y-13.6545
G01 X98.7026 Y-13.6887
G01 X98.6982 Y-13.7178
G01 X98.6934 Y-13.7419
G01 X98.6850 Y-13.7752
G01 X98.6779 Y-13.7987
G01 X98.6681 Y-13.8265
G01 X98.6549 Y-13.8582
G01 X98.6422 Y-13.8848
G01 X98.6283 Y-13.9107
G01 X98.6156 Y-13.9317
G01 X98.5966 Y-13.9603
G01 X98.5789 Y-13.9839
G01 X98.5633 Y-14.0029
G01 X98.5437 Y-14.0248
G01 X98.5194 Y-14.0491
G01 X98.4975 Y-14.0687
G01 X98.4785 Y-14.0843
G01 X98.4549 Y-14.1020
G01 X98.4263 Y-14.1210
G01 X98.4053 Y-14.1337
G01 X98.3794 Y-14.1476
G01 X98.3528 Y-14.1603
G01 X98.3211 Y-14.1735
G01 X98.2933 Y-14.1833
G01 X98.2651 Y-14.1917
G01 X98.2413 Y-14.1977
G01 X98.2076 Y-14.2044
G01 X98.1784 Y-14.2086
G01 X98.1491 Y-14.2114
G01 X98.1074 Y-14.2128
G01 X72.7714 Y-14.2128
G01 X72.7479 Y-14.2174
G01 X72.7236 Y-14.2210
G01 X72.6894 Y-14.2244
G01 X72.6620 Y-14.2257
G01 X72.2718 Y-14.2350
G01 X71.8968 Y-14.2618
G01 X71.5234 Y-14.3064
G01 X71.1527 Y-14.3688
G01 X70.7853 Y-14.4487
G01 X70.4221 Y-14.5460
G01 X70.0639 Y-14.6605
G01 X69.7116 Y-14.7919
G01 X69.3660 Y-14.9399
G01 X69.0278 Y-15.1042
G01 X68.6978 Y-15.2844
G01 X68.3768 Y-15.4801
G01 X68.0654 Y-15.6908
G01 X67.7644 Y-15.9162
G01 X67.4744 Y-16.1555
G01 X67.1962 Y-16.4085
G01 X66.9304 Y-16.6743
G01 X66.6774 Y-16.9525
G01 X66.4381 Y-17.2425
G01 X66.2127 Y-17.5435
G01 X66.0020 Y-17.8549
G01 X65.8063 Y-18.1759
G01 X65.6261 Y-18.5059
G01 X65.4618 Y-18.8441
G01 X65.3138 Y-19.1897
G01 X65.1824 Y-19.5420
G01 X65.0679 Y-19.9002
G01 X64.9706 Y-20.2634
G01 X64.8907 Y-20.6308
G01 X64.8283 Y-21.0015
G01 X64.7837 Y-21.3749
G01 X64.7569 Y-21.7499
G01 X64.7498 Y-22.0488
G01 X64.7533 Y-22.0840
G01 X64.7547 Y-22.1257
G01 X64.7547 Y-33.0001
G01 X64.7533 Y-33.0418
G01 X64.7505 Y-33.0711
G01 X64.7463 Y-33.1003
G01 X64.7396 Y-33.1340
G01 X64.7323 Y-33.1625
G01 X64.7252 Y-33.1860
G01 X64.7154 Y-33.2138
G01 X64.7042 Y-33.2410
G01 X64.6895 Y-33.2721
G01 X64.6756 Y-33.2980
G01 X64.6603 Y-33.3232
G01 X64.6439 Y-33.3476
G01 X64.6262 Y-33.3712
G01 X64.6074 Y-33.3939
G01 X64.5910 Y-33.4121
G01 X64.5702 Y-33.4330
G01 X64.5485 Y-33.4528
G01 X64.5219 Y-33.4746
G01 X64.4982 Y-33.4921
G01 X64.4736 Y-33.5083
G01 X64.4526 Y-33.5210
G01 X64.4267 Y-33.5349
G01 X64.3956 Y-33.5496
G01 X64.3684 Y-33.5608
G01 X64.3406 Y-33.5706
G01 X64.3124 Y-33.5790
G01 X64.2886 Y-33.5850
G01 X64.2597 Y-33.5909
G01 X64.2306 Y-33.5953
G01 X64.1964 Y-33.5987
G01 X64.1547 Y-33.6001
G01 X29.1373 Y-33.6001
G01 X29.0956 Y-33.5987
G01 X29.0614 Y-33.5953
G01 X29.0323 Y-33.5909
G01 X29.0082 Y-33.5861
G01 X28.9749 Y-33.5777
G01 X28.9468 Y-33.5691
G01 X28.9191 Y-33.5590
G01 X28.8919 Y-33.5476
G01 X28.8697 Y-33.5372
G01 X28.8394 Y-33.5210
G01 X28.8184 Y-33.5083
G01 X28.7938 Y-33.4921
G01 X28.7701 Y-33.4746
G01 X28.7472 Y-33.4560
G01 X28.7218 Y-33.4330
G01 X28.7010 Y-33.4121
G01 X28.6846 Y-33.3939
G01 X28.6628 Y-33.3673
G01 X28.6453 Y-33.3436
G01 X28.6317 Y-33.3232
G01 X28.6164 Y-33.2980
G01 X28.6025 Y-33.2721
G01 X28.5878 Y-33.2410
G01 X28.5766 Y-33.2138
G01 X28.5683 Y-33.1906
G01 X28.5584 Y-33.1578
G01 X28.5524 Y-33.1340
G01 X28.5465 Y-33.1051
G01 X28.5415 Y-33.0711
G01 X28.5391 Y-33.0467
G01 X28.5375 Y-33.0173
G01 X28.5373 Y-22.1257
G01 X28.5465 Y-21.7262
G01 X28.5188 Y-21.3515
G01 X28.4714 Y-20.9667
G01 X28.4051 Y-20.5846
G01 X28.3201 Y-20.2063
G01 X28.2167 Y-19.8326
G01 X28.0951 Y-19.4644
G01 X27.9555 Y-19.1027
G01 X27.7984 Y-18.7482
G01 X27.6241 Y-18.4019
G01 X27.4330 Y-18.0645
G01 X27.2255 Y-17.7369
G01 X27.0023 Y-17.4199
G01 X26.7637 Y-17.1142
G01 X26.5104 Y-16.8206
G01 X26.2431 Y-16.5398
G01 X25.9623 Y-16.2725
G01 X25.6687 Y-16.0192
G01 X25.3630 Y-15.7806
G01 X25.0460 Y-15.5574
G01 X24.7184 Y-15.3499
G01 X24.3810 Y-15.1588
G01 X24.0347 Y-14.9845
G01 X23.6802 Y-14.8274
G01 X23.3185 Y-14.6878
G01 X22.9503 Y-14.5662
G01 X22.5766 Y-14.4628
G01 X22.1983 Y-14.3778
G01 X21.8162 Y-14.3115
G01 X21.4314 Y-14.2641
G01 X21.0447 Y-14.2355
G01 X20.7267 Y-14.2277
G01 X20.6924 Y-14.2311
G01 X20.6503 Y-14.2326
G01 X0.2181 Y-14.2326
G01 X0.1715 Y-14.2308
G01 X0.1422 Y-14.2278
G01 X0.1131 Y-14.2234
G01 X0.0842 Y-14.2175
G01 X0.0557 Y-14.2102
G01 X0.0276 Y-14.2016
G01 X-0.0008 Y-14.1913
G00 X-0.0008 Y-14.1913
G01 F70.00
G01 Z-0.3000
G01 F60.00
G01 X-0.0273 Y-14.1833
G01 X-0.0551 Y-14.1735
G01 X-0.0868 Y-14.1603
G01 X-0.1090 Y-14.1499
G01 X-0.1350 Y-14.1361
G01 X-0.1645 Y-14.1184
G01 X-0.1849 Y-14.1048
G01 X-0.2086 Y-14.0873
G01 X-0.2352 Y-14.0655
G01 X-0.2569 Y-14.0457
G01 X-0.2777 Y-14.0248
G01 X-0.2941 Y-14.0066
G01 X-0.3129 Y-13.9839
G01 X-0.3334 Y-13.9563
G01 X-0.3496 Y-13.9317
G01 X-0.3647 Y-13.9064
G01 X-0.3785 Y-13.8804
G01 X-0.3889 Y-13.8582
G01 X-0.4021 Y-13.8265
G01 X-0.4119 Y-13.7987
G01 X-0.4203 Y-13.7705
G01 X-0.4274 Y-13.7419
G01 X-0.4322 Y-13.7178
G01 X-0.4372 Y-13.6838
G01 X-0.4400 Y-13.6545
G01 X-0.4412 Y-13.6300
G01 X-0.4414 Y-0.1190
G01 X-0.4396 Y-0.0725
G01 X-0.4366 Y-0.0432
G01 X-0.4322 Y-0.0141
G01 X-0.4263 Y0.0147
G01 X-0.4191 Y0.0432
G01 X-0.4104 Y0.0714
G01 X-0.4022 Y0.0944
G01 X-0.3891 Y0.1262
G01 X-0.3764 Y0.1527
G01 X-0.3624 Y0.1786
G01 X-0.3472 Y0.2038
G01 X-0.3308 Y0.2282
G01 X-0.3132 Y0.2518
G01 X-0.2944 Y0.2744
G01 X-0.2780 Y0.2926
G01 X-0.2573 Y0.3135
G01 X-0.2356 Y0.3334
G01 X-0.2129 Y0.3522
G01 X-0.1894 Y0.3698
G01 X-0.1650 Y0.3863
G01 X-0.1356 Y0.4040
G01 X-0.1096 Y0.4177
G01 X-0.0830 Y0.4303
G01 X-0.0558 Y0.4414
G01 X-0.0280 Y0.4513
G01 X-0.0046 Y0.4584
G01 X0.0239 Y0.4657
G01 X0.0528 Y0.4716
G01 X0.0818 Y0.4761
G01 X0.1160 Y0.4795
G01 X0.1576 Y0.4810
G01 X98.1064 Y0.6397
G01 X98.1531 Y0.6380
G01 X98.1824 Y0.6350
G01 X98.2115 Y0.6306
G01 X98.2404 Y0.6248
G01 X98.2690 Y0.6175
G01 X98.2972 Y0.6089
G01 X98.3204 Y0.6007
G01 X98.3521 Y0.5875
G01 X98.3788 Y0.5749
G01 X98.4047 Y0.5609
G01 X98.4300 Y0.5456
G01 X98.4544 Y0.5292
G01 X98.4780 Y0.5116
G01 X98.5008 Y0.4928
G01 X98.5190 Y0.4763
G01 X98.5399 Y0.4556
G01 X98.5598 Y0.4338
G01 X98.5787 Y0.4111
G01 X98.5992 Y0.3835
G01 X98.6155 Y0.3589
G01 X98.6305 Y0.3336
G01 X98.6443 Y0.3075
G01 X98.6568 Y0.2808
G01 X98.6680 Y0.2536
G01 X98.6763 Y0.2304
G01 X98.6850 Y0.2023
G01 X98.6923 Y0.1737
G01 X98.6981 Y0.1448
G01 X98.7026 Y0.1157
G01 X98.7060 Y0.0814
G01 X98.7074 Y0.0397
G01 X98.7073 Y-13.6251
G01 X98.7060 Y-13.6545
G01 X98.7026 Y-13.6887
G01 X98.6982 Y-13.7178
G01 X98.6934 Y-13.7419
G01 X98.6850 Y-13.7752
G01 X98.6779 Y-13.7987
G01 X98.6681 Y-13.8265
G01 X98.6549 Y-13.8582
G01 X98.6422 Y-13.8848
G01 X98.6283 Y-13.9107
G01 X98.6156 Y-13.9317
G01 X98.5966 Y-13.9603
G01 X98.5789 Y-13.9839
G01 X98.5633 Y-14.0029
G01 X98.5437 Y-14.0248
G01 X98.5194 Y-14.0491
G01 X98.4975 Y-14.0687
G01 X98.4785 Y-14.0843
G01 X98.4549 Y-14.1020
G01 X98.4263 Y-14.1210
G01 X98.4053 Y-14.1337
G01 X98.3794 Y-14.1476
G01 X98.3528 Y-14.1603
G01 X98.3211 Y-14.1735
G01 X98.2933 Y-14.1833
G01 X98.2651 Y-14.1917
G01 X98.2413 Y-14.1977
G01 X98.2076 Y-14.2044
G01 X98.1784 Y-14.2086
G01 X98.1491 Y-14.2114
G01 X98.1074 Y-14.2128
G01 X72.7714 Y-14.2128
G01 X72.7479 Y-14.2174
G01 X72.7236 Y-14.2210
G01 X72.6894 Y-14.2244
G01 X72.6620 Y-14.2257
G01 X72.2718 Y-14.2350
G01 X71.8968 Y-14.2618
G01 X71.5234 Y-14.3064
G01 X71.1527 Y-14.3688
G01 X70.7853 Y-14.4487
G01 X70.4221 Y-14.5460
G01 X70.0639 Y-14.6605
G01 X69.7116 Y-14.7919
G01 X69.3660 Y-14.9399
G01 X69.0278 Y-15.1042
G01 X68.6978 Y-15.2844
G01 X68.3768 Y-15.4801
G01 X68.0654 Y-15.6908
G01 X67.7644 Y-15.9162
G01 X67.4744 Y-16.1555
G01 X67.1962 Y-16.4085
G01 X66.9304 Y-16.6743
G01 X66.6774 Y-16.9525
G01 X66.4381 Y-17.2425
G01 X66.2127 Y-17.5435
G01 X66.0020 Y-17.8549
G01 X65.8063 Y-18.1759
G01 X65.6261 Y-18.5059
G01 X65.4618 Y-18.8441
G01 X65.3138 Y-19.1897
G01 X65.1824 Y-19.5420
G01 X65.0679 Y-19.9002
G01 X64.9706 Y-20.2634
G01 X64.8907 Y-20.6308
G01 X64.8283 Y-21.0015
G01 X64.7837 Y-21.3749
G01 X64.7569 Y-21.7499
G01 X64.7498 Y-22.0488
G01 X64.7533 Y-22.0840
G01 X64.7547 Y-22.1257
G01 X64.7547 Y-33.0001
G01 X64.7533 Y-33.0418
G01 X64.7505 Y-33.0711
G01 X64.7463 Y-33.1003
G01 X64.7396 Y-33.1340
G01 X64.7323 Y-33.1625
G01 X64.7252 Y-33.1860
G01 X64.7154 Y-33.2138
G01 X64.7042 Y-33.2410
G01 X64.6895 Y-33.2721
G01 X64.6756 Y-33.2980
G01 X64.6603 Y-33.3232
G01 X64.6439 Y-33.3476
G01 X64.6262 Y-33.3712
G01 X64.6074 Y-33.3939
G01 X64.5910 Y-33.4121
G01 X64.5702 Y-33.4330
G01 X64.5485 Y-33.4528
G01 X64.5219 Y-33.4746
G01 X64.4982 Y-33.4921
G01 X64.4736 Y-33.5083
G01 X64.4526 Y-33.5210
G01 X64.4267 Y-33.5349
G01 X64.3956 Y-33.5496
G01 X64.3684 Y-33.5608
G01 X64.3406 Y-33.5706
G01 X64.3124 Y-33.5790
G01 X64.2886 Y-33.5850
G01 X64.2597 Y-33.5909
G01 X64.2306 Y-33.5953
G01 X64.1964 Y-33.5987
G01 X64.1547 Y-33.6001
G01 X29.1373 Y-33.6001
G01 X29.0956 Y-33.5987
G01 X29.0614 Y-33.5953
G01 X29.0323 Y-33.5909
G01 X29.0082 Y-33.5861
G01 X28.9749 Y-33.5777
G01 X28.9468 Y-33.5691
G01 X28.9191 Y-33.5590
G01 X28.8919 Y-33.5476
G01 X28.8697 Y-33.5372
G01 X28.8394 Y-33.5210
G01 X28.8184 Y-33.5083
G01 X28.7938 Y-33.4921
G01 X28.7701 Y-33.4746
G01 X28.7472 Y-33.4560
G01 X28.7218 Y-33.4330
G01 X28.7010 Y-33.4121
G01 X28.6846 Y-33.3939
G01 X28.6628 Y-33.3673
G01 X28.6453 Y-33.3436
G01 X28.6317 Y-33.3232
G01 X28.6164 Y-33.2980
G01 X28.6025 Y-33.2721
G01 X28.5878 Y-33.2410
G01 X28.5766 Y-33.2138
G01 X28.5683 Y-33.1906
G01 X28.5584 Y-33.1578
G01 X28.5524 Y-33.1340
G01 X28.5465 Y-33.1051
G01 X28.5415 Y-33.0711
G01 X28.5391 Y-33.0467
G01 X28.5375 Y-33.0173
G01 X28.5373 Y-22.1257
G01 X28.5465 Y-21.7262
G01 X28.5188 Y-21.3515
G01 X28.4714 Y-20.9667
G01 X28.4051 Y-20.5846
G01 X28.3201 Y-20.2063
G01 X28.2167 Y-19.8326
G01 X28.0951 Y-19.4644
G01 X27.9555 Y-19.1027
G01 X27.7984 Y-18.7482
G01 X27.6241 Y-18.4019
G01 X27.4330 Y-18.0645
G01 X27.2255 Y-17.7369
G01 X27.0023 Y-17.4199
G01 X26.7637 Y-17.1142
G01 X26.5104 Y-16.8206
G01 X26.2431 Y-16.5398
G01 X25.9623 Y-16.2725
G01 X25.6687 Y-16.0192
G01 X25.3630 Y-15.7806
G01 X25.0460 Y-15.5574
G01 X24.7184 Y-15.3499
G01 X24.3810 Y-15.1588
G01 X24.0347 Y-14.9845
G01 X23.6802 Y-14.8274
G01 X23.3185 Y-14.6878
G01 X22.9503 Y-14.5662
G01 X22.5766 Y-14.4628
G01 X22.1983 Y-14.3778
G01 X21.8162 Y-14.3115
G01 X21.4314 Y-14.2641
G01 X21.0447 Y-14.2355
G01 X20.7267 Y-14.2277
G01 X20.6924 Y-14.2311
G01 X20.6503 Y-14.2326
G01 X0.2181 Y-14.2326
G01 X0.1715 Y-14.2308
G01 X0.1422 Y-14.2278
G01 X0.1131 Y-14.2234
G01 X0.0842 Y-14.2175
G01 X0.0557 Y-14.2102
G01 X0.0276 Y-14.2016
G01 X-0.0008 Y-14.1913
G00 X-0.0008 Y-14.1913
G01 F70.00
G01 Z-0.4000
G01 F60.00
G01 X-0.0273 Y-14.1833
G01 X-0.0551 Y-14.1735
G01 X-0.0868 Y-14.1603
G01 X-0.1090 Y-14.1499
G01 X-0.1350 Y-14.1361
G01 X-0.1645 Y-14.1184
G01 X-0.1849 Y-14.1048
G01 X-0.2086 Y-14.0873
G01 X-0.2352 Y-14.0655
G01 X-0.2569 Y-14.0457
G01 X-0.2777 Y-14.0248
G01 X-0.2941 Y-14.0066
G01 X-0.3129 Y-13.9839
G01 X-0.3334 Y-13.9563
G01 X-0.3496 Y-13.9317
G01 X-0.3647 Y-13.9064
G01 X-0.3785 Y-13.8804
G01 X-0.3889 Y-13.8582
G01 X-0.4021 Y-13.8265
G01 X-0.4119 Y-13.7987
G01 X-0.4203 Y-13.7705
G01 X-0.4274 Y-13.7419
G01 X-0.4322 Y-13.7178
G01 X-0.4372 Y-13.6838
G01 X-0.4400 Y-13.6545
G01 X-0.4412 Y-13.6300
G01 X-0.4414 Y-0.1190
G01 X-0.4396 Y-0.0725
G01 X-0.4366 Y-0.0432
G01 X-0.4322 Y-0.0141
G01 X-0.4263 Y0.0147
G01 X-0.4191 Y0.0432
G01 X-0.4104 Y0.0714
G01 X-0.4022 Y0.0944
G01 X-0.3891 Y0.1262
G01 X-0.3764 Y0.1527
G01 X-0.3624 Y0.1786
G01 X-0.3472 Y0.2038
G01 X-0.3308 Y0.2282
G01 X-0.3132 Y0.2518
G01 X-0.2944 Y0.2744
G01 X-0.2780 Y0.2926
G01 X-0.2573 Y0.3135
G01 X-0.2356 Y0.3334
G01 X-0.2129 Y0.3522
G01 X-0.1894 Y0.3698
G01 X-0.1650 Y0.3863
G01 X-0.1356 Y0.4040
G01 X-0.1096 Y0.4177
G01 X-0.0830 Y0.4303
G01 X-0.0558 Y0.4414
G01 X-0.0280 Y0.4513
G01 X-0.0046 Y0.4584
G01 X0.0239 Y0.4657
G01 X0.0528 Y0.4716
G01 X0.0818 Y0.4761
G01 X0.1160 Y0.4795
G01 X0.1576 Y0.4810
G01 X98.1064 Y0.6397
G01 X98.1531 Y0.6380
G01 X98.1824 Y0.6350
G01 X98.2115 Y0.6306
G01 X98.2404 Y0.6248
G01 X98.2690 Y0.6175
G01 X98.2972 Y0.6089
G01 X98.3204 Y0.6007
G01 X98.3521 Y0.5875
G01 X98.3788 Y0.5749
G01 X98.4047 Y0.5609
G01 X98.4300 Y0.5456
G01 X98.4544 Y0.5292
G01 X98.4780 Y0.5116
G01 X98.5008 Y0.4928
G01 X98.5190 Y0.4763
G01 X98.5399 Y0.4556
G01 X98.5598 Y0.4338
G01 X98.5787 Y0.4111
G01 X98.5992 Y0.3835
G01 X98.6155 Y0.3589
G01 X98.6305 Y0.3336
G01 X98.6443 Y0.3075
G01 X98.6568 Y0.2808
G01 X98.6680 Y0.2536
G01 X98.6763 Y0.2304
G01 X98.6850 Y0.2023
G01 X98.6923 Y0.1737
G01 X98.6981 Y0.1448
G01 X98.7026 Y0.1157
G01 X98.7060 Y0.0814
G01 X98.7074 Y0.0397
G01 X98.7073 Y-13.6251
G01 X98.7060 Y-13.6545
G01 X98.7026 Y-13.6887
G01 X98.6982 Y-13.7178
G01 X98.6934 Y-13.7419
G01 X98.6850 Y-13.7752
G01 X98.6779 Y-13.7987
G01 X98.6681 Y-13.8265
G01 X98.6549 Y-13.8582
G01 X98.6422 Y-13.8848
G01 X98.6283 Y-13.9107
G01 X98.6156 Y-13.9317
G01 X98.5966 Y-13.9603
G01 X98.5789 Y-13.9839
G01 X98.5633 Y-14.0029
G01 X98.5437 Y-14.0248
G01 X98.5194 Y-14.0491
G01 X98.4975 Y-14.0687
G01 X98.4785 Y-14.0843
G01 X98.4549 Y-14.1020
G01 X98.4263 Y-14.1210
G01 X98.4053 Y-14.1337
G01 X98.3794 Y-14.1476
G01 X98.3528 Y-14.1603
G01 X98.3211 Y-14.1735
G01 X98.2933 Y-14.1833
G01 X98.2651 Y-14.1917
G01 X98.2413 Y-14.1977
G01 X98.2076 Y-14.2044
G01 X98.1784 Y-14.2086
G01 X98.1491 Y-14.2114
G01 X98.1074 Y-14.2128
G01 X72.7714 Y-14.2128
G01 X72.7479 Y-14.2174
G01 X72.7236 Y-14.2210
G01 X72.6894 Y-14.2244
G01 X72.6620 Y-14.2257
G01 X72.2718 Y-14.2350
G01 X71.8968 Y-14.2618
G01 X71.5234 Y-14.3064
G01 X71.1527 Y-14.3688
G01 X70.7853 Y-14.4487
G01 X70.4221 Y-14.5460
G01 X70.0639 Y-14.6605
G01 X69.7116 Y-14.7919
G01 X69.3660 Y-14.9399
G01 X69.0278 Y-15.1042
G01 X68.6978 Y-15.2844
G01 X68.3768 Y-15.4801
G01 X68.0654 Y-15.6908
G01 X67.7644 Y-15.9162
G01 X67.4744 Y-16.1555
G01 X67.1962 Y-16.4085
G01 X66.9304 Y-16.6743
G01 X66.6774 Y-16.9525
G01 X66.4381 Y-17.2425
G01 X66.2127 Y-17.5435
G01 X66.0020 Y-17.8549
G01 X65.8063 Y-18.1759
G01 X65.6261 Y-18.5059
G01 X65.4618 Y-18.8441
G01 X65.3138 Y-19.1897
G01 X65.1824 Y-19.5420
G01 X65.0679 Y-19.9002
G01 X64.9706 Y-20.2634
G01 X64.8907 Y-20.6308
G01 X64.8283 Y-21.0015
G01 X64.7837 Y-21.3749
G01 X64.7569 Y-21.7499
G01 X64.7498 Y-22.0488
G01 X64.7533 Y-22.0840
G01 X64.7547 Y-22.1257
G01 X64.7547 Y-33.0001
G01 X64.7533 Y-33.0418
G01 X64.7505 Y-33.0711
G01 X64.7463 Y-33.1003
G01 X64.7396 Y-33.1340
G01 X64.7323 Y-33.1625
G01 X64.7252 Y-33.1860
G01 X64.7154 Y-33.2138
G01 X64.7042 Y-33.2410
G01 X64.6895 Y-33.2721
G01 X64.6756 Y-33.2980
G01 X64.6603 Y-33.3232
G01 X64.6439 Y-33.3476
G01 X64.6262 Y-33.3712
G01 X64.6074 Y-33.3939
G01 X64.5910 Y-33.4121
G01 X64.5702 Y-33.4330
G01 X64.5485 Y-33.4528
G01 X64.5219 Y-33.4746
G01 X64.4982 Y-33.4921
G01 X64.4736 Y-33.5083
G01 X64.4526 Y-33.5210
G01 X64.4267 Y-33.5349
G01 X64.3956 Y-33.5496
G01 X64.3684 Y-33.5608
G01 X64.3406 Y-33.5706
G01 X64.3124 Y-33.5790
G01 X64.2886 Y-33.5850
G01 X64.2597 Y-33.5909
G01 X64.2306 Y-33.5953
G01 X64.1964 Y-33.5987
G01 X64.1547 Y-33.6001
G01 X29.1373 Y-33.6001
G01 X29.0956 Y-33.5987
G01 X29.0614 Y-33.5953
G01 X29.0323 Y-33.5909
G01 X29.0082 Y-33.5861
G01 X28.9749 Y-33.5777
G01 X28.9468 Y-33.5691
G01 X28.9191 Y-33.5590
G01 X28.8919 Y-33.5476
G01 X28.8697 Y-33.5372
G01 X28.8394 Y-33.5210
G01 X28.8184 Y-33.5083
G01 X28.7938 Y-33.4921
G01 X28.7701 Y-33.4746
G01 X28.7472 Y-33.4560
G01 X28.7218 Y-33.4330
G01 X28.7010 Y-33.4121
G01 X28.6846 Y-33.3939
G01 X28.6628 Y-33.3673
G01 X28.6453 Y-33.3436
G01 X28.6317 Y-33.3232
G01 X28.6164 Y-33.2980
G01 X28.6025 Y-33.2721
G01 X28.5878 Y-33.2410
G01 X28.5766 Y-33.2138
G01 X28.5683 Y-33.1906
G01 X28.5584 Y-33.1578
G01 X28.5524 Y-33.1340
G01 X28.5465 Y-33.1051
G01 X28.5415 Y-33.0711
G01 X28.5391 Y-33.0467
G01 X28.5375 Y-33.0173
G01 X28.5373 Y-22.1257
G01 X28.5465 Y-21.7262
G01 X28.5188 Y-21.3515
G01 X28.4714 Y-20.9667
G01 X28.4051 Y-20.5846
G01 X28.3201 Y-20.2063
G01 X28.2167 Y-19.8326
G01 X28.0951 Y-19.4644
G01 X27.9555 Y-19.1027
G01 X27.7984 Y-18.7482
G01 X27.6241 Y-18.4019
G01 X27.4330 Y-18.0645
G01 X27.2255 Y-17.7369
G01 X27.0023 Y-17.4199
G01 X26.7637 Y-17.1142
G01 X26.5104 Y-16.8206
G01 X26.2431 Y-16.5398
G01 X25.9623 Y-16.2725
G01 X25.6687 Y-16.0192
G01 X25.3630 Y-15.7806
G01 X25.0460 Y-15.5574
G01 X24.7184 Y-15.3499
G01 X24.3810 Y-15.1588
G01 X24.0347 Y-14.9845
G01 X23.6802 Y-14.8274
G01 X23.3185 Y-14.6878
G01 X22.9503 Y-14.5662
G01 X22.5766 Y-14.4628
G01 X22.1983 Y-14.3778
G01 X21.8162 Y-14.3115
G01 X21.4314 Y-14.2641
G01 X21.0447 Y-14.2355
G01 X20.7267 Y-14.2277
G01 X20.6924 Y-14.2311
G01 X20.6503 Y-14.2326
G01 X0.2181 Y-14.2326
G01 X0.1715 Y-14.2308
G01 X0.1422 Y-14.2278
G01 X0.1131 Y-14.2234
G01 X0.0842 Y-14.2175
G01 X0.0557 Y-14.2102
G01 X0.0276 Y-14.2016
G01 X-0.0008 Y-14.1913
G00 X-0.0008 Y-14.1913
G01 F70.00
G01 Z-0.5000
G01 F60.00
G01 X-0.0273 Y-14.1833
G01 X-0.0551 Y-14.1735
G01 X-0.0868 Y-14.1603
G01 X-0.1090 Y-14.1499
G01 X-0.1350 Y-14.1361
G01 X-0.1645 Y-14.1184
G01 X-0.1849 Y-14.1048
G01 X-0.2086 Y-14.0873
G01 X-0.2352 Y-14.0655
G01 X-0.2569 Y-14.0457
G01 X-0.2777 Y-14.0248
G01 X-0.2941 Y-14.0066
G01 X-0.3129 Y-13.9839
G01 X-0.3334 Y-13.9563
G01 X-0.3496 Y-13.9317
G01 X-0.3647 Y-13.9064
G01 X-0.3785 Y-13.8804
G01 X-0.3889 Y-13.8582
G01 X-0.4021 Y-13.8265
G01 X-0.4119 Y-13.7987
G01 X-0.4203 Y-13.7705
G01 X-0.4274 Y-13.7419
G01 X-0.4322 Y-13.7178
G01 X-0.4372 Y-13.6838
G01 X-0.4400 Y-13.6545
G01 X-0.4412 Y-13.6300
G01 X-0.4414 Y-0.1190
G01 X-0.4396 Y-0.0725
G01 X-0.4366 Y-0.0432
G01 X-0.4322 Y-0.0141
G01 X-0.4263 Y0.0147
G01 X-0.4191 Y0.0432
G01 X-0.4104 Y0.0714
G01 X-0.4022 Y0.0944
G01 X-0.3891 Y0.1262
G01 X-0.3764 Y0.1527
G01 X-0.3624 Y0.1786
G01 X-0.3472 Y0.2038
G01 X-0.3308 Y0.2282
G01 X-0.3132 Y0.2518
G01 X-0.2944 Y0.2744
G01 X-0.2780 Y0.2926
G01 X-0.2573 Y0.3135
G01 X-0.2356 Y0.3334
G01 X-0.2129 Y0.3522
G01 X-0.1894 Y0.3698
G01 X-0.1650 Y0.3863
G01 X-0.1356 Y0.4040
G01 X-0.1096 Y0.4177
G01 X-0.0830 Y0.4303
G01 X-0.0558 Y0.4414
G01 X-0.0280 Y0.4513
G01 X-0.0046 Y0.4584
G01 X0.0239 Y0.4657
G01 X0.0528 Y0.4716
G01 X0.0818 Y0.4761
G01 X0.1160 Y0.4795
G01 X0.1576 Y0.4810
G01 X98.1064 Y0.6397
G01 X98.1531 Y0.6380
G01 X98.1824 Y0.6350
G01 X98.2115 Y0.6306
G01 X98.2404 Y0.6248
G01 X98.2690 Y0.6175
G01 X98.2972 Y0.6089
G01 X98.3204 Y0.6007
G01 X98.3521 Y0.5875
G01 X98.3788 Y0.5749
G01 X98.4047 Y0.5609
G01 X98.4300 Y0.5456
G01 X98.4544 Y0.5292
G01 X98.4780 Y0.5116
G01 X98.5008 Y0.4928
G01 X98.5190 Y0.4763
G01 X98.5399 Y0.4556
G01 X98.5598 Y0.4338
G01 X98.5787 Y0.4111
G01 X98.5992 Y0.3835
G01 X98.6155 Y0.3589
G01 X98.6305 Y0.3336
G01 X98.6443 Y0.3075
G01 X98.6568 Y0.2808
G01 X98.6680 Y0.2536
G01 X98.6763 Y0.2304
G01 X98.6850 Y0.2023
G01 X98.6923 Y0.1737
G01 X98.6981 Y0.1448
G01 X98.7026 Y0.1157
G01 X98.7060 Y0.0814
G01 X98.7074 Y0.0397
G01 X98.7073 Y-13.6251
G01 X98.7060 Y-13.6545
G01 X98.7026 Y-13.6887
G01 X98.6982 Y-13.7178
G01 X98.6934 Y-13.7419
G01 X98.6850 Y-13.7752
G01 X98.6779 Y-13.7987
G01 X98.6681 Y-13.8265
G01 X98.6549 Y-13.8582
G01 X98.6422 Y-13.8848
G01 X98.6283 Y-13.9107
G01 X98.6156 Y-13.9317
G01 X98.5966 Y-13.9603
G01 X98.5789 Y-13.9839
G01 X98.5633 Y-14.0029
G01 X98.5437 Y-14.0248
G01 X98.5194 Y-14.0491
G01 X98.4975 Y-14.0687
G01 X98.4785 Y-14.0843
G01 X98.4549 Y-14.1020
G01 X98.4263 Y-14.1210
G01 X98.4053 Y-14.1337
G01 X98.3794 Y-14.1476
G01 X98.3528 Y-14.1603
G01 X98.3211 Y-14.1735
G01 X98.2933 Y-14.1833
G01 X98.2651 Y-14.1917
G01 X98.2413 Y-14.1977
G01 X98.2076 Y-14.2044
G01 X98.1784 Y-14.2086
G01 X98.1491 Y-14.2114
G01 X98.1074 Y-14.2128
G01 X72.7714 Y-14.2128
G01 X72.7479 Y-14.2174
G01 X72.7236 Y-14.2210
G01 X72.6894 Y-14.2244
G01 X72.6620 Y-14.2257
G01 X72.2718 Y-14.2350
G01 X71.8968 Y-14.2618
G01 X71.5234 Y-14.3064
G01 X71.1527 Y-14.3688
G01 X70.7853 Y-14.4487
G01 X70.4221 Y-14.5460
G01 X70.0639 Y-14.6605
G01 X69.7116 Y-14.7919
G01 X69.3660 Y-14.9399
G01 X69.0278 Y-15.1042
G01 X68.6978 Y-15.2844
G01 X68.3768 Y-15.4801
G01 X68.0654 Y-15.6908
G01 X67.7644 Y-15.9162
G01 X67.4744 Y-16.1555
G01 X67.1962 Y-16.4085
G01 X66.9304 Y-16.6743
G01 X66.6774 Y-16.9525
G01 X66.4381 Y-17.2425
G01 X66.2127 Y-17.5435
G01 X66.0020 Y-17.8549
G01 X65.8063 Y-18.1759
G01 X65.6261 Y-18.5059
G01 X65.4618 Y-18.8441
G01 X65.3138 Y-19.1897
G01 X65.1824 Y-19.5420
G01 X65.0679 Y-19.9002
G01 X64.9706 Y-20.2634
G01 X64.8907 Y-20.6308
G01 X64.8283 Y-21.0015
G01 X64.7837 Y-21.3749
G01 X64.7569 Y-21.7499
G01 X64.7498 Y-22.0488
G01 X64.7533 Y-22.0840
G01 X64.7547 Y-22.1257
G01 X64.7547 Y-33.0001
G01 X64.7533 Y-33.0418
G01 X64.7505 Y-33.0711
G01 X64.7463 Y-33.1003
G01 X64.7396 Y-33.1340
G01 X64.7323 Y-33.1625
G01 X64.7252 Y-33.1860
G01 X64.7154 Y-33.2138
G01 X64.7042 Y-33.2410
G01 X64.6895 Y-33.2721
G01 X64.6756 Y-33.2980
G01 X64.6603 Y-33.3232
G01 X64.6439 Y-33.3476
G01 X64.6262 Y-33.3712
G01 X64.6074 Y-33.3939
G01 X64.5910 Y-33.4121
G01 X64.5702 Y-33.4330
G01 X64.5485 Y-33.4528
G01 X64.5219 Y-33.4746
G01 X64.4982 Y-33.4921
G01 X64.4736 Y-33.5083
G01 X64.4526 Y-33.5210
G01 X64.4267 Y-33.5349
G01 X64.3956 Y-33.5496
G01 X64.3684 Y-33.5608
G01 X64.3406 Y-33.5706
G01 X64.3124 Y-33.5790
G01 X64.2886 Y-33.5850
G01 X64.2597 Y-33.5909
G01 X64.2306 Y-33.5953
G01 X64.1964 Y-33.5987
G01 X64.1547 Y-33.6001
G01 X29.1373 Y-33.6001
G01 X29.0956 Y-33.5987
G01 X29.0614 Y-33.5953
G01 X29.0323 Y-33.5909
G01 X29.0082 Y-33.5861
G01 X28.9749 Y-33.5777
G01 X28.9468 Y-33.5691
G01 X28.9191 Y-33.5590
G01 X28.8919 Y-33.5476
G01 X28.8697 Y-33.5372
G01 X28.8394 Y-33.5210
G01 X28.8184 Y-33.5083
G01 X28.7938 Y-33.4921
G01 X28.7701 Y-33.4746
G01 X28.7472 Y-33.4560
G01 X28.7218 Y-33.4330
G01 X28.7010 Y-33.4121
G01 X28.6846 Y-33.3939
G01 X28.6628 Y-33.3673
G01 X28.6453 Y-33.3436
G01 X28.6317 Y-33.3232
G01 X28.6164 Y-33.2980
G01 X28.6025 Y-33.2721
G01 X28.5878 Y-33.2410
G01 X28.5766 Y-33.2138
G01 X28.5683 Y-33.1906
G01 X28.5584 Y-33.1578
G01 X28.5524 Y-33.1340
G01 X28.5465 Y-33.1051
G01 X28.5415 Y-33.0711
G01 X28.5391 Y-33.0467
G01 X28.5375 Y-33.0173
G01 X28.5373 Y-22.1257
G01 X28.5465 Y-21.7262
G01 X28.5188 Y-21.3515
G01 X28.4714 Y-20.9667
G01 X28.4051 Y-20.5846
G01 X28.3201 Y-20.2063
G01 X28.2167 Y-19.8326
G01 X28.0951 Y-19.4644
G01 X27.9555 Y-19.1027
G01 X27.7984 Y-18.7482
G01 X27.6241 Y-18.4019
G01 X27.4330 Y-18.0645
G01 X27.2255 Y-17.7369
G01 X27.0023 Y-17.4199
G01 X26.7637 Y-17.1142
G01 X26.5104 Y-16.8206
G01 X26.2431 Y-16.5398
G01 X25.9623 Y-16.2725
G01 X25.6687 Y-16.0192
G01 X25.3630 Y-15.7806
G01 X25.0460 Y-15.5574
G01 X24.7184 Y-15.3499
G01 X24.3810 Y-15.1588
G01 X24.0347 Y-14.9845
G01 X23.6802 Y-14.8274
G01 X23.3185 Y-14.6878
G01 X22.9503 Y-14.5662
G01 X22.5766 Y-14.4628
G01 X22.1983 Y-14.3778
G01 X21.8162 Y-14.3115
G01 X21.4314 Y-14.2641
G01 X21.0447 Y-14.2355
G01 X20.7267 Y-14.2277
G01 X20.6924 Y-14.2311
G01 X20.6503 Y-14.2326
G01 X0.2181 Y-14.2326
G01 X0.1715 Y-14.2308
G01 X0.1422 Y-14.2278
G01 X0.1131 Y-14.2234
G01 X0.0842 Y-14.2175
G01 X0.0557 Y-14.2102
G01 X0.0276 Y-14.2016
G01 X-0.0008 Y-14.1913
G00 X-0.0008 Y-14.1913
G01 F70.00
G01 Z-0.6000
G01 F60.00
G01 X-0.0273 Y-14.1833
G01 X-0.0551 Y-14.1735
G01 X-0.0868 Y-14.1603
G01 X-0.1090 Y-14.1499
G01 X-0.1350 Y-14.1361
G01 X-0.1645 Y-14.1184
G01 X-0.1849 Y-14.1048
G01 X-0.2086 Y-14.0873
G01 X-0.2352 Y-14.0655
G01 X-0.2569 Y-14.0457
G01 X-0.2777 Y-14.0248
G01 X-0.2941 Y-14.0066
G01 X-0.3129 Y-13.9839
G01 X-0.3334 Y-13.9563
G01 X-0.3496 Y-13.9317
G01 X-0.3647 Y-13.9064
G01 X-0.3785 Y-13.8804
G01 X-0.3889 Y-13.8582
G01 X-0.4021 Y-13.8265
G01 X-0.4119 Y-13.7987
G01 X-0.4203 Y-13.7705
G01 X-0.4274 Y-13.7419
G01 X-0.4322 Y-13.7178
G01 X-0.4372 Y-13.6838
G01 X-0.4400 Y-13.6545
G01 X-0.4412 Y-13.6300
G01 X-0.4414 Y-0.1190
G01 X-0.4396 Y-0.0725
G01 X-0.4366 Y-0.0432
G01 X-0.4322 Y-0.0141
G01 X-0.4263 Y0.0147
G01 X-0.4191 Y0.0432
G01 X-0.4104 Y0.0714
G01 X-0.4022 Y0.0944
G01 X-0.3891 Y0.1262
G01 X-0.3764 Y0.1527
G01 X-0.3624 Y0.1786
G01 X-0.3472 Y0.2038
G01 X-0.3308 Y0.2282
G01 X-0.3132 Y0.2518
G01 X-0.2944 Y0.2744
G01 X-0.2780 Y0.2926
G01 X-0.2573 Y0.3135
G01 X-0.2356 Y0.3334
G01 X-0.2129 Y0.3522
G01 X-0.1894 Y0.3698
G01 X-0.1650 Y0.3863
G01 X-0.1356 Y0.4040
G01 X-0.1096 Y0.4177
G01 X-0.0830 Y0.4303
G01 X-0.0558 Y0.4414
G01 X-0.0280 Y0.4513
G01 X-0.0046 Y0.4584
G01 X0.0239 Y0.4657
G01 X0.0528 Y0.4716
G01 X0.0818 Y0.4761
G01 X0.1160 Y0.4795
G01 X0.1576 Y0.4810
G01 X98.1064 Y0.6397
G01 X98.1531 Y0.6380
G01 X98.1824 Y0.6350
G01 X98.2115 Y0.6306
G01 X98.2404 Y0.6248
G01 X98.2690 Y0.6175
G01 X98.2972 Y0.6089
G01 X98.3204 Y0.6007
G01 X98.3521 Y0.5875
G01 X98.3788 Y0.5749
G01 X98.4047 Y0.5609
G01 X98.4300 Y0.5456
G01 X98.4544 Y0.5292
G01 X98.4780 Y0.5116
G01 X98.5008 Y0.4928
G01 X98.5190 Y0.4763
G01 X98.5399 Y0.4556
G01 X98.5598 Y0.4338
G01 X98.5787 Y0.4111
G01 X98.5992 Y0.3835
G01 X98.6155 Y0.3589
G01 X98.6305 Y0.3336
G01 X98.6443 Y0.3075
G01 X98.6568 Y0.2808
G01 X98.6680 Y0.2536
G01 X98.6763 Y0.2304
G01 X98.6850 Y0.2023
G01 X98.6923 Y0.1737
G01 X98.6981 Y0.1448
G01 X98.7026 Y0.1157
G01 X98.7060 Y0.0814
G01 X98.7074 Y0.0397
G01 X98.7073 Y-13.6251
G01 X98.7060 Y-13.6545
G01 X98.7026 Y-13.6887
G01 X98.6982 Y-13.7178
G01 X98.6934 Y-13.7419
G01 X98.6850 Y-13.7752
G01 X98.6779 Y-13.7987
G01 X98.6681 Y-13.8265
G01 X98.6549 Y-13.8582
G01 X98.6422 Y-13.8848
G01 X98.6283 Y-13.9107
G01 X98.6156 Y-13.9317
G01 X98.5966 Y-13.9603
G01 X98.5789 Y-13.9839
G01 X98.5633 Y-14.0029
G01 X98.5437 Y-14.0248
G01 X98.5194 Y-14.0491
G01 X98.4975 Y-14.0687
G01 X98.4785 Y-14.0843
G01 X98.4549 Y-14.1020
G01 X98.4263 Y-14.1210
G01 X98.4053 Y-14.1337
G01 X98.3794 Y-14.1476
G01 X98.3528 Y-14.1603
G01 X98.3211 Y-14.1735
G01 X98.2933 Y-14.1833
G01 X98.2651 Y-14.1917
G01 X98.2413 Y-14.1977
G01 X98.2076 Y-14.2044
G01 X98.1784 Y-14.2086
G01 X98.1491 Y-14.2114
G01 X98.1074 Y-14.2128
G01 X72.7714 Y-14.2128
G01 X72.7479 Y-14.2174
G01 X72.7236 Y-14.2210
G01 X72.6894 Y-14.2244
G01 X72.6620 Y-14.2257
G01 X72.2718 Y-14.2350
G01 X71.8968 Y-14.2618
G01 X71.5234 Y-14.3064
G01 X71.1527 Y-14.3688
G01 X70.7853 Y-14.4487
G01 X70.4221 Y-14.5460
G01 X70.0639 Y-14.6605
G01 X69.7116 Y-14.7919
G01 X69.3660 Y-14.9399
G01 X69.0278 Y-15.1042
G01 X68.6978 Y-15.2844
G01 X68.3768 Y-15.4801
G01 X68.0654 Y-15.6908
G01 X67.7644 Y-15.9162
G01 X67.4744 Y-16.1555
G01 X67.1962 Y-16.4085
G01 X66.9304 Y-16.6743
G01 X66.6774 Y-16.9525
G01 X66.4381 Y-17.2425
G01 X66.2127 Y-17.5435
G01 X66.0020 Y-17.8549
G01 X65.8063 Y-18.1759
G01 X65.6261 Y-18.5059
G01 X65.4618 Y-18.8441
G01 X65.3138 Y-19.1897
G01 X65.1824 Y-19.5420
G01 X65.0679 Y-19.9002
G01 X64.9706 Y-20.2634
G01 X64.8907 Y-20.6308
G01 X64.8283 Y-21.0015
G01 X64.7837 Y-21.3749
G01 X64.7569 Y-21.7499
G01 X64.7498 Y-22.0488
G01 X64.7533 Y-22.0840
G01 X64.7547 Y-22.1257
G01 X64.7547 Y-33.0001
G01 X64.7533 Y-33.0418
G01 X64.7505 Y-33.0711
G01 X64.7463 Y-33.1003
G01 X64.7396 Y-33.1340
G01 X64.7323 Y-33.1625
G01 X64.7252 Y-33.1860
G01 X64.7154 Y-33.2138
G01 X64.7042 Y-33.2410
G01 X64.6895 Y-33.2721
G01 X64.6756 Y-33.2980
G01 X64.6603 Y-33.3232
G01 X64.6439 Y-33.3476
G01 X64.6262 Y-33.3712
G01 X64.6074 Y-33.3939
G01 X64.5910 Y-33.4121
G01 X64.5702 Y-33.4330
G01 X64.5485 Y-33.4528
G01 X64.5219 Y-33.4746
G01 X64.4982 Y-33.4921
G01 X64.4736 Y-33.5083
G01 X64.4526 Y-33.5210
G01 X64.4267 Y-33.5349
G01 X64.3956 Y-33.5496
G01 X64.3684 Y-33.5608
G01 X64.3406 Y-33.5706
G01 X64.3124 Y-33.5790
G01 X64.2886 Y-33.5850
G01 X64.2597 Y-33.5909
G01 X64.2306 Y-33.5953
G01 X64.1964 Y-33.5987
G01 X64.1547 Y-33.6001
G01 X29.1373 Y-33.6001
G01 X29.0956 Y-33.5987
G01 X29.0614 Y-33.5953
G01 X29.0323 Y-33.5909
G01 X29.0082 Y-33.5861
G01 X28.9749 Y-33.5777
G01 X28.9468 Y-33.5691
G01 X28.9191 Y-33.5590
G01 X28.8919 Y-33.5476
G01 X28.8697 Y-33.5372
G01 X28.8394 Y-33.5210
G01 X28.8184 Y-33.5083
G01 X28.7938 Y-33.4921
G01 X28.7701 Y-33.4746
G01 X28.7472 Y-33.4560
G01 X28.7218 Y-33.4330
G01 X28.7010 Y-33.4121
G01 X28.6846 Y-33.3939
G01 X28.6628 Y-33.3673
G01 X28.6453 Y-33.3436
G01 X28.6317 Y-33.3232
G01 X28.6164 Y-33.2980
G01 X28.6025 Y-33.2721
G01 X28.5878 Y-33.2410
G01 X28.5766 Y-33.2138
G01 X28.5683 Y-33.1906
G01 X28.5584 Y-33.1578
G01 X28.5524 Y-33.1340
G01 X28.5465 Y-33.1051
G01 X28.5415 Y-33.0711
G01 X28.5391 Y-33.0467
G01 X28.5375 Y-33.0173
G01 X28.5373 Y-22.1257
G01 X28.5465 Y-21.7262
G01 X28.5188 Y-21.3515
G01 X28.4714 Y-20.9667
G01 X28.4051 Y-20.5846
G01 X28.3201 Y-20.2063
G01 X28.2167 Y-19.8326
G01 X28.0951 Y-19.4644
G01 X27.9555 Y-19.1027
G01 X27.7984 Y-18.7482
G01 X27.6241 Y-18.4019
G01 X27.4330 Y-18.0645
G01 X27.2255 Y-17.7369
G01 X27.0023 Y-17.4199
G01 X26.7637 Y-17.1142
G01 X26.5104 Y-16.8206
G01 X26.2431 Y-16.5398
G01 X25.9623 Y-16.2725
G01 X25.6687 Y-16.0192
G01 X25.3630 Y-15.7806
G01 X25.0460 Y-15.5574
G01 X24.7184 Y-15.3499
G01 X24.3810 Y-15.1588
G01 X24.0347 Y-14.9845
G01 X23.6802 Y-14.8274
G01 X23.3185 Y-14.6878
G01 X22.9503 Y-14.5662
G01 X22.5766 Y-14.4628
G01 X22.1983 Y-14.3778
G01 X21.8162 Y-14.3115
G01 X21.4314 Y-14.2641
G01 X21.0447 Y-14.2355
G01 X20.7267 Y-14.2277
G01 X20.6924 Y-14.2311
G01 X20.6503 Y-14.2326
G01 X0.2181 Y-14.2326
G01 X0.1715 Y-14.2308
G01 X0.1422 Y-14.2278
G01 X0.1131 Y-14.2234
G01 X0.0842 Y-14.2175
G01 X0.0557 Y-14.2102
G01 X0.0276 Y-14.2016
G01 X-0.0008 Y-14.1913
G00 X-0.0008 Y-14.1913
G01 F70.00
G01 Z-0.7000
G01 F60.00
G01 X-0.0273 Y-14.1833
G01 X-0.0551 Y-14.1735
G01 X-0.0868 Y-14.1603
G01 X-0.1090 Y-14.1499
G01 X-0.1350 Y-14.1361
G01 X-0.1645 Y-14.1184
G01 X-0.1849 Y-14.1048
G01 X-0.2086 Y-14.0873
G01 X-0.2352 Y-14.0655
G01 X-0.2569 Y-14.0457
G01 X-0.2777 Y-14.0248
G01 X-0.2941 Y-14.0066
G01 X-0.3129 Y-13.9839
G01 X-0.3334 Y-13.9563
G01 X-0.3496 Y-13.9317
G01 X-0.3647 Y-13.9064
G01 X-0.3785 Y-13.8804
G01 X-0.3889 Y-13.8582
G01 X-0.4021 Y-13.8265
G01 X-0.4119 Y-13.7987
G01 X-0.4203 Y-13.7705
G01 X-0.4274 Y-13.7419
G01 X-0.4322 Y-13.7178
G01 X-0.4372 Y-13.6838
G01 X-0.4400 Y-13.6545
G01 X-0.4412 Y-13.6300
G01 X-0.4414 Y-0.1190
G01 X-0.4396 Y-0.0725
G01 X-0.4366 Y-0.0432
G01 X-0.4322 Y-0.0141
G01 X-0.4263 Y0.0147
G01 X-0.4191 Y0.0432
G01 X-0.4104 Y0.0714
G01 X-0.4022 Y0.0944
G01 X-0.3891 Y0.1262
G01 X-0.3764 Y0.1527
G01 X-0.3624 Y0.1786
G01 X-0.3472 Y0.2038
G01 X-0.3308 Y0.2282
G01 X-0.3132 Y0.2518
G01 X-0.2944 Y0.2744
G01 X-0.2780 Y0.2926
G01 X-0.2573 Y0.3135
G01 X-0.2356 Y0.3334
G01 X-0.2129 Y0.3522
G01 X-0.1894 Y0.3698
G01 X-0.1650 Y0.3863
G01 X-0.1356 Y0.4040
G01 X-0.1096 Y0.4177
G01 X-0.0830 Y0.4303
G01 X-0.0558 Y0.4414
G01 X-0.0280 Y0.4513
G01 X-0.0046 Y0.4584
G01 X0.0239 Y0.4657
G01 X0.0528 Y0.4716
G01 X0.0818 Y0.4761
G01 X0.1160 Y0.4795
G01 X0.1576 Y0.4810
G01 X98.1064 Y0.6397
G01 X98.1531 Y0.6380
G01 X98.1824 Y0.6350
G01 X98.2115 Y0.6306
G01 X98.2404 Y0.6248
G01 X98.2690 Y0.6175
G01 X98.2972 Y0.6089
G01 X98.3204 Y0.6007
G01 X98.3521 Y0.5875
G01 X98.3788 Y0.5749
G01 X98.4047 Y0.5609
G01 X98.4300 Y0.5456
G01 X98.4544 Y0.5292
G01 X98.4780 Y0.5116
G01 X98.5008 Y0.4928
G01 X98.5190 Y0.4763
G01 X98.5399 Y0.4556
G01 X98.5598 Y0.4338
G01 X98.5787 Y0.4111
G01 X98.5992 Y0.3835
G01 X98.6155 Y0.3589
G01 X98.6305 Y0.3336
G01 X98.6443 Y0.3075
G01 X98.6568 Y0.2808
G01 X98.6680 Y0.2536
G01 X98.6763 Y0.2304
G01 X98.6850 Y0.2023
G01 X98.6923 Y0.1737
G01 X98.6981 Y0.1448
G01 X98.7026 Y0.1157
G01 X98.7060 Y0.0814
G01 X98.7074 Y0.0397
G01 X98.7073 Y-13.6251
G01 X98.7060 Y-13.6545
G01 X98.7026 Y-13.6887
G01 X98.6982 Y-13.7178
G01 X98.6934 Y-13.7419
G01 X98.6850 Y-13.7752
G01 X98.6779 Y-13.7987
G01 X98.6681 Y-13.8265
G01 X98.6549 Y-13.8582
G01 X98.6422 Y-13.8848
G01 X98.6283 Y-13.9107
G01 X98.6156 Y-13.9317
G01 X98.5966 Y-13.9603
G01 X98.5789 Y-13.9839
G01 X98.5633 Y-14.0029
G01 X98.5437 Y-14.0248
G01 X98.5194 Y-14.0491
G01 X98.4975 Y-14.0687
G01 X98.4785 Y-14.0843
G01 X98.4549 Y-14.1020
G01 X98.4263 Y-14.1210
G01 X98.4053 Y-14.1337
G01 X98.3794 Y-14.1476
G01 X98.3528 Y-14.1603
G01 X98.3211 Y-14.1735
G01 X98.2933 Y-14.1833
G01 X98.2651 Y-14.1917
G01 X98.2413 Y-14.1977
G01 X98.2076 Y-14.2044
G01 X98.1784 Y-14.2086
G01 X98.1491 Y-14.2114
G01 X98.1074 Y-14.2128
G01 X72.7714 Y-14.2128
G01 X72.7479 Y-14.2174
G01 X72.7236 Y-14.2210
G01 X72.6894 Y-14.2244
G01 X72.6620 Y-14.2257
G01 X72.2718 Y-14.2350
G01 X71.8968 Y-14.2618
G01 X71.5234 Y-14.3064
G01 X71.1527 Y-14.3688
G01 X70.7853 Y-14.4487
G01 X70.4221 Y-14.5460
G01 X70.0639 Y-14.6605
G01 X69.7116 Y-14.7919
G01 X69.3660 Y-14.9399
G01 X69.0278 Y-15.1042
G01 X68.6978 Y-15.2844
G01 X68.3768 Y-15.4801
G01 X68.0654 Y-15.6908
G01 X67.7644 Y-15.9162
G01 X67.4744 Y-16.1555
G01 X67.1962 Y-16.4085
G01 X66.9304 Y-16.6743
G01 X66.6774 Y-16.9525
G01 X66.4381 Y-17.2425
G01 X66.2127 Y-17.5435
G01 X66.0020 Y-17.8549
G01 X65.8063 Y-18.1759
G01 X65.6261 Y-18.5059
G01 X65.4618 Y-18.8441
G01 X65.3138 Y-19.1897
G01 X65.1824 Y-19.5420
G01 X65.0679 Y-19.9002
G01 X64.9706 Y-20.2634
G01 X64.8907 Y-20.6308
G01 X64.8283 Y-21.0015
G01 X64.7837 Y-21.3749
G01 X64.7569 Y-21.7499
G01 X64.7498 Y-22.0488
G01 X64.7533 Y-22.0840
G01 X64.7547 Y-22.1257
G01 X64.7547 Y-33.0001
G01 X64.7533 Y-33.0418
G01 X64.7505 Y-33.0711
G01 X64.7463 Y-33.1003
G01 X64.7396 Y-33.1340
G01 X64.7323 Y-33.1625
G01 X64.7252 Y-33.1860
G01 X64.7154 Y-33.2138
G01 X64.7042 Y-33.2410
G01 X64.6895 Y-33.2721
G01 X64.6756 Y-33.2980
G01 X64.6603 Y-33.3232
G01 X64.6439 Y-33.3476
G01 X64.6262 Y-33.3712
G01 X64.6074 Y-33.3939
G01 X64.5910 Y-33.4121
G01 X64.5702 Y-33.4330
G01 X64.5485 Y-33.4528
G01 X64.5219 Y-33.4746
G01 X64.4982 Y-33.4921
G01 X64.4736 Y-33.5083
G01 X64.4526 Y-33.5210
G01 X64.4267 Y-33.5349
G01 X64.3956 Y-33.5496
G01 X64.3684 Y-33.5608
G01 X64.3406 Y-33.5706
G01 X64.3124 Y-33.5790
G01 X64.2886 Y-33.5850
G01 X64.2597 Y-33.5909
G01 X64.2306 Y-33.5953
G01 X64.1964 Y-33.5987
G01 X64.1547 Y-33.6001
G01 X29.1373 Y-33.6001
G01 X29.0956 Y-33.5987
G01 X29.0614 Y-33.5953
G01 X29.0323 Y-33.5909
G01 X29.0082 Y-33.5861
G01 X28.9749 Y-33.5777
G01 X28.9468 Y-33.5691
G01 X28.9191 Y-33.5590
G01 X28.8919 Y-33.5476
G01 X28.8697 Y-33.5372
G01 X28.8394 Y-33.5210
G01 X28.8184 Y-33.5083
G01 X28.7938 Y-33.4921
G01 X28.7701 Y-33.4746
G01 X28.7472 Y-33.4560
G01 X28.7218 Y-33.4330
G01 X28.7010 Y-33.4121
G01 X28.6846 Y-33.3939
G01 X28.6628 Y-33.3673
G01 X28.6453 Y-33.3436
G01 X28.6317 Y-33.3232
G01 X28.6164 Y-33.2980
G01 X28.6025 Y-33.2721
G01 X28.5878 Y-33.2410
G01 X28.5766 Y-33.2138
G01 X28.5683 Y-33.1906
G01 X28.5584 Y-33.1578
G01 X28.5524 Y-33.1340
G01 X28.5465 Y-33.1051
G01 X28.5415 Y-33.0711
G01 X28.5391 Y-33.0467
G01 X28.5375 Y-33.0173
G01 X28.5373 Y-22.1257
G01 X28.5465 Y-21.7262
G01 X28.5188 Y-21.3515
G01 X28.4714 Y-20.9667
G01 X28.4051 Y-20.5846
G01 X28.3201 Y-20.2063
G01 X28.2167 Y-19.8326
G01 X28.0951 Y-19.4644
G01 X27.9555 Y-19.1027
G01 X27.7984 Y-18.7482
G01 X27.6241 Y-18.4019
G01 X27.4330 Y-18.0645
G01 X27.2255 Y-17.7369
G01 X27.0023 Y-17.4199
G01 X26.7637 Y-17.1142
G01 X26.5104 Y-16.8206
G01 X26.2431 Y-16.5398
G01 X25.9623 Y-16.2725
G01 X25.6687 Y-16.0192
G01 X25.3630 Y-15.7806
G01 X25.0460 Y-15.5574
G01 X24.7184 Y-15.3499
G01 X24.3810 Y-15.1588
G01 X24.0347 Y-14.9845
G01 X23.6802 Y-14.8274
G01 X23.3185 Y-14.6878
G01 X22.9503 Y-14.5662
G01 X22.5766 Y-14.4628
G01 X22.1983 Y-14.3778
G01 X21.8162 Y-14.3115
G01 X21.4314 Y-14.2641
G01 X21.0447 Y-14.2355
G01 X20.7267 Y-14.2277
G01 X20.6924 Y-14.2311
G01 X20.6503 Y-14.2326
G01 X0.2181 Y-14.2326
G01 X0.1715 Y-14.2308
G01 X0.1422 Y-14.2278
G01 X0.1131 Y-14.2234
G01 X0.0842 Y-14.2175
G01 X0.0557 Y-14.2102
G01 X0.0276 Y-14.2016
G01 X-0.0008 Y-14.1913
G00 X-0.0008 Y-14.1913
G01 F70.00
G01 Z-0.8000
G01 F60.00
G01 X-0.0273 Y-14.1833
G01 X-0.0551 Y-14.1735
G01 X-0.0868 Y-14.1603
G01 X-0.1090 Y-14.1499
G01 X-0.1350 Y-14.1361
G01 X-0.1645 Y-14.1184
G01 X-0.1849 Y-14.1048
G01 X-0.2086 Y-14.0873
G01 X-0.2352 Y-14.0655
G01 X-0.2569 Y-14.0457
G01 X-0.2777 Y-14.0248
G01 X-0.2941 Y-14.0066
G01 X-0.3129 Y-13.9839
G01 X-0.3334 Y-13.9563
G01 X-0.3496 Y-13.9317
G01 X-0.3647 Y-13.9064
G01 X-0.3785 Y-13.8804
G01 X-0.3889 Y-13.8582
G01 X-0.4021 Y-13.8265
G01 X-0.4119 Y-13.7987
G01 X-0.4203 Y-13.7705
G01 X-0.4274 Y-13.7419
G01 X-0.4322 Y-13.7178
G01 X-0.4372 Y-13.6838
G01 X-0.4400 Y-13.6545
G01 X-0.4412 Y-13.6300
G01 X-0.4414 Y-0.1190
G01 X-0.4396 Y-0.0725
G01 X-0.4366 Y-0.0432
G01 X-0.4322 Y-0.0141
G01 X-0.4263 Y0.0147
G01 X-0.4191 Y0.0432
G01 X-0.4104 Y0.0714
G01 X-0.4022 Y0.0944
G01 X-0.3891 Y0.1262
G01 X-0.3764 Y0.1527
G01 X-0.3624 Y0.1786
G01 X-0.3472 Y0.2038
G01 X-0.3308 Y0.2282
G01 X-0.3132 Y0.2518
G01 X-0.2944 Y0.2744
G01 X-0.2780 Y0.2926
G01 X-0.2573 Y0.3135
G01 X-0.2356 Y0.3334
G01 X-0.2129 Y0.3522
G01 X-0.1894 Y0.3698
G01 X-0.1650 Y0.3863
G01 X-0.1356 Y0.4040
G01 X-0.1096 Y0.4177
G01 X-0.0830 Y0.4303
G01 X-0.0558 Y0.4414
G01 X-0.0280 Y0.4513
G01 X-0.0046 Y0.4584
G01 X0.0239 Y0.4657
G01 X0.0528 Y0.4716
G01 X0.0818 Y0.4761
G01 X0.1160 Y0.4795
G01 X0.1576 Y0.4810
G01 X98.1064 Y0.6397
G01 X98.1531 Y0.6380
G01 X98.1824 Y0.6350
G01 X98.2115 Y0.6306
G01 X98.2404 Y0.6248
G01 X98.2690 Y0.6175
G01 X98.2972 Y0.6089
G01 X98.3204 Y0.6007
G01 X98.3521 Y0.5875
G01 X98.3788 Y0.5749
G01 X98.4047 Y0.5609
G01 X98.4300 Y0.5456
G01 X98.4544 Y0.5292
G01 X98.4780 Y0.5116
G01 X98.5008 Y0.4928
G01 X98.5190 Y0.4763
G01 X98.5399 Y0.4556
G01 X98.5598 Y0.4338
G01 X98.5787 Y0.4111
G01 X98.5992 Y0.3835
G01 X98.6155 Y0.3589
G01 X98.6305 Y0.3336
G01 X98.6443 Y0.3075
G01 X98.6568 Y0.2808
G01 X98.6680 Y0.2536
G01 X98.6763 Y0.2304
G01 X98.6850 Y0.2023
G01 X98.6923 Y0.1737
G01 X98.6981 Y0.1448
G01 X98.7026 Y0.1157
G01 X98.7060 Y0.0814
G01 X98.7074 Y0.0397
G01 X98.7073 Y-13.6251
G01 X98.7060 Y-13.6545
G01 X98.7026 Y-13.6887
G01 X98.6982 Y-13.7178
G01 X98.6934 Y-13.7419
G01 X98.6850 Y-13.7752
G01 X98.6779 Y-13.7987
G01 X98.6681 Y-13.8265
G01 X98.6549 Y-13.8582
G01 X98.6422 Y-13.8848
G01 X98.6283 Y-13.9107
G01 X98.6156 Y-13.9317
G01 X98.5966 Y-13.9603
G01 X98.5789 Y-13.9839
G01 X98.5633 Y-14.0029
G01 X98.5437 Y-14.0248
G01 X98.5194 Y-14.0491
G01 X98.4975 Y-14.0687
G01 X98.4785 Y-14.0843
G01 X98.4549 Y-14.1020
G01 X98.4263 Y-14.1210
G01 X98.4053 Y-14.1337
G01 X98.3794 Y-14.1476
G01 X98.3528 Y-14.1603
G01 X98.3211 Y-14.1735
G01 X98.2933 Y-14.1833
G01 X98.2651 Y-14.1917
G01 X98.2413 Y-14.1977
G01 X98.2076 Y-14.2044
G01 X98.1784 Y-14.2086
G01 X98.1491 Y-14.2114
G01 X98.1074 Y-14.2128
G01 X72.7714 Y-14.2128
G01 X72.7479 Y-14.2174
G01 X72.7236 Y-14.2210
G01 X72.6894 Y-14.2244
G01 X72.6620 Y-14.2257
G01 X72.2718 Y-14.2350
G01 X71.8968 Y-14.2618
G01 X71.5234 Y-14.3064
G01 X71.1527 Y-14.3688
G01 X70.7853 Y-14.4487
G01 X70.4221 Y-14.5460
G01 X70.0639 Y-14.6605
G01 X69.7116 Y-14.7919
G01 X69.3660 Y-14.9399
G01 X69.0278 Y-15.1042
G01 X68.6978 Y-15.2844
G01 X68.3768 Y-15.4801
G01 X68.0654 Y-15.6908
G01 X67.7644 Y-15.9162
G01 X67.4744 Y-16.1555
G01 X67.1962 Y-16.4085
G01 X66.9304 Y-16.6743
G01 X66.6774 Y-16.9525
G01 X66.4381 Y-17.2425
G01 X66.2127 Y-17.5435
G01 X66.0020 Y-17.8549
G01 X65.8063 Y-18.1759
G01 X65.6261 Y-18.5059
G01 X65.4618 Y-18.8441
G01 X65.3138 Y-19.1897
G01 X65.1824 Y-19.5420
G01 X65.0679 Y-19.9002
G01 X64.9706 Y-20.2634
G01 X64.8907 Y-20.6308
G01 X64.8283 Y-21.0015
G01 X64.7837 Y-21.3749
G01 X64.7569 Y-21.7499
G01 X64.7498 Y-22.0488
G01 X64.7533 Y-22.0840
G01 X64.7547 Y-22.1257
G01 X64.7547 Y-33.0001
G01 X64.7533 Y-33.0418
G01 X64.7505 Y-33.0711
G01 X64.7463 Y-33.1003
G01 X64.7396 Y-33.1340
G01 X64.7323 Y-33.1625
G01 X64.7252 Y-33.1860
G01 X64.7154 Y-33.2138
G01 X64.7042 Y-33.2410
G01 X64.6895 Y-33.2721
G01 X64.6756 Y-33.2980
G01 X64.6603 Y-33.3232
G01 X64.6439 Y-33.3476
G01 X64.6262 Y-33.3712
G01 X64.6074 Y-33.3939
G01 X64.5910 Y-33.4121
G01 X64.5702 Y-33.4330
G01 X64.5485 Y-33.4528
G01 X64.5219 Y-33.4746
G01 X64.4982 Y-33.4921
G01 X64.4736 Y-33.5083
G01 X64.4526 Y-33.5210
G01 X64.4267 Y-33.5349
G01 X64.3956 Y-33.5496
G01 X64.3684 Y-33.5608
G01 X64.3406 Y-33.5706
G01 X64.3124 Y-33.5790
G01 X64.2886 Y-33.5850
G01 X64.2597 Y-33.5909
G01 X64.2306 Y-33.5953
G01 X64.1964 Y-33.5987
G01 X64.1547 Y-33.6001
G01 X29.1373 Y-33.6001
G01 X29.0956 Y-33.5987
G01 X29.0614 Y-33.5953
G01 X29.0323 Y-33.5909
G01 X29.0082 Y-33.5861
G01 X28.9749 Y-33.5777
G01 X28.9468 Y-33.5691
G01 X28.9191 Y-33.5590
G01 X28.8919 Y-33.5476
G01 X28.8697 Y-33.5372
G01 X28.8394 Y-33.5210
G01 X28.8184 Y-33.5083
G01 X28.7938 Y-33.4921
G01 X28.7701 Y-33.4746
G01 X28.7472 Y-33.4560
G01 X28.7218 Y-33.4330
G01 X28.7010 Y-33.4121
G01 X28.6846 Y-33.3939
G01 X28.6628 Y-33.3673
G01 X28.6453 Y-33.3436
G01 X28.6317 Y-33.3232
G01 X28.6164 Y-33.2980
G01 X28.6025 Y-33.2721
G01 X28.5878 Y-33.2410
G01 X28.5766 Y-33.2138
G01 X28.5683 Y-33.1906
G01 X28.5584 Y-33.1578
G01 X28.5524 Y-33.1340
G01 X28.5465 Y-33.1051
G01 X28.5415 Y-33.0711
G01 X28.5391 Y-33.0467
G01 X28.5375 Y-33.0173
G01 X28.5373 Y-22.1257
G01 X28.5465 Y-21.7262
G01 X28.5188 Y-21.3515
G01 X28.4714 Y-20.9667
G01 X28.4051 Y-20.5846
G01 X28.3201 Y-20.2063
G01 X28.2167 Y-19.8326
G01 X28.0951 Y-19.4644
G01 X27.9555 Y-19.1027
G01 X27.7984 Y-18.7482
G01 X27.6241 Y-18.4019
G01 X27.4330 Y-18.0645
G01 X27.2255 Y-17.7369
G01 X27.0023 Y-17.4199
G01 X26.7637 Y-17.1142
G01 X26.5104 Y-16.8206
G01 X26.2431 Y-16.5398
G01 X25.9623 Y-16.2725
G01 X25.6687 Y-16.0192
G01 X25.3630 Y-15.7806
G01 X25.0460 Y-15.5574
G01 X24.7184 Y-15.3499
G01 X24.3810 Y-15.1588
G01 X24.0347 Y-14.9845
G01 X23.6802 Y-14.8274
G01 X23.3185 Y-14.6878
G01 X22.9503 Y-14.5662
G01 X22.5766 Y-14.4628
G01 X22.1983 Y-14.3778
G01 X21.8162 Y-14.3115
G01 X21.4314 Y-14.2641
G01 X21.0447 Y-14.2355
G01 X20.7267 Y-14.2277
G01 X20.6924 Y-14.2311
G01 X20.6503 Y-14.2326
G01 X0.2181 Y-14.2326
G01 X0.1715 Y-14.2308
G01 X0.1422 Y-14.2278
G01 X0.1131 Y-14.2234
G01 X0.0842 Y-14.2175
G01 X0.0557 Y-14.2102
G01 X0.0276 Y-14.2016
G01 X-0.0008 Y-14.1913
G00 X-0.0008 Y-14.1913
G01 F70.00
G01 Z-0.9000
G01 F60.00
G01 X-0.0273 Y-14.1833
G01 X-0.0551 Y-14.1735
G01 X-0.0868 Y-14.1603
G01 X-0.1090 Y-14.1499
G01 X-0.1350 Y-14.1361
G01 X-0.1645 Y-14.1184
G01 X-0.1849 Y-14.1048
G01 X-0.2086 Y-14.0873
G01 X-0.2352 Y-14.0655
G01 X-0.2569 Y-14.0457
G01 X-0.2777 Y-14.0248
G01 X-0.2941 Y-14.0066
G01 X-0.3129 Y-13.9839
G01 X-0.3334 Y-13.9563
G01 X-0.3496 Y-13.9317
G01 X-0.3647 Y-13.9064
G01 X-0.3785 Y-13.8804
G01 X-0.3889 Y-13.8582
G01 X-0.4021 Y-13.8265
G01 X-0.4119 Y-13.7987
G01 X-0.4203 Y-13.7705
G01 X-0.4274 Y-13.7419
G01 X-0.4322 Y-13.7178
G01 X-0.4372 Y-13.6838
G01 X-0.4400 Y-13.6545
G01 X-0.4412 Y-13.6300
G01 X-0.4414 Y-0.1190
G01 X-0.4396 Y-0.0725
G01 X-0.4366 Y-0.0432
G01 X-0.4322 Y-0.0141
G01 X-0.4263 Y0.0147
G01 X-0.4191 Y0.0432
G01 X-0.4104 Y0.0714
G01 X-0.4022 Y0.0944
G01 X-0.3891 Y0.1262
G01 X-0.3764 Y0.1527
G01 X-0.3624 Y0.1786
G01 X-0.3472 Y0.2038
G01 X-0.3308 Y0.2282
G01 X-0.3132 Y0.2518
G01 X-0.2944 Y0.2744
G01 X-0.2780 Y0.2926
G01 X-0.2573 Y0.3135
G01 X-0.2356 Y0.3334
G01 X-0.2129 Y0.3522
G01 X-0.1894 Y0.3698
G01 X-0.1650 Y0.3863
G01 X-0.1356 Y0.4040
G01 X-0.1096 Y0.4177
G01 X-0.0830 Y0.4303
G01 X-0.0558 Y0.4414
G01 X-0.0280 Y0.4513
G01 X-0.0046 Y0.4584
G01 X0.0239 Y0.4657
G01 X0.0528 Y0.4716
G01 X0.0818 Y0.4761
G01 X0.1160 Y0.4795
G01 X0.1576 Y0.4810
G01 X98.1064 Y0.6397
G01 X98.1531 Y0.6380
G01 X98.1824 Y0.6350
G01 X98.2115 Y0.6306
G01 X98.2404 Y0.6248
G01 X98.2690 Y0.6175
G01 X98.2972 Y0.6089
G01 X98.3204 Y0.6007
G01 X98.3521 Y0.5875
G01 X98.3788 Y0.5749
G01 X98.4047 Y0.5609
G01 X98.4300 Y0.5456
G01 X98.4544 Y0.5292
G01 X98.4780 Y0.5116
G01 X98.5008 Y0.4928
G01 X98.5190 Y0.4763
G01 X98.5399 Y0.4556
G01 X98.5598 Y0.4338
G01 X98.5787 Y0.4111
G01 X98.5992 Y0.3835
G01 X98.6155 Y0.3589
G01 X98.6305 Y0.3336
G01 X98.6443 Y0.3075
G01 X98.6568 Y0.2808
G01 X98.6680 Y0.2536
G01 X98.6763 Y0.2304
G01 X98.6850 Y0.2023
G01 X98.6923 Y0.1737
G01 X98.6981 Y0.1448
G01 X98.7026 Y0.1157
G01 X98.7060 Y0.0814
G01 X98.7074 Y0.0397
G01 X98.7073 Y-13.6251
G01 X98.7060 Y-13.6545
G01 X98.7026 Y-13.6887
G01 X98.6982 Y-13.7178
G01 X98.6934 Y-13.7419
G01 X98.6850 Y-13.7752
G01 X98.6779 Y-13.7987
G01 X98.6681 Y-13.8265
G01 X98.6549 Y-13.8582
G01 X98.6422 Y-13.8848
G01 X98.6283 Y-13.9107
G01 X98.6156 Y-13.9317
G01 X98.5966 Y-13.9603
G01 X98.5789 Y-13.9839
G01 X98.5633 Y-14.0029
G01 X98.5437 Y-14.0248
G01 X98.5194 Y-14.0491
G01 X98.4975 Y-14.0687
G01 X98.4785 Y-14.0843
G01 X98.4549 Y-14.1020
G01 X98.4263 Y-14.1210
G01 X98.4053 Y-14.1337
G01 X98.3794 Y-14.1476
G01 X98.3528 Y-14.1603
G01 X98.3211 Y-14.1735
G01 X98.2933 Y-14.1833
G01 X98.2651 Y-14.1917
G01 X98.2413 Y-14.1977
G01 X98.2076 Y-14.2044
G01 X98.1784 Y-14.2086
G01 X98.1491 Y-14.2114
G01 X98.1074 Y-14.2128
G01 X72.7714 Y-14.2128
G01 X72.7479 Y-14.2174
G01 X72.7236 Y-14.2210
G01 X72.6894 Y-14.2244
G01 X72.6620 Y-14.2257
G01 X72.2718 Y-14.2350
G01 X71.8968 Y-14.2618
G01 X71.5234 Y-14.3064
G01 X71.1527 Y-14.3688
G01 X70.7853 Y-14.4487
G01 X70.4221 Y-14.5460
G01 X70.0639 Y-14.6605
G01 X69.7116 Y-14.7919
G01 X69.3660 Y-14.9399
G01 X69.0278 Y-15.1042
G01 X68.6978 Y-15.2844
G01 X68.3768 Y-15.4801
G01 X68.0654 Y-15.6908
G01 X67.7644 Y-15.9162
G01 X67.4744 Y-16.1555
G01 X67.1962 Y-16.4085
G01 X66.9304 Y-16.6743
G01 X66.6774 Y-16.9525
G01 X66.4381 Y-17.2425
G01 X66.2127 Y-17.5435
G01 X66.0020 Y-17.8549
G01 X65.8063 Y-18.1759
G01 X65.6261 Y-18.5059
G01 X65.4618 Y-18.8441
G01 X65.3138 Y-19.1897
G01 X65.1824 Y-19.5420
G01 X65.0679 Y-19.9002
G01 X64.9706 Y-20.2634
G01 X64.8907 Y-20.6308
G01 X64.8283 Y-21.0015
G01 X64.7837 Y-21.3749
G01 X64.7569 Y-21.7499
G01 X64.7498 Y-22.0488
G01 X64.7533 Y-22.0840
G01 X64.7547 Y-22.1257
G01 X64.7547 Y-33.0001
G01 X64.7533 Y-33.0418
G01 X64.7505 Y-33.0711
G01 X64.7463 Y-33.1003
G01 X64.7396 Y-33.1340
G01 X64.7323 Y-33.1625
G01 X64.7252 Y-33.1860
G01 X64.7154 Y-33.2138
G01 X64.7042 Y-33.2410
G01 X64.6895 Y-33.2721
G01 X64.6756 Y-33.2980
G01 X64.6603 Y-33.3232
G01 X64.6439 Y-33.3476
G01 X64.6262 Y-33.3712
G01 X64.6074 Y-33.3939
G01 X64.5910 Y-33.4121
G01 X64.5702 Y-33.4330
G01 X64.5485 Y-33.4528
G01 X64.5219 Y-33.4746
G01 X64.4982 Y-33.4921
G01 X64.4736 Y-33.5083
G01 X64.4526 Y-33.5210
G01 X64.4267 Y-33.5349
G01 X64.3956 Y-33.5496
G01 X64.3684 Y-33.5608
G01 X64.3406 Y-33.5706
G01 X64.3124 Y-33.5790
G01 X64.2886 Y-33.5850
G01 X64.2597 Y-33.5909
G01 X64.2306 Y-33.5953
G01 X64.1964 Y-33.5987
G01 X64.1547 Y-33.6001
G01 X29.1373 Y-33.6001
G01 X29.0956 Y-33.5987
G01 X29.0614 Y-33.5953
G01 X29.0323 Y-33.5909
G01 X29.0082 Y-33.5861
G01 X28.9749 Y-33.5777
G01 X28.9468 Y-33.5691
G01 X28.9191 Y-33.5590
G01 X28.8919 Y-33.5476
G01 X28.8697 Y-33.5372
G01 X28.8394 Y-33.5210
G01 X28.8184 Y-33.5083
G01 X28.7938 Y-33.4921
G01 X28.7701 Y-33.4746
G01 X28.7472 Y-33.4560
G01 X28.7218 Y-33.4330
G01 X28.7010 Y-33.4121
G01 X28.6846 Y-33.3939
G01 X28.6628 Y-33.3673
G01 X28.6453 Y-33.3436
G01 X28.6317 Y-33.3232
G01 X28.6164 Y-33.2980
G01 X28.6025 Y-33.2721
G01 X28.5878 Y-33.2410
G01 X28.5766 Y-33.2138
G01 X28.5683 Y-33.1906
G01 X28.5584 Y-33.1578
G01 X28.5524 Y-33.1340
G01 X28.5465 Y-33.1051
G01 X28.5415 Y-33.0711
G01 X28.5391 Y-33.0467
G01 X28.5375 Y-33.0173
G01 X28.5373 Y-22.1257
G01 X28.5465 Y-21.7262
G01 X28.5188 Y-21.3515
G01 X28.4714 Y-20.9667
G01 X28.4051 Y-20.5846
G01 X28.3201 Y-20.2063
G01 X28.2167 Y-19.8326
G01 X28.0951 Y-19.4644
G01 X27.9555 Y-19.1027
G01 X27.7984 Y-18.7482
G01 X27.6241 Y-18.4019
G01 X27.4330 Y-18.0645
G01 X27.2255 Y-17.7369
G01 X27.0023 Y-17.4199
G01 X26.7637 Y-17.1142
G01 X26.5104 Y-16.8206
G01 X26.2431 Y-16.5398
G01 X25.9623 Y-16.2725
G01 X25.6687 Y-16.0192
G01 X25.3630 Y-15.7806
G01 X25.0460 Y-15.5574
G01 X24.7184 Y-15.3499
G01 X24.3810 Y-15.1588
G01 X24.0347 Y-14.9845
G01 X23.6802 Y-14.8274
G01 X23.3185 Y-14.6878
G01 X22.9503 Y-14.5662
G01 X22.5766 Y-14.4628
G01 X22.1983 Y-14.3778
G01 X21.8162 Y-14.3115
G01 X21.4314 Y-14.2641
G01 X21.0447 Y-14.2355
G01 X20.7267 Y-14.2277
G01 X20.6924 Y-14.2311
G01 X20.6503 Y-14.2326
G01 X0.2181 Y-14.2326
G01 X0.1715 Y-14.2308
G01 X0.1422 Y-14.2278
G01 X0.1131 Y-14.2234
G01 X0.0842 Y-14.2175
G01 X0.0557 Y-14.2102
G01 X0.0276 Y-14.2016
G01 X-0.0008 Y-14.1913
G00 X-0.0008 Y-14.1913
G01 F70.00
G01 Z-1.0000
G01 F60.00
G01 X-0.0273 Y-14.1833
G01 X-0.0551 Y-14.1735
G01 X-0.0868 Y-14.1603
G01 X-0.1090 Y-14.1499
G01 X-0.1350 Y-14.1361
G01 X-0.1645 Y-14.1184
G01 X-0.1849 Y-14.1048
G01 X-0.2086 Y-14.0873
G01 X-0.2352 Y-14.0655
G01 X-0.2569 Y-14.0457
G01 X-0.2777 Y-14.0248
G01 X-0.2941 Y-14.0066
G01 X-0.3129 Y-13.9839
G01 X-0.3334 Y-13.9563
G01 X-0.3496 Y-13.9317
G01 X-0.3647 Y-13.9064
G01 X-0.3785 Y-13.8804
G01 X-0.3889 Y-13.8582
G01 X-0.4021 Y-13.8265
G01 X-0.4119 Y-13.7987
G01 X-0.4203 Y-13.7705
G01 X-0.4274 Y-13.7419
G01 X-0.4322 Y-13.7178
G01 X-0.4372 Y-13.6838
G01 X-0.4400 Y-13.6545
G01 X-0.4412 Y-13.6300
G01 X-0.4414 Y-0.1190
G01 X-0.4396 Y-0.0725
G01 X-0.4366 Y-0.0432
G01 X-0.4322 Y-0.0141
G01 X-0.4263 Y0.0147
G01 X-0.4191 Y0.0432
G01 X-0.4104 Y0.0714
G01 X-0.4022 Y0.0944
G01 X-0.3891 Y0.1262
G01 X-0.3764 Y0.1527
G01 X-0.3624 Y0.1786
G01 X-0.3472 Y0.2038
G01 X-0.3308 Y0.2282
G01 X-0.3132 Y0.2518
G01 X-0.2944 Y0.2744
G01 X-0.2780 Y0.2926
G01 X-0.2573 Y0.3135
G01 X-0.2356 Y0.3334
G01 X-0.2129 Y0.3522
G01 X-0.1894 Y0.3698
G01 X-0.1650 Y0.3863
G01 X-0.1356 Y0.4040
G01 X-0.1096 Y0.4177
G01 X-0.0830 Y0.4303
G01 X-0.0558 Y0.4414
G01 X-0.0280 Y0.4513
G01 X-0.0046 Y0.4584
G01 X0.0239 Y0.4657
G01 X0.0528 Y0.4716
G01 X0.0818 Y0.4761
G01 X0.1160 Y0.4795
G01 X0.1576 Y0.4810
G01 X98.1064 Y0.6397
G01 X98.1531 Y0.6380
G01 X98.1824 Y0.6350
G01 X98.2115 Y0.6306
G01 X98.2404 Y0.6248
G01 X98.2690 Y0.6175
G01 X98.2972 Y0.6089
G01 X98.3204 Y0.6007
G01 X98.3521 Y0.5875
G01 X98.3788 Y0.5749
G01 X98.4047 Y0.5609
G01 X98.4300 Y0.5456
G01 X98.4544 Y0.5292
G01 X98.4780 Y0.5116
G01 X98.5008 Y0.4928
G01 X98.5190 Y0.4763
G01 X98.5399 Y0.4556
G01 X98.5598 Y0.4338
G01 X98.5787 Y0.4111
G01 X98.5992 Y0.3835
G01 X98.6155 Y0.3589
G01 X98.6305 Y0.3336
G01 X98.6443 Y0.3075
G01 X98.6568 Y0.2808
G01 X98.6680 Y0.2536
G01 X98.6763 Y0.2304
G01 X98.6850 Y0.2023
G01 X98.6923 Y0.1737
G01 X98.6981 Y0.1448
G01 X98.7026 Y0.1157
G01 X98.7060 Y0.0814
G01 X98.7074 Y0.0397
G01 X98.7073 Y-13.6251
G01 X98.7060 Y-13.6545
G01 X98.7026 Y-13.6887
G01 X98.6982 Y-13.7178
G01 X98.6934 Y-13.7419
G01 X98.6850 Y-13.7752
G01 X98.6779 Y-13.7987
G01 X98.6681 Y-13.8265
G01 X98.6549 Y-13.8582
G01 X98.6422 Y-13.8848
G01 X98.6283 Y-13.9107
G01 X98.6156 Y-13.9317
G01 X98.5966 Y-13.9603
G01 X98.5789 Y-13.9839
G01 X98.5633 Y-14.0029
G01 X98.5437 Y-14.0248
G01 X98.5194 Y-14.0491
G01 X98.4975 Y-14.0687
G01 X98.4785 Y-14.0843
G01 X98.4549 Y-14.1020
G01 X98.4263 Y-14.1210
G01 X98.4053 Y-14.1337
G01 X98.3794 Y-14.1476
G01 X98.3528 Y-14.1603
G01 X98.3211 Y-14.1735
G01 X98.2933 Y-14.1833
G01 X98.2651 Y-14.1917
G01 X98.2413 Y-14.1977
G01 X98.2076 Y-14.2044
G01 X98.1784 Y-14.2086
G01 X98.1491 Y-14.2114
G01 X98.1074 Y-14.2128
G01 X72.7714 Y-14.2128
G01 X72.7479 Y-14.2174
G01 X72.7236 Y-14.2210
G01 X72.6894 Y-14.2244
G01 X72.6620 Y-14.2257
G01 X72.2718 Y-14.2350
G01 X71.8968 Y-14.2618
G01 X71.5234 Y-14.3064
G01 X71.1527 Y-14.3688
G01 X70.7853 Y-14.4487
G01 X70.4221 Y-14.5460
G01 X70.0639 Y-14.6605
G01 X69.7116 Y-14.7919
G01 X69.3660 Y-14.9399
G01 X69.0278 Y-15.1042
G01 X68.6978 Y-15.2844
G01 X68.3768 Y-15.4801
G01 X68.0654 Y-15.6908
G01 X67.7644 Y-15.9162
G01 X67.4744 Y-16.1555
G01 X67.1962 Y-16.4085
G01 X66.9304 Y-16.6743
G01 X66.6774 Y-16.9525
G01 X66.4381 Y-17.2425
G01 X66.2127 Y-17.5435
G01 X66.0020 Y-17.8549
G01 X65.8063 Y-18.1759
G01 X65.6261 Y-18.5059
G01 X65.4618 Y-18.8441
G01 X65.3138 Y-19.1897
G01 X65.1824 Y-19.5420
G01 X65.0679 Y-19.9002
G01 X64.9706 Y-20.2634
G01 X64.8907 Y-20.6308
G01 X64.8283 Y-21.0015
G01 X64.7837 Y-21.3749
G01 X64.7569 Y-21.7499
G01 X64.7498 Y-22.0488
G01 X64.7533 Y-22.0840
G01 X64.7547 Y-22.1257
G01 X64.7547 Y-33.0001
G01 X64.7533 Y-33.0418
G01 X64.7505 Y-33.0711
G01 X64.7463 Y-33.1003
G01 X64.7396 Y-33.1340
G01 X64.7323 Y-33.1625
G01 X64.7252 Y-33.1860
G01 X64.7154 Y-33.2138
G01 X64.7042 Y-33.2410
G01 X64.6895 Y-33.2721
G01 X64.6756 Y-33.2980
G01 X64.6603 Y-33.3232
G01 X64.6439 Y-33.3476
G01 X64.6262 Y-33.3712
G01 X64.6074 Y-33.3939
G01 X64.5910 Y-33.4121
G01 X64.5702 Y-33.4330
G01 X64.5485 Y-33.4528
G01 X64.5219 Y-33.4746
G01 X64.4982 Y-33.4921
G01 X64.4736 Y-33.5083
G01 X64.4526 Y-33.5210
G01 X64.4267 Y-33.5349
G01 X64.3956 Y-33.5496
G01 X64.3684 Y-33.5608
G01 X64.3406 Y-33.5706
G01 X64.3124 Y-33.5790
G01 X64.2886 Y-33.5850
G01 X64.2597 Y-33.5909
G01 X64.2306 Y-33.5953
G01 X64.1964 Y-33.5987
G01 X64.1547 Y-33.6001
G01 X29.1373 Y-33.6001
G01 X29.0956 Y-33.5987
G01 X29.0614 Y-33.5953
G01 X29.0323 Y-33.5909
G01 X29.0082 Y-33.5861
G01 X28.9749 Y-33.5777
G01 X28.9468 Y-33.5691
G01 X28.9191 Y-33.5590
G01 X28.8919 Y-33.5476
G01 X28.8697 Y-33.5372
G01 X28.8394 Y-33.5210
G01 X28.8184 Y-33.5083
G01 X28.7938 Y-33.4921
G01 X28.7701 Y-33.4746
G01 X28.7472 Y-33.4560
G01 X28.7218 Y-33.4330
G01 X28.7010 Y-33.4121
G01 X28.6846 Y-33.3939
G01 X28.6628 Y-33.3673
G01 X28.6453 Y-33.3436
G01 X28.6317 Y-33.3232
G01 X28.6164 Y-33.2980
G01 X28.6025 Y-33.2721
G01 X28.5878 Y-33.2410
G01 X28.5766 Y-33.2138
G01 X28.5683 Y-33.1906
G01 X28.5584 Y-33.1578
G01 X28.5524 Y-33.1340
G01 X28.5465 Y-33.1051
G01 X28.5415 Y-33.0711
G01 X28.5391 Y-33.0467
G01 X28.5375 Y-33.0173
G01 X28.5373 Y-22.1257
G01 X28.5465 Y-21.7262
G01 X28.5188 Y-21.3515
G01 X28.4714 Y-20.9667
G01 X28.4051 Y-20.5846
G01 X28.3201 Y-20.2063
G01 X28.2167 Y-19.8326
G01 X28.0951 Y-19.4644
G01 X27.9555 Y-19.1027
G01 X27.7984 Y-18.7482
G01 X27.6241 Y-18.4019
G01 X27.4330 Y-18.0645
G01 X27.2255 Y-17.7369
G01 X27.0023 Y-17.4199
G01 X26.7637 Y-17.1142
G01 X26.5104 Y-16.8206
G01 X26.2431 Y-16.5398
G01 X25.9623 Y-16.2725
G01 X25.6687 Y-16.0192
G01 X25.3630 Y-15.7806
G01 X25.0460 Y-15.5574
G01 X24.7184 Y-15.3499
G01 X24.3810 Y-15.1588
G01 X24.0347 Y-14.9845
G01 X23.6802 Y-14.8274
G01 X23.3185 Y-14.6878
G01 X22.9503 Y-14.5662
G01 X22.5766 Y-14.4628
G01 X22.1983 Y-14.3778
G01 X21.8162 Y-14.3115
G01 X21.4314 Y-14.2641
G01 X21.0447 Y-14.2355
G01 X20.7267 Y-14.2277
G01 X20.6924 Y-14.2311
G01 X20.6503 Y-14.2326
G01 X0.2181 Y-14.2326
G01 X0.1715 Y-14.2308
G01 X0.1422 Y-14.2278
G01 X0.1131 Y-14.2234
G01 X0.0842 Y-14.2175
G01 X0.0557 Y-14.2102
G01 X0.0276 Y-14.2016
G01 X-0.0008 Y-14.1913
G00 X-0.0008 Y-14.1913
G01 F70.00
G01 Z-1.1000
G01 F60.00
G01 X-0.0273 Y-14.1833
G01 X-0.0551 Y-14.1735
G01 X-0.0868 Y-14.1603
G01 X-0.1090 Y-14.1499
G01 X-0.1350 Y-14.1361
G01 X-0.1645 Y-14.1184
G01 X-0.1849 Y-14.1048
G01 X-0.2086 Y-14.0873
G01 X-0.2352 Y-14.0655
G01 X-0.2569 Y-14.0457
G01 X-0.2777 Y-14.0248
G01 X-0.2941 Y-14.0066
G01 X-0.3129 Y-13.9839
G01 X-0.3334 Y-13.9563
G01 X-0.3496 Y-13.9317
G01 X-0.3647 Y-13.9064
G01 X-0.3785 Y-13.8804
G01 X-0.3889 Y-13.8582
G01 X-0.4021 Y-13.8265
G01 X-0.4119 Y-13.7987
G01 X-0.4203 Y-13.7705
G01 X-0.4274 Y-13.7419
G01 X-0.4322 Y-13.7178
G01 X-0.4372 Y-13.6838
G01 X-0.4400 Y-13.6545
G01 X-0.4412 Y-13.6300
G01 X-0.4414 Y-0.1190
G01 X-0.4396 Y-0.0725
G01 X-0.4366 Y-0.0432
G01 X-0.4322 Y-0.0141
G01 X-0.4263 Y0.0147
G01 X-0.4191 Y0.0432
G01 X-0.4104 Y0.0714
G01 X-0.4022 Y0.0944
G01 X-0.3891 Y0.1262
G01 X-0.3764 Y0.1527
G01 X-0.3624 Y0.1786
G01 X-0.3472 Y0.2038
G01 X-0.3308 Y0.2282
G01 X-0.3132 Y0.2518
G01 X-0.2944 Y0.2744
G01 X-0.2780 Y0.2926
G01 X-0.2573 Y0.3135
G01 X-0.2356 Y0.3334
G01 X-0.2129 Y0.3522
G01 X-0.1894 Y0.3698
G01 X-0.1650 Y0.3863
G01 X-0.1356 Y0.4040
G01 X-0.1096 Y0.4177
G01 X-0.0830 Y0.4303
G01 X-0.0558 Y0.4414
G01 X-0.0280 Y0.4513
G01 X-0.0046 Y0.4584
G01 X0.0239 Y0.4657
G01 X0.0528 Y0.4716
G01 X0.0818 Y0.4761
G01 X0.1160 Y0.4795
G01 X0.1576 Y0.4810
G01 X98.1064 Y0.6397
G01 X98.1531 Y0.6380
G01 X98.1824 Y0.6350
G01 X98.2115 Y0.6306
G01 X98.2404 Y0.6248
G01 X98.2690 Y0.6175
G01 X98.2972 Y0.6089
G01 X98.3204 Y0.6007
G01 X98.3521 Y0.5875
G01 X98.3788 Y0.5749
G01 X98.4047 Y0.5609
G01 X98.4300 Y0.5456
G01 X98.4544 Y0.5292
G01 X98.4780 Y0.5116
G01 X98.5008 Y0.4928
G01 X98.5190 Y0.4763
G01 X98.5399 Y0.4556
G01 X98.5598 Y0.4338
G01 X98.5787 Y0.4111
G01 X98.5992 Y0.3835
G01 X98.6155 Y0.3589
G01 X98.6305 Y0.3336
G01 X98.6443 Y0.3075
G01 X98.6568 Y0.2808
G01 X98.6680 Y0.2536
G01 X98.6763 Y0.2304
G01 X98.6850 Y0.2023
G01 X98.6923 Y0.1737
G01 X98.6981 Y0.1448
G01 X98.7026 Y0.1157
G01 X98.7060 Y0.0814
G01 X98.7074 Y0.0397
G01 X98.7073 Y-13.6251
G01 X98.7060 Y-13.6545
G01 X98.7026 Y-13.6887
G01 X98.6982 Y-13.7178
G01 X98.6934 Y-13.7419
G01 X98.6850 Y-13.7752
G01 X98.6779 Y-13.7987
G01 X98.6681 Y-13.8265
G01 X98.6549 Y-13.8582
G01 X98.6422 Y-13.8848
G01 X98.6283 Y-13.9107
G01 X98.6156 Y-13.9317
G01 X98.5966 Y-13.9603
G01 X98.5789 Y-13.9839
G01 X98.5633 Y-14.0029
G01 X98.5437 Y-14.0248
G01 X98.5194 Y-14.0491
G01 X98.4975 Y-14.0687
G01 X98.4785 Y-14.0843
G01 X98.4549 Y-14.1020
G01 X98.4263 Y-14.1210
G01 X98.4053 Y-14.1337
G01 X98.3794 Y-14.1476
G01 X98.3528 Y-14.1603
G01 X98.3211 Y-14.1735
G01 X98.2933 Y-14.1833
G01 X98.2651 Y-14.1917
G01 X98.2413 Y-14.1977
G01 X98.2076 Y-14.2044
G01 X98.1784 Y-14.2086
G01 X98.1491 Y-14.2114
G01 X98.1074 Y-14.2128
G01 X72.7714 Y-14.2128
G01 X72.7479 Y-14.2174
G01 X72.7236 Y-14.2210
G01 X72.6894 Y-14.2244
G01 X72.6620 Y-14.2257
G01 X72.2718 Y-14.2350
G01 X71.8968 Y-14.2618
G01 X71.5234 Y-14.3064
G01 X71.1527 Y-14.3688
G01 X70.7853 Y-14.4487
G01 X70.4221 Y-14.5460
G01 X70.0639 Y-14.6605
G01 X69.7116 Y-14.7919
G01 X69.3660 Y-14.9399
G01 X69.0278 Y-15.1042
G01 X68.6978 Y-15.2844
G01 X68.3768 Y-15.4801
G01 X68.0654 Y-15.6908
G01 X67.7644 Y-15.9162
G01 X67.4744 Y-16.1555
G01 X67.1962 Y-16.4085
G01 X66.9304 Y-16.6743
G01 X66.6774 Y-16.9525
G01 X66.4381 Y-17.2425
G01 X66.2127 Y-17.5435
G01 X66.0020 Y-17.8549
G01 X65.8063 Y-18.1759
G01 X65.6261 Y-18.5059
G01 X65.4618 Y-18.8441
G01 X65.3138 Y-19.1897
G01 X65.1824 Y-19.5420
G01 X65.0679 Y-19.9002
G01 X64.9706 Y-20.2634
G01 X64.8907 Y-20.6308
G01 X64.8283 Y-21.0015
G01 X64.7837 Y-21.3749
G01 X64.7569 Y-21.7499
G01 X64.7498 Y-22.0488
G01 X64.7533 Y-22.0840
G01 X64.7547 Y-22.1257
G01 X64.7547 Y-33.0001
G01 X64.7533 Y-33.0418
G01 X64.7505 Y-33.0711
G01 X64.7463 Y-33.1003
G01 X64.7396 Y-33.1340
G01 X64.7323 Y-33.1625
G01 X64.7252 Y-33.1860
G01 X64.7154 Y-33.2138
G01 X64.7042 Y-33.2410
G01 X64.6895 Y-33.2721
G01 X64.6756 Y-33.2980
G01 X64.6603 Y-33.3232
G01 X64.6439 Y-33.3476
G01 X64.6262 Y-33.3712
G01 X64.6074 Y-33.3939
G01 X64.5910 Y-33.4121
G01 X64.5702 Y-33.4330
G01 X64.5485 Y-33.4528
G01 X64.5219 Y-33.4746
G01 X64.4982 Y-33.4921
G01 X64.4736 Y-33.5083
G01 X64.4526 Y-33.5210
G01 X64.4267 Y-33.5349
G01 X64.3956 Y-33.5496
G01 X64.3684 Y-33.5608
G01 X64.3406 Y-33.5706
G01 X64.3124 Y-33.5790
G01 X64.2886 Y-33.5850
G01 X64.2597 Y-33.5909
G01 X64.2306 Y-33.5953
G01 X64.1964 Y-33.5987
G01 X64.1547 Y-33.6001
G01 X29.1373 Y-33.6001
G01 X29.0956 Y-33.5987
G01 X29.0614 Y-33.5953
G01 X29.0323 Y-33.5909
G01 X29.0082 Y-33.5861
G01 X28.9749 Y-33.5777
G01 X28.9468 Y-33.5691
G01 X28.9191 Y-33.5590
G01 X28.8919 Y-33.5476
G01 X28.8697 Y-33.5372
G01 X28.8394 Y-33.5210
G01 X28.8184 Y-33.5083
G01 X28.7938 Y-33.4921
G01 X28.7701 Y-33.4746
G01 X28.7472 Y-33.4560
G01 X28.7218 Y-33.4330
G01 X28.7010 Y-33.4121
G01 X28.6846 Y-33.3939
G01 X28.6628 Y-33.3673
G01 X28.6453 Y-33.3436
G01 X28.6317 Y-33.3232
G01 X28.6164 Y-33.2980
G01 X28.6025 Y-33.2721
G01 X28.5878 Y-33.2410
G01 X28.5766 Y-33.2138
G01 X28.5683 Y-33.1906
G01 X28.5584 Y-33.1578
G01 X28.5524 Y-33.1340
G01 X28.5465 Y-33.1051
G01 X28.5415 Y-33.0711
G01 X28.5391 Y-33.0467
G01 X28.5375 Y-33.0173
G01 X28.5373 Y-22.1257
G01 X28.5465 Y-21.7262
G01 X28.5188 Y-21.3515
G01 X28.4714 Y-20.9667
G01 X28.4051 Y-20.5846
G01 X28.3201 Y-20.2063
G01 X28.2167 Y-19.8326
G01 X28.0951 Y-19.4644
G01 X27.9555 Y-19.1027
G01 X27.7984 Y-18.7482
G01 X27.6241 Y-18.4019
G01 X27.4330 Y-18.0645
G01 X27.2255 Y-17.7369
G01 X27.0023 Y-17.4199
G01 X26.7637 Y-17.1142
G01 X26.5104 Y-16.8206
G01 X26.2431 Y-16.5398
G01 X25.9623 Y-16.2725
G01 X25.6687 Y-16.0192
G01 X25.3630 Y-15.7806
G01 X25.0460 Y-15.5574
G01 X24.7184 Y-15.3499
G01 X24.3810 Y-15.1588
G01 X24.0347 Y-14.9845
G01 X23.6802 Y-14.8274
G01 X23.3185 Y-14.6878
G01 X22.9503 Y-14.5662
G01 X22.5766 Y-14.4628
G01 X22.1983 Y-14.3778
G01 X21.8162 Y-14.3115
G01 X21.4314 Y-14.2641
G01 X21.0447 Y-14.2355
G01 X20.7267 Y-14.2277
G01 X20.6924 Y-14.2311
G01 X20.6503 Y-14.2326
G01 X0.2181 Y-14.2326
G01 X0.1715 Y-14.2308
G01 X0.1422 Y-14.2278
G01 X0.1131 Y-14.2234
G01 X0.0842 Y-14.2175
G01 X0.0557 Y-14.2102
G01 X0.0276 Y-14.2016
G01 X-0.0008 Y-14.1913
G00 X-0.0008 Y-14.1913
G01 F70.00
G01 Z-1.2000
G01 F60.00
G01 X-0.0273 Y-14.1833
G01 X-0.0551 Y-14.1735
G01 X-0.0868 Y-14.1603
G01 X-0.1090 Y-14.1499
G01 X-0.1350 Y-14.1361
G01 X-0.1645 Y-14.1184
G01 X-0.1849 Y-14.1048
G01 X-0.2086 Y-14.0873
G01 X-0.2352 Y-14.0655
G01 X-0.2569 Y-14.0457
G01 X-0.2777 Y-14.0248
G01 X-0.2941 Y-14.0066
G01 X-0.3129 Y-13.9839
G01 X-0.3334 Y-13.9563
G01 X-0.3496 Y-13.9317
G01 X-0.3647 Y-13.9064
G01 X-0.3785 Y-13.8804
G01 X-0.3889 Y-13.8582
G01 X-0.4021 Y-13.8265
G01 X-0.4119 Y-13.7987
G01 X-0.4203 Y-13.7705
G01 X-0.4274 Y-13.7419
G01 X-0.4322 Y-13.7178
G01 X-0.4372 Y-13.6838
G01 X-0.4400 Y-13.6545
G01 X-0.4412 Y-13.6300
G01 X-0.4414 Y-0.1190
G01 X-0.4396 Y-0.0725
G01 X-0.4366 Y-0.0432
G01 X-0.4322 Y-0.0141
G01 X-0.4263 Y0.0147
G01 X-0.4191 Y0.0432
G01 X-0.4104 Y0.0714
G01 X-0.4022 Y0.0944
G01 X-0.3891 Y0.1262
G01 X-0.3764 Y0.1527
G01 X-0.3624 Y0.1786
G01 X-0.3472 Y0.2038
G01 X-0.3308 Y0.2282
G01 X-0.3132 Y0.2518
G01 X-0.2944 Y0.2744
G01 X-0.2780 Y0.2926
G01 X-0.2573 Y0.3135
G01 X-0.2356 Y0.3334
G01 X-0.2129 Y0.3522
G01 X-0.1894 Y0.3698
G01 X-0.1650 Y0.3863
G01 X-0.1356 Y0.4040
G01 X-0.1096 Y0.4177
G01 X-0.0830 Y0.4303
G01 X-0.0558 Y0.4414
G01 X-0.0280 Y0.4513
G01 X-0.0046 Y0.4584
G01 X0.0239 Y0.4657
G01 X0.0528 Y0.4716
G01 X0.0818 Y0.4761
G01 X0.1160 Y0.4795
G01 X0.1576 Y0.4810
G01 X98.1064 Y0.6397
G01 X98.1531 Y0.6380
G01 X98.1824 Y0.6350
G01 X98.2115 Y0.6306
G01 X98.2404 Y0.6248
G01 X98.2690 Y0.6175
G01 X98.2972 Y0.6089
G01 X98.3204 Y0.6007
G01 X98.3521 Y0.5875
G01 X98.3788 Y0.5749
G01 X98.4047 Y0.5609
G01 X98.4300 Y0.5456
G01 X98.4544 Y0.5292
G01 X98.4780 Y0.5116
G01 X98.5008 Y0.4928
G01 X98.5190 Y0.4763
G01 X98.5399 Y0.4556
G01 X98.5598 Y0.4338
G01 X98.5787 Y0.4111
G01 X98.5992 Y0.3835
G01 X98.6155 Y0.3589
G01 X98.6305 Y0.3336
G01 X98.6443 Y0.3075
G01 X98.6568 Y0.2808
G01 X98.6680 Y0.2536
G01 X98.6763 Y0.2304
G01 X98.6850 Y0.2023
G01 X98.6923 Y0.1737
G01 X98.6981 Y0.1448
G01 X98.7026 Y0.1157
G01 X98.7060 Y0.0814
G01 X98.7074 Y0.0397
G01 X98.7073 Y-13.6251
G01 X98.7060 Y-13.6545
G01 X98.7026 Y-13.6887
G01 X98.6982 Y-13.7178
G01 X98.6934 Y-13.7419
G01 X98.6850 Y-13.7752
G01 X98.6779 Y-13.7987
G01 X98.6681 Y-13.8265
G01 X98.6549 Y-13.8582
G01 X98.6422 Y-13.8848
G01 X98.6283 Y-13.9107
G01 X98.6156 Y-13.9317
G01 X98.5966 Y-13.9603
G01 X98.5789 Y-13.9839
G01 X98.5633 Y-14.0029
G01 X98.5437 Y-14.0248
G01 X98.5194 Y-14.0491
G01 X98.4975 Y-14.0687
G01 X98.4785 Y-14.0843
G01 X98.4549 Y-14.1020
G01 X98.4263 Y-14.1210
G01 X98.4053 Y-14.1337
G01 X98.3794 Y-14.1476
G01 X98.3528 Y-14.1603
G01 X98.3211 Y-14.1735
G01 X98.2933 Y-14.1833
G01 X98.2651 Y-14.1917
G01 X98.2413 Y-14.1977
G01 X98.2076 Y-14.2044
G01 X98.1784 Y-14.2086
G01 X98.1491 Y-14.2114
G01 X98.1074 Y-14.2128
G01 X72.7714 Y-14.2128
G01 X72.7479 Y-14.2174
G01 X72.7236 Y-14.2210
G01 X72.6894 Y-14.2244
G01 X72.6620 Y-14.2257
G01 X72.2718 Y-14.2350
G01 X71.8968 Y-14.2618
G01 X71.5234 Y-14.3064
G01 X71.1527 Y-14.3688
G01 X70.7853 Y-14.4487
G01 X70.4221 Y-14.5460
G01 X70.0639 Y-14.6605
G01 X69.7116 Y-14.7919
G01 X69.3660 Y-14.9399
G01 X69.0278 Y-15.1042
G01 X68.6978 Y-15.2844
G01 X68.3768 Y-15.4801
G01 X68.0654 Y-15.6908
G01 X67.7644 Y-15.9162
G01 X67.4744 Y-16.1555
G01 X67.1962 Y-16.4085
G01 X66.9304 Y-16.6743
G01 X66.6774 Y-16.9525
G01 X66.4381 Y-17.2425
G01 X66.2127 Y-17.5435
G01 X66.0020 Y-17.8549
G01 X65.8063 Y-18.1759
G01 X65.6261 Y-18.5059
G01 X65.4618 Y-18.8441
G01 X65.3138 Y-19.1897
G01 X65.1824 Y-19.5420
G01 X65.0679 Y-19.9002
G01 X64.9706 Y-20.2634
G01 X64.8907 Y-20.6308
G01 X64.8283 Y-21.0015
G01 X64.7837 Y-21.3749
G01 X64.7569 Y-21.7499
G01 X64.7498 Y-22.0488
G01 X64.7533 Y-22.0840
G01 X64.7547 Y-22.1257
G01 X64.7547 Y-33.0001
G01 X64.7533 Y-33.0418
G01 X64.7505 Y-33.0711
G01 X64.7463 Y-33.1003
G01 X64.7396 Y-33.1340
G01 X64.7323 Y-33.1625
G01 X64.7252 Y-33.1860
G01 X64.7154 Y-33.2138
G01 X64.7042 Y-33.2410
G01 X64.6895 Y-33.2721
G01 X64.6756 Y-33.2980
G01 X64.6603 Y-33.3232
G01 X64.6439 Y-33.3476
G01 X64.6262 Y-33.3712
G01 X64.6074 Y-33.3939
G01 X64.5910 Y-33.4121
G01 X64.5702 Y-33.4330
G01 X64.5485 Y-33.4528
G01 X64.5219 Y-33.4746
G01 X64.4982 Y-33.4921
G01 X64.4736 Y-33.5083
G01 X64.4526 Y-33.5210
G01 X64.4267 Y-33.5349
G01 X64.3956 Y-33.5496
G01 X64.3684 Y-33.5608
G01 X64.3406 Y-33.5706
G01 X64.3124 Y-33.5790
G01 X64.2886 Y-33.5850
G01 X64.2597 Y-33.5909
G01 X64.2306 Y-33.5953
G01 X64.1964 Y-33.5987
G01 X64.1547 Y-33.6001
G01 X29.1373 Y-33.6001
G01 X29.0956 Y-33.5987
G01 X29.0614 Y-33.5953
G01 X29.0323 Y-33.5909
G01 X29.0082 Y-33.5861
G01 X28.9749 Y-33.5777
G01 X28.9468 Y-33.5691
G01 X28.9191 Y-33.5590
G01 X28.8919 Y-33.5476
G01 X28.8697 Y-33.5372
G01 X28.8394 Y-33.5210
G01 X28.8184 Y-33.5083
G01 X28.7938 Y-33.4921
G01 X28.7701 Y-33.4746
G01 X28.7472 Y-33.4560
G01 X28.7218 Y-33.4330
G01 X28.7010 Y-33.4121
G01 X28.6846 Y-33.3939
G01 X28.6628 Y-33.3673
G01 X28.6453 Y-33.3436
G01 X28.6317 Y-33.3232
G01 X28.6164 Y-33.2980
G01 X28.6025 Y-33.2721
G01 X28.5878 Y-33.2410
G01 X28.5766 Y-33.2138
G01 X28.5683 Y-33.1906
G01 X28.5584 Y-33.1578
G01 X28.5524 Y-33.1340
G01 X28.5465 Y-33.1051
G01 X28.5415 Y-33.0711
G01 X28.5391 Y-33.0467
G01 X28.5375 Y-33.0173
G01 X28.5373 Y-22.1257
G01 X28.5465 Y-21.7262
G01 X28.5188 Y-21.3515
G01 X28.4714 Y-20.9667
G01 X28.4051 Y-20.5846
G01 X28.3201 Y-20.2063
G01 X28.2167 Y-19.8326
G01 X28.0951 Y-19.4644
G01 X27.9555 Y-19.1027
G01 X27.7984 Y-18.7482
G01 X27.6241 Y-18.4019
G01 X27.4330 Y-18.0645
G01 X27.2255 Y-17.7369
G01 X27.0023 Y-17.4199
G01 X26.7637 Y-17.1142
G01 X26.5104 Y-16.8206
G01 X26.2431 Y-16.5398
G01 X25.9623 Y-16.2725
G01 X25.6687 Y-16.0192
G01 X25.3630 Y-15.7806
G01 X25.0460 Y-15.5574
G01 X24.7184 Y-15.3499
G01 X24.3810 Y-15.1588
G01 X24.0347 Y-14.9845
G01 X23.6802 Y-14.8274
G01 X23.3185 Y-14.6878
G01 X22.9503 Y-14.5662
G01 X22.5766 Y-14.4628
G01 X22.1983 Y-14.3778
G01 X21.8162 Y-14.3115
G01 X21.4314 Y-14.2641
G01 X21.0447 Y-14.2355
G01 X20.7267 Y-14.2277
G01 X20.6924 Y-14.2311
G01 X20.6503 Y-14.2326
G01 X0.2181 Y-14.2326
G01 X0.1715 Y-14.2308
G01 X0.1422 Y-14.2278
G01 X0.1131 Y-14.2234
G01 X0.0842 Y-14.2175
G01 X0.0557 Y-14.2102
G01 X0.0276 Y-14.2016
G01 X-0.0008 Y-14.1913
G00 X-0.0008 Y-14.1913
G01 F70.00
G01 Z-1.3000
G01 F60.00
G01 X-0.0273 Y-14.1833
G01 X-0.0551 Y-14.1735
G01 X-0.0868 Y-14.1603
G01 X-0.1090 Y-14.1499
G01 X-0.1350 Y-14.1361
G01 X-0.1645 Y-14.1184
G01 X-0.1849 Y-14.1048
G01 X-0.2086 Y-14.0873
G01 X-0.2352 Y-14.0655
G01 X-0.2569 Y-14.0457
G01 X-0.2777 Y-14.0248
G01 X-0.2941 Y-14.0066
G01 X-0.3129 Y-13.9839
G01 X-0.3334 Y-13.9563
G01 X-0.3496 Y-13.9317
G01 X-0.3647 Y-13.9064
G01 X-0.3785 Y-13.8804
G01 X-0.3889 Y-13.8582
G01 X-0.4021 Y-13.8265
G01 X-0.4119 Y-13.7987
G01 X-0.4203 Y-13.7705
G01 X-0.4274 Y-13.7419
G01 X-0.4322 Y-13.7178
G01 X-0.4372 Y-13.6838
G01 X-0.4400 Y-13.6545
G01 X-0.4412 Y-13.6300
G01 X-0.4414 Y-0.1190
G01 X-0.4396 Y-0.0725
G01 X-0.4366 Y-0.0432
G01 X-0.4322 Y-0.0141
G01 X-0.4263 Y0.0147
G01 X-0.4191 Y0.0432
G01 X-0.4104 Y0.0714
G01 X-0.4022 Y0.0944
G01 X-0.3891 Y0.1262
G01 X-0.3764 Y0.1527
G01 X-0.3624 Y0.1786
G01 X-0.3472 Y0.2038
G01 X-0.3308 Y0.2282
G01 X-0.3132 Y0.2518
G01 X-0.2944 Y0.2744
G01 X-0.2780 Y0.2926
G01 X-0.2573 Y0.3135
G01 X-0.2356 Y0.3334
G01 X-0.2129 Y0.3522
G01 X-0.1894 Y0.3698
G01 X-0.1650 Y0.3863
G01 X-0.1356 Y0.4040
G01 X-0.1096 Y0.4177
G01 X-0.0830 Y0.4303
G01 X-0.0558 Y0.4414
G01 X-0.0280 Y0.4513
G01 X-0.0046 Y0.4584
G01 X0.0239 Y0.4657
G01 X0.0528 Y0.4716
G01 X0.0818 Y0.4761
G01 X0.1160 Y0.4795
G01 X0.1576 Y0.4810
G01 X98.1064 Y0.6397
G01 X98.1531 Y0.6380
G01 X98.1824 Y0.6350
G01 X98.2115 Y0.6306
G01 X98.2404 Y0.6248
G01 X98.2690 Y0.6175
G01 X98.2972 Y0.6089
G01 X98.3204 Y0.6007
G01 X98.3521 Y0.5875
G01 X98.3788 Y0.5749
G01 X98.4047 Y0.5609
G01 X98.4300 Y0.5456
G01 X98.4544 Y0.5292
G01 X98.4780 Y0.5116
G01 X98.5008 Y0.4928
G01 X98.5190 Y0.4763
G01 X98.5399 Y0.4556
G01 X98.5598 Y0.4338
G01 X98.5787 Y0.4111
G01 X98.5992 Y0.3835
G01 X98.6155 Y0.3589
G01 X98.6305 Y0.3336
G01 X98.6443 Y0.3075
G01 X98.6568 Y0.2808
G01 X98.6680 Y0.2536
G01 X98.6763 Y0.2304
G01 X98.6850 Y0.2023
G01 X98.6923 Y0.1737
G01 X98.6981 Y0.1448
G01 X98.7026 Y0.1157
G01 X98.7060 Y0.0814
G01 X98.7074 Y0.0397
G01 X98.7073 Y-13.6251
G01 X98.7060 Y-13.6545
G01 X98.7026 Y-13.6887
G01 X98.6982 Y-13.7178
G01 X98.6934 Y-13.7419
G01 X98.6850 Y-13.7752
G01 X98.6779 Y-13.7987
G01 X98.6681 Y-13.8265
G01 X98.6549 Y-13.8582
G01 X98.6422 Y-13.8848
G01 X98.6283 Y-13.9107
G01 X98.6156 Y-13.9317
G01 X98.5966 Y-13.9603
G01 X98.5789 Y-13.9839
G01 X98.5633 Y-14.0029
G01 X98.5437 Y-14.0248
G01 X98.5194 Y-14.0491
G01 X98.4975 Y-14.0687
G01 X98.4785 Y-14.0843
G01 X98.4549 Y-14.1020
G01 X98.4263 Y-14.1210
G01 X98.4053 Y-14.1337
G01 X98.3794 Y-14.1476
G01 X98.3528 Y-14.1603
G01 X98.3211 Y-14.1735
G01 X98.2933 Y-14.1833
G01 X98.2651 Y-14.1917
G01 X98.2413 Y-14.1977
G01 X98.2076 Y-14.2044
G01 X98.1784 Y-14.2086
G01 X98.1491 Y-14.2114
G01 X98.1074 Y-14.2128
G01 X72.7714 Y-14.2128
G01 X72.7479 Y-14.2174
G01 X72.7236 Y-14.2210
G01 X72.6894 Y-14.2244
G01 X72.6620 Y-14.2257
G01 X72.2718 Y-14.2350
G01 X71.8968 Y-14.2618
G01 X71.5234 Y-14.3064
G01 X71.1527 Y-14.3688
G01 X70.7853 Y-14.4487
G01 X70.4221 Y-14.5460
G01 X70.0639 Y-14.6605
G01 X69.7116 Y-14.7919
G01 X69.3660 Y-14.9399
G01 X69.0278 Y-15.1042
G01 X68.6978 Y-15.2844
G01 X68.3768 Y-15.4801
G01 X68.0654 Y-15.6908
G01 X67.7644 Y-15.9162
G01 X67.4744 Y-16.1555
G01 X67.1962 Y-16.4085
G01 X66.9304 Y-16.6743
G01 X66.6774 Y-16.9525
G01 X66.4381 Y-17.2425
G01 X66.2127 Y-17.5435
G01 X66.0020 Y-17.8549
G01 X65.8063 Y-18.1759
G01 X65.6261 Y-18.5059
G01 X65.4618 Y-18.8441
G01 X65.3138 Y-19.1897
G01 X65.1824 Y-19.5420
G01 X65.0679 Y-19.9002
G01 X64.9706 Y-20.2634
G01 X64.8907 Y-20.6308
G01 X64.8283 Y-21.0015
G01 X64.7837 Y-21.3749
G01 X64.7569 Y-21.7499
G01 X64.7498 Y-22.0488
G01 X64.7533 Y-22.0840
G01 X64.7547 Y-22.1257
G01 X64.7547 Y-33.0001
G01 X64.7533 Y-33.0418
G01 X64.7505 Y-33.0711
G01 X64.7463 Y-33.1003
G01 X64.7396 Y-33.1340
G01 X64.7323 Y-33.1625
G01 X64.7252 Y-33.1860
G01 X64.7154 Y-33.2138
G01 X64.7042 Y-33.2410
G01 X64.6895 Y-33.2721
G01 X64.6756 Y-33.2980
G01 X64.6603 Y-33.3232
G01 X64.6439 Y-33.3476
G01 X64.6262 Y-33.3712
G01 X64.6074 Y-33.3939
G01 X64.5910 Y-33.4121
G01 X64.5702 Y-33.4330
G01 X64.5485 Y-33.4528
G01 X64.5219 Y-33.4746
G01 X64.4982 Y-33.4921
G01 X64.4736 Y-33.5083
G01 X64.4526 Y-33.5210
G01 X64.4267 Y-33.5349
G01 X64.3956 Y-33.5496
G01 X64.3684 Y-33.5608
G01 X64.3406 Y-33.5706
G01 X64.3124 Y-33.5790
G01 X64.2886 Y-33.5850
G01 X64.2597 Y-33.5909
G01 X64.2306 Y-33.5953
G01 X64.1964 Y-33.5987
G01 X64.1547 Y-33.6001
G01 X29.1373 Y-33.6001
G01 X29.0956 Y-33.5987
G01 X29.0614 Y-33.5953
G01 X29.0323 Y-33.5909
G01 X29.0082 Y-33.5861
G01 X28.9749 Y-33.5777
G01 X28.9468 Y-33.5691
G01 X28.9191 Y-33.5590
G01 X28.8919 Y-33.5476
G01 X28.8697 Y-33.5372
G01 X28.8394 Y-33.5210
G01 X28.8184 Y-33.5083
G01 X28.7938 Y-33.4921
G01 X28.7701 Y-33.4746
G01 X28.7472 Y-33.4560
G01 X28.7218 Y-33.4330
G01 X28.7010 Y-33.4121
G01 X28.6846 Y-33.3939
G01 X28.6628 Y-33.3673
G01 X28.6453 Y-33.3436
G01 X28.6317 Y-33.3232
G01 X28.6164 Y-33.2980
G01 X28.6025 Y-33.2721
G01 X28.5878 Y-33.2410
G01 X28.5766 Y-33.2138
G01 X28.5683 Y-33.1906
G01 X28.5584 Y-33.1578
G01 X28.5524 Y-33.1340
G01 X28.5465 Y-33.1051
G01 X28.5415 Y-33.0711
G01 X28.5391 Y-33.0467
G01 X28.5375 Y-33.0173
G01 X28.5373 Y-22.1257
G01 X28.5465 Y-21.7262
G01 X28.5188 Y-21.3515
G01 X28.4714 Y-20.9667
G01 X28.4051 Y-20.5846
G01 X28.3201 Y-20.2063
G01 X28.2167 Y-19.8326
G01 X28.0951 Y-19.4644
G01 X27.9555 Y-19.1027
G01 X27.7984 Y-18.7482
G01 X27.6241 Y-18.4019
G01 X27.4330 Y-18.0645
G01 X27.2255 Y-17.7369
G01 X27.0023 Y-17.4199
G01 X26.7637 Y-17.1142
G01 X26.5104 Y-16.8206
G01 X26.2431 Y-16.5398
G01 X25.9623 Y-16.2725
G01 X25.6687 Y-16.0192
G01 X25.3630 Y-15.7806
G01 X25.0460 Y-15.5574
G01 X24.7184 Y-15.3499
G01 X24.3810 Y-15.1588
G01 X24.0347 Y-14.9845
G01 X23.6802 Y-14.8274
G01 X23.3185 Y-14.6878
G01 X22.9503 Y-14.5662
G01 X22.5766 Y-14.4628
G01 X22.1983 Y-14.3778
G01 X21.8162 Y-14.3115
G01 X21.4314 Y-14.2641
G01 X21.0447 Y-14.2355
G01 X20.7267 Y-14.2277
G01 X20.6924 Y-14.2311
G01 X20.6503 Y-14.2326
G01 X0.2181 Y-14.2326
G01 X0.1715 Y-14.2308
G01 X0.1422 Y-14.2278
G01 X0.1131 Y-14.2234
G01 X0.0842 Y-14.2175
G01 X0.0557 Y-14.2102
G01 X0.0276 Y-14.2016
G01 X-0.0008 Y-14.1913
G00 X-0.0008 Y-14.1913
G01 F70.00
G01 Z-1.4000
G01 F60.00
G01 X-0.0273 Y-14.1833
G01 X-0.0551 Y-14.1735
G01 X-0.0868 Y-14.1603
G01 X-0.1090 Y-14.1499
G01 X-0.1350 Y-14.1361
G01 X-0.1645 Y-14.1184
G01 X-0.1849 Y-14.1048
G01 X-0.2086 Y-14.0873
G01 X-0.2352 Y-14.0655
G01 X-0.2569 Y-14.0457
G01 X-0.2777 Y-14.0248
G01 X-0.2941 Y-14.0066
G01 X-0.3129 Y-13.9839
G01 X-0.3334 Y-13.9563
G01 X-0.3496 Y-13.9317
G01 X-0.3647 Y-13.9064
G01 X-0.3785 Y-13.8804
G01 X-0.3889 Y-13.8582
G01 X-0.4021 Y-13.8265
G01 X-0.4119 Y-13.7987
G01 X-0.4203 Y-13.7705
G01 X-0.4274 Y-13.7419
G01 X-0.4322 Y-13.7178
G01 X-0.4372 Y-13.6838
G01 X-0.4400 Y-13.6545
G01 X-0.4412 Y-13.6300
G01 X-0.4414 Y-0.1190
G01 X-0.4396 Y-0.0725
G01 X-0.4366 Y-0.0432
G01 X-0.4322 Y-0.0141
G01 X-0.4263 Y0.0147
G01 X-0.4191 Y0.0432
G01 X-0.4104 Y0.0714
G01 X-0.4022 Y0.0944
G01 X-0.3891 Y0.1262
G01 X-0.3764 Y0.1527
G01 X-0.3624 Y0.1786
G01 X-0.3472 Y0.2038
G01 X-0.3308 Y0.2282
G01 X-0.3132 Y0.2518
G01 X-0.2944 Y0.2744
G01 X-0.2780 Y0.2926
G01 X-0.2573 Y0.3135
G01 X-0.2356 Y0.3334
G01 X-0.2129 Y0.3522
G01 X-0.1894 Y0.3698
G01 X-0.1650 Y0.3863
G01 X-0.1356 Y0.4040
G01 X-0.1096 Y0.4177
G01 X-0.0830 Y0.4303
G01 X-0.0558 Y0.4414
G01 X-0.0280 Y0.4513
G01 X-0.0046 Y0.4584
G01 X0.0239 Y0.4657
G01 X0.0528 Y0.4716
G01 X0.0818 Y0.4761
G01 X0.1160 Y0.4795
G01 X0.1576 Y0.4810
G01 X98.1064 Y0.6397
G01 X98.1531 Y0.6380
G01 X98.1824 Y0.6350
G01 X98.2115 Y0.6306
G01 X98.2404 Y0.6248
G01 X98.2690 Y0.6175
G01 X98.2972 Y0.6089
G01 X98.3204 Y0.6007
G01 X98.3521 Y0.5875
G01 X98.3788 Y0.5749
G01 X98.4047 Y0.5609
G01 X98.4300 Y0.5456
G01 X98.4544 Y0.5292
G01 X98.4780 Y0.5116
G01 X98.5008 Y0.4928
G01 X98.5190 Y0.4763
G01 X98.5399 Y0.4556
G01 X98.5598 Y0.4338
G01 X98.5787 Y0.4111
G01 X98.5992 Y0.3835
G01 X98.6155 Y0.3589
G01 X98.6305 Y0.3336
G01 X98.6443 Y0.3075
G01 X98.6568 Y0.2808
G01 X98.6680 Y0.2536
G01 X98.6763 Y0.2304
G01 X98.6850 Y0.2023
G01 X98.6923 Y0.1737
G01 X98.6981 Y0.1448
G01 X98.7026 Y0.1157
G01 X98.7060 Y0.0814
G01 X98.7074 Y0.0397
G01 X98.7073 Y-13.6251
G01 X98.7060 Y-13.6545
G01 X98.7026 Y-13.6887
G01 X98.6982 Y-13.7178
G01 X98.6934 Y-13.7419
G01 X98.6850 Y-13.7752
G01 X98.6779 Y-13.7987
G01 X98.6681 Y-13.8265
G01 X98.6549 Y-13.8582
G01 X98.6422 Y-13.8848
G01 X98.6283 Y-13.9107
G01 X98.6156 Y-13.9317
G01 X98.5966 Y-13.9603
G01 X98.5789 Y-13.9839
G01 X98.5633 Y-14.0029
G01 X98.5437 Y-14.0248
G01 X98.5194 Y-14.0491
G01 X98.4975 Y-14.0687
G01 X98.4785 Y-14.0843
G01 X98.4549 Y-14.1020
G01 X98.4263 Y-14.1210
G01 X98.4053 Y-14.1337
G01 X98.3794 Y-14.1476
G01 X98.3528 Y-14.1603
G01 X98.3211 Y-14.1735
G01 X98.2933 Y-14.1833
G01 X98.2651 Y-14.1917
G01 X98.2413 Y-14.1977
G01 X98.2076 Y-14.2044
G01 X98.1784 Y-14.2086
G01 X98.1491 Y-14.2114
G01 X98.1074 Y-14.2128
G01 X72.7714 Y-14.2128
G01 X72.7479 Y-14.2174
G01 X72.7236 Y-14.2210
G01 X72.6894 Y-14.2244
G01 X72.6620 Y-14.2257
G01 X72.2718 Y-14.2350
G01 X71.8968 Y-14.2618
G01 X71.5234 Y-14.3064
G01 X71.1527 Y-14.3688
G01 X70.7853 Y-14.4487
G01 X70.4221 Y-14.5460
G01 X70.0639 Y-14.6605
G01 X69.7116 Y-14.7919
G01 X69.3660 Y-14.9399
G01 X69.0278 Y-15.1042
G01 X68.6978 Y-15.2844
G01 X68.3768 Y-15.4801
G01 X68.0654 Y-15.6908
G01 X67.7644 Y-15.9162
G01 X67.4744 Y-16.1555
G01 X67.1962 Y-16.4085
G01 X66.9304 Y-16.6743
G01 X66.6774 Y-16.9525
G01 X66.4381 Y-17.2425
G01 X66.2127 Y-17.5435
G01 X66.0020 Y-17.8549
G01 X65.8063 Y-18.1759
G01 X65.6261 Y-18.5059
G01 X65.4618 Y-18.8441
G01 X65.3138 Y-19.1897
G01 X65.1824 Y-19.5420
G01 X65.0679 Y-19.9002
G01 X64.9706 Y-20.2634
G01 X64.8907 Y-20.6308
G01 X64.8283 Y-21.0015
G01 X64.7837 Y-21.3749
G01 X64.7569 Y-21.7499
G01 X64.7498 Y-22.0488
G01 X64.7533 Y-22.0840
G01 X64.7547 Y-22.1257
G01 X64.7547 Y-33.0001
G01 X64.7533 Y-33.0418
G01 X64.7505 Y-33.0711
G01 X64.7463 Y-33.1003
G01 X64.7396 Y-33.1340
G01 X64.7323 Y-33.1625
G01 X64.7252 Y-33.1860
G01 X64.7154 Y-33.2138
G01 X64.7042 Y-33.2410
G01 X64.6895 Y-33.2721
G01 X64.6756 Y-33.2980
G01 X64.6603 Y-33.3232
G01 X64.6439 Y-33.3476
G01 X64.6262 Y-33.3712
G01 X64.6074 Y-33.3939
G01 X64.5910 Y-33.4121
G01 X64.5702 Y-33.4330
G01 X64.5485 Y-33.4528
G01 X64.5219 Y-33.4746
G01 X64.4982 Y-33.4921
G01 X64.4736 Y-33.5083
G01 X64.4526 Y-33.5210
G01 X64.4267 Y-33.5349
G01 X64.3956 Y-33.5496
G01 X64.3684 Y-33.5608
G01 X64.3406 Y-33.5706
G01 X64.3124 Y-33.5790
G01 X64.2886 Y-33.5850
G01 X64.2597 Y-33.5909
G01 X64.2306 Y-33.5953
G01 X64.1964 Y-33.5987
G01 X64.1547 Y-33.6001
G01 X29.1373 Y-33.6001
G01 X29.0956 Y-33.5987
G01 X29.0614 Y-33.5953
G01 X29.0323 Y-33.5909
G01 X29.0082 Y-33.5861
G01 X28.9749 Y-33.5777
G01 X28.9468 Y-33.5691
G01 X28.9191 Y-33.5590
G01 X28.8919 Y-33.5476
G01 X28.8697 Y-33.5372
G01 X28.8394 Y-33.5210
G01 X28.8184 Y-33.5083
G01 X28.7938 Y-33.4921
G01 X28.7701 Y-33.4746
G01 X28.7472 Y-33.4560
G01 X28.7218 Y-33.4330
G01 X28.7010 Y-33.4121
G01 X28.6846 Y-33.3939
G01 X28.6628 Y-33.3673
G01 X28.6453 Y-33.3436
G01 X28.6317 Y-33.3232
G01 X28.6164 Y-33.2980
G01 X28.6025 Y-33.2721
G01 X28.5878 Y-33.2410
G01 X28.5766 Y-33.2138
G01 X28.5683 Y-33.1906
G01 X28.5584 Y-33.1578
G01 X28.5524 Y-33.1340
G01 X28.5465 Y-33.1051
G01 X28.5415 Y-33.0711
G01 X28.5391 Y-33.0467
G01 X28.5375 Y-33.0173
G01 X28.5373 Y-22.1257
G01 X28.5465 Y-21.7262
G01 X28.5188 Y-21.3515
G01 X28.4714 Y-20.9667
G01 X28.4051 Y-20.5846
G01 X28.3201 Y-20.2063
G01 X28.2167 Y-19.8326
G01 X28.0951 Y-19.4644
G01 X27.9555 Y-19.1027
G01 X27.7984 Y-18.7482
G01 X27.6241 Y-18.4019
G01 X27.4330 Y-18.0645
G01 X27.2255 Y-17.7369
G01 X27.0023 Y-17.4199
G01 X26.7637 Y-17.1142
G01 X26.5104 Y-16.8206
G01 X26.2431 Y-16.5398
G01 X25.9623 Y-16.2725
G01 X25.6687 Y-16.0192
G01 X25.3630 Y-15.7806
G01 X25.0460 Y-15.5574
G01 X24.7184 Y-15.3499
G01 X24.3810 Y-15.1588
G01 X24.0347 Y-14.9845
G01 X23.6802 Y-14.8274
G01 X23.3185 Y-14.6878
G01 X22.9503 Y-14.5662
G01 X22.5766 Y-14.4628
G01 X22.1983 Y-14.3778
G01 X21.8162 Y-14.3115
G01 X21.4314 Y-14.2641
G01 X21.0447 Y-14.2355
G01 X20.7267 Y-14.2277
G01 X20.6924 Y-14.2311
G01 X20.6503 Y-14.2326
G01 X0.2181 Y-14.2326
G01 X0.1715 Y-14.2308
G01 X0.1422 Y-14.2278
G01 X0.1131 Y-14.2234
G01 X0.0842 Y-14.2175
G01 X0.0557 Y-14.2102
G01 X0.0276 Y-14.2016
G01 X-0.0008 Y-14.1913
G00 X-0.0008 Y-14.1913
G01 F70.00
G01 Z-1.5000
G01 F60.00
G01 X-0.0273 Y-14.1833
G01 X-0.0551 Y-14.1735
G01 X-0.0868 Y-14.1603
G01 X-0.1090 Y-14.1499
G01 X-0.1350 Y-14.1361
G01 X-0.1645 Y-14.1184
G01 X-0.1849 Y-14.1048
G01 X-0.2086 Y-14.0873
G01 X-0.2352 Y-14.0655
G01 X-0.2569 Y-14.0457
G01 X-0.2777 Y-14.0248
G01 X-0.2941 Y-14.0066
G01 X-0.3129 Y-13.9839
G01 X-0.3334 Y-13.9563
G01 X-0.3496 Y-13.9317
G01 X-0.3647 Y-13.9064
G01 X-0.3785 Y-13.8804
G01 X-0.3889 Y-13.8582
G01 X-0.4021 Y-13.8265
G01 X-0.4119 Y-13.7987
G01 X-0.4203 Y-13.7705
G01 X-0.4274 Y-13.7419
G01 X-0.4322 Y-13.7178
G01 X-0.4372 Y-13.6838
G01 X-0.4400 Y-13.6545
G01 X-0.4412 Y-13.6300
G01 X-0.4414 Y-0.1190
G01 X-0.4396 Y-0.0725
G01 X-0.4366 Y-0.0432
G01 X-0.4322 Y-0.0141
G01 X-0.4263 Y0.0147
G01 X-0.4191 Y0.0432
G01 X-0.4104 Y0.0714
G01 X-0.4022 Y0.0944
G01 X-0.3891 Y0.1262
G01 X-0.3764 Y0.1527
G01 X-0.3624 Y0.1786
G01 X-0.3472 Y0.2038
G01 X-0.3308 Y0.2282
G01 X-0.3132 Y0.2518
G01 X-0.2944 Y0.2744
G01 X-0.2780 Y0.2926
G01 X-0.2573 Y0.3135
G01 X-0.2356 Y0.3334
G01 X-0.2129 Y0.3522
G01 X-0.1894 Y0.3698
G01 X-0.1650 Y0.3863
G01 X-0.1356 Y0.4040
G01 X-0.1096 Y0.4177
G01 X-0.0830 Y0.4303
G01 X-0.0558 Y0.4414
G01 X-0.0280 Y0.4513
G01 X-0.0046 Y0.4584
G01 X0.0239 Y0.4657
G01 X0.0528 Y0.4716
G01 X0.0818 Y0.4761
G01 X0.1160 Y0.4795
G01 X0.1576 Y0.4810
G01 X98.1064 Y0.6397
G01 X98.1531 Y0.6380
G01 X98.1824 Y0.6350
G01 X98.2115 Y0.6306
G01 X98.2404 Y0.6248
G01 X98.2690 Y0.6175
G01 X98.2972 Y0.6089
G01 X98.3204 Y0.6007
G01 X98.3521 Y0.5875
G01 X98.3788 Y0.5749
G01 X98.4047 Y0.5609
G01 X98.4300 Y0.5456
G01 X98.4544 Y0.5292
G01 X98.4780 Y0.5116
G01 X98.5008 Y0.4928
G01 X98.5190 Y0.4763
G01 X98.5399 Y0.4556
G01 X98.5598 Y0.4338
G01 X98.5787 Y0.4111
G01 X98.5992 Y0.3835
G01 X98.6155 Y0.3589
G01 X98.6305 Y0.3336
G01 X98.6443 Y0.3075
G01 X98.6568 Y0.2808
G01 X98.6680 Y0.2536
G01 X98.6763 Y0.2304
G01 X98.6850 Y0.2023
G01 X98.6923 Y0.1737
G01 X98.6981 Y0.1448
G01 X98.7026 Y0.1157
G01 X98.7060 Y0.0814
G01 X98.7074 Y0.0397
G01 X98.7073 Y-13.6251
G01 X98.7060 Y-13.6545
G01 X98.7026 Y-13.6887
G01 X98.6982 Y-13.7178
G01 X98.6934 Y-13.7419
G01 X98.6850 Y-13.7752
G01 X98.6779 Y-13.7987
G01 X98.6681 Y-13.8265
G01 X98.6549 Y-13.8582
G01 X98.6422 Y-13.8848
G01 X98.6283 Y-13.9107
G01 X98.6156 Y-13.9317
G01 X98.5966 Y-13.9603
G01 X98.5789 Y-13.9839
G01 X98.5633 Y-14.0029
G01 X98.5437 Y-14.0248
G01 X98.5194 Y-14.0491
G01 X98.4975 Y-14.0687
G01 X98.4785 Y-14.0843
G01 X98.4549 Y-14.1020
G01 X98.4263 Y-14.1210
G01 X98.4053 Y-14.1337
G01 X98.3794 Y-14.1476
G01 X98.3528 Y-14.1603
G01 X98.3211 Y-14.1735
G01 X98.2933 Y-14.1833
G01 X98.2651 Y-14.1917
G01 X98.2413 Y-14.1977
G01 X98.2076 Y-14.2044
G01 X98.1784 Y-14.2086
G01 X98.1491 Y-14.2114
G01 X98.1074 Y-14.2128
G01 X72.7714 Y-14.2128
G01 X72.7479 Y-14.2174
G01 X72.7236 Y-14.2210
G01 X72.6894 Y-14.2244
G01 X72.6620 Y-14.2257
G01 X72.2718 Y-14.2350
G01 X71.8968 Y-14.2618
G01 X71.5234 Y-14.3064
G01 X71.1527 Y-14.3688
G01 X70.7853 Y-14.4487
G01 X70.4221 Y-14.5460
G01 X70.0639 Y-14.6605
G01 X69.7116 Y-14.7919
G01 X69.3660 Y-14.9399
G01 X69.0278 Y-15.1042
G01 X68.6978 Y-15.2844
G01 X68.3768 Y-15.4801
G01 X68.0654 Y-15.6908
G01 X67.7644 Y-15.9162
G01 X67.4744 Y-16.1555
G01 X67.1962 Y-16.4085
G01 X66.9304 Y-16.6743
G01 X66.6774 Y-16.9525
G01 X66.4381 Y-17.2425
G01 X66.2127 Y-17.5435
G01 X66.0020 Y-17.8549
G01 X65.8063 Y-18.1759
G01 X65.6261 Y-18.5059
G01 X65.4618 Y-18.8441
G01 X65.3138 Y-19.1897
G01 X65.1824 Y-19.5420
G01 X65.0679 Y-19.9002
G01 X64.9706 Y-20.2634
G01 X64.8907 Y-20.6308
G01 X64.8283 Y-21.0015
G01 X64.7837 Y-21.3749
G01 X64.7569 Y-21.7499
G01 X64.7498 Y-22.0488
G01 X64.7533 Y-22.0840
G01 X64.7547 Y-22.1257
G01 X64.7547 Y-33.0001
G01 X64.7533 Y-33.0418
G01 X64.7505 Y-33.0711
G01 X64.7463 Y-33.1003
G01 X64.7396 Y-33.1340
G01 X64.7323 Y-33.1625
G01 X64.7252 Y-33.1860
G01 X64.7154 Y-33.2138
G01 X64.7042 Y-33.2410
G01 X64.6895 Y-33.2721
G01 X64.6756 Y-33.2980
G01 X64.6603 Y-33.3232
G01 X64.6439 Y-33.3476
G01 X64.6262 Y-33.3712
G01 X64.6074 Y-33.3939
G01 X64.5910 Y-33.4121
G01 X64.5702 Y-33.4330
G01 X64.5485 Y-33.4528
G01 X64.5219 Y-33.4746
G01 X64.4982 Y-33.4921
G01 X64.4736 Y-33.5083
G01 X64.4526 Y-33.5210
G01 X64.4267 Y-33.5349
G01 X64.3956 Y-33.5496
G01 X64.3684 Y-33.5608
G01 X64.3406 Y-33.5706
G01 X64.3124 Y-33.5790
G01 X64.2886 Y-33.5850
G01 X64.2597 Y-33.5909
G01 X64.2306 Y-33.5953
G01 X64.1964 Y-33.5987
G01 X64.1547 Y-33.6001
G01 X29.1373 Y-33.6001
G01 X29.0956 Y-33.5987
G01 X29.0614 Y-33.5953
G01 X29.0323 Y-33.5909
G01 X29.0082 Y-33.5861
G01 X28.9749 Y-33.5777
G01 X28.9468 Y-33.5691
G01 X28.9191 Y-33.5590
G01 X28.8919 Y-33.5476
G01 X28.8697 Y-33.5372
G01 X28.8394 Y-33.5210
G01 X28.8184 Y-33.5083
G01 X28.7938 Y-33.4921
G01 X28.7701 Y-33.4746
G01 X28.7472 Y-33.4560
G01 X28.7218 Y-33.4330
G01 X28.7010 Y-33.4121
G01 X28.6846 Y-33.3939
G01 X28.6628 Y-33.3673
G01 X28.6453 Y-33.3436
G01 X28.6317 Y-33.3232
G01 X28.6164 Y-33.2980
G01 X28.6025 Y-33.2721
G01 X28.5878 Y-33.2410
G01 X28.5766 Y-33.2138
G01 X28.5683 Y-33.1906
G01 X28.5584 Y-33.1578
G01 X28.5524 Y-33.1340
G01 X28.5465 Y-33.1051
G01 X28.5415 Y-33.0711
G01 X28.5391 Y-33.0467
G01 X28.5375 Y-33.0173
G01 X28.5373 Y-22.1257
G01 X28.5465 Y-21.7262
G01 X28.5188 Y-21.3515
G01 X28.4714 Y-20.9667
G01 X28.4051 Y-20.5846
G01 X28.3201 Y-20.2063
G01 X28.2167 Y-19.8326
G01 X28.0951 Y-19.4644
G01 X27.9555 Y-19.1027
G01 X27.7984 Y-18.7482
G01 X27.6241 Y-18.4019
G01 X27.4330 Y-18.0645
G01 X27.2255 Y-17.7369
G01 X27.0023 Y-17.4199
G01 X26.7637 Y-17.1142
G01 X26.5104 Y-16.8206
G01 X26.2431 Y-16.5398
G01 X25.9623 Y-16.2725
G01 X25.6687 Y-16.0192
G01 X25.3630 Y-15.7806
G01 X25.0460 Y-15.5574
G01 X24.7184 Y-15.3499
G01 X24.3810 Y-15.1588
G01 X24.0347 Y-14.9845
G01 X23.6802 Y-14.8274
G01 X23.3185 Y-14.6878
G01 X22.9503 Y-14.5662
G01 X22.5766 Y-14.4628
G01 X22.1983 Y-14.3778
G01 X21.8162 Y-14.3115
G01 X21.4314 Y-14.2641
G01 X21.0447 Y-14.2355
G01 X20.7267 Y-14.2277
G01 X20.6924 Y-14.2311
G01 X20.6503 Y-14.2326
G01 X0.2181 Y-14.2326
G01 X0.1715 Y-14.2308
G01 X0.1422 Y-14.2278
G01 X0.1131 Y-14.2234
G01 X0.0842 Y-14.2175
G01 X0.0557 Y-14.2102
G01 X0.0276 Y-14.2016
G01 X-0.0008 Y-14.1913
G00 X-0.0008 Y-14.1913
G01 F70.00
G01 Z-1.6000
G01 F60.00
G01 X-0.0273 Y-14.1833
G01 X-0.0551 Y-14.1735
G01 X-0.0868 Y-14.1603
G01 X-0.1090 Y-14.1499
G01 X-0.1350 Y-14.1361
G01 X-0.1645 Y-14.1184
G01 X-0.1849 Y-14.1048
G01 X-0.2086 Y-14.0873
G01 X-0.2352 Y-14.0655
G01 X-0.2569 Y-14.0457
G01 X-0.2777 Y-14.0248
G01 X-0.2941 Y-14.0066
G01 X-0.3129 Y-13.9839
G01 X-0.3334 Y-13.9563
G01 X-0.3496 Y-13.9317
G01 X-0.3647 Y-13.9064
G01 X-0.3785 Y-13.8804
G01 X-0.3889 Y-13.8582
G01 X-0.4021 Y-13.8265
G01 X-0.4119 Y-13.7987
G01 X-0.4203 Y-13.7705
G01 X-0.4274 Y-13.7419
G01 X-0.4322 Y-13.7178
G01 X-0.4372 Y-13.6838
G01 X-0.4400 Y-13.6545
G01 X-0.4412 Y-13.6300
G01 X-0.4414 Y-0.1190
G01 X-0.4396 Y-0.0725
G01 X-0.4366 Y-0.0432
G01 X-0.4322 Y-0.0141
G01 X-0.4263 Y0.0147
G01 X-0.4191 Y0.0432
G01 X-0.4104 Y0.0714
G01 X-0.4022 Y0.0944
G01 X-0.3891 Y0.1262
G01 X-0.3764 Y0.1527
G01 X-0.3624 Y0.1786
G01 X-0.3472 Y0.2038
G01 X-0.3308 Y0.2282
G01 X-0.3132 Y0.2518
G01 X-0.2944 Y0.2744
G01 X-0.2780 Y0.2926
G01 X-0.2573 Y0.3135
G01 X-0.2356 Y0.3334
G01 X-0.2129 Y0.3522
G01 X-0.1894 Y0.3698
G01 X-0.1650 Y0.3863
G01 X-0.1356 Y0.4040
G01 X-0.1096 Y0.4177
G01 X-0.0830 Y0.4303
G01 X-0.0558 Y0.4414
G01 X-0.0280 Y0.4513
G01 X-0.0046 Y0.4584
G01 X0.0239 Y0.4657
G01 X0.0528 Y0.4716
G01 X0.0818 Y0.4761
G01 X0.1160 Y0.4795
G01 X0.1576 Y0.4810
G01 X98.1064 Y0.6397
G01 X98.1531 Y0.6380
G01 X98.1824 Y0.6350
G01 X98.2115 Y0.6306
G01 X98.2404 Y0.6248
G01 X98.2690 Y0.6175
G01 X98.2972 Y0.6089
G01 X98.3204 Y0.6007
G01 X98.3521 Y0.5875
G01 X98.3788 Y0.5749
G01 X98.4047 Y0.5609
G01 X98.4300 Y0.5456
G01 X98.4544 Y0.5292
G01 X98.4780 Y0.5116
G01 X98.5008 Y0.4928
G01 X98.5190 Y0.4763
G01 X98.5399 Y0.4556
G01 X98.5598 Y0.4338
G01 X98.5787 Y0.4111
G01 X98.5992 Y0.3835
G01 X98.6155 Y0.3589
G01 X98.6305 Y0.3336
G01 X98.6443 Y0.3075
G01 X98.6568 Y0.2808
G01 X98.6680 Y0.2536
G01 X98.6763 Y0.2304
G01 X98.6850 Y0.2023
G01 X98.6923 Y0.1737
G01 X98.6981 Y0.1448
G01 X98.7026 Y0.1157
G01 X98.7060 Y0.0814
G01 X98.7074 Y0.0397
G01 X98.7073 Y-13.6251
G01 X98.7060 Y-13.6545
G01 X98.7026 Y-13.6887
G01 X98.6982 Y-13.7178
G01 X98.6934 Y-13.7419
G01 X98.6850 Y-13.7752
G01 X98.6779 Y-13.7987
G01 X98.6681 Y-13.8265
G01 X98.6549 Y-13.8582
G01 X98.6422 Y-13.8848
G01 X98.6283 Y-13.9107
G01 X98.6156 Y-13.9317
G01 X98.5966 Y-13.9603
G01 X98.5789 Y-13.9839
G01 X98.5633 Y-14.0029
G01 X98.5437 Y-14.0248
G01 X98.5194 Y-14.0491
G01 X98.4975 Y-14.0687
G01 X98.4785 Y-14.0843
G01 X98.4549 Y-14.1020
G01 X98.4263 Y-14.1210
G01 X98.4053 Y-14.1337
G01 X98.3794 Y-14.1476
G01 X98.3528 Y-14.1603
G01 X98.3211 Y-14.1735
G01 X98.2933 Y-14.1833
G01 X98.2651 Y-14.1917
G01 X98.2413 Y-14.1977
G01 X98.2076 Y-14.2044
G01 X98.1784 Y-14.2086
G01 X98.1491 Y-14.2114
G01 X98.1074 Y-14.2128
G01 X72.7714 Y-14.2128
G01 X72.7479 Y-14.2174
G01 X72.7236 Y-14.2210
G01 X72.6894 Y-14.2244
G01 X72.6620 Y-14.2257
G01 X72.2718 Y-14.2350
G01 X71.8968 Y-14.2618
G01 X71.5234 Y-14.3064
G01 X71.1527 Y-14.3688
G01 X70.7853 Y-14.4487
G01 X70.4221 Y-14.5460
G01 X70.0639 Y-14.6605
G01 X69.7116 Y-14.7919
G01 X69.3660 Y-14.9399
G01 X69.0278 Y-15.1042
G01 X68.6978 Y-15.2844
G01 X68.3768 Y-15.4801
G01 X68.0654 Y-15.6908
G01 X67.7644 Y-15.9162
G01 X67.4744 Y-16.1555
G01 X67.1962 Y-16.4085
G01 X66.9304 Y-16.6743
G01 X66.6774 Y-16.9525
G01 X66.4381 Y-17.2425
G01 X66.2127 Y-17.5435
G01 X66.0020 Y-17.8549
G01 X65.8063 Y-18.1759
G01 X65.6261 Y-18.5059
G01 X65.4618 Y-18.8441
G01 X65.3138 Y-19.1897
G01 X65.1824 Y-19.5420
G01 X65.0679 Y-19.9002
G01 X64.9706 Y-20.2634
G01 X64.8907 Y-20.6308
G01 X64.8283 Y-21.0015
G01 X64.7837 Y-21.3749
G01 X64.7569 Y-21.7499
G01 X64.7498 Y-22.0488
G01 X64.7533 Y-22.0840
G01 X64.7547 Y-22.1257
G01 X64.7547 Y-33.0001
G01 X64.7533 Y-33.0418
G01 X64.7505 Y-33.0711
G01 X64.7463 Y-33.1003
G01 X64.7396 Y-33.1340
G01 X64.7323 Y-33.1625
G01 X64.7252 Y-33.1860
G01 X64.7154 Y-33.2138
G01 X64.7042 Y-33.2410
G01 X64.6895 Y-33.2721
G01 X64.6756 Y-33.2980
G01 X64.6603 Y-33.3232
G01 X64.6439 Y-33.3476
G01 X64.6262 Y-33.3712
G01 X64.6074 Y-33.3939
G01 X64.5910 Y-33.4121
G01 X64.5702 Y-33.4330
G01 X64.5485 Y-33.4528
G01 X64.5219 Y-33.4746
G01 X64.4982 Y-33.4921
G01 X64.4736 Y-33.5083
G01 X64.4526 Y-33.5210
G01 X64.4267 Y-33.5349
G01 X64.3956 Y-33.5496
G01 X64.3684 Y-33.5608
G01 X64.3406 Y-33.5706
G01 X64.3124 Y-33.5790
G01 X64.2886 Y-33.5850
G01 X64.2597 Y-33.5909
G01 X64.2306 Y-33.5953
G01 X64.1964 Y-33.5987
G01 X64.1547 Y-33.6001
G01 X29.1373 Y-33.6001
G01 X29.0956 Y-33.5987
G01 X29.0614 Y-33.5953
G01 X29.0323 Y-33.5909
G01 X29.0082 Y-33.5861
G01 X28.9749 Y-33.5777
G01 X28.9468 Y-33.5691
G01 X28.9191 Y-33.5590
G01 X28.8919 Y-33.5476
G01 X28.8697 Y-33.5372
G01 X28.8394 Y-33.5210
G01 X28.8184 Y-33.5083
G01 X28.7938 Y-33.4921
G01 X28.7701 Y-33.4746
G01 X28.7472 Y-33.4560
G01 X28.7218 Y-33.4330
G01 X28.7010 Y-33.4121
G01 X28.6846 Y-33.3939
G01 X28.6628 Y-33.3673
G01 X28.6453 Y-33.3436
G01 X28.6317 Y-33.3232
G01 X28.6164 Y-33.2980
G01 X28.6025 Y-33.2721
G01 X28.5878 Y-33.2410
G01 X28.5766 Y-33.2138
G01 X28.5683 Y-33.1906
G01 X28.5584 Y-33.1578
G01 X28.5524 Y-33.1340
G01 X28.5465 Y-33.1051
G01 X28.5415 Y-33.0711
G01 X28.5391 Y-33.0467
G01 X28.5375 Y-33.0173
G01 X28.5373 Y-22.1257
G01 X28.5465 Y-21.7262
G01 X28.5188 Y-21.3515
G01 X28.4714 Y-20.9667
G01 X28.4051 Y-20.5846
G01 X28.3201 Y-20.2063
G01 X28.2167 Y-19.8326
G01 X28.0951 Y-19.4644
G01 X27.9555 Y-19.1027
G01 X27.7984 Y-18.7482
G01 X27.6241 Y-18.4019
G01 X27.4330 Y-18.0645
G01 X27.2255 Y-17.7369
G01 X27.0023 Y-17.4199
G01 X26.7637 Y-17.1142
G01 X26.5104 Y-16.8206
G01 X26.2431 Y-16.5398
G01 X25.9623 Y-16.2725
G01 X25.6687 Y-16.0192
G01 X25.3630 Y-15.7806
G01 X25.0460 Y-15.5574
G01 X24.7184 Y-15.3499
G01 X24.3810 Y-15.1588
G01 X24.0347 Y-14.9845
G01 X23.6802 Y-14.8274
G01 X23.3185 Y-14.6878
G01 X22.9503 Y-14.5662
G01 X22.5766 Y-14.4628
G01 X22.1983 Y-14.3778
G01 X21.8162 Y-14.3115
G01 X21.4314 Y-14.2641
G01 X21.0447 Y-14.2355
G01 X20.7267 Y-14.2277
G01 X20.6924 Y-14.2311
G01 X20.6503 Y-14.2326
G01 X0.2181 Y-14.2326
G01 X0.1715 Y-14.2308
G01 X0.1422 Y-14.2278
G01 X0.1131 Y-14.2234
G01 X0.0842 Y-14.2175
G01 X0.0557 Y-14.2102
G01 X0.0276 Y-14.2016
G01 X-0.0008 Y-14.1913
G00 Z2.0000
M05
G00 Z2.0000
G00 Z25.00

