(G-CODE GENERATED BY FLATCAM v8.993 - www.flatcam.org - Version Date: 2020/06/05)

(Name: Syntez2_Ф1_верх.gbr_iso_combined_1_cnc)
(Type: G-code from Geometry)
(Units: MM)

(Created on Thursday, 24 September 2020 at 01:52)

(This preprocessor is the default preprocessor used by FlatCAM.)
(It is made to work with MACH3 compatible motion controllers.)

(TOOL DIAMETER: 0.15 mm)
(Feedrate_XY: 120.0 mm/min)
(Feedrate_Z: 60.0 mm/min)
(Feedrate rapids 1500.0 mm/min)

(Z_Cut: -0.0933 mm)
(Z_Move: 2.0 mm)
(Z Start: None mm)
(Z End: 25.0 mm)
(Steps per circle: 128)
(Preprocessor Geometry: default)

(X range:    0.7126 ...   98.5414  mm)
(Y range:  -33.1363 ...   -0.6359  mm)

(Spindle Speed: None RPM)
G21
G90
G94



G01 F120.00
G00 Z2.0000

M03
G00 X1.1547 Y-1.6297
G01 F60.00
G01 Z-0.0933
G01 F120.00
G01 X1.1517 Y-1.6315
G01 X1.1483 Y-1.6309
G01 X1.1464 Y-1.6280
G01 X1.1470 Y-1.6246
G01 X1.4802 Y-1.2912
G01 X1.4837 Y-1.2893
G01 X1.4873 Y-1.2906
G01 X1.4886 Y-1.2947
G01 X1.4886 Y-2.1817
G01 X1.4882 Y-2.1845
G01 X1.4864 Y-2.1865
G01 X1.4841 Y-2.1871
G01 X1.4816 Y-2.1864
G01 X1.4799 Y-2.1843
G01 X1.4796 Y-2.1817
G01 X1.4795 Y-1.4840
G01 X1.4786 Y-1.4739
G01 X1.4766 Y-1.4649
G01 X1.4731 Y-1.4554
G01 X1.4689 Y-1.4473
G01 X1.4601 Y-1.4355
G01 X1.4492 Y-1.4256
G01 X1.4366 Y-1.4180
G01 X1.4228 Y-1.4131
G01 X1.4092 Y-1.4110
G01 X1.3945 Y-1.4115
G01 X1.3802 Y-1.4149
G01 X1.3668 Y-1.4210
G01 X1.3591 Y-1.4261
G01 X1.3522 Y-1.4321
G01 X1.1547 Y-1.6297
G00 Z2.0000
G00 X1.7918 Y-2.0191
G01 F60.00
G01 Z-0.0933
G01 F120.00
G01 X1.7907 Y-2.0158
G01 X1.7922 Y-2.0127
G01 X1.7954 Y-2.0115
G01 X1.7985 Y-2.0130
G01 X1.8538 Y-2.1047
G01 X1.8617 Y-2.1148
G01 X1.8712 Y-2.1234
G01 X1.8788 Y-2.1285
G01 X1.8878 Y-2.1330
G01 X1.9831 Y-2.1726
G01 X1.9973 Y-2.1768
G01 X2.0102 Y-2.1781
G01 X2.1135 Y-2.1781
G01 X2.1218 Y-2.1775
G01 X2.1309 Y-2.1758
G01 X2.1414 Y-2.1723
G01 X2.2409 Y-2.1307
G01 X2.2488 Y-2.1260
G01 X2.2561 Y-2.1205
G01 X2.2626 Y-2.1141
G01 X2.2684 Y-2.1069
G01 X2.3142 Y-2.0310
G01 X2.3189 Y-2.0210
G01 X2.3219 Y-2.0113
G01 X2.3239 Y-1.9958
G01 X2.3239 Y-1.9251
G01 X2.3225 Y-1.9123
G01 X2.3189 Y-1.8999
G01 X2.3137 Y-1.8891
G01 X2.2704 Y-1.8170
G01 X2.2633 Y-1.8075
G01 X2.2547 Y-1.7992
G01 X2.2465 Y-1.7934
G01 X2.2376 Y-1.7887
G01 X2.1266 Y-1.7423
G01 X2.1247 Y-1.7407
G01 X2.1240 Y-1.7382
G01 X2.1247 Y-1.7357
G01 X2.1266 Y-1.7341
G01 X2.2376 Y-1.6877
G01 X2.2465 Y-1.6830
G01 X2.2547 Y-1.6772
G01 X2.2633 Y-1.6689
G01 X2.2704 Y-1.6594
G01 X2.3137 Y-1.5873
G01 X2.3189 Y-1.5765
G01 X2.3225 Y-1.5641
G01 X2.3239 Y-1.5513
G01 X2.3239 Y-1.4806
G01 X2.3217 Y-1.4642
G01 X2.3186 Y-1.4546
G01 X2.3142 Y-1.4454
G01 X2.2673 Y-1.3680
G01 X2.2614 Y-1.3610
G01 X2.2547 Y-1.3547
G01 X2.2473 Y-1.3494
G01 X2.2401 Y-1.3453
G01 X2.1414 Y-1.3041
G01 X2.1309 Y-1.3006
G01 X2.1218 Y-1.2989
G01 X2.1126 Y-1.2983
G01 X2.0102 Y-1.2983
G01 X1.9964 Y-1.2998
G01 X1.9831 Y-1.3038
G01 X1.8870 Y-1.3438
G01 X1.8788 Y-1.3479
G01 X1.8704 Y-1.3536
G01 X1.8617 Y-1.3616
G01 X1.8538 Y-1.3717
G01 X1.7988 Y-1.4631
G01 X1.7965 Y-1.4647
G01 X1.7937 Y-1.4647
G01 X1.7914 Y-1.4629
G01 X1.7907 Y-1.4604
G01 X1.7918 Y-1.4573
G01 X1.8590 Y-1.3458
G01 X1.9941 Y-1.2894
G01 X2.1294 Y-1.2894
G01 X2.2643 Y-1.3455
G01 X2.3319 Y-1.4573
G01 X2.3330 Y-1.4613
G01 X2.3328 Y-1.5728
G01 X2.2662 Y-1.6842
G01 X2.2584 Y-1.6935
G01 X2.2534 Y-1.7012
G01 X2.2472 Y-1.7156
G01 X2.2440 Y-1.7309
G01 X2.2437 Y-1.7410
G01 X2.2449 Y-1.7519
G01 X2.2477 Y-1.7626
G01 X2.2521 Y-1.7727
G01 X2.2579 Y-1.7821
G01 X2.2662 Y-1.7922
G01 X2.3319 Y-1.9018
G01 X2.3330 Y-1.9047
G01 X2.3328 Y-2.0173
G01 X2.2656 Y-2.1296
G01 X2.2627 Y-2.1316
G01 X2.1294 Y-2.1870
G01 X1.9941 Y-2.1870
G01 X1.8590 Y-2.1306
G01 X1.7918 Y-2.0191
G00 Z2.0000
G00 X2.6351 Y-1.4613
G01 F60.00
G01 Z-0.0933
G01 F120.00
G01 X2.6362 Y-1.4573
G01 X2.7033 Y-1.3458
G01 X2.8385 Y-1.2894
G01 X2.9738 Y-1.2894
G01 X3.1071 Y-1.3448
G01 X3.1098 Y-1.3466
G01 X3.1774 Y-1.4600
G01 X3.1774 Y-2.0151
G01 X3.1763 Y-2.0191
G01 X3.1089 Y-2.1307
G01 X2.9738 Y-2.1870
G01 X2.8405 Y-2.1871
G01 X2.8370 Y-2.1864
G01 X2.7053 Y-2.1316
G01 X2.7026 Y-2.1298
G01 X2.6351 Y-2.0164
G01 X2.6351 Y-1.4613
G00 Z2.0000
G00 X3.1577 Y-1.4438
G01 F60.00
G01 Z-0.0933
G01 F120.00
G01 X3.1138 Y-1.3710
G01 X3.1064 Y-1.3616
G01 X3.0969 Y-1.3530
G01 X3.0885 Y-1.3475
G01 X3.0803 Y-1.3434
G01 X2.9841 Y-1.3034
G01 X2.9681 Y-1.2992
G01 X2.9579 Y-1.2983
G01 X2.8546 Y-1.2983
G01 X2.8454 Y-1.2990
G01 X2.8354 Y-1.3011
G01 X2.8267 Y-1.3041
G01 X2.7263 Y-1.3461
G01 X2.7177 Y-1.3514
G01 X2.7099 Y-1.3578
G01 X2.7030 Y-1.3651
G01 X2.6976 Y-1.3725
G01 X2.6526 Y-1.4479
G01 X2.6471 Y-1.4615
G01 X2.6444 Y-1.4760
G01 X2.6442 Y-1.9967
G01 X2.6451 Y-2.0059
G01 X2.6471 Y-2.0149
G01 X2.6502 Y-2.0235
G01 X2.6543 Y-2.0318
G01 X2.6996 Y-2.1069
G01 X2.7092 Y-2.1180
G01 X2.7208 Y-2.1270
G01 X2.7313 Y-2.1326
G01 X2.8267 Y-2.1723
G01 X2.8399 Y-2.1764
G01 X2.8546 Y-2.1781
G01 X2.9616 Y-2.1779
G01 X2.9726 Y-2.1764
G01 X2.9841 Y-2.1730
G01 X3.0845 Y-2.1311
G01 X3.0932 Y-2.1260
G01 X3.1012 Y-2.1199
G01 X3.1083 Y-2.1127
G01 X3.1148 Y-2.1039
G01 X3.1603 Y-2.0277
G01 X3.1656 Y-2.0140
G01 X3.1682 Y-1.9986
G01 X3.1683 Y-1.4806
G01 X3.1674 Y-1.4705
G01 X3.1654 Y-1.4615
G01 X3.1623 Y-1.4529
G01 X3.1577 Y-1.4438
G00 Z2.0000
G00 X3.4795 Y-1.6835
G01 F60.00
G01 Z-0.0933
G01 F120.00
G01 X3.4802 Y-1.6801
G01 X3.4831 Y-1.6782
G01 X3.4865 Y-1.6788
G01 X3.4884 Y-1.6817
G01 X3.4885 Y-2.0459
G01 X3.4900 Y-2.0598
G01 X3.4943 Y-2.0739
G01 X3.5024 Y-2.0885
G01 X3.5374 Y-2.1350
G01 X3.5479 Y-2.1454
G01 X3.5594 Y-2.1531
G01 X3.5703 Y-2.1580
G01 X3.5810 Y-2.1608
G01 X3.6726 Y-2.1761
G01 X3.6845 Y-2.1770
G01 X3.6954 Y-2.1761
G01 X3.7869 Y-2.1608
G01 X3.7985 Y-2.1576
G01 X3.8086 Y-2.1531
G01 X3.8207 Y-2.1448
G01 X3.8311 Y-2.1344
G01 X3.8661 Y-2.0877
G01 X3.8740 Y-2.0731
G01 X3.8780 Y-2.0597
G01 X3.8795 Y-2.0459
G01 X3.8795 Y-1.6824
G01 X3.8804 Y-1.6799
G01 X3.8825 Y-1.6783
G01 X3.8853 Y-1.6783
G01 X3.8875 Y-1.6797
G01 X3.8885 Y-1.6835
G01 X3.8885 Y-2.1817
G01 X3.8883 Y-2.1841
G01 X3.8869 Y-2.1861
G01 X3.8844 Y-2.1871
G01 X3.8819 Y-2.1866
G01 X3.8698 Y-2.1768
G01 X3.8567 Y-2.1699
G01 X3.8453 Y-2.1662
G01 X3.8334 Y-2.1644
G01 X3.8168 Y-2.1651
G01 X3.6839 Y-2.1871
G01 X3.5507 Y-2.1650
G01 X3.5471 Y-2.1633
G01 X3.4809 Y-2.0750
G01 X3.4795 Y-2.0722
G01 X3.4795 Y-1.6835
G00 Z2.0000
G00 X4.1906 Y-1.4613
G01 F60.00
G01 Z-0.0933
G01 F120.00
G01 X4.1917 Y-1.4573
G01 X4.2589 Y-1.3458
G01 X4.3940 Y-1.2894
G01 X4.5293 Y-1.2894
G01 X4.6627 Y-1.3448
G01 X4.6654 Y-1.3466
G01 X4.7329 Y-1.4600
G01 X4.7329 Y-2.0151
G01 X4.7318 Y-2.0191
G01 X4.6645 Y-2.1307
G01 X4.5293 Y-2.1870
G01 X4.3960 Y-2.1871
G01 X4.3925 Y-2.1864
G01 X4.2609 Y-2.1316
G01 X4.2582 Y-2.1298
G01 X4.1906 Y-2.0164
G01 X4.1906 Y-1.4613
G00 Z2.0000
G00 X4.7132 Y-1.4439
G01 F60.00
G01 Z-0.0933
G01 F120.00
G01 X4.6694 Y-1.3710
G01 X4.6614 Y-1.3610
G01 X4.6525 Y-1.3530
G01 X4.6449 Y-1.3479
G01 X4.6359 Y-1.3434
G01 X4.5396 Y-1.3034
G01 X4.5236 Y-1.2992
G01 X4.5134 Y-1.2983
G01 X4.4101 Y-1.2983
G01 X4.4009 Y-1.2990
G01 X4.3918 Y-1.3008
G01 X4.3822 Y-1.3041
G01 X4.2819 Y-1.3462
G01 X4.2740 Y-1.3509
G01 X4.2661 Y-1.3571
G01 X4.2591 Y-1.3644
G01 X4.2532 Y-1.3725
G01 X4.2081 Y-1.4479
G01 X4.2026 Y-1.4615
G01 X4.1999 Y-1.4760
G01 X4.1997 Y-1.9958
G01 X4.2005 Y-2.0050
G01 X4.2026 Y-2.0149
G01 X4.2057 Y-2.0235
G01 X4.2099 Y-2.0318
G01 X4.2552 Y-2.1069
G01 X4.2648 Y-2.1180
G01 X4.2763 Y-2.1270
G01 X4.2869 Y-2.1326
G01 X4.3822 Y-2.1723
G01 X4.3954 Y-2.1764
G01 X4.4101 Y-2.1781
G01 X4.5171 Y-2.1779
G01 X4.5281 Y-2.1764
G01 X4.5396 Y-2.1730
G01 X4.6400 Y-2.1311
G01 X4.6488 Y-2.1260
G01 X4.6568 Y-2.1199
G01 X4.6645 Y-2.1120
G01 X4.6704 Y-2.1039
G01 X4.7159 Y-2.0277
G01 X4.7211 Y-2.0140
G01 X4.7237 Y-1.9986
G01 X4.7238 Y-1.4806
G01 X4.7229 Y-1.4705
G01 X4.7209 Y-1.4615
G01 X4.7178 Y-1.4529
G01 X4.7132 Y-1.4439
G00 Z2.0000
G00 X5.0350 Y-2.1280
G01 F60.00
G01 Z-0.0933
G01 F120.00
G01 X5.0361 Y-2.1240
G01 X5.1031 Y-2.0127
G01 X5.4929 Y-1.6877
G01 X5.4997 Y-1.6813
G01 X5.5088 Y-1.6695
G01 X5.5590 Y-1.5857
G01 X5.5650 Y-1.5713
G01 X5.5680 Y-1.5559
G01 X5.5682 Y-1.4787
G01 X5.5666 Y-1.4669
G01 X5.5629 Y-1.4546
G01 X5.5576 Y-1.4439
G01 X5.5117 Y-1.3680
G01 X5.5052 Y-1.3603
G01 X5.4984 Y-1.3542
G01 X5.4901 Y-1.3484
G01 X5.4819 Y-1.3442
G01 X5.3849 Y-1.3037
G01 X5.3698 Y-1.2995
G01 X5.3578 Y-1.2983
G01 X5.2545 Y-1.2983
G01 X5.2453 Y-1.2990
G01 X5.2362 Y-1.3008
G01 X5.2266 Y-1.3041
G01 X5.1304 Y-1.3442
G01 X5.1215 Y-1.3489
G01 X5.1133 Y-1.3547
G01 X5.1047 Y-1.3630
G01 X5.0981 Y-1.3717
G01 X5.0433 Y-1.4629
G01 X5.0406 Y-1.4648
G01 X5.0374 Y-1.4644
G01 X5.0352 Y-1.4617
G01 X5.0355 Y-1.4583
G01 X5.1018 Y-1.3477
G01 X5.1053 Y-1.3448
G01 X5.2369 Y-1.2900
G01 X5.2404 Y-1.2893
G01 X5.3737 Y-1.2894
G01 X5.5085 Y-1.3454
G01 X5.5106 Y-1.3478
G01 X5.5771 Y-1.4591
G01 X5.5773 Y-1.5706
G01 X5.5762 Y-1.5746
G01 X5.5093 Y-1.6859
G01 X5.1194 Y-2.0109
G01 X5.1127 Y-2.0173
G01 X5.1036 Y-2.0291
G01 X5.0782 Y-2.0726
G01 X5.0749 Y-2.0812
G01 X5.0727 Y-2.0911
G01 X5.0718 Y-2.1003
G01 X5.0720 Y-2.1095
G01 X5.0742 Y-2.1221
G01 X5.0781 Y-2.1334
G01 X5.0838 Y-2.1439
G01 X5.0917 Y-2.1541
G01 X5.1006 Y-2.1622
G01 X5.1113 Y-2.1692
G01 X5.1232 Y-2.1743
G01 X5.1357 Y-2.1772
G01 X5.1467 Y-2.1781
G01 X5.5719 Y-2.1781
G01 X5.5745 Y-2.1784
G01 X5.5766 Y-2.1801
G01 X5.5773 Y-2.1826
G01 X5.5767 Y-2.1849
G01 X5.5747 Y-2.1867
G01 X5.5719 Y-2.1871
G01 X5.0391 Y-2.1871
G01 X5.0362 Y-2.1856
G01 X5.0350 Y-2.1828
G01 X5.0350 Y-2.1280
G00 Z2.0000
G00 X7.6645 Y-1.2860
G01 F60.00
G01 Z-0.0933
G01 F120.00
G01 X7.6649 Y-1.2821
G01 X7.6667 Y-1.2779
G01 X7.7391 Y-1.1572
G01 X7.7423 Y-1.1532
G01 X7.7463 Y-1.1510
G01 X7.8939 Y-1.0897
G01 X8.0462 Y-1.0895
G01 X8.1943 Y-1.1510
G01 X8.1978 Y-1.1528
G01 X8.2004 Y-1.1554
G01 X8.2740 Y-1.2779
G01 X8.2762 Y-1.2839
G01 X8.2762 Y-1.8953
G01 X8.2758 Y-1.8992
G01 X8.2740 Y-1.9034
G01 X8.2015 Y-2.0241
G01 X8.1978 Y-2.0285
G01 X8.0462 Y-2.0918
G01 X7.8979 Y-2.0920
G01 X7.8913 Y-2.0907
G01 X7.7463 Y-2.0303
G01 X7.7428 Y-2.0284
G01 X7.7402 Y-2.0259
G01 X7.6667 Y-1.9034
G01 X7.6645 Y-1.8974
G01 X7.6645 Y-1.2860
G00 Z2.0000
G00 X8.2404 Y-1.2708
G01 F60.00
G01 Z-0.0933
G01 F120.00
G01 X8.1924 Y-1.1909
G01 X8.1850 Y-1.1816
G01 X8.1755 Y-1.1730
G01 X8.1679 Y-1.1679
G01 X8.1589 Y-1.1634
G01 X8.0542 Y-1.1198
G01 X8.0382 Y-1.1153
G01 X8.0271 Y-1.1143
G01 X7.9136 Y-1.1143
G01 X7.9044 Y-1.1150
G01 X7.8953 Y-1.1168
G01 X7.8857 Y-1.1201
G01 X7.7767 Y-1.1657
G01 X7.7681 Y-1.1708
G01 X7.7601 Y-1.1771
G01 X7.7532 Y-1.1844
G01 X7.7472 Y-1.1925
G01 X7.6980 Y-1.2748
G01 X7.6925 Y-1.2884
G01 X7.6898 Y-1.3029
G01 X7.6896 Y-1.8738
G01 X7.6904 Y-1.8830
G01 X7.6923 Y-1.8920
G01 X7.6953 Y-1.9007
G01 X7.6998 Y-1.9097
G01 X7.7487 Y-1.9911
G01 X7.7588 Y-2.0029
G01 X7.7703 Y-2.0120
G01 X7.7809 Y-2.0175
G01 X7.8857 Y-2.0612
G01 X7.8989 Y-2.0653
G01 X7.9136 Y-2.0670
G01 X8.0299 Y-2.0669
G01 X8.0418 Y-2.0653
G01 X8.0533 Y-2.0619
G01 X8.1623 Y-2.0164
G01 X8.1710 Y-2.0115
G01 X8.1798 Y-2.0048
G01 X8.1874 Y-1.9970
G01 X8.1934 Y-1.9888
G01 X8.2427 Y-1.9065
G01 X8.2484 Y-1.8920
G01 X8.2510 Y-1.8765
G01 X8.2512 Y-1.3084
G01 X8.2503 Y-1.2983
G01 X8.2482 Y-1.2884
G01 X8.2447 Y-1.2789
G01 X8.2404 Y-1.2708
G00 Z2.0000
G00 X8.5934 Y-1.5304
G01 F60.00
G01 Z-0.0933
G01 F120.00
G01 X8.5939 Y-1.5259
G01 X8.5962 Y-1.5216
G01 X8.6000 Y-1.5185
G01 X8.6047 Y-1.5170
G01 X8.6095 Y-1.5175
G01 X8.6138 Y-1.5198
G01 X8.6169 Y-1.5236
G01 X8.6184 Y-1.5283
G01 X8.6184 Y-1.9291
G01 X8.6201 Y-1.9438
G01 X8.6246 Y-1.9579
G01 X8.6323 Y-1.9716
G01 X8.6705 Y-2.0224
G01 X8.6809 Y-2.0327
G01 X8.6933 Y-2.0409
G01 X8.7034 Y-2.0453
G01 X8.7141 Y-2.0482
G01 X8.8145 Y-2.0649
G01 X8.8273 Y-2.0657
G01 X8.8373 Y-2.0649
G01 X8.9377 Y-2.0482
G01 X8.9484 Y-2.0453
G01 X8.9594 Y-2.0404
G01 X8.9716 Y-2.0322
G01 X8.9819 Y-2.0217
G01 X9.0195 Y-1.9716
G01 X9.0276 Y-1.9571
G01 X9.0317 Y-1.9438
G01 X9.0334 Y-1.9291
G01 X9.0334 Y-1.5289
G01 X9.0341 Y-1.5253
G01 X9.0358 Y-1.5220
G01 X9.0384 Y-1.5194
G01 X9.0417 Y-1.5177
G01 X9.0459 Y-1.5170
G01 X9.0495 Y-1.5175
G01 X9.0529 Y-1.5191
G01 X9.0556 Y-1.5216
G01 X9.0579 Y-1.5259
G01 X9.0584 Y-1.5304
G01 X9.0584 Y-2.0786
G01 X9.0575 Y-2.0843
G01 X9.0538 Y-2.0892
G01 X9.0483 Y-2.0918
G01 X9.0423 Y-2.0915
G01 X9.0384 Y-2.0896
G01 X9.0253 Y-2.0790
G01 X9.0130 Y-2.0725
G01 X8.9989 Y-2.0683
G01 X8.9832 Y-2.0669
G01 X8.9731 Y-2.0677
G01 X8.8250 Y-2.0920
G01 X8.6780 Y-2.0676
G01 X8.6732 Y-2.0661
G01 X8.6695 Y-2.0631
G01 X8.5964 Y-1.9656
G01 X8.5935 Y-1.9592
G01 X8.5934 Y-1.5304
G00 Z2.0000
G00 X9.3890 Y-1.5420
G01 F60.00
G01 Z-0.0933
G01 F120.00
G01 X9.3851 Y-1.5416
G01 X9.3811 Y-1.5399
G01 X9.3780 Y-1.5370
G01 X9.3761 Y-1.5331
G01 X9.3756 Y-1.5295
G01 X9.3763 Y-1.5253
G01 X9.3784 Y-1.5216
G01 X9.3817 Y-1.5188
G01 X9.3875 Y-1.5170
G01 X9.4528 Y-1.5168
G01 X9.4637 Y-1.5151
G01 X9.4742 Y-1.5119
G01 X9.4889 Y-1.5043
G01 X9.5016 Y-1.4937
G01 X9.5116 Y-1.4805
G01 X9.5185 Y-1.4655
G01 X9.5212 Y-1.4548
G01 X9.5223 Y-1.4429
G01 X9.5223 Y-1.1012
G01 X9.5238 Y-1.0959
G01 X9.5278 Y-1.0914
G01 X9.5330 Y-1.0894
G01 X9.5390 Y-1.0900
G01 X9.5423 Y-1.0917
G01 X9.5449 Y-1.0943
G01 X9.5466 Y-1.0976
G01 X9.5473 Y-1.1012
G01 X9.5473 Y-1.4429
G01 X9.5486 Y-1.4557
G01 X9.5517 Y-1.4672
G01 X9.5580 Y-1.4805
G01 X9.5674 Y-1.4930
G01 X9.5792 Y-1.5033
G01 X9.5920 Y-1.5105
G01 X9.6041 Y-1.5147
G01 X9.6168 Y-1.5168
G01 X9.6838 Y-1.5172
G01 X9.6878 Y-1.5188
G01 X9.6911 Y-1.5216
G01 X9.6932 Y-1.5253
G01 X9.6939 Y-1.5295
G01 X9.6932 Y-1.5337
G01 X9.6911 Y-1.5374
G01 X9.6878 Y-1.5402
G01 X9.6838 Y-1.5418
G01 X9.6168 Y-1.5422
G01 X9.6032 Y-1.5445
G01 X9.5911 Y-1.5489
G01 X9.5777 Y-1.5568
G01 X9.5662 Y-1.5674
G01 X9.5571 Y-1.5801
G01 X9.5508 Y-1.5944
G01 X9.5483 Y-1.6051
G01 X9.5473 Y-1.6161
G01 X9.5473 Y-1.9774
G01 X9.5482 Y-1.9885
G01 X9.5501 Y-1.9975
G01 X9.5528 Y-2.0054
G01 X9.5567 Y-2.0137
G01 X9.5617 Y-2.0215
G01 X9.5729 Y-2.0338
G01 X9.5823 Y-2.0415
G01 X9.5900 Y-2.0465
G01 X9.5991 Y-2.0508
G01 X9.6096 Y-2.0541
G01 X9.6196 Y-2.0557
G01 X9.6297 Y-2.0560
G01 X9.6442 Y-2.0540
G01 X9.6780 Y-2.0430
G01 X9.6841 Y-2.0429
G01 X9.6881 Y-2.0445
G01 X9.6909 Y-2.0469
G01 X9.6928 Y-2.0500
G01 X9.6938 Y-2.0535
G01 X9.6937 Y-2.0572
G01 X9.6926 Y-2.0607
G01 X9.6905 Y-2.0637
G01 X9.6876 Y-2.0660
G01 X9.6129 Y-2.0911
G01 X9.6091 Y-2.0920
G01 X9.6049 Y-2.0916
G01 X9.5994 Y-2.0886
G01 X9.5275 Y-2.0286
G01 X9.5240 Y-2.0248
G01 X9.5226 Y-2.0214
G01 X9.5223 Y-2.0175
G01 X9.5223 Y-1.6161
G01 X9.5214 Y-1.6060
G01 X9.5195 Y-1.5970
G01 X9.5165 Y-1.5883
G01 X9.5130 Y-1.5809
G01 X9.5034 Y-1.5674
G01 X9.4969 Y-1.5609
G01 X9.4904 Y-1.5557
G01 X9.4760 Y-1.5478
G01 X9.4637 Y-1.5439
G01 X9.4519 Y-1.5422
G01 X9.3890 Y-1.5420
G00 Z2.0000
G00 X10.4680 Y-1.5781
G01 F60.00
G01 Z-0.0933
G01 F120.00
G01 X10.7297 Y-1.5781
G01 X10.7408 Y-1.5772
G01 X10.7489 Y-1.5756
G01 X10.7577 Y-1.5726
G01 X10.8633 Y-1.5286
G01 X10.8753 Y-1.5221
G01 X10.8853 Y-1.5141
G01 X10.8915 Y-1.5074
G01 X10.8969 Y-1.4999
G01 X10.9458 Y-1.4184
G01 X10.9496 Y-1.4101
G01 X10.9522 Y-1.4022
G01 X10.9540 Y-1.3931
G01 X10.9547 Y-1.3840
G01 X10.9546 Y-1.3066
G01 X10.9535 Y-1.2965
G01 X10.9509 Y-1.2858
G01 X10.9439 Y-1.2708
G01 X10.8974 Y-1.1932
G01 X10.8879 Y-1.1809
G01 X10.8768 Y-1.1714
G01 X10.8641 Y-1.1641
G01 X10.7568 Y-1.1194
G01 X10.7471 Y-1.1164
G01 X10.7371 Y-1.1147
G01 X10.4634 Y-1.1145
G01 X10.4507 Y-1.1164
G01 X10.4377 Y-1.1208
G01 X10.4264 Y-1.1270
G01 X10.4163 Y-1.1350
G01 X10.4067 Y-1.1462
G01 X10.3999 Y-1.1581
G01 X10.3953 Y-1.1711
G01 X10.3932 Y-1.1847
G01 X10.3935 Y-1.5113
G01 X10.3963 Y-1.5248
G01 X10.4015 Y-1.5376
G01 X10.4084 Y-1.5485
G01 X10.4177 Y-1.5586
G01 X10.4287 Y-1.5669
G01 X10.4411 Y-1.5730
G01 X10.4543 Y-1.5768
G01 X10.4680 Y-1.5781
G00 Z2.0000
G00 X10.3680 Y-2.0786
G01 F60.00
G01 Z-0.0933
G01 F120.00
G01 X10.3680 Y-1.1027
G01 X10.3684 Y-1.0988
G01 X10.3698 Y-1.0954
G01 X10.3746 Y-1.0908
G01 X10.3814 Y-1.0893
G01 X10.7484 Y-1.0893
G01 X10.7529 Y-1.0906
G01 X10.9003 Y-1.1522
G01 X10.9050 Y-1.1572
G01 X10.9792 Y-1.2815
G01 X10.9797 Y-1.2860
G01 X10.9797 Y-1.4064
G01 X10.9793 Y-1.4103
G01 X10.9775 Y-1.4145
G01 X10.9050 Y-1.5352
G01 X10.9018 Y-1.5392
G01 X10.8978 Y-1.5414
G01 X10.7514 Y-1.6024
G01 X10.7463 Y-1.6031
G01 X10.4625 Y-1.6033
G01 X10.4489 Y-1.6056
G01 X10.4351 Y-1.6107
G01 X10.4234 Y-1.6179
G01 X10.4131 Y-1.6271
G01 X10.4052 Y-1.6372
G01 X10.3991 Y-1.6486
G01 X10.3949 Y-1.6617
G01 X10.3931 Y-1.6745
G01 X10.3930 Y-2.0807
G01 X10.3915 Y-2.0854
G01 X10.3884 Y-2.0892
G01 X10.3841 Y-2.0915
G01 X10.3793 Y-2.0920
G01 X10.3746 Y-2.0905
G01 X10.3708 Y-2.0874
G01 X10.3685 Y-2.0831
G01 X10.3680 Y-2.0786
G00 Z2.0000
G00 X11.2969 Y-1.6893
G01 F60.00
G01 Z-0.0933
G01 F120.00
G01 X11.2973 Y-1.6854
G01 X11.2991 Y-1.6812
G01 X11.3715 Y-1.5605
G01 X11.3743 Y-1.5569
G01 X11.3785 Y-1.5544
G01 X11.5294 Y-1.5170
G01 X11.6783 Y-1.5538
G01 X11.6820 Y-1.5552
G01 X11.6850 Y-1.5573
G01 X11.7597 Y-1.6812
G01 X11.7614 Y-1.6848
G01 X11.7619 Y-1.6893
G01 X11.7617 Y-1.9353
G01 X11.7597 Y-1.9401
G01 X11.6850 Y-2.0639
G01 X11.6816 Y-2.0664
G01 X11.6773 Y-2.0676
G01 X11.5297 Y-2.0920
G01 X11.3815 Y-2.0676
G01 X11.3772 Y-2.0664
G01 X11.3738 Y-2.0639
G01 X11.2991 Y-1.9401
G01 X11.2971 Y-1.9353
G01 X11.2969 Y-1.6893
G00 Z2.0000
G00 X11.7369 Y-1.9087
G01 F60.00
G01 Z-0.0933
G01 F120.00
G01 X11.7369 Y-1.7117
G01 X11.7352 Y-1.6971
G01 X11.7318 Y-1.6856
G01 X11.7262 Y-1.6741
G01 X11.6825 Y-1.6014
G01 X11.6765 Y-1.5933
G01 X11.6693 Y-1.5861
G01 X11.6558 Y-1.5766
G01 X11.6405 Y-1.5703
G01 X11.5458 Y-1.5466
G01 X11.5367 Y-1.5451
G01 X11.5276 Y-1.5448
G01 X11.5121 Y-1.5468
G01 X11.4156 Y-1.5711
G01 X11.4062 Y-1.5749
G01 X11.3975 Y-1.5800
G01 X11.3902 Y-1.5855
G01 X11.3830 Y-1.5926
G01 X11.3753 Y-1.6030
G01 X11.3317 Y-1.6757
G01 X11.3266 Y-1.6865
G01 X11.3232 Y-1.6989
G01 X11.3219 Y-1.7126
G01 X11.3219 Y-1.9096
G01 X11.3225 Y-1.9178
G01 X11.3242 Y-1.9269
G01 X11.3270 Y-1.9357
G01 X11.3308 Y-1.9440
G01 X11.3741 Y-2.0163
G01 X11.3801 Y-2.0243
G01 X11.3872 Y-2.0315
G01 X11.3944 Y-2.0371
G01 X11.4022 Y-2.0418
G01 X11.4106 Y-2.0456
G01 X11.4193 Y-2.0483
G01 X11.5253 Y-2.0656
G01 X11.5417 Y-2.0647
G01 X11.6350 Y-2.0492
G01 X11.6465 Y-2.0462
G01 X11.6574 Y-2.0414
G01 X11.6681 Y-2.0344
G01 X11.6775 Y-2.0257
G01 X11.6847 Y-2.0163
G01 X11.7292 Y-1.9416
G01 X11.7328 Y-1.9331
G01 X11.7350 Y-1.9251
G01 X11.7369 Y-1.9087
G00 Z2.0000
G00 X12.3236 Y-2.0833
G01 F60.00
G01 Z-0.0933
G01 F120.00
G01 X12.3217 Y-2.0869
G01 X12.3191 Y-2.0895
G01 X12.3159 Y-2.0913
G01 X12.3116 Y-2.0920
G01 X12.3079 Y-2.0915
G01 X12.3041 Y-2.0895
G01 X12.3015 Y-2.0869
G01 X12.2996 Y-2.0833
G01 X12.0803 Y-1.5350
G01 X12.0792 Y-1.5312
G01 X12.0792 Y-1.5275
G01 X12.0803 Y-1.5240
G01 X12.0829 Y-1.5205
G01 X12.0881 Y-1.5175
G01 X12.0942 Y-1.5173
G01 X12.0992 Y-1.5195
G01 X12.1030 Y-1.5243
G01 X12.2420 Y-1.8716
G01 X12.2463 Y-1.8808
G01 X12.2519 Y-1.8892
G01 X12.2579 Y-1.8962
G01 X12.2655 Y-1.9029
G01 X12.2738 Y-1.9086
G01 X12.2821 Y-1.9127
G01 X12.2916 Y-1.9161
G01 X12.3015 Y-1.9181
G01 X12.3116 Y-1.9188
G01 X12.3217 Y-1.9181
G01 X12.3316 Y-1.9161
G01 X12.3411 Y-1.9127
G01 X12.3502 Y-1.9081
G01 X12.3585 Y-1.9023
G01 X12.3659 Y-1.8955
G01 X12.3724 Y-1.8877
G01 X12.3777 Y-1.8791
G01 X12.5196 Y-1.5257
G01 X12.5215 Y-1.5221
G01 X12.5246 Y-1.5191
G01 X12.5297 Y-1.5171
G01 X12.5353 Y-1.5175
G01 X12.5401 Y-1.5203
G01 X12.5430 Y-1.5243
G01 X12.6653 Y-1.8300
G01 X12.6702 Y-1.8399
G01 X12.6753 Y-1.8476
G01 X12.6819 Y-1.8552
G01 X12.6895 Y-1.8618
G01 X12.6972 Y-1.8670
G01 X12.7062 Y-1.8715
G01 X12.7158 Y-1.8747
G01 X12.7248 Y-1.8765
G01 X12.7349 Y-1.8772
G01 X12.7449 Y-1.8765
G01 X12.7557 Y-1.8743
G01 X12.7661 Y-1.8704
G01 X12.7750 Y-1.8656
G01 X12.7838 Y-1.8591
G01 X12.7910 Y-1.8520
G01 X12.7977 Y-1.8432
G01 X12.8027 Y-1.8344
G01 X12.8074 Y-1.8215
G01 X12.8864 Y-1.5257
G01 X12.8896 Y-1.5205
G01 X12.8954 Y-1.5173
G01 X12.9015 Y-1.5174
G01 X12.9073 Y-1.5208
G01 X12.9105 Y-1.5266
G01 X12.9102 Y-1.5336
G01 X12.7640 Y-2.0818
G01 X12.7626 Y-2.0856
G01 X12.7603 Y-2.0885
G01 X12.7551 Y-2.0915
G01 X12.7496 Y-2.0919
G01 X12.7440 Y-2.0895
G01 X12.7402 Y-2.0847
G01 X12.6012 Y-1.7374
G01 X12.5969 Y-1.7282
G01 X12.5913 Y-1.7198
G01 X12.5846 Y-1.7122
G01 X12.5770 Y-1.7055
G01 X12.5694 Y-1.7004
G01 X12.5611 Y-1.6963
G01 X12.5516 Y-1.6929
G01 X12.5426 Y-1.6910
G01 X12.5325 Y-1.6902
G01 X12.5224 Y-1.6908
G01 X12.5125 Y-1.6927
G01 X12.5029 Y-1.6959
G01 X12.4938 Y-1.7004
G01 X12.4847 Y-1.7067
G01 X12.4773 Y-1.7135
G01 X12.4708 Y-1.7213
G01 X12.4655 Y-1.7299
G01 X12.3236 Y-2.0833
G00 Z2.0000
G00 X13.2280 Y-1.8953
G01 F60.00
G01 Z-0.0933
G01 F120.00
G01 X13.2284 Y-1.6854
G01 X13.2302 Y-1.6812
G01 X13.3026 Y-1.5605
G01 X13.3049 Y-1.5573
G01 X13.3079 Y-1.5552
G01 X13.4566 Y-1.5176
G01 X13.4605 Y-1.5170
G01 X13.4644 Y-1.5176
G01 X13.6094 Y-1.5538
G01 X13.6135 Y-1.5554
G01 X13.6173 Y-1.5587
G01 X13.6915 Y-1.6457
G01 X13.6930 Y-1.6527
G01 X13.6930 Y-1.7746
G01 X13.6909 Y-1.7810
G01 X13.6859 Y-1.7853
G01 X13.6796 Y-1.7865
G01 X13.3280 Y-1.7865
G01 X13.3152 Y-1.7876
G01 X13.3028 Y-1.7909
G01 X13.2911 Y-1.7963
G01 X13.2798 Y-1.8042
G01 X13.2707 Y-1.8133
G01 X13.2632 Y-1.8238
G01 X13.2577 Y-1.8354
G01 X13.2543 Y-1.8478
G01 X13.2530 Y-1.8606
G01 X13.2531 Y-1.8896
G01 X13.2549 Y-1.9024
G01 X13.2728 Y-1.9766
G01 X13.2776 Y-1.9885
G01 X13.2849 Y-2.0001
G01 X13.2962 Y-2.0121
G01 X13.3028 Y-2.0170
G01 X13.3107 Y-2.0216
G01 X13.4069 Y-2.0619
G01 X13.4193 Y-2.0655
G01 X13.4322 Y-2.0669
G01 X13.5427 Y-2.0670
G01 X13.5564 Y-2.0655
G01 X13.5654 Y-2.0631
G01 X13.5748 Y-2.0593
G01 X13.6739 Y-2.0077
G01 X13.6788 Y-2.0060
G01 X13.6831 Y-2.0061
G01 X13.6871 Y-2.0077
G01 X13.6903 Y-2.0106
G01 X13.6925 Y-2.0149
G01 X13.6930 Y-2.0191
G01 X13.6918 Y-2.0239
G01 X13.6893 Y-2.0273
G01 X13.6855 Y-2.0300
G01 X13.5662 Y-2.0917
G01 X13.4174 Y-2.0920
G01 X13.4128 Y-2.0915
G01 X13.2658 Y-2.0303
G01 X13.2609 Y-2.0272
G01 X13.2587 Y-2.0242
G01 X13.2574 Y-2.0204
G01 X13.2285 Y-1.9000
G01 X13.2280 Y-1.8953
G00 Z2.0000
G00 X13.3438 Y-1.7615
G01 F60.00
G01 Z-0.0933
G01 F120.00
G01 X13.5939 Y-1.7615
G01 X13.6049 Y-1.7605
G01 X13.6156 Y-1.7580
G01 X13.6299 Y-1.7517
G01 X13.6419 Y-1.7432
G01 X13.6521 Y-1.7326
G01 X13.6599 Y-1.7202
G01 X13.6652 Y-1.7065
G01 X13.6678 Y-1.6920
G01 X13.6675 Y-1.6759
G01 X13.6645 Y-1.6616
G01 X13.6600 Y-1.6506
G01 X13.6533 Y-1.6397
G01 X13.6134 Y-1.5928
G01 X13.6059 Y-1.5859
G01 X13.5975 Y-1.5801
G01 X13.5885 Y-1.5754
G01 X13.5798 Y-1.5723
G01 X13.4778 Y-1.5468
G01 X13.4614 Y-1.5447
G01 X13.4522 Y-1.5452
G01 X13.4441 Y-1.5466
G01 X13.3476 Y-1.5708
G01 X13.3365 Y-1.5753
G01 X13.3256 Y-1.5821
G01 X13.3159 Y-1.5906
G01 X13.3084 Y-1.5999
G01 X13.2760 Y-1.6544
G01 X13.2708 Y-1.6691
G01 X13.2688 Y-1.6846
G01 X13.2700 Y-1.7002
G01 X13.2741 Y-1.7143
G01 X13.2809 Y-1.7273
G01 X13.2901 Y-1.7388
G01 X13.3013 Y-1.7483
G01 X13.3142 Y-1.7554
G01 X13.3282 Y-1.7598
G01 X13.3438 Y-1.7615
G00 Z2.0000
G00 X14.0102 Y-1.5304
G01 F60.00
G01 Z-0.0933
G01 F120.00
G01 X14.0111 Y-1.5247
G01 X14.0148 Y-1.5198
G01 X14.0203 Y-1.5172
G01 X14.0257 Y-1.5174
G01 X14.0311 Y-1.5202
G01 X14.0389 Y-1.5295
G01 X14.0455 Y-1.5359
G01 X14.0584 Y-1.5446
G01 X14.0667 Y-1.5484
G01 X14.0755 Y-1.5512
G01 X14.0845 Y-1.5529
G01 X14.0936 Y-1.5535
G01 X14.1100 Y-1.5517
G01 X14.1180 Y-1.5495
G01 X14.1265 Y-1.5460
G01 X14.1390 Y-1.5384
G01 X14.1624 Y-1.5191
G01 X14.1682 Y-1.5170
G01 X14.3172 Y-1.5170
G01 X14.3214 Y-1.5182
G01 X14.3253 Y-1.5211
G01 X14.3276 Y-1.5247
G01 X14.3285 Y-1.5295
G01 X14.3278 Y-1.5337
G01 X14.3253 Y-1.5379
G01 X14.3214 Y-1.5408
G01 X14.3172 Y-1.5420
G01 X14.1974 Y-1.5421
G01 X14.1830 Y-1.5443
G01 X14.1701 Y-1.5488
G01 X14.1620 Y-1.5531
G01 X14.1545 Y-1.5583
G01 X14.0615 Y-1.6358
G01 X14.0519 Y-1.6457
G01 X14.0442 Y-1.6573
G01 X14.0403 Y-1.6657
G01 X14.0377 Y-1.6736
G01 X14.0361 Y-1.6817
G01 X14.0353 Y-1.6909
G01 X14.0352 Y-2.0801
G01 X14.0340 Y-2.0849
G01 X14.0316 Y-2.0884
G01 X14.0275 Y-2.0911
G01 X14.0227 Y-2.0920
G01 X14.0173 Y-2.0908
G01 X14.0134 Y-2.0879
G01 X14.0109 Y-2.0837
G01 X14.0102 Y-2.0786
G01 X14.0102 Y-1.5304
G00 Z2.0000
G00 X15.2789 Y-1.7004
G01 F60.00
G01 Z-0.0933
G01 F120.00
G01 X15.4855 Y-1.7004
G01 X15.4993 Y-1.6989
G01 X15.5091 Y-1.6963
G01 X15.5192 Y-1.6919
G01 X15.5279 Y-1.6866
G01 X15.5357 Y-1.6802
G01 X15.5427 Y-1.6729
G01 X15.5485 Y-1.6646
G01 X15.5532 Y-1.6556
G01 X15.5567 Y-1.6461
G01 X15.5590 Y-1.6353
G01 X15.5596 Y-1.6243
G01 X15.5586 Y-1.6133
G01 X15.5561 Y-1.6025
G01 X15.4510 Y-1.3222
G01 X15.4430 Y-1.3078
G01 X15.4321 Y-1.2955
G01 X15.4249 Y-1.2897
G01 X15.4179 Y-1.2854
G01 X15.4026 Y-1.2791
G01 X15.3900 Y-1.2766
G01 X15.3781 Y-1.2762
G01 X15.3654 Y-1.2779
G01 X15.3540 Y-1.2815
G01 X15.3433 Y-1.2867
G01 X15.3329 Y-1.2942
G01 X15.3245 Y-1.3027
G01 X15.3176 Y-1.3124
G01 X15.3116 Y-1.3248
G01 X15.2070 Y-1.6043
G01 X15.2051 Y-1.6123
G01 X15.2040 Y-1.6215
G01 X15.2041 Y-1.6298
G01 X15.2052 Y-1.6389
G01 X15.2074 Y-1.6479
G01 X15.2103 Y-1.6556
G01 X15.2186 Y-1.6699
G01 X15.2245 Y-1.6770
G01 X15.2306 Y-1.6827
G01 X15.2380 Y-1.6882
G01 X15.2452 Y-1.6923
G01 X15.2528 Y-1.6956
G01 X15.2616 Y-1.6983
G01 X15.2707 Y-1.6999
G01 X15.2789 Y-1.7004
G00 Z2.0000
G00 X15.5503 Y-1.7254
G01 F60.00
G01 Z-0.0933
G01 F120.00
G01 X15.2105 Y-1.7255
G01 X15.2005 Y-1.7265
G01 X15.1907 Y-1.7289
G01 X15.1813 Y-1.7326
G01 X15.1717 Y-1.7380
G01 X15.1630 Y-1.7448
G01 X15.1554 Y-1.7527
G01 X15.1490 Y-1.7617
G01 X15.1441 Y-1.7715
G01 X15.0263 Y-2.0850
G01 X15.0224 Y-2.0897
G01 X15.0161 Y-2.0920
G01 X15.0096 Y-2.0907
G01 X15.0046 Y-2.0863
G01 X15.0026 Y-2.0805
G01 X15.0037 Y-2.0742
G01 X15.3697 Y-1.0983
G01 X15.3731 Y-1.0928
G01 X15.3784 Y-1.0897
G01 X15.3833 Y-1.0894
G01 X15.3880 Y-1.0909
G01 X15.3917 Y-1.0942
G01 X15.3939 Y-1.0983
G01 X15.7598 Y-2.0742
G01 X15.7609 Y-2.0787
G01 X15.7603 Y-2.0835
G01 X15.7578 Y-2.0878
G01 X15.7545 Y-2.0905
G01 X15.7498 Y-2.0919
G01 X15.7444 Y-2.0914
G01 X15.7397 Y-2.0885
G01 X15.7369 Y-2.0845
G01 X15.6205 Y-1.7741
G01 X15.6159 Y-1.7641
G01 X15.6110 Y-1.7564
G01 X15.6045 Y-1.7486
G01 X15.5970 Y-1.7418
G01 X15.5887 Y-1.7361
G01 X15.5798 Y-1.7315
G01 X15.5702 Y-1.7281
G01 X15.5603 Y-1.7261
G01 X15.5503 Y-1.7254
G00 Z2.0000
G00 X16.0915 Y-2.3365
G01 F60.00
G01 Z-0.0933
G01 F120.00
G01 X16.0876 Y-2.3361
G01 X16.0836 Y-2.3344
G01 X16.0805 Y-2.3315
G01 X16.0786 Y-2.3276
G01 X16.0781 Y-2.3240
G01 X16.0788 Y-2.3198
G01 X16.0809 Y-2.3161
G01 X16.0842 Y-2.3133
G01 X16.0894 Y-2.3115
G01 X16.1238 Y-2.3114
G01 X16.1391 Y-2.3090
G01 X16.1487 Y-2.3058
G01 X16.1569 Y-2.3018
G01 X16.1653 Y-2.2963
G01 X16.1723 Y-2.2904
G01 X16.1796 Y-2.2822
G01 X16.2129 Y-2.2374
G01 X16.2196 Y-2.2242
G01 X16.2236 Y-2.2099
G01 X16.2248 Y-2.1970
G01 X16.2248 Y-1.5304
G01 X16.2257 Y-1.5247
G01 X16.2289 Y-1.5202
G01 X16.2343 Y-1.5174
G01 X16.2397 Y-1.5172
G01 X16.2443 Y-1.5191
G01 X16.2474 Y-1.5220
G01 X16.2493 Y-1.5259
G01 X16.2498 Y-1.5304
G01 X16.2496 Y-2.2287
G01 X16.2468 Y-2.2345
G01 X16.1745 Y-2.3308
G01 X16.1708 Y-2.3344
G01 X16.1645 Y-2.3365
G01 X16.0915 Y-2.3365
G00 Z2.0000
G00 X23.1416 Y-3.8792
G01 F60.00
G01 Z-0.0933
G01 F120.00
G01 X23.1517 Y-3.9241
G01 X23.1645 Y-3.9702
G01 X23.1795 Y-4.0157
G01 X23.1960 Y-4.0586
G01 X23.2169 Y-4.1057
G01 X23.2376 Y-4.1468
G01 X23.2612 Y-4.1885
G01 X23.2868 Y-4.2289
G01 X23.3133 Y-4.2665
G01 X23.3450 Y-4.3071
G01 X23.3751 Y-4.3420
G01 X23.4081 Y-4.3766
G01 X23.4427 Y-4.4096
G01 X23.4776 Y-4.4397
G01 X23.5182 Y-4.4714
G01 X23.5558 Y-4.4979
G01 X23.5962 Y-4.5235
G01 X23.6379 Y-4.5471
G01 X23.6790 Y-4.5678
G01 X23.7261 Y-4.5887
G01 X23.7690 Y-4.6052
G01 X23.8145 Y-4.6202
G01 X23.8606 Y-4.6330
G01 X23.9055 Y-4.6431
G01 X23.9563 Y-4.6519
G01 X24.0019 Y-4.6575
G01 X24.0497 Y-4.6610
G01 X24.0975 Y-4.6622
G01 X24.1435 Y-4.6611
G01 X24.1949 Y-4.6573
G01 X24.2406 Y-4.6516
G01 X24.2877 Y-4.6435
G01 X24.3344 Y-4.6330
G01 X24.3788 Y-4.6207
G01 X24.4277 Y-4.6046
G01 X24.4706 Y-4.5880
G01 X24.5144 Y-4.5686
G01 X24.5571 Y-4.5471
G01 X24.5972 Y-4.5244
G01 X24.6392 Y-4.4979
G01 X24.6783 Y-4.4703
G01 X24.7146 Y-4.4420
G01 X24.7536 Y-4.4084
G01 X24.7869 Y-4.3766
G01 X24.8199 Y-4.3420
G01 X24.8512 Y-4.3057
G01 X24.8795 Y-4.2695
G01 X24.9092 Y-4.2273
G01 X24.9338 Y-4.1885
G01 X24.9574 Y-4.1468
G01 X24.9789 Y-4.1041
G01 X24.9976 Y-4.0620
G01 X25.0168 Y-4.0118
G01 X25.5351 Y-4.0115
G01 X25.5354 Y-4.7862
G01 X25.5378 Y-4.7998
G01 X25.5427 Y-4.8127
G01 X25.5499 Y-4.8245
G01 X25.5591 Y-4.8347
G01 X25.5692 Y-4.8427
G01 X25.5814 Y-4.8491
G01 X25.5946 Y-4.8532
G01 X25.6083 Y-4.8548
G01 X27.0101 Y-4.8548
G01 X27.0256 Y-4.8532
G01 X27.0413 Y-4.8480
G01 X27.0502 Y-4.8432
G01 X27.0584 Y-4.8372
G01 X27.0657 Y-4.8302
G01 X27.0719 Y-4.8222
G01 X27.0771 Y-4.8135
G01 X27.0810 Y-4.8042
G01 X27.0838 Y-4.7935
G01 X27.0850 Y-4.7835
G01 X27.0851 Y-4.0106
G01 X27.4664 Y-4.0104
G01 X27.4674 Y-4.0500
G01 X27.4707 Y-4.0959
G01 X27.4765 Y-4.1434
G01 X27.4849 Y-4.1924
G01 X27.4954 Y-4.2391
G01 X27.5082 Y-4.2852
G01 X27.5238 Y-4.3324
G01 X27.5404 Y-4.3753
G01 X27.5590 Y-4.4174
G01 X27.5813 Y-4.4618
G01 X27.6059 Y-4.5050
G01 X27.6305 Y-4.5439
G01 X27.6570 Y-4.5815
G01 X27.6875 Y-4.6207
G01 X27.7188 Y-4.6570
G01 X27.7518 Y-4.6916
G01 X27.7878 Y-4.7258
G01 X27.8241 Y-4.7570
G01 X27.8604 Y-4.7853
G01 X27.8980 Y-4.8118
G01 X27.9399 Y-4.8385
G01 X27.9832 Y-4.8629
G01 X28.0260 Y-4.8844
G01 X28.0681 Y-4.9030
G01 X28.1110 Y-4.9196
G01 X28.1582 Y-4.9352
G01 X28.2043 Y-4.9480
G01 X28.2510 Y-4.9585
G01 X28.3000 Y-4.9669
G01 X28.3456 Y-4.9725
G01 X28.3915 Y-4.9759
G01 X28.4394 Y-4.9772
G01 X28.4890 Y-4.9760
G01 X28.5368 Y-4.9725
G01 X28.5861 Y-4.9664
G01 X28.6314 Y-4.9585
G01 X28.6763 Y-4.9484
G01 X28.7242 Y-4.9352
G01 X28.7705 Y-4.9199
G01 X28.8143 Y-4.9030
G01 X28.8564 Y-4.8844
G01 X28.9008 Y-4.8621
G01 X28.9425 Y-4.8385
G01 X28.9813 Y-4.8139
G01 X29.0235 Y-4.7842
G01 X29.0597 Y-4.7559
G01 X29.0960 Y-4.7246
G01 X29.1306 Y-4.6916
G01 X29.1624 Y-4.6583
G01 X29.1960 Y-4.6193
G01 X29.2243 Y-4.5830
G01 X29.2508 Y-4.5454
G01 X29.2784 Y-4.5019
G01 X29.3011 Y-4.4618
G01 X29.3226 Y-4.4191
G01 X29.3420 Y-4.3753
G01 X29.3586 Y-4.3324
G01 X29.3742 Y-4.2852
G01 X29.3874 Y-4.2373
G01 X29.3975 Y-4.1924
G01 X29.4056 Y-4.1453
G01 X29.4115 Y-4.0978
G01 X29.4149 Y-4.0519
G01 X29.4162 Y-4.0013
G01 X29.4150 Y-3.9544
G01 X29.4117 Y-3.9085
G01 X29.4056 Y-3.8591
G01 X29.3971 Y-3.8102
G01 X29.3870 Y-3.7653
G01 X29.3742 Y-3.7192
G01 X29.3586 Y-3.6720
G01 X29.3420 Y-3.6291
G01 X29.3226 Y-3.5853
G01 X29.3002 Y-3.5410
G01 X29.2775 Y-3.5009
G01 X29.2529 Y-3.4621
G01 X29.2243 Y-3.4214
G01 X29.1960 Y-3.3851
G01 X29.1624 Y-3.3461
G01 X29.1306 Y-3.3128
G01 X29.0960 Y-3.2798
G01 X29.0597 Y-3.2485
G01 X29.0227 Y-3.2196
G01 X28.9829 Y-3.1915
G01 X28.9440 Y-3.1669
G01 X28.9000 Y-3.1419
G01 X28.8581 Y-3.1208
G01 X28.8152 Y-3.1018
G01 X28.7705 Y-3.0845
G01 X28.7413 Y-3.0748
G01 X28.7413 Y-2.9388
G01 X29.0736 Y-2.9384
G01 X29.0826 Y-2.9370
G01 X29.0906 Y-2.9347
G01 X29.0983 Y-2.9316
G01 X29.1063 Y-2.9272
G01 X29.1131 Y-2.9224
G01 X29.1199 Y-2.9162
G01 X29.1253 Y-2.9099
G01 X29.1305 Y-2.9024
G01 X29.1351 Y-2.8933
G01 X29.1385 Y-2.8838
G01 X29.1405 Y-2.8739
G01 X29.1412 Y-2.8647
G01 X29.1412 Y-1.8705
G01 X29.6477 Y-1.4363
G01 X51.5859 Y-1.4363
G01 X51.5860 Y-3.3568
G01 X49.3507 Y-5.5691
G01 X46.7120 Y-5.5691
G01 X46.6899 Y-5.5702
G01 X46.6681 Y-5.5734
G01 X46.6449 Y-5.5794
G01 X46.6276 Y-5.5856
G01 X46.6158 Y-5.5907
G01 X46.6043 Y-5.5966
G01 X46.5885 Y-5.6061
G01 X46.5678 Y-5.6214
G01 X46.5528 Y-5.6350
G01 X46.4124 Y-5.7759
G01 X46.3966 Y-5.7951
G01 X46.3864 Y-5.8104
G01 X46.3800 Y-5.8216
G01 X46.3706 Y-5.8416
G01 X46.3631 Y-5.8624
G01 X46.3577 Y-5.8838
G01 X46.3544 Y-5.9075
G01 X46.3534 Y-5.9277
G01 X46.3534 Y-6.1589
G01 X43.0852 Y-6.1627
G01 X43.0733 Y-6.1598
G01 X43.0614 Y-6.1588
G01 X41.9614 Y-6.1588
G01 X41.9477 Y-6.1601
G01 X41.9339 Y-6.1640
G01 X39.3237 Y-6.1671
G01 X39.2869 Y-6.1689
G01 X39.2668 Y-6.1715
G01 X39.2325 Y-6.1784
G01 X39.1990 Y-6.1885
G01 X39.1784 Y-6.1965
G01 X39.1485 Y-6.2107
G01 X39.1293 Y-6.2216
G01 X39.1003 Y-6.2411
G01 X39.0744 Y-6.2623
G01 X39.0022 Y-6.2623
G01 X38.9867 Y-6.2643
G01 X38.9745 Y-6.2684
G01 X38.9623 Y-6.2749
G01 X38.9516 Y-6.2836
G01 X38.9432 Y-6.2934
G01 X38.9374 Y-6.3028
G01 X38.9331 Y-6.3129
G01 X38.9303 Y-6.3236
G01 X38.9291 Y-6.3345
G01 X38.9290 Y-6.6612
G01 X38.2692 Y-6.6605
G01 X38.2692 Y-6.2849
G01 X38.2685 Y-6.2748
G01 X38.2660 Y-6.2631
G01 X38.2620 Y-6.2528
G01 X38.2566 Y-6.2432
G01 X38.2491 Y-6.2339
G01 X38.2411 Y-6.2263
G01 X38.2320 Y-6.2201
G01 X38.2220 Y-6.2153
G01 X38.2106 Y-6.2117
G01 X38.1942 Y-6.2099
G01 X36.8942 Y-6.2099
G01 X36.8814 Y-6.2110
G01 X36.8689 Y-6.2143
G01 X36.8572 Y-6.2196
G01 X36.8466 Y-6.2269
G01 X36.8374 Y-6.2359
G01 X36.8299 Y-6.2463
G01 X36.8242 Y-6.2579
G01 X36.8206 Y-6.2703
G01 X36.8193 Y-6.2821
G01 X36.8197 Y-7.6932
G01 X36.8222 Y-7.7058
G01 X36.8272 Y-7.7186
G01 X36.8345 Y-7.7303
G01 X36.8432 Y-7.7398
G01 X36.8533 Y-7.7478
G01 X36.8647 Y-7.7538
G01 X36.8769 Y-7.7579
G01 X36.8905 Y-7.7598
G01 X38.1942 Y-7.7599
G01 X38.2079 Y-7.7586
G01 X38.2186 Y-7.7558
G01 X38.2296 Y-7.7510
G01 X38.2396 Y-7.7446
G01 X38.2485 Y-7.7366
G01 X38.2560 Y-7.7273
G01 X38.2616 Y-7.7178
G01 X38.2660 Y-7.7067
G01 X38.2685 Y-7.6950
G01 X38.2692 Y-7.6849
G01 X38.2692 Y-7.3108
G01 X38.9290 Y-7.3115
G01 X38.9290 Y-7.6373
G01 X38.9298 Y-7.6483
G01 X38.9322 Y-7.6591
G01 X38.9366 Y-7.6702
G01 X38.9422 Y-7.6797
G01 X38.9491 Y-7.6883
G01 X38.9571 Y-7.6959
G01 X38.9662 Y-7.7021
G01 X38.9762 Y-7.7069
G01 X38.9867 Y-7.7103
G01 X38.9957 Y-7.7118
G01 X39.0040 Y-7.7123
G01 X40.6040 Y-7.7123
G01 X40.6186 Y-7.7109
G01 X40.6310 Y-7.7073
G01 X40.6418 Y-7.7021
G01 X40.6516 Y-7.6953
G01 X40.6602 Y-7.6870
G01 X40.6674 Y-7.6774
G01 X40.6733 Y-7.6660
G01 X40.6770 Y-7.6546
G01 X40.6788 Y-7.6428
G01 X40.6790 Y-6.9158
G01 X46.3836 Y-6.9091
G01 X47.0958 Y-7.6206
G01 X47.1221 Y-7.6422
G01 X47.1386 Y-7.6539
G01 X47.1685 Y-7.6720
G01 X47.1866 Y-7.6811
G01 X47.2051 Y-7.6893
G01 X47.2381 Y-7.7010
G01 X47.2720 Y-7.7096
G01 X47.2920 Y-7.7131
G01 X47.3268 Y-7.7166
G01 X47.3470 Y-7.7171
G01 X51.0800 Y-7.7171
G01 X51.1168 Y-7.7153
G01 X51.1350 Y-7.7131
G01 X51.1554 Y-7.7095
G01 X52.0519 Y-7.7149
G01 X52.0518 Y-8.5555
G01 X51.0643 Y-8.5588
G01 X50.6614 Y-8.5588
G01 X50.6477 Y-8.5601
G01 X50.6344 Y-8.5638
G01 X50.6221 Y-8.5699
G01 X50.6104 Y-8.5789
G01 X50.5071 Y-8.6821
G01 X50.5006 Y-8.6899
G01 X50.4957 Y-8.6976
G01 X50.4914 Y-8.7068
G01 X50.4886 Y-8.7156
G01 X50.4870 Y-8.7246
G01 X50.4864 Y-8.7338
G01 X50.4864 Y-9.1338
G01 X50.4870 Y-9.1430
G01 X50.4886 Y-9.1520
G01 X50.4914 Y-9.1608
G01 X50.4953 Y-9.1692
G01 X50.4996 Y-9.1762
G01 X50.5052 Y-9.1835
G01 X50.6104 Y-9.2887
G01 X50.6205 Y-9.2967
G01 X50.6319 Y-9.3027
G01 X50.6441 Y-9.3068
G01 X50.6559 Y-9.3086
G01 X51.7614 Y-9.3088
G01 X51.7706 Y-9.3082
G01 X51.7790 Y-9.3067
G01 X52.4282 Y-9.3046
G01 X52.4484 Y-9.3040
G01 X52.4831 Y-9.3004
G01 X52.5191 Y-9.2932
G01 X52.5543 Y-9.2824
G01 X52.5865 Y-9.2690
G01 X52.6190 Y-9.2518
G01 X52.6376 Y-9.2400
G01 X52.6655 Y-9.2191
G01 X52.6914 Y-9.1956
G01 X52.7161 Y-9.1685
G01 X52.7297 Y-9.1511
G01 X52.7490 Y-9.1220
G01 X52.7663 Y-9.0896
G01 X52.7797 Y-9.0574
G01 X52.7866 Y-9.0364
G01 X52.7950 Y-9.0025
G01 X52.8004 Y-8.9662
G01 X52.8021 Y-8.9295
G01 X52.8017 Y-7.3227
G01 X52.7981 Y-7.2872
G01 X52.7910 Y-7.2512
G01 X52.7804 Y-7.2161
G01 X52.7664 Y-7.1822
G01 X52.7492 Y-7.1498
G01 X52.7289 Y-7.1193
G01 X52.7057 Y-7.0909
G01 X52.6805 Y-7.0655
G01 X52.6530 Y-7.0426
G01 X52.6351 Y-7.0299
G01 X52.6052 Y-7.0119
G01 X52.5721 Y-6.9961
G01 X52.5394 Y-6.9841
G01 X52.5182 Y-6.9781
G01 X52.4841 Y-6.9712
G01 X52.4485 Y-6.9675
G01 X51.7860 Y-6.9630
G01 X51.7742 Y-6.9599
G01 X51.7614 Y-6.9588
G01 X50.6614 Y-6.9588
G01 X50.6531 Y-6.9593
G01 X50.6441 Y-6.9608
G01 X50.6353 Y-6.9635
G01 X50.6276 Y-6.9669
G01 X49.9492 Y-6.9668
G01 X49.8739 Y-6.8916
G01 X49.8739 Y-5.9662
G01 X52.1405 Y-3.7228
G01 X52.1615 Y-3.6998
G01 X52.1807 Y-3.6741
G01 X52.1973 Y-3.6466
G01 X52.2108 Y-3.6184
G01 X52.2220 Y-3.5874
G01 X52.2299 Y-3.5562
G01 X52.2346 Y-3.5245
G01 X52.2362 Y-3.4933
G01 X52.2361 Y-1.4363
G01 X56.6660 Y-1.4363
G01 X56.6660 Y-8.7312
G01 X56.6676 Y-8.7638
G01 X56.6725 Y-8.7961
G01 X56.6806 Y-8.8277
G01 X56.6919 Y-8.8584
G01 X56.7061 Y-8.8877
G01 X56.7228 Y-8.9148
G01 X58.3696 Y-11.3074
G01 X58.3696 Y-12.5085
G01 X58.3706 Y-12.5195
G01 X58.3728 Y-12.5294
G01 X58.3764 Y-12.5388
G01 X58.3817 Y-12.5485
G01 X58.3872 Y-12.5559
G01 X58.3929 Y-12.5619
G01 X58.3992 Y-12.5673
G01 X58.4068 Y-12.5724
G01 X58.4151 Y-12.5765
G01 X58.4237 Y-12.5796
G01 X58.4318 Y-12.5815
G01 X58.4409 Y-12.5825
G01 X59.1059 Y-12.5826
G01 X59.5058 Y-13.5109
G01 X59.4957 Y-13.5220
G01 X59.4877 Y-13.5355
G01 X59.4827 Y-13.5503
G01 X59.4809 Y-13.5658
G01 X59.4809 Y-15.1685
G01 X59.4825 Y-15.1822
G01 X59.4866 Y-15.1954
G01 X59.4930 Y-15.2076
G01 X59.5016 Y-15.2184
G01 X59.5120 Y-15.2275
G01 X59.5238 Y-15.2345
G01 X59.5368 Y-15.2392
G01 X59.5508 Y-15.2415
G01 X58.7541 Y-17.1800
G01 X58.7478 Y-17.1965
G01 X58.7393 Y-17.2251
G01 X58.7329 Y-17.2580
G01 X58.7302 Y-17.2859
G01 X58.7297 Y-17.3027
G01 X58.7297 Y-17.7533
G01 X58.7020 Y-17.7534
G01 X58.6902 Y-17.7547
G01 X58.6752 Y-17.7594
G01 X58.6616 Y-17.7670
G01 X58.6492 Y-17.7779
G01 X58.6395 Y-17.7913
G01 X58.6330 Y-17.8065
G01 X58.6309 Y-17.8155
G01 X58.6299 Y-17.8237
G01 X58.6298 Y-18.8938
G01 X57.2672 Y-20.2591
G01 X57.2544 Y-20.2740
G01 X57.2376 Y-20.2966
G01 X57.2280 Y-20.3116
G01 X57.2193 Y-20.3271
G01 X57.2073 Y-20.3526
G01 X57.2008 Y-20.3692
G01 X57.1921 Y-20.3979
G01 X57.1879 Y-20.4161
G01 X57.1834 Y-20.4468
G01 X57.1819 Y-20.4786
G01 X57.1819 Y-27.8132
G01 X53.4349 Y-27.8132
G01 X52.3688 Y-26.7471
G01 X52.3452 Y-26.7257
G01 X52.3203 Y-26.7072
G01 X52.2905 Y-26.6894
G01 X52.2762 Y-26.6823
G01 X52.2502 Y-26.6715
G01 X52.2179 Y-26.6616
G01 X52.1857 Y-26.6553
G01 X52.1689 Y-26.6533
G01 X52.1398 Y-26.6519
G01 X51.9106 Y-26.6519
G01 X51.9105 Y-26.5733
G01 X51.9086 Y-26.5606
G01 X51.9049 Y-26.5492
G01 X51.9009 Y-26.5409
G01 X51.8958 Y-26.5332
G01 X51.8893 Y-26.5255
G01 X51.8825 Y-26.5193
G01 X51.8749 Y-26.5140
G01 X51.8668 Y-26.5097
G01 X51.8583 Y-26.5064
G01 X51.8493 Y-26.5042
G01 X51.8356 Y-26.5029
G01 X51.1892 Y-26.5029
G01 X50.4235 Y-25.7372
G01 X50.8072 Y-25.3531
G01 X50.8219 Y-25.3354
G01 X50.8342 Y-25.3170
G01 X50.8446 Y-25.2975
G01 X50.8530 Y-25.2771
G01 X50.8594 Y-25.2560
G01 X50.8640 Y-25.2325
G01 X50.8662 Y-25.2031
G01 X50.8652 Y-25.1811
G01 X50.8619 Y-25.1574
G01 X50.8565 Y-25.1360
G01 X50.8490 Y-25.1152
G01 X50.8396 Y-25.0952
G01 X50.8282 Y-25.0763
G01 X50.8151 Y-25.0585
G01 X50.8003 Y-25.0421
G01 X50.7824 Y-25.0262
G01 X50.7584 Y-25.0092
G01 X50.7390 Y-24.9986
G01 X50.7178 Y-24.9897
G01 X50.6967 Y-24.9832
G01 X50.6741 Y-24.9787
G01 X50.6503 Y-24.9764
G01 X50.6209 Y-24.9772
G01 X50.5972 Y-24.9805
G01 X50.5740 Y-24.9865
G01 X50.5465 Y-24.9971
G01 X50.5254 Y-25.0082
G01 X50.5056 Y-25.0216
G01 X50.4913 Y-25.0333
G01 X50.4819 Y-25.0421
G01 X49.9921 Y-25.5320
G01 X49.0181 Y-25.5320
G01 X49.0084 Y-25.5267
G01 X48.9981 Y-25.5229
G01 X48.9882 Y-25.5207
G01 X48.9772 Y-25.5199
G01 X48.3763 Y-25.5199
G01 X48.3617 Y-25.5215
G01 X48.3485 Y-25.5256
G01 X48.3386 Y-25.5306
G01 X48.3303 Y-25.5363
G01 X48.3223 Y-25.5439
G01 X48.3154 Y-25.5525
G01 X48.3098 Y-25.5620
G01 X48.3057 Y-25.5722
G01 X48.3032 Y-25.5830
G01 X48.3022 Y-25.5931
G01 X48.3021 Y-27.2074
G01 X48.2958 Y-27.2365
G01 X48.2943 Y-27.2493
G01 X48.2933 Y-27.2686
G01 X48.2933 Y-28.2594
G01 X46.8782 Y-29.1907
G01 X46.8616 Y-29.2040
G01 X46.8508 Y-29.2142
G01 X46.8370 Y-29.2292
G01 X46.8237 Y-29.2471
G01 X46.8122 Y-29.2661
G01 X46.8033 Y-29.2845
G01 X46.7980 Y-29.2983
G01 X46.7916 Y-29.3196
G01 X46.7865 Y-29.3488
G01 X46.7852 Y-29.3720
G01 X46.7852 Y-30.0476
G01 X46.7856 Y-30.0605
G01 X46.7875 Y-30.0797
G01 X46.7934 Y-30.1075
G01 X46.7934 Y-32.0019
G01 X46.7950 Y-32.0156
G01 X46.7991 Y-32.0288
G01 X46.8055 Y-32.0410
G01 X46.8147 Y-32.0525
G01 X46.8252 Y-32.0614
G01 X46.8372 Y-32.0683
G01 X46.8502 Y-32.0729
G01 X46.8647 Y-32.0750
G01 X47.1684 Y-32.0751
G01 X47.1812 Y-32.0740
G01 X47.1928 Y-32.0710
G01 X47.2029 Y-32.0667
G01 X47.2131 Y-32.0603
G01 X47.2221 Y-32.0525
G01 X47.2297 Y-32.0433
G01 X47.2358 Y-32.0330
G01 X47.2402 Y-32.0219
G01 X47.2426 Y-32.0111
G01 X47.2434 Y-32.0001
G01 X47.2434 Y-30.0001
G01 X47.2428 Y-29.9909
G01 X47.2414 Y-29.9828
G01 X47.2387 Y-29.9740
G01 X47.2354 Y-29.9663
G01 X47.2354 Y-29.4942
G01 X48.6421 Y-28.5687
G01 X48.6527 Y-28.5613
G01 X48.6685 Y-28.5484
G01 X48.6831 Y-28.5341
G01 X48.6917 Y-28.5244
G01 X48.7040 Y-28.5081
G01 X48.7110 Y-28.4972
G01 X48.7207 Y-28.4792
G01 X48.7268 Y-28.4657
G01 X48.7336 Y-28.4465
G01 X48.7387 Y-28.4267
G01 X48.7411 Y-28.4130
G01 X48.7431 Y-28.3927
G01 X48.7435 Y-27.6699
G01 X48.9781 Y-27.6699
G01 X48.9943 Y-27.6679
G01 X50.1606 Y-27.6679
G01 X50.1606 Y-27.8788
G01 X50.1626 Y-27.8952
G01 X50.1663 Y-27.9066
G01 X50.1717 Y-27.9172
G01 X50.1782 Y-27.9262
G01 X50.1866 Y-27.9347
G01 X50.1963 Y-27.9418
G01 X50.2069 Y-27.9472
G01 X50.2174 Y-27.9507
G01 X50.2292 Y-27.9526
G01 X51.8439 Y-27.9524
G01 X51.8565 Y-27.9499
G01 X51.8685 Y-27.9453
G01 X51.8795 Y-27.9387
G01 X51.8893 Y-27.9303
G01 X51.8974 Y-27.9203
G01 X51.9034 Y-27.9100
G01 X51.9079 Y-27.8979
G01 X51.9102 Y-27.8853
G01 X51.9106 Y-27.3021
G01 X52.0042 Y-27.3021
G01 X53.0812 Y-28.3786
G01 X53.0954 Y-28.3908
G01 X53.1181 Y-28.4076
G01 X53.1331 Y-28.4172
G01 X53.1486 Y-28.4259
G01 X53.1741 Y-28.4380
G01 X53.1907 Y-28.4444
G01 X53.2194 Y-28.4532
G01 X53.2377 Y-28.4574
G01 X53.2683 Y-28.4619
G01 X53.3002 Y-28.4634
G01 X57.5211 Y-28.4631
G01 X57.5547 Y-28.4599
G01 X57.5860 Y-28.4537
G01 X57.6165 Y-28.4444
G01 X57.6477 Y-28.4314
G01 X57.6757 Y-28.4162
G01 X57.6992 Y-28.4005
G01 X57.7118 Y-28.3908
G01 X57.7369 Y-28.3682
G01 X57.7589 Y-28.3438
G01 X57.7773 Y-28.3189
G01 X57.7928 Y-28.2932
G01 X57.8017 Y-28.2756
G01 X57.8131 Y-28.2478
G01 X57.8219 Y-28.2191
G01 X57.8262 Y-28.1999
G01 X57.8306 Y-28.1702
G01 X57.8321 Y-28.1392
G01 X57.8321 Y-20.6131
G01 X58.6299 Y-19.8141
G01 X58.6299 Y-20.0283
G01 X58.6312 Y-20.0420
G01 X58.6337 Y-20.0518
G01 X58.6375 Y-20.0612
G01 X58.6425 Y-20.0700
G01 X58.6493 Y-20.0787
G01 X58.6566 Y-20.0857
G01 X58.6648 Y-20.0917
G01 X58.6745 Y-20.0969
G01 X58.6840 Y-20.1003
G01 X58.6939 Y-20.1025
G01 X58.7049 Y-20.1033
G01 X59.4086 Y-20.1032
G01 X59.4186 Y-20.1020
G01 X59.4293 Y-20.0992
G01 X59.4386 Y-20.0953
G01 X59.4473 Y-20.0901
G01 X59.4553 Y-20.0839
G01 X59.4623 Y-20.0766
G01 X59.4683 Y-20.0684
G01 X59.4731 Y-20.0595
G01 X59.4781 Y-20.0447
G01 X59.4799 Y-20.0283
G01 X59.4797 Y-17.8255
G01 X59.4773 Y-17.8092
G01 X59.4744 Y-17.8004
G01 X59.4709 Y-17.7929
G01 X59.4616 Y-17.7793
G01 X59.4558 Y-17.7733
G01 X59.4487 Y-17.7675
G01 X59.4352 Y-17.7597
G01 X59.4203 Y-17.7549
G01 X59.4076 Y-17.7534
G01 X59.3799 Y-17.7533
G01 X59.3799 Y-17.3678
G01 X60.2538 Y-15.2417
G01 X60.8577 Y-15.2417
G01 X60.8687 Y-15.2406
G01 X60.8786 Y-15.2382
G01 X60.8888 Y-15.2341
G01 X60.8976 Y-15.2291
G01 X60.9042 Y-15.2241
G01 X60.9108 Y-15.2177
G01 X60.9207 Y-15.2045
G01 X60.9245 Y-15.1971
G01 X60.9277 Y-15.1885
G01 X60.9307 Y-15.1722
G01 X60.9309 Y-14.7919
G01 X65.4048 Y-14.7919
G01 X65.4275 Y-14.7913
G01 X65.4652 Y-14.7875
G01 X65.4876 Y-14.7837
G01 X65.5088 Y-14.7790
G01 X65.5478 Y-14.7671
G01 X65.5672 Y-14.7596
G01 X65.5863 Y-14.7512
G01 X72.0942 Y-11.6800
G01 X72.1127 Y-11.6975
G01 X72.1512 Y-11.7308
G01 X72.1943 Y-11.7644
G01 X72.2367 Y-11.7942
G01 X72.2797 Y-11.8215
G01 X72.3280 Y-11.8489
G01 X72.3743 Y-11.8722
G01 X72.4208 Y-11.8928
G01 X72.4717 Y-11.9126
G01 X72.5236 Y-11.9296
G01 X72.5727 Y-11.9432
G01 X72.6233 Y-11.9546
G01 X72.6780 Y-11.9640
G01 X72.7285 Y-11.9702
G01 X72.7793 Y-11.9740
G01 X72.8339 Y-11.9754
G01 X72.8885 Y-11.9740
G01 X72.9393 Y-11.9702
G01 X72.9898 Y-11.9640
G01 X73.0436 Y-11.9547
G01 X73.0951 Y-11.9432
G01 X73.1442 Y-11.9296
G01 X73.1969 Y-11.9122
G01 X73.2453 Y-11.8936
G01 X73.2918 Y-11.8730
G01 X73.3407 Y-11.8485
G01 X73.3881 Y-11.8215
G01 X73.4311 Y-11.7942
G01 X73.4743 Y-11.7638
G01 X73.5159 Y-11.7314
G01 X73.5544 Y-11.6981
G01 X73.5940 Y-11.6605
G01 X73.6304 Y-11.6223
G01 X73.6637 Y-11.5838
G01 X73.6979 Y-11.5400
G01 X73.7277 Y-11.4976
G01 X73.7569 Y-11.4515
G01 X73.7828 Y-11.4055
G01 X73.8057 Y-11.3600
G01 X73.8263 Y-11.3135
G01 X73.8461 Y-11.2626
G01 X73.8626 Y-11.2125
G01 X73.8767 Y-11.1616
G01 X73.8881 Y-11.1110
G01 X73.8973 Y-11.0581
G01 X73.9037 Y-11.0058
G01 X73.9076 Y-10.9531
G01 X73.9089 Y-10.8995
G01 X73.9076 Y-10.8477
G01 X73.9035 Y-10.7932
G01 X73.8970 Y-10.7408
G01 X73.8882 Y-10.6907
G01 X73.8801 Y-10.6544
G01 X74.7481 Y-9.7684
G01 X75.2109 Y-9.6588
G01 X75.2399 Y-9.6863
G01 X75.2798 Y-9.7208
G01 X75.3214 Y-9.7532
G01 X75.3646 Y-9.7836
G01 X75.4091 Y-9.8119
G01 X75.4550 Y-9.8379
G01 X75.5022 Y-9.8616
G01 X75.5504 Y-9.8830
G01 X75.5996 Y-9.9020
G01 X75.6497 Y-9.9185
G01 X75.7006 Y-9.9326
G01 X75.7521 Y-9.9441
G01 X75.8041 Y-9.9532
G01 X75.8564 Y-9.9596
G01 X75.9091 Y-9.9635
G01 X75.9618 Y-9.9648
G01 X76.0145 Y-9.9635
G01 X76.0653 Y-9.9598
G01 X76.1195 Y-9.9532
G01 X76.1733 Y-9.9438
G01 X76.2230 Y-9.9326
G01 X76.2721 Y-9.9190
G01 X76.3257 Y-9.9013
G01 X76.3732 Y-9.8830
G01 X76.4197 Y-9.8624
G01 X76.4686 Y-9.8379
G01 X76.5193 Y-9.8088
G01 X78.7408 Y-9.8088
G01 X78.7573 Y-9.8076
G01 X78.7721 Y-9.8046
G01 X78.7877 Y-9.7993
G01 X78.8034 Y-9.7915
G01 X78.8158 Y-9.7831
G01 X78.8283 Y-9.7722
G01 X80.1784 Y-8.4222
G01 X80.1897 Y-8.4089
G01 X80.1987 Y-8.3949
G01 X80.2052 Y-8.3814
G01 X80.2106 Y-8.3648
G01 X80.2135 Y-8.3485
G01 X80.2143 Y-8.3344
G01 X80.2143 Y-4.1396
G01 X81.7683 Y-2.5856
G01 X84.9587 Y-2.5856
G01 X86.2349 Y-3.8618
G01 X86.2349 Y-7.7797
G01 X86.2361 Y-7.7962
G01 X86.2389 Y-7.8101
G01 X86.2440 Y-7.8258
G01 X86.2501 Y-7.8385
G01 X86.2589 Y-7.8525
G01 X86.2679 Y-7.8634
G01 X86.2799 Y-7.8749
G01 X86.2912 Y-7.8833
G01 X86.3064 Y-7.8918
G01 X86.3236 Y-7.8984
G01 X86.3416 Y-7.9025
G01 X86.3599 Y-7.9038
G01 X89.8862 Y-7.9038
G01 X89.8862 Y-12.8597
G01 X89.8878 Y-12.8790
G01 X89.8929 Y-12.8992
G01 X89.9005 Y-12.9169
G01 X89.9108 Y-12.9333
G01 X89.9234 Y-12.9479
G01 X89.9382 Y-12.9603
G01 X89.9561 Y-12.9710
G01 X89.9740 Y-12.9782
G01 X89.9929 Y-12.9825
G01 X90.0112 Y-12.9838
G01 X91.9214 Y-12.9837
G01 X91.9397 Y-12.9816
G01 X91.9566 Y-12.9771
G01 X91.9713 Y-12.9710
G01 X91.9872 Y-12.9617
G01 X92.0008 Y-12.9508
G01 X92.0134 Y-12.9374
G01 X92.0234 Y-12.9231
G01 X92.0317 Y-12.9066
G01 X92.0358 Y-12.8951
G01 X92.0388 Y-12.8832
G01 X92.0406 Y-12.8711
G01 X92.0412 Y-12.8588
G01 X92.0412 Y-7.9038
G01 X98.2680 Y-7.9038
G01 X98.2794 Y-7.9031
G01 X98.2915 Y-7.9012
G01 X98.3025 Y-7.8984
G01 X98.3140 Y-7.8943
G01 X98.3251 Y-7.8891
G01 X98.3357 Y-7.8828
G01 X98.3455 Y-7.8754
G01 X98.3540 Y-7.8679
G01 X98.3623 Y-7.8588
G01 X98.3691 Y-7.8498
G01 X98.3800 Y-7.8306
G01 X98.3842 Y-7.8201
G01 X98.3877 Y-7.8083
G01 X98.3899 Y-7.7971
G01 X98.3911 Y-7.7849
G01 X98.3912 Y-0.9516
G01 X98.3897 Y-0.9332
G01 X98.3853 Y-0.9145
G01 X98.3773 Y-0.8952
G01 X98.3672 Y-0.8788
G01 X98.3546 Y-0.8641
G01 X98.3407 Y-0.8521
G01 X98.3251 Y-0.8422
G01 X98.3075 Y-0.8345
G01 X98.2864 Y-0.8291
G01 X98.2662 Y-0.8275
G01 X77.7874 Y-0.8275
G01 X77.7683 Y-0.8290
G01 X77.7572 Y-0.8312
G01 X77.7455 Y-0.8347
G01 X77.7342 Y-0.8393
G01 X77.7235 Y-0.8451
G01 X77.7133 Y-0.8518
G01 X77.7045 Y-0.8589
G01 X77.6958 Y-0.8674
G01 X77.6885 Y-0.8760
G01 X77.2101 Y-1.5140
G01 X77.2012 Y-1.5281
G01 X77.1939 Y-1.5442
G01 X77.1896 Y-1.5587
G01 X77.1868 Y-1.5751
G01 X77.1862 Y-1.5875
G01 X77.1862 Y-6.9332
G01 X76.2616 Y-7.8577
G01 X76.2230 Y-7.8470
G01 X76.1715 Y-7.8355
G01 X76.1195 Y-7.8264
G01 X76.0672 Y-7.8200
G01 X76.0145 Y-7.8161
G01 X75.9618 Y-7.8148
G01 X75.9091 Y-7.8161
G01 X75.8564 Y-7.8200
G01 X75.8041 Y-7.8264
G01 X75.7521 Y-7.8355
G01 X75.7006 Y-7.8470
G01 X75.6497 Y-7.8611
G01 X75.5996 Y-7.8776
G01 X75.5504 Y-7.8966
G01 X75.5022 Y-7.9180
G01 X75.4550 Y-7.9417
G01 X75.4091 Y-7.9677
G01 X75.3646 Y-7.9960
G01 X75.3214 Y-8.0264
G01 X75.2798 Y-8.0588
G01 X75.2399 Y-8.0933
G01 X75.2017 Y-8.1297
G01 X75.1653 Y-8.1679
G01 X75.1320 Y-8.2064
G01 X75.0984 Y-8.2494
G01 X75.0680 Y-8.2926
G01 X75.0397 Y-8.3371
G01 X75.0146 Y-8.3814
G01 X74.9900 Y-8.4302
G01 X74.9694 Y-8.4767
G01 X74.9458 Y-8.5393
G01 X74.3210 Y-8.6872
G01 X74.2916 Y-8.6950
G01 X74.2645 Y-8.7037
G01 X74.2370 Y-8.7141
G01 X74.2100 Y-8.7259
G01 X74.1836 Y-8.7390
G01 X74.1580 Y-8.7535
G01 X74.1331 Y-8.7693
G01 X74.1091 Y-8.7863
G01 X74.0875 Y-8.8033
G01 X74.0638 Y-8.8239
G01 X74.0427 Y-8.8444
G01 X73.0583 Y-9.8493
G01 X73.0427 Y-9.8459
G01 X72.9925 Y-9.8372
G01 X72.9402 Y-9.8307
G01 X72.8866 Y-9.8267
G01 X72.8348 Y-9.8254
G01 X72.7812 Y-9.8267
G01 X72.7285 Y-9.8306
G01 X72.6762 Y-9.8370
G01 X72.6251 Y-9.8459
G01 X72.5727 Y-9.8576
G01 X72.5218 Y-9.8717
G01 X72.4717 Y-9.8882
G01 X72.4225 Y-9.9072
G01 X72.3743 Y-9.9286
G01 X72.3271 Y-9.9523
G01 X72.2812 Y-9.9783
G01 X72.2367 Y-10.0066
G01 X72.1935 Y-10.0370
G01 X72.1505 Y-10.0706
G01 X72.1120 Y-10.1039
G01 X72.0751 Y-10.1390
G01 X72.0374 Y-10.1785
G01 X72.0018 Y-10.2199
G01 X71.9705 Y-10.2600
G01 X71.9411 Y-10.3016
G01 X71.9118 Y-10.3477
G01 X71.8858 Y-10.3936
G01 X71.8621 Y-10.4408
G01 X71.8400 Y-10.4907
G01 X71.8217 Y-10.5382
G01 X71.8057 Y-10.5866
G01 X71.7911 Y-10.6392
G01 X71.7796 Y-10.6907
G01 X71.7703 Y-10.7445
G01 X71.7639 Y-10.7969
G01 X71.7602 Y-10.8477
G01 X71.7589 Y-10.8979
G01 X65.3095 Y-13.9415
G01 X60.9309 Y-13.9415
G01 X60.9306 Y-13.5603
G01 X60.9293 Y-13.5512
G01 X60.9271 Y-13.5432
G01 X60.9237 Y-13.5346
G01 X60.9198 Y-13.5274
G01 X60.9150 Y-13.5206
G01 X60.9089 Y-13.5137
G01 X60.9020 Y-13.5076
G01 X60.8952 Y-13.5028
G01 X60.8863 Y-13.4981
G01 X60.8768 Y-13.4947
G01 X60.8669 Y-13.4925
G01 X60.8568 Y-13.4917
G01 X60.2056 Y-13.4917
G01 X59.8023 Y-12.5555
G01 X59.8099 Y-12.5446
G01 X59.8152 Y-12.5329
G01 X59.8185 Y-12.5204
G01 X59.8196 Y-12.5076
G01 X59.8196 Y-10.9067
G01 X59.8186 Y-10.8957
G01 X59.8161 Y-10.8849
G01 X59.8120 Y-10.8747
G01 X59.8064 Y-10.8652
G01 X59.8014 Y-10.8586
G01 X59.7950 Y-10.8520
G01 X59.7885 Y-10.8468
G01 X59.7808 Y-10.8419
G01 X59.7733 Y-10.8383
G01 X59.7646 Y-10.8353
G01 X59.7556 Y-10.8334
G01 X59.7474 Y-10.8327
G01 X58.8322 Y-10.8326
G01 X57.3162 Y-8.6301
G01 X57.3162 Y-7.5084
G01 X60.2983 Y-7.5084
G01 X60.2984 Y-7.5361
G01 X60.2999 Y-7.5488
G01 X60.3047 Y-7.5637
G01 X60.3125 Y-7.5772
G01 X60.3184 Y-7.5843
G01 X60.3243 Y-7.5901
G01 X60.3379 Y-7.5994
G01 X60.3533 Y-7.6056
G01 X60.3696 Y-7.6082
G01 X62.5733 Y-7.6083
G01 X62.5834 Y-7.6076
G01 X62.5960 Y-7.6048
G01 X62.6078 Y-7.5999
G01 X62.6187 Y-7.5930
G01 X62.6282 Y-7.5843
G01 X62.6357 Y-7.5750
G01 X62.6419 Y-7.5637
G01 X62.6461 Y-7.5515
G01 X62.6481 Y-7.5388
G01 X62.6483 Y-6.8333
G01 X62.6476 Y-6.8232
G01 X62.6453 Y-6.8124
G01 X62.6411 Y-6.8012
G01 X62.6351 Y-6.7909
G01 X62.6276 Y-6.7816
G01 X62.6187 Y-6.7736
G01 X62.6095 Y-6.7676
G01 X62.5986 Y-6.7627
G01 X62.5870 Y-6.7596
G01 X62.5751 Y-6.7583
G01 X60.3724 Y-6.7583
G01 X60.3560 Y-6.7603
G01 X60.3472 Y-6.7630
G01 X60.3396 Y-6.7663
G01 X60.3324 Y-6.7704
G01 X60.3250 Y-6.7759
G01 X60.3190 Y-6.7816
G01 X60.3131 Y-6.7886
G01 X60.3047 Y-6.8029
G01 X60.2999 Y-6.8178
G01 X60.2984 Y-6.8305
G01 X60.2983 Y-6.8582
G01 X57.3162 Y-6.8582
G01 X57.3159 Y-1.0962
G01 X57.3145 Y-1.0775
G01 X57.3100 Y-1.0478
G01 X57.3027 Y-1.0186
G01 X57.2966 Y-0.9999
G01 X57.2850 Y-0.9722
G01 X57.2709 Y-0.9456
G01 X57.2604 Y-0.9291
G01 X57.2424 Y-0.9049
G01 X57.2223 Y-0.8826
G01 X57.2094 Y-0.8703
G01 X57.1862 Y-0.8512
G01 X57.1702 Y-0.8399
G01 X57.1444 Y-0.8245
G01 X57.1172 Y-0.8115
G01 X57.0989 Y-0.8045
G01 X57.0710 Y-0.7960
G01 X57.0370 Y-0.7893
G01 X57.0089 Y-0.7866
G01 X56.9911 Y-0.7861
G01 X52.0668 Y-0.7861
G01 X52.0500 Y-0.7775
G01 X52.0337 Y-0.7703
G01 X52.0071 Y-0.7608
G01 X51.9900 Y-0.7560
G01 X51.9569 Y-0.7495
G01 X51.9288 Y-0.7468
G01 X51.9110 Y-0.7463
G01 X51.8773 Y-0.7480
G01 X51.8494 Y-0.7522
G01 X51.8320 Y-0.7560
G01 X51.8149 Y-0.7608
G01 X51.7883 Y-0.7703
G01 X51.7720 Y-0.7775
G01 X51.7552 Y-0.7861
G01 X29.5274 Y-0.7861
G01 X29.4955 Y-0.7876
G01 X29.4782 Y-0.7898
G01 X29.4602 Y-0.7931
G01 X29.4320 Y-0.8004
G01 X29.4146 Y-0.8063
G01 X29.3976 Y-0.8131
G01 X29.3714 Y-0.8260
G01 X29.3556 Y-0.8352
G01 X29.3410 Y-0.8448
G01 X29.3158 Y-0.8644
G01 X28.9373 Y-1.1888
G01 X27.7644 Y-1.1888
G01 X27.7552 Y-1.1896
G01 X27.7462 Y-1.1915
G01 X27.7375 Y-1.1945
G01 X27.7300 Y-1.1981
G01 X27.7230 Y-1.2025
G01 X27.7158 Y-1.2082
G01 X27.7100 Y-1.2141
G01 X27.7044 Y-1.2214
G01 X27.6988 Y-1.2309
G01 X27.6947 Y-1.2411
G01 X27.6922 Y-1.2519
G01 X27.6912 Y-1.2629
G01 X27.6912 Y-2.8638
G01 X27.6930 Y-2.8802
G01 X27.6966 Y-2.8916
G01 X27.7014 Y-2.9016
G01 X27.7076 Y-2.9107
G01 X27.7152 Y-2.9187
G01 X27.7238 Y-2.9256
G01 X27.7341 Y-2.9316
G01 X27.7444 Y-2.9356
G01 X27.7552 Y-2.9380
G01 X27.7662 Y-2.9388
G01 X28.0910 Y-2.9388
G01 X28.0910 Y-3.0925
G01 X28.0672 Y-3.1018
G01 X28.0252 Y-3.1204
G01 X27.9824 Y-3.1419
G01 X27.9399 Y-3.1659
G01 X27.8980 Y-3.1926
G01 X27.8604 Y-3.2191
G01 X27.8241 Y-3.2474
G01 X27.7871 Y-3.2792
G01 X27.7511 Y-3.3134
G01 X27.7194 Y-3.3468
G01 X27.7079 Y-3.3600
G01 X25.0165 Y-3.3615
G01 X24.9976 Y-3.3124
G01 X24.9789 Y-3.2703
G01 X24.9574 Y-3.2276
G01 X24.9338 Y-3.1859
G01 X24.9092 Y-3.1471
G01 X24.8795 Y-3.1049
G01 X24.8512 Y-3.0687
G01 X24.8199 Y-3.0324
G01 X24.7869 Y-2.9978
G01 X24.7536 Y-2.9660
G01 X24.7146 Y-2.9324
G01 X24.6783 Y-2.9041
G01 X24.6376 Y-2.8755
G01 X24.5988 Y-2.8509
G01 X24.5571 Y-2.8273
G01 X24.5144 Y-2.8058
G01 X24.4723 Y-2.7871
G01 X24.4242 Y-2.7686
G01 X24.3805 Y-2.7542
G01 X24.3344 Y-2.7414
G01 X24.2877 Y-2.7309
G01 X24.2406 Y-2.7228
G01 X24.1931 Y-2.7169
G01 X24.1472 Y-2.7135
G01 X24.0957 Y-2.7122
G01 X24.0497 Y-2.7134
G01 X24.0010 Y-2.7170
G01 X23.9544 Y-2.7228
G01 X23.9073 Y-2.7309
G01 X23.8606 Y-2.7414
G01 X23.8127 Y-2.7547
G01 X23.7673 Y-2.7698
G01 X23.7244 Y-2.7864
G01 X23.6823 Y-2.8050
G01 X23.6379 Y-2.8273
G01 X23.5978 Y-2.8500
G01 X23.5558 Y-2.8765
G01 X23.5167 Y-2.9041
G01 X23.4790 Y-2.9335
G01 X23.4427 Y-2.9648
G01 X23.4081 Y-2.9978
G01 X23.3751 Y-3.0324
G01 X23.3438 Y-3.0687
G01 X23.3144 Y-3.1064
G01 X23.2868 Y-3.1455
G01 X23.2612 Y-3.1859
G01 X23.2376 Y-3.2276
G01 X23.2153 Y-3.2720
G01 X23.1967 Y-3.3141
G01 X23.1801 Y-3.3570
G01 X23.1650 Y-3.4024
G01 X23.1517 Y-3.4503
G01 X23.1416 Y-3.4952
G01 X23.1331 Y-3.5441
G01 X23.1272 Y-3.5916
G01 X23.1237 Y-3.6394
G01 X23.1225 Y-3.6872
G01 X23.1237 Y-3.7350
G01 X23.1272 Y-3.7828
G01 X23.1331 Y-3.8303
G01 X23.1416 Y-3.8792
G00 Z2.0000
G00 X23.1416 Y-6.4192
G01 F60.00
G01 Z-0.0933
G01 F120.00
G01 X23.1517 Y-6.4641
G01 X23.1640 Y-6.5085
G01 X23.1795 Y-6.5557
G01 X23.1967 Y-6.6003
G01 X23.2153 Y-6.6424
G01 X23.2376 Y-6.6868
G01 X23.2612 Y-6.7285
G01 X23.2858 Y-6.7673
G01 X23.3144 Y-6.8080
G01 X23.3450 Y-6.8471
G01 X23.3751 Y-6.8820
G01 X23.4081 Y-6.9166
G01 X23.4441 Y-6.9508
G01 X23.4790 Y-6.9809
G01 X23.5167 Y-7.0103
G01 X23.5558 Y-7.0379
G01 X23.5947 Y-7.0625
G01 X23.6379 Y-7.0871
G01 X23.6823 Y-7.1094
G01 X23.7244 Y-7.1280
G01 X23.7690 Y-7.1452
G01 X23.8145 Y-7.1602
G01 X23.8588 Y-7.1725
G01 X23.9091 Y-7.1838
G01 X23.9544 Y-7.1916
G01 X24.0019 Y-7.1975
G01 X24.0497 Y-7.2010
G01 X24.0957 Y-7.2022
G01 X24.1472 Y-7.2009
G01 X24.1931 Y-7.1975
G01 X24.2424 Y-7.1914
G01 X24.2877 Y-7.1835
G01 X24.3344 Y-7.1730
G01 X24.3805 Y-7.1602
G01 X24.4260 Y-7.1452
G01 X24.4706 Y-7.1280
G01 X24.5144 Y-7.1086
G01 X24.5571 Y-7.0871
G01 X24.5972 Y-7.0644
G01 X24.6392 Y-7.0379
G01 X24.6768 Y-7.0114
G01 X24.7174 Y-6.9797
G01 X24.7523 Y-6.9496
G01 X24.7869 Y-6.9166
G01 X24.8199 Y-6.8820
G01 X24.8512 Y-6.8457
G01 X24.8806 Y-6.8080
G01 X24.9082 Y-6.7689
G01 X24.9338 Y-6.7285
G01 X24.9565 Y-6.6884
G01 X24.9789 Y-6.6441
G01 X24.9976 Y-6.6020
G01 X25.0168 Y-6.5518
G01 X25.5351 Y-6.5515
G01 X25.5351 Y-6.6816
G01 X25.5362 Y-6.6926
G01 X25.5389 Y-6.7033
G01 X25.5431 Y-6.7135
G01 X25.5483 Y-6.7222
G01 X25.5552 Y-6.7308
G01 X25.5632 Y-6.7384
G01 X25.5715 Y-6.7441
G01 X25.5814 Y-6.7491
G01 X25.5919 Y-6.7526
G01 X25.6027 Y-6.7544
G01 X27.0101 Y-6.7548
G01 X27.0211 Y-6.7540
G01 X27.0319 Y-6.7516
G01 X27.0422 Y-6.7476
G01 X27.0525 Y-6.7416
G01 X27.0618 Y-6.7341
G01 X27.0692 Y-6.7259
G01 X27.0754 Y-6.7168
G01 X27.0804 Y-6.7059
G01 X27.0837 Y-6.6944
G01 X27.0851 Y-6.6816
G01 X27.0851 Y-6.5506
G01 X27.4662 Y-6.5504
G01 X27.4663 Y-7.4459
G01 X27.4673 Y-7.4550
G01 X27.4697 Y-7.4649
G01 X27.4734 Y-7.4743
G01 X27.4783 Y-7.4831
G01 X27.4844 Y-7.4912
G01 X27.4915 Y-7.4984
G01 X27.4988 Y-7.5040
G01 X27.5075 Y-7.5092
G01 X27.5159 Y-7.5128
G01 X27.5239 Y-7.5152
G01 X27.5320 Y-7.5166
G01 X27.5412 Y-7.5172
G01 X29.3412 Y-7.5172
G01 X29.3558 Y-7.5158
G01 X29.3690 Y-7.5118
G01 X29.3790 Y-7.5070
G01 X29.3881 Y-7.5008
G01 X29.3961 Y-7.4932
G01 X29.4030 Y-7.4846
G01 X29.4086 Y-7.4751
G01 X29.4127 Y-7.4649
G01 X29.4152 Y-7.4541
G01 X29.4162 Y-7.4440
G01 X29.4162 Y-5.8148
G01 X29.7777 Y-5.4533
G01 X31.5911 Y-5.4533
G01 X31.6168 Y-5.4515
G01 X31.6410 Y-5.4461
G01 X31.6598 Y-5.4393
G01 X31.6811 Y-5.4284
G01 X31.6968 Y-5.4178
G01 X31.7142 Y-5.4027
G01 X32.3896 Y-4.7274
G01 X32.4011 Y-4.7147
G01 X32.4113 Y-4.7009
G01 X32.4240 Y-4.6784
G01 X32.4333 Y-4.6544
G01 X32.4390 Y-4.6293
G01 X32.4408 Y-4.6045
G01 X32.4408 Y-2.8505
G01 X32.6955 Y-2.5958
G01 X43.5042 Y-2.5958
G01 X43.9138 Y-3.0054
G01 X43.9057 Y-3.3835
G01 X43.7052 Y-3.5841
G01 X43.6975 Y-3.5945
G01 X43.6918 Y-3.6060
G01 X43.6880 Y-3.6183
G01 X43.6865 Y-3.6310
G01 X43.6864 Y-4.7338
G01 X43.6871 Y-4.7439
G01 X43.6891 Y-4.7538
G01 X43.6928 Y-4.7642
G01 X43.6975 Y-4.7731
G01 X43.7040 Y-4.7821
G01 X43.8090 Y-4.8875
G01 X43.8190 Y-4.8956
G01 X43.8302 Y-4.9020
G01 X43.8423 Y-4.9063
G01 X43.8550 Y-4.9085
G01 X44.2614 Y-4.9088
G01 X44.2706 Y-4.9082
G01 X44.2796 Y-4.9066
G01 X44.2892 Y-4.9034
G01 X44.2976 Y-4.8995
G01 X44.3061 Y-4.8940
G01 X44.3131 Y-4.8881
G01 X44.4157 Y-4.7855
G01 X44.4232 Y-4.7762
G01 X44.4296 Y-4.7650
G01 X44.4346 Y-4.7502
G01 X44.4364 Y-4.7338
G01 X44.4364 Y-3.6338
G01 X44.4357 Y-3.6237
G01 X44.4334 Y-3.6129
G01 X44.4296 Y-3.6026
G01 X44.4243 Y-3.5929
G01 X44.4176 Y-3.5841
G01 X44.2550 Y-3.4214
G01 X44.2654 Y-2.9293
G01 X44.2629 Y-2.9049
G01 X44.2586 Y-2.8858
G01 X44.2501 Y-2.8628
G01 X44.2407 Y-2.8446
G01 X44.2272 Y-2.8252
G01 X44.2148 Y-2.8113
G01 X43.6949 Y-2.2917
G01 X43.6739 Y-2.2752
G01 X43.6608 Y-2.2673
G01 X43.6499 Y-2.2618
G01 X43.6357 Y-2.2560
G01 X43.6210 Y-2.2515
G01 X43.6099 Y-2.2489
G01 X43.5948 Y-2.2467
G01 X43.5767 Y-2.2458
G01 X32.6230 Y-2.2458
G01 X32.5982 Y-2.2475
G01 X32.5722 Y-2.2533
G01 X32.5577 Y-2.2584
G01 X32.5465 Y-2.2634
G01 X32.5330 Y-2.2707
G01 X32.5202 Y-2.2791
G01 X32.5112 Y-2.2861
G01 X32.4999 Y-2.2964
G01 X32.1361 Y-2.6604
G01 X32.1213 Y-2.6792
G01 X32.1106 Y-2.6971
G01 X32.1010 Y-2.7190
G01 X32.0945 Y-2.7420
G01 X32.0916 Y-2.7608
G01 X32.0908 Y-2.7780
G01 X32.0908 Y-4.5311
G01 X31.5186 Y-5.1033
G01 X29.7052 Y-5.1033
G01 X29.6880 Y-5.1041
G01 X29.6711 Y-5.1066
G01 X29.6480 Y-5.1129
G01 X29.6287 Y-5.1209
G01 X29.6080 Y-5.1327
G01 X29.5876 Y-5.1486
G01 X29.1687 Y-5.5672
G01 X27.5412 Y-5.5672
G01 X27.5284 Y-5.5683
G01 X27.5159 Y-5.5716
G01 X27.5067 Y-5.5756
G01 X27.4980 Y-5.5809
G01 X27.4902 Y-5.5873
G01 X27.4832 Y-5.5946
G01 X27.4773 Y-5.6029
G01 X27.4726 Y-5.6118
G01 X27.4692 Y-5.6213
G01 X27.4670 Y-5.6312
G01 X27.4662 Y-5.6422
G01 X27.4662 Y-5.9001
G01 X27.0851 Y-5.9004
G01 X27.0847 Y-5.3724
G01 X27.0826 Y-5.3607
G01 X27.0787 Y-5.3494
G01 X27.0730 Y-5.3389
G01 X27.0650 Y-5.3288
G01 X27.0562 Y-5.3207
G01 X27.0463 Y-5.3141
G01 X27.0354 Y-5.3092
G01 X27.0238 Y-5.3061
G01 X27.0101 Y-5.3048
G01 X25.6101 Y-5.3048
G01 X25.6000 Y-5.3055
G01 X25.5892 Y-5.3078
G01 X25.5789 Y-5.3116
G01 X25.5692 Y-5.3169
G01 X25.5604 Y-5.3236
G01 X25.5521 Y-5.3322
G01 X25.5458 Y-5.3412
G01 X25.5405 Y-5.3520
G01 X25.5371 Y-5.3625
G01 X25.5354 Y-5.3734
G01 X25.5351 Y-5.9012
G01 X25.0165 Y-5.9015
G01 X24.9976 Y-5.8524
G01 X24.9789 Y-5.8103
G01 X24.9565 Y-5.7660
G01 X24.9338 Y-5.7259
G01 X24.9082 Y-5.6855
G01 X24.8806 Y-5.6464
G01 X24.8512 Y-5.6087
G01 X24.8199 Y-5.5724
G01 X24.7882 Y-5.5391
G01 X24.7509 Y-5.5036
G01 X24.7160 Y-5.4735
G01 X24.6783 Y-5.4441
G01 X24.6392 Y-5.4165
G01 X24.5988 Y-5.3909
G01 X24.5571 Y-5.3673
G01 X24.5144 Y-5.3458
G01 X24.4706 Y-5.3264
G01 X24.4277 Y-5.3098
G01 X24.3788 Y-5.2937
G01 X24.3344 Y-5.2814
G01 X24.2877 Y-5.2709
G01 X24.2406 Y-5.2628
G01 X24.1931 Y-5.2569
G01 X24.1453 Y-5.2534
G01 X24.0993 Y-5.2522
G01 X24.0478 Y-5.2535
G01 X24.0019 Y-5.2569
G01 X23.9535 Y-5.2629
G01 X23.9073 Y-5.2709
G01 X23.8606 Y-5.2814
G01 X23.8145 Y-5.2942
G01 X23.7690 Y-5.3092
G01 X23.7244 Y-5.3264
G01 X23.6806 Y-5.3458
G01 X23.6379 Y-5.3673
G01 X23.5947 Y-5.3919
G01 X23.5558 Y-5.4165
G01 X23.5182 Y-5.4430
G01 X23.4804 Y-5.4724
G01 X23.4427 Y-5.5048
G01 X23.4094 Y-5.5365
G01 X23.3751 Y-5.5724
G01 X23.3438 Y-5.6087
G01 X23.3144 Y-5.6464
G01 X23.2879 Y-5.6840
G01 X23.2612 Y-5.7259
G01 X23.2376 Y-5.7676
G01 X23.2161 Y-5.8103
G01 X23.1967 Y-5.8541
G01 X23.1795 Y-5.8987
G01 X23.1645 Y-5.9442
G01 X23.1517 Y-5.9903
G01 X23.1412 Y-6.0370
G01 X23.1331 Y-6.0841
G01 X23.1272 Y-6.1316
G01 X23.1237 Y-6.1794
G01 X23.1225 Y-6.2272
G01 X23.1237 Y-6.2750
G01 X23.1272 Y-6.3228
G01 X23.1331 Y-6.3703
G01 X23.1416 Y-6.4192
G00 Z2.0000
G00 X24.4725 Y-7.7922
G01 F60.00
G01 Z-0.0933
G01 F120.00
G01 X24.4725 Y-7.7422
G01 X25.1225 Y-7.7422
G01 X25.1225 Y-8.3922
G01 X25.0725 Y-8.3922
G01 X25.0724 Y-7.8644
G01 X25.0705 Y-7.8499
G01 X25.0657 Y-7.8360
G01 X25.0583 Y-7.8233
G01 X25.0485 Y-7.8123
G01 X25.0376 Y-7.8038
G01 X25.0262 Y-7.7979
G01 X25.0139 Y-7.7940
G01 X25.0003 Y-7.7923
G01 X24.4725 Y-7.7922
G00 Z2.0000
G00 X23.1225 Y-8.3922
G01 F60.00
G01 Z-0.0933
G01 F120.00
G01 X23.0725 Y-8.3922
G01 X23.0725 Y-7.7422
G01 X23.7225 Y-7.7422
G01 X23.7225 Y-7.7922
G01 X23.1947 Y-7.7923
G01 X23.1802 Y-7.7942
G01 X23.1663 Y-7.7990
G01 X23.1536 Y-7.8064
G01 X23.1426 Y-7.8162
G01 X23.1341 Y-7.8271
G01 X23.1282 Y-7.8385
G01 X23.1241 Y-7.8517
G01 X23.1226 Y-7.8644
G01 X23.1225 Y-8.3922
G00 Z2.0000
G00 X23.0725 Y-9.7922
G01 F60.00
G01 Z-0.0933
G01 F120.00
G01 X23.0725 Y-9.1422
G01 X23.1225 Y-9.1422
G01 X23.1226 Y-9.6700
G01 X23.1245 Y-9.6845
G01 X23.1293 Y-9.6984
G01 X23.1367 Y-9.7111
G01 X23.1465 Y-9.7221
G01 X23.1574 Y-9.7306
G01 X23.1688 Y-9.7365
G01 X23.1820 Y-9.7406
G01 X23.1947 Y-9.7421
G01 X23.7225 Y-9.7422
G01 X23.7225 Y-9.7922
G01 X23.0725 Y-9.7922
G00 Z2.0000
G00 X24.4725 Y-9.7922
G01 F60.00
G01 Z-0.0933
G01 F120.00
G01 X24.4725 Y-9.7422
G01 X25.0003 Y-9.7421
G01 X25.0139 Y-9.7404
G01 X25.0270 Y-9.7361
G01 X25.0392 Y-9.7296
G01 X25.0505 Y-9.7202
G01 X25.0599 Y-9.7089
G01 X25.0664 Y-9.6967
G01 X25.0707 Y-9.6836
G01 X25.0724 Y-9.6700
G01 X25.0725 Y-9.1422
G01 X25.1225 Y-9.1422
G01 X25.1225 Y-9.7922
G01 X24.4725 Y-9.7922
G00 Z2.0000
G00 X25.1813 Y-12.0461
G01 F60.00
G01 Z-0.0933
G01 F120.00
G01 X26.4813 Y-12.0461
G01 X26.4914 Y-12.0454
G01 X26.5013 Y-12.0434
G01 X26.5117 Y-12.0397
G01 X26.5222 Y-12.0340
G01 X26.5310 Y-12.0273
G01 X26.5387 Y-12.0194
G01 X26.5452 Y-12.0104
G01 X26.5502 Y-12.0006
G01 X26.5541 Y-11.9893
G01 X26.5559 Y-11.9785
G01 X26.5563 Y-11.4963
G01 X27.2117 Y-11.4963
G01 X29.4880 Y-13.7726
G01 X29.5023 Y-13.7856
G01 X29.5132 Y-13.7941
G01 X29.5300 Y-13.8054
G01 X29.5420 Y-13.8121
G01 X29.5595 Y-13.8204
G01 X29.5724 Y-13.8253
G01 X29.5918 Y-13.8311
G01 X29.6117 Y-13.8351
G01 X29.6263 Y-13.8369
G01 X29.6465 Y-13.8379
G01 X35.8507 Y-13.8375
G01 X40.8254 Y-13.2410
G01 X40.8483 Y-13.2370
G01 X40.8773 Y-13.2284
G01 X40.8970 Y-13.2199
G01 X40.9173 Y-13.2087
G01 X40.9405 Y-13.1922
G01 X40.9571 Y-13.1773
G01 X42.4256 Y-11.7088
G01 X43.0632 Y-11.7088
G01 X43.0769 Y-11.7072
G01 X43.0892 Y-11.7034
G01 X43.1007 Y-11.6977
G01 X43.1111 Y-11.6900
G01 X43.2176 Y-11.5835
G01 X43.2238 Y-11.5755
G01 X43.2284 Y-11.5675
G01 X43.2320 Y-11.5591
G01 X43.2346 Y-11.5502
G01 X43.2364 Y-11.5338
G01 X43.2363 Y-11.1301
G01 X43.2346 Y-11.1174
G01 X43.2303 Y-11.1043
G01 X43.2238 Y-11.0921
G01 X43.2151 Y-11.0814
G01 X43.1097 Y-10.9764
G01 X43.1007 Y-10.9699
G01 X43.0909 Y-10.9649
G01 X43.0814 Y-10.9615
G01 X43.0706 Y-10.9594
G01 X43.0614 Y-10.9588
G01 X41.9605 Y-10.9588
G01 X41.9495 Y-10.9598
G01 X41.9396 Y-10.9620
G01 X41.9293 Y-10.9660
G01 X41.9205 Y-10.9709
G01 X41.9084 Y-10.9808
G01 X41.7058 Y-11.1834
G01 X41.6980 Y-11.1937
G01 X41.6925 Y-11.2043
G01 X41.6886 Y-11.2156
G01 X41.6867 Y-11.2274
G01 X41.6864 Y-11.4356
G01 X41.6880 Y-11.4493
G01 X41.6921 Y-11.4625
G01 X41.6985 Y-11.4747
G01 X41.7071 Y-11.4855
G01 X41.8597 Y-11.6381
G01 X40.6945 Y-12.8033
G01 X35.8242 Y-13.3877
G01 X29.7397 Y-13.3877
G01 X27.4641 Y-11.1120
G01 X27.4547 Y-11.1032
G01 X27.4390 Y-11.0904
G01 X27.4222 Y-11.0791
G01 X27.4110 Y-11.0727
G01 X27.3927 Y-11.0640
G01 X27.3807 Y-11.0593
G01 X27.3685 Y-11.0553
G01 X27.3488 Y-11.0504
G01 X27.3361 Y-11.0483
G01 X27.3159 Y-11.0464
G01 X26.5563 Y-11.0461
G01 X26.5563 Y-10.5711
G01 X26.5557 Y-10.5619
G01 X26.5533 Y-10.5502
G01 X26.5487 Y-10.5382
G01 X26.5426 Y-10.5279
G01 X26.5343 Y-10.5181
G01 X26.5245 Y-10.5098
G01 X26.5142 Y-10.5037
G01 X26.5031 Y-10.4993
G01 X26.4905 Y-10.4967
G01 X26.4813 Y-10.4961
G01 X25.1795 Y-10.4961
G01 X25.1640 Y-10.4981
G01 X25.1492 Y-10.5033
G01 X25.1352 Y-10.5120
G01 X25.1239 Y-10.5228
G01 X25.1165 Y-10.5333
G01 X25.1110 Y-10.5450
G01 X25.1076 Y-10.5574
G01 X25.1063 Y-10.5702
G01 X25.1064 Y-11.9739
G01 X25.1083 Y-11.9884
G01 X25.1127 Y-12.0015
G01 X25.1200 Y-12.0143
G01 X25.1289 Y-12.0248
G01 X25.1404 Y-12.0340
G01 X25.1535 Y-12.0407
G01 X25.1676 Y-12.0448
G01 X25.1813 Y-12.0461
G00 Z2.0000
G00 X24.7199 Y-13.4174
G01 F60.00
G01 Z-0.0933
G01 F120.00
G01 X24.7148 Y-13.4167
G01 X24.7106 Y-13.4142
G01 X24.7077 Y-13.4103
G01 X24.7065 Y-13.4055
G01 X24.7072 Y-13.4007
G01 X24.7097 Y-13.3965
G01 X24.7136 Y-13.3936
G01 X24.7184 Y-13.3924
G01 X25.3048 Y-13.3924
G01 X25.3087 Y-13.3928
G01 X25.3127 Y-13.3945
G01 X25.3158 Y-13.3974
G01 X25.3177 Y-13.4013
G01 X25.3181 Y-13.4067
G01 X25.3161 Y-13.4119
G01 X25.3121 Y-13.4156
G01 X25.3069 Y-13.4174
G01 X25.0990 Y-13.4174
G01 X25.0826 Y-13.4195
G01 X25.0730 Y-13.4225
G01 X25.0646 Y-13.4263
G01 X25.0568 Y-13.4311
G01 X25.0489 Y-13.4375
G01 X25.0426 Y-13.4442
G01 X25.0366 Y-13.4523
G01 X25.0318 Y-13.4612
G01 X25.0282 Y-13.4707
G01 X25.0258 Y-13.4814
G01 X25.0249 Y-13.4924
G01 X25.0249 Y-14.3818
G01 X25.0245 Y-14.3857
G01 X25.0228 Y-14.3897
G01 X25.0199 Y-14.3928
G01 X25.0160 Y-14.3947
G01 X25.0100 Y-14.3950
G01 X25.0045 Y-14.3924
G01 X25.0008 Y-14.3875
G01 X24.9999 Y-14.3818
G01 X24.9999 Y-13.4924
G01 X24.9990 Y-13.4814
G01 X24.9966 Y-13.4707
G01 X24.9930 Y-13.4612
G01 X24.9877 Y-13.4515
G01 X24.9816 Y-13.4435
G01 X24.9745 Y-13.4363
G01 X24.9665 Y-13.4301
G01 X24.9578 Y-13.4250
G01 X24.9484 Y-13.4212
G01 X24.9386 Y-13.4187
G01 X24.9249 Y-13.4174
G01 X24.7199 Y-13.4174
G00 Z2.0000
G00 X23.7910 Y-13.9674
G01 F60.00
G01 Z-0.0933
G01 F120.00
G01 X23.7865 Y-13.9669
G01 X23.7822 Y-13.9646
G01 X23.7791 Y-13.9608
G01 X23.7777 Y-13.9567
G01 X23.7778 Y-13.9525
G01 X23.7797 Y-13.9479
G01 X23.7831 Y-13.9445
G01 X23.7877 Y-13.9426
G01 X24.0015 Y-13.9422
G01 X24.0142 Y-13.9401
G01 X24.0255 Y-13.9363
G01 X24.0369 Y-13.9302
G01 X24.0470 Y-13.9223
G01 X24.0556 Y-13.9128
G01 X24.0621 Y-13.9027
G01 X24.0672 Y-13.8909
G01 X24.0700 Y-13.8793
G01 X24.0710 Y-13.8674
G01 X24.0710 Y-13.7092
G01 X24.0722 Y-13.7050
G01 X24.0751 Y-13.7011
G01 X24.0787 Y-13.6988
G01 X24.0835 Y-13.6979
G01 X24.0877 Y-13.6986
G01 X24.0919 Y-13.7011
G01 X24.0948 Y-13.7050
G01 X24.0960 Y-13.7092
G01 X24.0960 Y-13.8683
G01 X24.0971 Y-13.8802
G01 X24.1004 Y-13.8926
G01 X24.1058 Y-13.9043
G01 X24.1137 Y-13.9156
G01 X24.1228 Y-13.9247
G01 X24.1317 Y-13.9312
G01 X24.1415 Y-13.9363
G01 X24.1519 Y-13.9399
G01 X24.1628 Y-13.9419
G01 X24.3774 Y-13.9424
G01 X24.3816 Y-13.9433
G01 X24.3857 Y-13.9460
G01 X24.3884 Y-13.9501
G01 X24.3893 Y-13.9549
G01 X24.3884 Y-13.9597
G01 X24.3857 Y-13.9638
G01 X24.3816 Y-13.9665
G01 X24.3774 Y-13.9674
G01 X24.1628 Y-13.9679
G01 X24.1519 Y-13.9699
G01 X24.1415 Y-13.9735
G01 X24.1317 Y-13.9786
G01 X24.1228 Y-13.9851
G01 X24.1137 Y-13.9942
G01 X24.1058 Y-14.0055
G01 X24.1004 Y-14.0172
G01 X24.0971 Y-14.0296
G01 X24.0960 Y-14.0415
G01 X24.0960 Y-14.2005
G01 X24.0948 Y-14.2047
G01 X24.0919 Y-14.2086
G01 X24.0877 Y-14.2111
G01 X24.0835 Y-14.2118
G01 X24.0793 Y-14.2111
G01 X24.0751 Y-14.2086
G01 X24.0722 Y-14.2047
G01 X24.0710 Y-14.2005
G01 X24.0710 Y-14.0415
G01 X24.0699 Y-14.0296
G01 X24.0666 Y-14.0172
G01 X24.0612 Y-14.0055
G01 X24.0533 Y-13.9942
G01 X24.0442 Y-13.9851
G01 X24.0345 Y-13.9781
G01 X24.0247 Y-13.9732
G01 X24.0133 Y-13.9695
G01 X24.0015 Y-13.9676
G01 X23.7910 Y-13.9674
G00 Z2.0000
G00 X25.6384 Y-14.3744
G01 F60.00
G01 Z-0.0933
G01 F120.00
G01 X25.9663 Y-13.9373
G01 X25.9720 Y-13.9279
G01 X25.9765 Y-13.9169
G01 X25.9791 Y-13.9062
G01 X25.9802 Y-13.8943
G01 X25.9793 Y-13.8824
G01 X25.9765 Y-13.8707
G01 X25.9720 Y-13.8597
G01 X25.9663 Y-13.8503
G01 X25.6375 Y-13.4119
G01 X25.6355 Y-13.4068
G01 X25.6359 Y-13.4013
G01 X25.6386 Y-13.3965
G01 X25.6425 Y-13.3936
G01 X25.6472 Y-13.3924
G01 X25.6515 Y-13.3929
G01 X25.6553 Y-13.3948
G01 X25.6585 Y-13.3981
G01 X25.9581 Y-13.7972
G01 X25.9703 Y-13.8084
G01 X25.9838 Y-13.8163
G01 X25.9986 Y-13.8212
G01 X26.0141 Y-13.8229
G01 X26.0297 Y-13.8214
G01 X26.0446 Y-13.8166
G01 X26.0582 Y-13.8089
G01 X26.0705 Y-13.7979
G01 X26.3717 Y-13.3969
G01 X26.3760 Y-13.3936
G01 X26.3814 Y-13.3924
G01 X26.3867 Y-13.3936
G01 X26.3910 Y-13.3970
G01 X26.3931 Y-13.4007
G01 X26.3938 Y-13.4050
G01 X26.3931 Y-13.4092
G01 X26.3908 Y-13.4132
G01 X26.0624 Y-13.8510
G01 X26.0568 Y-13.8605
G01 X26.0527 Y-13.8707
G01 X26.0501 Y-13.8814
G01 X26.0491 Y-13.8915
G01 X26.0497 Y-13.9034
G01 X26.0521 Y-13.9151
G01 X26.0564 Y-13.9262
G01 X26.0624 Y-13.9366
G01 X26.3058 Y-14.2611
G01 X26.3174 Y-14.2728
G01 X26.3312 Y-14.2818
G01 X26.3458 Y-14.2872
G01 X26.3622 Y-14.2896
G01 X26.3722 Y-14.2893
G01 X26.3813 Y-14.2878
G01 X26.3901 Y-14.2852
G01 X26.3993 Y-14.2812
G01 X26.4072 Y-14.2764
G01 X26.4151 Y-14.2702
G01 X26.4215 Y-14.2636
G01 X26.4276 Y-14.2555
G01 X26.4350 Y-14.2408
G01 X26.4507 Y-14.1933
G01 X26.4706 Y-14.1418
G01 X26.4930 Y-14.0913
G01 X26.5178 Y-14.0419
G01 X26.5451 Y-13.9938
G01 X26.5746 Y-13.9472
G01 X26.6064 Y-13.9020
G01 X26.6404 Y-13.8584
G01 X26.6765 Y-13.8166
G01 X26.7146 Y-13.7766
G01 X26.7546 Y-13.7385
G01 X26.7964 Y-13.7024
G01 X26.8400 Y-13.6684
G01 X26.8852 Y-13.6366
G01 X26.9318 Y-13.6071
G01 X26.9799 Y-13.5798
G01 X27.0293 Y-13.5550
G01 X27.0798 Y-13.5326
G01 X27.1313 Y-13.5127
G01 X27.1838 Y-13.4954
G01 X27.2370 Y-13.4807
G01 X27.2909 Y-13.4685
G01 X27.3453 Y-13.4591
G01 X27.4002 Y-13.4523
G01 X27.4553 Y-13.4483
G01 X27.5105 Y-13.4469
G01 X27.5657 Y-13.4483
G01 X27.6208 Y-13.4523
G01 X27.6757 Y-13.4591
G01 X27.7301 Y-13.4685
G01 X27.7840 Y-13.4807
G01 X27.8372 Y-13.4954
G01 X27.8897 Y-13.5127
G01 X27.9412 Y-13.5326
G01 X27.9917 Y-13.5550
G01 X28.0411 Y-13.5798
G01 X28.0892 Y-13.6071
G01 X28.1358 Y-13.6366
G01 X28.1810 Y-13.6684
G01 X28.2246 Y-13.7024
G01 X28.2664 Y-13.7385
G01 X28.3071 Y-13.7772
G01 X29.7200 Y-15.1901
G01 X29.7665 Y-15.2396
G01 X29.7734 Y-15.2457
G01 X29.7810 Y-15.2509
G01 X29.7900 Y-15.2555
G01 X29.7987 Y-15.2586
G01 X29.8086 Y-15.2607
G01 X29.8196 Y-15.2615
G01 X30.7707 Y-15.2615
G01 X30.7844 Y-15.2602
G01 X30.7977 Y-15.2565
G01 X30.8069 Y-15.2522
G01 X30.8154 Y-15.2467
G01 X30.8231 Y-15.2402
G01 X30.8298 Y-15.2327
G01 X30.8355 Y-15.2243
G01 X30.8400 Y-15.2152
G01 X30.8432 Y-15.2056
G01 X30.8451 Y-15.1957
G01 X30.8457 Y-15.1865
G01 X30.8457 Y-14.8617
G01 X32.4957 Y-14.8617
G01 X32.4957 Y-16.4117
G01 X30.8457 Y-16.4117
G01 X30.8453 Y-16.0796
G01 X30.8439 Y-16.0705
G01 X30.8413 Y-16.0617
G01 X30.8377 Y-16.0532
G01 X30.8331 Y-16.0453
G01 X30.8275 Y-16.0380
G01 X30.8211 Y-16.0314
G01 X30.8139 Y-16.0256
G01 X30.8061 Y-16.0208
G01 X30.7977 Y-16.0170
G01 X30.7889 Y-16.0142
G01 X30.7799 Y-16.0125
G01 X30.7716 Y-16.0120
G01 X30.1208 Y-16.0120
G01 X30.1080 Y-16.0131
G01 X30.0990 Y-16.0152
G01 X30.0896 Y-16.0188
G01 X30.0815 Y-16.0231
G01 X30.0732 Y-16.0290
G01 X30.0665 Y-16.0353
G01 X30.0606 Y-16.0423
G01 X30.0555 Y-16.0500
G01 X30.0512 Y-16.0591
G01 X30.0483 Y-16.0679
G01 X30.0466 Y-16.0760
G01 X30.0449 Y-16.0970
G01 X30.0381 Y-16.1519
G01 X30.0287 Y-16.2063
G01 X30.0165 Y-16.2602
G01 X30.0018 Y-16.3134
G01 X29.9845 Y-16.3659
G01 X29.9646 Y-16.4174
G01 X29.9422 Y-16.4679
G01 X29.9174 Y-16.5173
G01 X29.8901 Y-16.5654
G01 X29.8606 Y-16.6120
G01 X29.8288 Y-16.6572
G01 X29.7948 Y-16.7008
G01 X29.7587 Y-16.7426
G01 X29.7206 Y-16.7826
G01 X29.6806 Y-16.8207
G01 X29.6388 Y-16.8568
G01 X29.5952 Y-16.8908
G01 X29.5500 Y-16.9226
G01 X29.5034 Y-16.9521
G01 X29.4553 Y-16.9794
G01 X29.4059 Y-17.0042
G01 X29.3554 Y-17.0266
G01 X29.3039 Y-17.0465
G01 X29.2514 Y-17.0638
G01 X29.1982 Y-17.0785
G01 X29.1443 Y-17.0907
G01 X29.0899 Y-17.1001
G01 X29.0350 Y-17.1069
G01 X28.9799 Y-17.1109
G01 X28.9247 Y-17.1123
G01 X28.8695 Y-17.1109
G01 X28.8144 Y-17.1069
G01 X28.7595 Y-17.1001
G01 X28.7051 Y-17.0907
G01 X28.6512 Y-17.0785
G01 X28.5980 Y-17.0638
G01 X28.5455 Y-17.0465
G01 X28.4940 Y-17.0266
G01 X28.4435 Y-17.0042
G01 X28.3941 Y-16.9794
G01 X28.3460 Y-16.9521
G01 X28.2994 Y-16.9226
G01 X28.2542 Y-16.8908
G01 X28.2106 Y-16.8568
G01 X28.1688 Y-16.8207
G01 X28.1281 Y-16.7820
G01 X26.7152 Y-15.3691
G01 X26.6765 Y-15.3284
G01 X26.6404 Y-15.2866
G01 X26.6064 Y-15.2430
G01 X26.5746 Y-15.1978
G01 X26.5451 Y-15.1512
G01 X26.5178 Y-15.1031
G01 X26.4930 Y-15.0537
G01 X26.4706 Y-15.0032
G01 X26.4507 Y-14.9517
G01 X26.4334 Y-14.8992
G01 X26.4187 Y-14.8460
G01 X26.4065 Y-14.7921
G01 X26.3971 Y-14.7377
G01 X26.3903 Y-14.6828
G01 X26.3863 Y-14.6277
G01 X26.3849 Y-14.5725
G01 X26.3863 Y-14.5173
G01 X26.3922 Y-14.4413
G01 X26.3906 Y-14.4266
G01 X26.3857 Y-14.4117
G01 X26.3773 Y-14.3974
G01 X26.0746 Y-13.9947
G01 X26.0653 Y-13.9845
G01 X26.0544 Y-13.9761
G01 X26.0420 Y-13.9699
G01 X26.0288 Y-13.9661
G01 X26.0151 Y-13.9647
G01 X26.0013 Y-13.9659
G01 X25.9880 Y-13.9696
G01 X25.9748 Y-13.9761
G01 X25.9639 Y-13.9845
G01 X25.9546 Y-13.9947
G01 X25.6575 Y-14.3907
G01 X25.6537 Y-14.3938
G01 X25.6491 Y-14.3952
G01 X25.6442 Y-14.3947
G01 X25.6399 Y-14.3923
G01 X25.6368 Y-14.3885
G01 X25.6354 Y-14.3839
G01 X25.6359 Y-14.3790
G01 X25.6384 Y-14.3744
G00 Z2.0000
G00 X26.4560 Y-14.7841
G01 F60.00
G01 Z-0.0933
G01 F120.00
G01 X26.4672 Y-14.8338
G01 X26.4808 Y-14.8829
G01 X26.4979 Y-14.9348
G01 X26.5169 Y-14.9841
G01 X26.5375 Y-15.0307
G01 X26.5620 Y-15.0795
G01 X26.5880 Y-15.1254
G01 X26.6153 Y-15.1685
G01 X26.6467 Y-15.2132
G01 X26.6803 Y-15.2562
G01 X26.7136 Y-15.2948
G01 X26.7494 Y-15.3323
G01 X28.1642 Y-16.7472
G01 X28.2031 Y-16.7842
G01 X28.2438 Y-16.8192
G01 X28.2840 Y-16.8505
G01 X28.3257 Y-16.8799
G01 X28.3718 Y-16.9092
G01 X28.4177 Y-16.9352
G01 X28.4649 Y-16.9589
G01 X28.5148 Y-16.9810
G01 X28.5624 Y-16.9993
G01 X28.6107 Y-17.0153
G01 X28.6634 Y-17.0300
G01 X28.7149 Y-17.0415
G01 X28.7687 Y-17.0508
G01 X28.8211 Y-17.0572
G01 X28.8719 Y-17.0609
G01 X28.9229 Y-17.0622
G01 X28.9775 Y-17.0609
G01 X29.0301 Y-17.0570
G01 X29.0825 Y-17.0506
G01 X29.1363 Y-17.0412
G01 X29.1860 Y-17.0300
G01 X29.2351 Y-17.0164
G01 X29.2853 Y-16.9999
G01 X29.3363 Y-16.9803
G01 X29.3845 Y-16.9589
G01 X29.4317 Y-16.9352
G01 X29.4792 Y-16.9082
G01 X29.5222 Y-16.8809
G01 X29.5639 Y-16.8516
G01 X29.6063 Y-16.8187
G01 X29.6470 Y-16.7836
G01 X29.6852 Y-16.7472
G01 X29.7216 Y-16.7090
G01 X29.7572 Y-16.6676
G01 X29.7885 Y-16.6274
G01 X29.8179 Y-16.5857
G01 X29.8462 Y-16.5412
G01 X29.8732 Y-16.4937
G01 X29.8973 Y-16.4457
G01 X29.9183 Y-16.3983
G01 X29.9379 Y-16.3473
G01 X29.9539 Y-16.2989
G01 X29.9675 Y-16.2498
G01 X29.9793 Y-16.1974
G01 X29.9886 Y-16.1445
G01 X29.9951 Y-16.0912
G01 X29.9989 Y-16.0386
G01 X30.0002 Y-15.9876
G01 X29.9996 Y-15.9619
G01 X30.8957 Y-15.9619
G01 X30.8957 Y-16.2867
G01 X30.8967 Y-16.2986
G01 X30.8995 Y-16.3102
G01 X30.9041 Y-16.3212
G01 X30.9105 Y-16.3314
G01 X30.9183 Y-16.3404
G01 X30.9275 Y-16.3480
G01 X30.9378 Y-16.3541
G01 X30.9489 Y-16.3585
G01 X30.9606 Y-16.3610
G01 X30.9707 Y-16.3617
G01 X32.3735 Y-16.3616
G01 X32.3853 Y-16.3603
G01 X32.3968 Y-16.3570
G01 X32.4077 Y-16.3520
G01 X32.4176 Y-16.3453
G01 X32.4263 Y-16.3371
G01 X32.4336 Y-16.3276
G01 X32.4393 Y-16.3171
G01 X32.4435 Y-16.3049
G01 X32.4451 Y-16.2959
G01 X32.4457 Y-16.2867
G01 X32.4457 Y-14.9849
G01 X32.4449 Y-14.9757
G01 X32.4430 Y-14.9667
G01 X32.4396 Y-14.9572
G01 X32.4355 Y-14.9489
G01 X32.4304 Y-14.9413
G01 X32.4244 Y-14.9343
G01 X32.4168 Y-14.9276
G01 X32.4093 Y-14.9224
G01 X32.4002 Y-14.9178
G01 X32.3907 Y-14.9144
G01 X32.3808 Y-14.9124
G01 X32.3716 Y-14.9117
G01 X30.9707 Y-14.9117
G01 X30.9597 Y-14.9125
G01 X30.9480 Y-14.9152
G01 X30.9370 Y-14.9197
G01 X30.9268 Y-14.9259
G01 X30.9177 Y-14.9337
G01 X30.9099 Y-14.9428
G01 X30.9041 Y-14.9522
G01 X30.8995 Y-14.9632
G01 X30.8967 Y-14.9748
G01 X30.8957 Y-14.9867
G01 X30.8957 Y-15.3116
G01 X29.7618 Y-15.3116
G01 X29.7216 Y-15.2644
G01 X29.6852 Y-15.2262
G01 X28.2710 Y-13.8120
G01 X28.2328 Y-13.7756
G01 X28.1914 Y-13.7400
G01 X28.1512 Y-13.7087
G01 X28.1095 Y-13.6793
G01 X28.0634 Y-13.6500
G01 X28.0175 Y-13.6240
G01 X27.9703 Y-13.6003
G01 X27.9204 Y-13.5782
G01 X27.8728 Y-13.5599
G01 X27.8245 Y-13.5439
G01 X27.7718 Y-13.5292
G01 X27.7185 Y-13.5173
G01 X27.6683 Y-13.5086
G01 X27.6177 Y-13.5024
G01 X27.5633 Y-13.4983
G01 X27.5105 Y-13.4970
G01 X27.4559 Y-13.4984
G01 X27.4051 Y-13.5022
G01 X27.3545 Y-13.5084
G01 X27.3007 Y-13.5177
G01 X27.2474 Y-13.5297
G01 X27.1983 Y-13.5433
G01 X27.1499 Y-13.5593
G01 X27.0989 Y-13.5789
G01 X27.0490 Y-13.6011
G01 X27.0035 Y-13.6240
G01 X26.9592 Y-13.6491
G01 X26.9130 Y-13.6783
G01 X26.8684 Y-13.7098
G01 X26.8268 Y-13.7423
G01 X26.7882 Y-13.7756
G01 X26.7513 Y-13.8107
G01 X26.7136 Y-13.8502
G01 X26.6780 Y-13.8916
G01 X26.6467 Y-13.9318
G01 X26.6173 Y-13.9735
G01 X26.5880 Y-14.0196
G01 X26.5611 Y-14.0671
G01 X26.5383 Y-14.1127
G01 X26.5176 Y-14.1592
G01 X26.4979 Y-14.2102
G01 X26.4813 Y-14.2603
G01 X26.4668 Y-14.3130
G01 X26.4557 Y-14.3627
G01 X26.4469 Y-14.4129
G01 X26.4402 Y-14.4671
G01 X26.4363 Y-14.5197
G01 X26.4350 Y-14.5743
G01 X26.4363 Y-14.6253
G01 X26.4400 Y-14.6761
G01 X26.4466 Y-14.7303
G01 X26.4560 Y-14.7841
G00 Z2.0000
G00 X27.3040 Y-10.9960
G01 F60.00
G01 Z-0.0933
G01 F120.00
G01 X27.3184 Y-10.9964
G01 X27.3453 Y-10.9990
G01 X27.3718 Y-11.0043
G01 X27.3976 Y-11.0121
G01 X27.4225 Y-11.0225
G01 X27.4464 Y-11.0352
G01 X27.4688 Y-11.0502
G01 X27.4897 Y-11.0673
G01 X29.7385 Y-13.3157
G01 X29.7454 Y-13.3218
G01 X29.7538 Y-13.3274
G01 X29.7620 Y-13.3316
G01 X29.7715 Y-13.3349
G01 X29.7815 Y-13.3369
G01 X29.7915 Y-13.3376
G01 X35.8239 Y-13.3373
G01 X40.6456 Y-12.7587
G01 X40.6591 Y-12.7558
G01 X40.6711 Y-12.7509
G01 X40.6805 Y-12.7451
G01 X40.6897 Y-12.7373
G01 X41.7358 Y-11.6912
G01 X41.7419 Y-11.6843
G01 X41.7471 Y-11.6767
G01 X41.7517 Y-11.6677
G01 X41.7548 Y-11.6590
G01 X41.7568 Y-11.6500
G01 X41.7577 Y-11.6409
G01 X41.7575 Y-11.6317
G01 X41.7561 Y-11.6226
G01 X41.7537 Y-11.6137
G01 X41.7501 Y-11.6052
G01 X41.7446 Y-11.5957
G01 X41.7377 Y-11.5871
G01 X41.6736 Y-11.5229
G01 X41.6609 Y-11.5083
G01 X41.6541 Y-11.4981
G01 X41.6458 Y-11.4817
G01 X41.6401 Y-11.4642
G01 X41.6377 Y-11.4522
G01 X41.6363 Y-11.4329
G01 X41.6365 Y-11.2277
G01 X41.6387 Y-11.2094
G01 X41.6417 Y-11.1975
G01 X41.6458 Y-11.1859
G01 X41.6541 Y-11.1695
G01 X41.6686 Y-11.1472
G01 X41.6728 Y-11.1370
G01 X41.6753 Y-11.1272
G01 X41.6766 Y-11.1134
G01 X41.6753 Y-11.0997
G01 X41.6716 Y-11.0865
G01 X41.6654 Y-11.0741
G01 X41.6559 Y-11.0617
G01 X41.6448 Y-11.0521
G01 X41.6311 Y-11.0445
G01 X41.6162 Y-11.0399
G01 X41.6016 Y-11.0384
G01 X41.5860 Y-11.0401
G01 X41.5712 Y-11.0449
G01 X41.5576 Y-11.0527
G01 X41.5485 Y-11.0604
G01 X41.1878 Y-11.4211
G01 X41.1756 Y-11.4328
G01 X41.1509 Y-11.4530
G01 X41.1244 Y-11.4707
G01 X41.1105 Y-11.4786
G01 X41.0962 Y-11.4858
G01 X41.0667 Y-11.4980
G01 X41.0362 Y-11.5072
G01 X41.0049 Y-11.5135
G01 X40.9732 Y-11.5166
G01 X40.9563 Y-11.5170
G01 X40.8018 Y-11.5175
G01 X40.7892 Y-11.5200
G01 X40.7772 Y-11.5246
G01 X40.7662 Y-11.5312
G01 X40.7564 Y-11.5396
G01 X40.7477 Y-11.5503
G01 X40.7412 Y-11.5625
G01 X40.7369 Y-11.5756
G01 X40.7352 Y-11.5883
G01 X40.7351 Y-12.0168
G01 X39.1851 Y-12.0168
G01 X39.1851 Y-10.3668
G01 X40.7351 Y-10.3668
G01 X40.7351 Y-10.7730
G01 X40.7364 Y-10.7867
G01 X40.7405 Y-10.8008
G01 X40.7472 Y-10.8139
G01 X40.7571 Y-10.8260
G01 X40.7684 Y-10.8353
G01 X40.7814 Y-10.8422
G01 X40.7955 Y-10.8465
G01 X40.8110 Y-10.8479
G01 X40.8256 Y-10.8463
G01 X40.8354 Y-10.8436
G01 X40.8455 Y-10.8391
G01 X40.8540 Y-10.8337
G01 X40.8618 Y-10.8273
G01 X41.3617 Y-10.3275
G01 X41.3860 Y-10.3054
G01 X41.4117 Y-10.2864
G01 X41.4390 Y-10.2700
G01 X41.4533 Y-10.2628
G01 X41.4828 Y-10.2506
G01 X41.5133 Y-10.2414
G01 X41.5446 Y-10.2351
G01 X41.5763 Y-10.2320
G01 X41.7565 Y-10.2316
G01 X41.7657 Y-10.2309
G01 X41.7747 Y-10.2291
G01 X41.7893 Y-10.2236
G01 X41.8032 Y-10.2146
G01 X41.8327 Y-10.1855
G01 X41.8408 Y-10.1755
G01 X41.8458 Y-10.1667
G01 X41.8499 Y-10.1565
G01 X41.8525 Y-10.1457
G01 X41.8534 Y-10.1347
G01 X41.8527 Y-10.1237
G01 X41.8504 Y-10.1129
G01 X41.8466 Y-10.1026
G01 X41.8413 Y-10.0929
G01 X41.8321 Y-10.0814
G01 X41.6687 Y-9.9178
G01 X41.6609 Y-9.9083
G01 X41.6541 Y-9.8981
G01 X41.6483 Y-9.8873
G01 X41.6436 Y-9.8759
G01 X41.6387 Y-9.8582
G01 X41.6365 Y-9.8399
G01 X41.6363 Y-9.6347
G01 X41.6377 Y-9.6154
G01 X41.6401 Y-9.6034
G01 X41.6436 Y-9.5917
G01 X41.6483 Y-9.5803
G01 X41.6541 Y-9.5695
G01 X41.6647 Y-9.5545
G01 X41.6736 Y-9.5447
G01 X41.8321 Y-9.3862
G01 X41.8418 Y-9.3739
G01 X41.8462 Y-9.3659
G01 X41.8496 Y-9.3573
G01 X41.8520 Y-9.3484
G01 X41.8531 Y-9.3402
G01 X41.8534 Y-9.3310
G01 X41.8525 Y-9.3219
G01 X41.8504 Y-9.3129
G01 X41.8475 Y-9.3046
G01 X41.9368 Y-9.3047
G01 X41.9486 Y-9.3077
G01 X41.9614 Y-9.3088
G01 X43.0614 Y-9.3088
G01 X43.0742 Y-9.3077
G01 X43.0860 Y-9.3046
G01 X43.1753 Y-9.3047
G01 X43.1707 Y-9.3201
G01 X43.1694 Y-9.3366
G01 X43.1716 Y-9.3520
G01 X43.1774 Y-9.3675
G01 X43.1825 Y-9.3762
G01 X43.1894 Y-9.3848
G01 X43.2492 Y-9.4447
G01 X43.2619 Y-9.4593
G01 X43.2687 Y-9.4695
G01 X43.2770 Y-9.4859
G01 X43.2827 Y-9.5034
G01 X43.2859 Y-9.5215
G01 X43.2865 Y-9.5347
G01 X43.2865 Y-9.9329
G01 X43.2859 Y-9.9461
G01 X43.2841 Y-9.9582
G01 X43.2811 Y-9.9701
G01 X43.2745 Y-9.9873
G01 X43.2687 Y-9.9981
G01 X43.2619 Y-10.0083
G01 X43.2492 Y-10.0229
G01 X43.1901 Y-10.0821
G01 X43.1815 Y-10.0929
G01 X43.1766 Y-10.1017
G01 X43.1726 Y-10.1120
G01 X43.1703 Y-10.1219
G01 X43.1694 Y-10.1329
G01 X43.1702 Y-10.1448
G01 X43.1729 Y-10.1565
G01 X43.1774 Y-10.1675
G01 X43.1836 Y-10.1777
G01 X43.1907 Y-10.1862
G01 X43.2541 Y-10.2498
G01 X43.2619 Y-10.2593
G01 X43.2687 Y-10.2695
G01 X43.2770 Y-10.2859
G01 X43.2811 Y-10.2975
G01 X43.2841 Y-10.3094
G01 X43.2863 Y-10.3277
G01 X43.2865 Y-10.7329
G01 X43.2859 Y-10.7461
G01 X43.2841 Y-10.7582
G01 X43.2811 Y-10.7701
G01 X43.2745 Y-10.7873
G01 X43.2687 Y-10.7981
G01 X43.2619 Y-10.8083
G01 X43.2492 Y-10.8229
G01 X43.1901 Y-10.8821
G01 X43.1815 Y-10.8929
G01 X43.1766 Y-10.9017
G01 X43.1726 Y-10.9120
G01 X43.1703 Y-10.9219
G01 X43.1694 Y-10.9329
G01 X43.1701 Y-10.9439
G01 X43.1724 Y-10.9547
G01 X43.1762 Y-10.9650
G01 X43.1810 Y-10.9739
G01 X43.1901 Y-10.9855
G01 X43.2492 Y-11.0447
G01 X43.2619 Y-11.0593
G01 X43.2687 Y-11.0695
G01 X43.2770 Y-11.0859
G01 X43.2827 Y-11.1034
G01 X43.2851 Y-11.1154
G01 X43.2865 Y-11.1347
G01 X43.2863 Y-11.5399
G01 X43.2841 Y-11.5582
G01 X43.2811 Y-11.5701
G01 X43.2745 Y-11.5873
G01 X43.2687 Y-11.5981
G01 X43.2581 Y-11.6131
G01 X43.2492 Y-11.6229
G01 X43.1454 Y-11.7265
G01 X43.1359 Y-11.7343
G01 X43.1204 Y-11.7441
G01 X43.1035 Y-11.7516
G01 X43.0858 Y-11.7565
G01 X43.0737 Y-11.7583
G01 X43.0605 Y-11.7589
G01 X42.4756 Y-11.7589
G01 X42.4646 Y-11.7600
G01 X42.4539 Y-11.7627
G01 X42.4437 Y-11.7669
G01 X42.4342 Y-11.7726
G01 X42.4244 Y-11.7809
G01 X40.9938 Y-13.2114
G01 X40.9738 Y-13.2297
G01 X40.9529 Y-13.2453
G01 X40.9418 Y-13.2524
G01 X40.9189 Y-13.2650
G01 X40.8948 Y-13.2753
G01 X40.8825 Y-13.2796
G01 X40.8572 Y-13.2863
G01 X40.8305 Y-13.2908
G01 X35.8716 Y-13.8859
G01 X35.8541 Y-13.8875
G01 X35.8366 Y-13.8880
G01 X29.6474 Y-13.8880
G01 X29.6330 Y-13.8876
G01 X29.6061 Y-13.8850
G01 X29.5796 Y-13.8797
G01 X29.5666 Y-13.8761
G01 X29.5412 Y-13.8670
G01 X29.5168 Y-13.8555
G01 X29.4936 Y-13.8416
G01 X29.4826 Y-13.8338
G01 X29.4617 Y-13.8167
G01 X29.4513 Y-13.8067
G01 X27.2129 Y-11.5683
G01 X27.2015 Y-11.5590
G01 X27.1877 Y-11.5517
G01 X27.1745 Y-11.5478
G01 X27.1608 Y-11.5464
G01 X26.6795 Y-11.5464
G01 X26.6658 Y-11.5480
G01 X26.6535 Y-11.5517
G01 X26.6412 Y-11.5580
G01 X26.6303 Y-11.5664
G01 X26.6205 Y-11.5774
G01 X26.6131 Y-11.5901
G01 X26.6085 Y-11.6032
G01 X26.6064 Y-11.6177
G01 X26.6063 Y-12.0961
G01 X25.0563 Y-12.0961
G01 X25.0563 Y-10.4461
G01 X26.6063 Y-10.4461
G01 X26.6064 Y-10.9247
G01 X26.6090 Y-10.9410
G01 X26.6147 Y-10.9556
G01 X26.6239 Y-10.9693
G01 X26.6352 Y-10.9802
G01 X26.6451 Y-10.9867
G01 X26.6560 Y-10.9916
G01 X26.6676 Y-10.9948
G01 X26.6795 Y-10.9960
G01 X27.3040 Y-10.9960
G00 Z2.0000
G00 X27.4729 Y-9.5259
G01 F60.00
G01 Z-0.0933
G01 F120.00
G01 X27.4720 Y-9.5645
G01 X27.4730 Y-9.6050
G01 X27.4760 Y-9.6454
G01 X27.4807 Y-9.6837
G01 X27.4882 Y-9.7273
G01 X27.4967 Y-9.7650
G01 X27.5081 Y-9.8057
G01 X27.5202 Y-9.8424
G01 X27.5348 Y-9.8802
G01 X27.5512 Y-9.9172
G01 X27.5694 Y-9.9534
G01 X27.5894 Y-9.9886
G01 X27.6110 Y-10.0228
G01 X27.6344 Y-10.0560
G01 X27.6581 Y-10.0864
G01 X27.6857 Y-10.1185
G01 X27.7124 Y-10.1465
G01 X27.7443 Y-10.1770
G01 X27.7736 Y-10.2022
G01 X27.8055 Y-10.2271
G01 X27.8387 Y-10.2505
G01 X27.8729 Y-10.2721
G01 X27.9081 Y-10.2921
G01 X27.9426 Y-10.3095
G01 X27.9830 Y-10.3274
G01 X28.0191 Y-10.3413
G01 X28.0575 Y-10.3540
G01 X28.0965 Y-10.3648
G01 X28.1351 Y-10.3735
G01 X28.1778 Y-10.3808
G01 X28.2161 Y-10.3855
G01 X28.2565 Y-10.3885
G01 X28.2970 Y-10.3895
G01 X28.3356 Y-10.3886
G01 X28.3797 Y-10.3853
G01 X28.4181 Y-10.3806
G01 X28.4579 Y-10.3736
G01 X28.4975 Y-10.3648
G01 X28.5347 Y-10.3545
G01 X28.5767 Y-10.3406
G01 X28.6127 Y-10.3267
G01 X28.6497 Y-10.3103
G01 X28.6859 Y-10.2921
G01 X28.7195 Y-10.2731
G01 X28.7569 Y-10.2494
G01 X28.7885 Y-10.2271
G01 X28.8204 Y-10.2022
G01 X28.8510 Y-10.1758
G01 X28.8790 Y-10.1491
G01 X28.9095 Y-10.1172
G01 X28.9347 Y-10.0879
G01 X28.9596 Y-10.0560
G01 X28.9830 Y-10.0228
G01 X29.0041 Y-9.9894
G01 X29.0285 Y-9.9456
G01 X30.0320 Y-10.0211
G01 X30.0320 Y-10.4034
G01 X30.0327 Y-10.4135
G01 X30.0350 Y-10.4243
G01 X30.0392 Y-10.4355
G01 X30.0452 Y-10.4458
G01 X30.0527 Y-10.4551
G01 X30.0609 Y-10.4625
G01 X30.0708 Y-10.4691
G01 X30.0817 Y-10.4740
G01 X30.0933 Y-10.4771
G01 X30.1070 Y-10.4784
G01 X31.5098 Y-10.4783
G01 X31.5225 Y-10.4768
G01 X31.5340 Y-10.4734
G01 X31.5448 Y-10.4682
G01 X31.5553 Y-10.4608
G01 X31.5644 Y-10.4517
G01 X31.5713 Y-10.4420
G01 X31.5766 Y-10.4312
G01 X31.5804 Y-10.4189
G01 X31.5820 Y-10.4034
G01 X31.5819 Y-9.1006
G01 X31.5806 Y-9.0888
G01 X31.5770 Y-9.0764
G01 X31.5713 Y-9.0648
G01 X31.5644 Y-9.0551
G01 X31.5553 Y-9.0460
G01 X31.5456 Y-9.0391
G01 X31.5348 Y-9.0338
G01 X31.5225 Y-9.0300
G01 X31.5070 Y-9.0284
G01 X30.1070 Y-9.0284
G01 X30.0906 Y-9.0302
G01 X30.0800 Y-9.0334
G01 X30.0700 Y-9.0381
G01 X30.0609 Y-9.0443
G01 X30.0527 Y-9.0517
G01 X30.0457 Y-9.0602
G01 X30.0400 Y-9.0697
G01 X30.0358 Y-9.0799
G01 X30.0331 Y-9.0906
G01 X30.0320 Y-9.1034
G01 X30.0320 Y-9.3690
G01 X29.0773 Y-9.2972
G01 X29.0588 Y-9.2479
G01 X29.0428 Y-9.2118
G01 X29.0250 Y-9.1764
G01 X29.0046 Y-9.1404
G01 X28.9840 Y-9.1077
G01 X28.9585 Y-9.0716
G01 X28.9347 Y-9.0411
G01 X28.9083 Y-9.0105
G01 X28.8804 Y-8.9811
G01 X28.8524 Y-8.9545
G01 X28.8189 Y-8.9256
G01 X28.7885 Y-8.9019
G01 X28.7538 Y-8.8775
G01 X28.7211 Y-8.8569
G01 X28.6859 Y-8.8369
G01 X28.6497 Y-8.8187
G01 X28.6144 Y-8.8030
G01 X28.5732 Y-8.7871
G01 X28.5365 Y-8.7750
G01 X28.4975 Y-8.7642
G01 X28.4579 Y-8.7554
G01 X28.4181 Y-8.7484
G01 X28.3779 Y-8.7435
G01 X28.3393 Y-8.7406
G01 X28.2952 Y-8.7395
G01 X28.2565 Y-8.7405
G01 X28.2143 Y-8.7437
G01 X28.1759 Y-8.7484
G01 X28.1361 Y-8.7554
G01 X28.0965 Y-8.7642
G01 X28.0593 Y-8.7745
G01 X28.0173 Y-8.7884
G01 X27.9813 Y-8.8023
G01 X27.9426 Y-8.8195
G01 X27.9081 Y-8.8369
G01 X27.8729 Y-8.8569
G01 X27.8387 Y-8.8785
G01 X27.8055 Y-8.9019
G01 X27.7736 Y-8.9268
G01 X27.7430 Y-8.9532
G01 X27.7136 Y-8.9811
G01 X27.6870 Y-9.0091
G01 X27.6581 Y-9.0426
G01 X27.6344 Y-9.0730
G01 X27.6100 Y-9.1077
G01 X27.5894 Y-9.1404
G01 X27.5694 Y-9.1756
G01 X27.5512 Y-9.2118
G01 X27.5348 Y-9.2488
G01 X27.5202 Y-9.2866
G01 X27.5075 Y-9.3250
G01 X27.4967 Y-9.3640
G01 X27.4882 Y-9.4017
G01 X27.4807 Y-9.4453
G01 X27.4760 Y-9.4836
G01 X27.4729 Y-9.5259
G00 Z2.0000
G00 X29.9820 Y-9.2342
G01 F60.00
G01 Z-0.0933
G01 F120.00
G01 X29.9820 Y-8.9784
G01 X31.6320 Y-8.9784
G01 X31.6320 Y-10.5284
G01 X29.9820 Y-10.5284
G01 X29.9818 Y-10.1317
G01 X29.9806 Y-10.1225
G01 X29.9782 Y-10.1137
G01 X29.9748 Y-10.1051
G01 X29.9709 Y-10.0979
G01 X29.9656 Y-10.0903
G01 X29.9594 Y-10.0835
G01 X29.9525 Y-10.0775
G01 X29.9456 Y-10.0729
G01 X29.9306 Y-10.0660
G01 X29.9217 Y-10.0636
G01 X29.9135 Y-10.0625
G01 X29.0990 Y-10.0012
G01 X29.0843 Y-10.0023
G01 X29.0701 Y-10.0062
G01 X29.0570 Y-10.0128
G01 X29.0447 Y-10.0225
G01 X29.0358 Y-10.0330
G01 X29.0245 Y-10.0506
G01 X28.9998 Y-10.0857
G01 X28.9734 Y-10.1196
G01 X28.9453 Y-10.1521
G01 X28.9157 Y-10.1832
G01 X28.8846 Y-10.2128
G01 X28.8521 Y-10.2409
G01 X28.8182 Y-10.2673
G01 X28.7831 Y-10.2920
G01 X28.7468 Y-10.3150
G01 X28.7095 Y-10.3362
G01 X28.6711 Y-10.3555
G01 X28.6318 Y-10.3729
G01 X28.5918 Y-10.3883
G01 X28.5510 Y-10.4018
G01 X28.5096 Y-10.4133
G01 X28.4677 Y-10.4227
G01 X28.4254 Y-10.4300
G01 X28.3828 Y-10.4353
G01 X28.3399 Y-10.4384
G01 X28.2970 Y-10.4395
G01 X28.2541 Y-10.4384
G01 X28.2112 Y-10.4353
G01 X28.1686 Y-10.4300
G01 X28.1263 Y-10.4227
G01 X28.0844 Y-10.4133
G01 X28.0430 Y-10.4018
G01 X28.0022 Y-10.3883
G01 X27.9622 Y-10.3729
G01 X27.9229 Y-10.3555
G01 X27.8845 Y-10.3362
G01 X27.8472 Y-10.3150
G01 X27.8109 Y-10.2920
G01 X27.7758 Y-10.2673
G01 X27.7419 Y-10.2409
G01 X27.7094 Y-10.2128
G01 X27.6783 Y-10.1832
G01 X27.6487 Y-10.1521
G01 X27.6206 Y-10.1196
G01 X27.5942 Y-10.0857
G01 X27.5695 Y-10.0506
G01 X27.5465 Y-10.0143
G01 X27.5253 Y-9.9770
G01 X27.5060 Y-9.9386
G01 X27.4886 Y-9.8993
G01 X27.4732 Y-9.8593
G01 X27.4597 Y-9.8185
G01 X27.4482 Y-9.7771
G01 X27.4388 Y-9.7352
G01 X27.4315 Y-9.6929
G01 X27.4262 Y-9.6503
G01 X27.4231 Y-9.6074
G01 X27.4220 Y-9.5645
G01 X27.4231 Y-9.5216
G01 X27.4262 Y-9.4787
G01 X27.4315 Y-9.4361
G01 X27.4388 Y-9.3938
G01 X27.4482 Y-9.3519
G01 X27.4597 Y-9.3105
G01 X27.4732 Y-9.2697
G01 X27.4886 Y-9.2297
G01 X27.5060 Y-9.1904
G01 X27.5253 Y-9.1520
G01 X27.5465 Y-9.1147
G01 X27.5695 Y-9.0784
G01 X27.5942 Y-9.0433
G01 X27.6206 Y-9.0094
G01 X27.6487 Y-8.9769
G01 X27.6783 Y-8.9458
G01 X27.7094 Y-8.9162
G01 X27.7419 Y-8.8881
G01 X27.7758 Y-8.8617
G01 X27.8109 Y-8.8370
G01 X27.8472 Y-8.8140
G01 X27.8845 Y-8.7928
G01 X27.9229 Y-8.7735
G01 X27.9622 Y-8.7561
G01 X28.0022 Y-8.7407
G01 X28.0430 Y-8.7272
G01 X28.0844 Y-8.7157
G01 X28.1263 Y-8.7063
G01 X28.1686 Y-8.6990
G01 X28.2112 Y-8.6937
G01 X28.2541 Y-8.6906
G01 X28.2970 Y-8.6895
G01 X28.3399 Y-8.6906
G01 X28.3828 Y-8.6937
G01 X28.4254 Y-8.6990
G01 X28.4677 Y-8.7063
G01 X28.5096 Y-8.7157
G01 X28.5510 Y-8.7272
G01 X28.5918 Y-8.7407
G01 X28.6318 Y-8.7561
G01 X28.6711 Y-8.7735
G01 X28.7095 Y-8.7928
G01 X28.7468 Y-8.8140
G01 X28.7831 Y-8.8370
G01 X28.8182 Y-8.8617
G01 X28.8521 Y-8.8881
G01 X28.8846 Y-8.9162
G01 X28.9157 Y-8.9458
G01 X28.9453 Y-8.9769
G01 X28.9734 Y-9.0094
G01 X28.9998 Y-9.0433
G01 X29.0245 Y-9.0784
G01 X29.0475 Y-9.1147
G01 X29.0687 Y-9.1520
G01 X29.0880 Y-9.1904
G01 X29.0977 Y-9.2120
G01 X29.1038 Y-9.2222
G01 X29.1122 Y-9.2320
G01 X29.1222 Y-9.2401
G01 X29.1325 Y-9.2461
G01 X29.1446 Y-9.2506
G01 X29.1590 Y-9.2531
G01 X29.9087 Y-9.3091
G01 X29.9233 Y-9.3074
G01 X29.9365 Y-9.3031
G01 X29.9494 Y-9.2960
G01 X29.9606 Y-9.2866
G01 X29.9693 Y-9.2759
G01 X29.9763 Y-9.2629
G01 X29.9806 Y-9.2488
G01 X29.9820 Y-9.2342
G00 Z2.0000
G00 X32.3337 Y-9.4670
G01 F60.00
G01 Z-0.0933
G01 F120.00
G01 X32.2837 Y-9.4670
G01 X32.2837 Y-8.9836
G01 X32.8171 Y-8.9836
G01 X32.8171 Y-9.0336
G01 X32.4050 Y-9.0337
G01 X32.3914 Y-9.0356
G01 X32.3783 Y-9.0400
G01 X32.3663 Y-9.0468
G01 X32.3557 Y-9.0556
G01 X32.3469 Y-9.0662
G01 X32.3401 Y-9.0782
G01 X32.3357 Y-9.0913
G01 X32.3338 Y-9.1049
G01 X32.3337 Y-9.4670
G00 Z2.0000
G00 X32.3337 Y-10.0503
G01 F60.00
G01 Z-0.0933
G01 F120.00
G01 X32.3337 Y-10.4086
G01 X32.3348 Y-10.4214
G01 X32.3381 Y-10.4339
G01 X32.3439 Y-10.4464
G01 X32.3513 Y-10.4569
G01 X32.3604 Y-10.4660
G01 X32.3717 Y-10.4739
G01 X32.3834 Y-10.4792
G01 X32.3959 Y-10.4825
G01 X32.4087 Y-10.4836
G01 X33.8087 Y-10.4836
G01 X33.8197 Y-10.4828
G01 X33.8296 Y-10.4806
G01 X33.8399 Y-10.4768
G01 X33.8496 Y-10.4715
G01 X33.8577 Y-10.4654
G01 X33.8655 Y-10.4576
G01 X33.8721 Y-10.4487
G01 X33.8773 Y-10.4390
G01 X33.8810 Y-10.4286
G01 X33.8831 Y-10.4178
G01 X33.8837 Y-10.4086
G01 X33.8837 Y-10.0503
G01 X33.9337 Y-10.0503
G01 X33.9337 Y-10.5336
G01 X32.2837 Y-10.5336
G01 X32.2837 Y-10.0503
G01 X32.3337 Y-10.0503
G00 Z2.0000
G00 X33.4004 Y-9.0336
G01 F60.00
G01 Z-0.0933
G01 F120.00
G01 X33.4004 Y-8.9836
G01 X33.9337 Y-8.9836
G01 X33.9337 Y-9.4670
G01 X33.8837 Y-9.4670
G01 X33.8836 Y-9.1040
G01 X33.8810 Y-9.0886
G01 X33.8757 Y-9.0749
G01 X33.8673 Y-9.0617
G01 X33.8563 Y-9.0506
G01 X33.8465 Y-9.0438
G01 X33.8348 Y-9.0383
G01 X33.8233 Y-9.0350
G01 X33.8115 Y-9.0337
G01 X33.4004 Y-9.0336
G00 Z2.0000
G00 X34.6546 Y-10.0502
G01 F60.00
G01 Z-0.0933
G01 F120.00
G01 X34.6546 Y-10.4085
G01 X34.6553 Y-10.4186
G01 X34.6576 Y-10.4294
G01 X34.6614 Y-10.4397
G01 X34.6667 Y-10.4494
G01 X34.6734 Y-10.4582
G01 X34.6813 Y-10.4659
G01 X34.6903 Y-10.4724
G01 X34.7001 Y-10.4774
G01 X34.7105 Y-10.4810
G01 X34.7204 Y-10.4829
G01 X34.7296 Y-10.4835
G01 X36.3296 Y-10.4835
G01 X36.3415 Y-10.4825
G01 X36.3531 Y-10.4797
G01 X36.3641 Y-10.4751
G01 X36.3743 Y-10.4687
G01 X36.3839 Y-10.4602
G01 X36.3914 Y-10.4509
G01 X36.3974 Y-10.4406
G01 X36.4016 Y-10.4294
G01 X36.4038 Y-10.4195
G01 X36.4046 Y-10.4094
G01 X36.4046 Y-10.0501
G01 X36.4546 Y-10.0501
G01 X36.4546 Y-10.5335
G01 X34.6046 Y-10.5335
G01 X34.6046 Y-10.0502
G01 X34.6546 Y-10.0502
G00 Z2.0000
G00 X35.2380 Y-9.0335
G01 F60.00
G01 Z-0.0933
G01 F120.00
G01 X34.7278 Y-9.0335
G01 X34.7168 Y-9.0346
G01 X34.7061 Y-9.0373
G01 X34.6967 Y-9.0411
G01 X34.6872 Y-9.0467
G01 X34.6747 Y-9.0575
G01 X34.6648 Y-9.0707
G01 X34.6607 Y-9.0790
G01 X34.6578 Y-9.0867
G01 X34.6548 Y-9.1030
G01 X34.6546 Y-9.4669
G01 X34.6046 Y-9.4669
G01 X34.6046 Y-8.9835
G01 X35.2380 Y-8.9835
G01 X35.2380 Y-9.0335
G00 Z2.0000
G00 X35.8213 Y-9.0335
G01 F60.00
G01 Z-0.0933
G01 F120.00
G01 X35.8213 Y-8.9835
G01 X36.4546 Y-8.9835
G01 X36.4546 Y-9.4668
G01 X36.4046 Y-9.4668
G01 X36.4044 Y-9.1030
G01 X36.4014 Y-9.0867
G01 X36.3949 Y-9.0715
G01 X36.3852 Y-9.0581
G01 X36.3786 Y-9.0517
G01 X36.3720 Y-9.0467
G01 X36.3633 Y-9.0415
G01 X36.3531 Y-9.0373
G01 X36.3424 Y-9.0346
G01 X36.3314 Y-9.0335
G01 X35.8213 Y-9.0335
G00 Z2.0000
G00 X34.3144 Y-7.2298
G01 F60.00
G01 Z-0.0933
G01 F120.00
G01 X34.8442 Y-7.3467
G01 X34.8442 Y-7.3480
G01 X34.8266 Y-7.3430
G01 X34.3144 Y-7.2298
G00 Z2.0000
G00 X34.8442 Y-6.2988
G01 F60.00
G01 Z-0.0933
G01 F120.00
G01 X34.8442 Y-6.3222
G01 X34.5303 Y-6.2527
G01 X34.7727 Y-6.3059
G01 X34.7910 Y-6.3074
G01 X34.8093 Y-6.3067
G01 X34.8274 Y-6.3037
G01 X34.8442 Y-6.2988
G00 Z2.0000
G00 X33.9861 Y-5.6010
G01 F60.00
G01 Z-0.0933
G01 F120.00
G01 X33.9685 Y-5.5922
G01 X33.9372 Y-5.5784
G01 X33.9922 Y-5.5784
G01 X33.9861 Y-5.6010
G00 Z2.0000
G00 X33.9077 Y-4.9782
G01 F60.00
G01 Z-0.0933
G01 F120.00
G01 X33.9247 Y-4.9716
G01 X33.9666 Y-4.9530
G01 X33.9694 Y-4.9664
G01 X33.9731 Y-4.9782
G01 X33.9077 Y-4.9782
G00 Z2.0000
G00 X33.0693 Y-4.9782
G01 F60.00
G01 Z-0.0933
G01 F120.00
G01 X33.0730 Y-4.9664
G01 X33.0758 Y-4.9530
G01 X33.1177 Y-4.9716
G01 X33.1347 Y-4.9782
G01 X33.0693 Y-4.9782
G00 Z2.0000
G00 X33.0502 Y-5.5784
G01 F60.00
G01 Z-0.0933
G01 F120.00
G01 X33.1052 Y-5.5784
G01 X33.0739 Y-5.5922
G01 X33.0563 Y-5.6010
G01 X33.0502 Y-5.5784
G00 Z2.0000
G00 X31.8975 Y-5.4603
G01 F60.00
G01 Z-0.0933
G01 F120.00
G01 X31.8917 Y-5.4493
G01 X31.8847 Y-5.4385
G01 X31.8695 Y-5.4201
G01 X31.8515 Y-5.4044
G01 X31.8313 Y-5.3918
G01 X32.1651 Y-5.0579
G01 X32.1709 Y-5.0689
G01 X32.1779 Y-5.0797
G01 X32.1931 Y-5.0981
G01 X32.2111 Y-5.1139
G01 X32.2314 Y-5.1265
G01 X31.8975 Y-5.4603
G00 Z2.0000
G00 X31.4740 Y-5.6437
G01 F60.00
G01 Z-0.0933
G01 F120.00
G01 X31.5081 Y-5.6630
G01 X31.5506 Y-5.6900
G01 X31.5908 Y-5.7182
G01 X31.6021 Y-5.7242
G01 X31.6161 Y-5.7287
G01 X31.6308 Y-5.7303
G01 X31.6454 Y-5.7290
G01 X31.6604 Y-5.7246
G01 X31.6726 Y-5.7182
G01 X31.6834 Y-5.7096
G01 X31.8151 Y-5.5779
G01 X31.8223 Y-5.5695
G01 X31.8274 Y-5.5618
G01 X31.8317 Y-5.5527
G01 X31.8349 Y-5.5431
G01 X31.8365 Y-5.5341
G01 X31.8371 Y-5.5249
G01 X31.8364 Y-5.5148
G01 X31.8344 Y-5.5049
G01 X31.8314 Y-5.4962
G01 X31.8264 Y-5.4863
G01 X31.8201 Y-5.4773
G01 X31.8125 Y-5.4693
G01 X31.8030 Y-5.4620
G01 X31.7925 Y-5.4563
G01 X31.7821 Y-5.4526
G01 X31.7713 Y-5.4504
G01 X31.7593 Y-5.4499
G01 X31.7466 Y-5.4515
G01 X31.7343 Y-5.4552
G01 X31.7243 Y-5.4601
G01 X31.6972 Y-5.4768
G01 X31.6773 Y-5.4863
G01 X31.6565 Y-5.4937
G01 X31.6350 Y-5.4991
G01 X31.6132 Y-5.5023
G01 X31.6021 Y-5.5032
G01 X31.5064 Y-5.5036
G01 X31.4945 Y-5.5053
G01 X31.4823 Y-5.5092
G01 X31.4732 Y-5.5137
G01 X31.4648 Y-5.5193
G01 X31.4573 Y-5.5261
G01 X31.4502 Y-5.5345
G01 X31.4444 Y-5.5439
G01 X31.4404 Y-5.5532
G01 X31.4376 Y-5.5629
G01 X31.4361 Y-5.5739
G01 X31.4362 Y-5.5849
G01 X31.4378 Y-5.5949
G01 X31.4407 Y-5.6046
G01 X31.4448 Y-5.6138
G01 X31.4502 Y-5.6224
G01 X31.4573 Y-5.6308
G01 X31.4648 Y-5.6376
G01 X31.4740 Y-5.6437
G00 Z2.0000
G00 X31.2534 Y-5.5283
G01 F60.00
G01 Z-0.0933
G01 F120.00
G01 X31.3696 Y-5.5283
G01 X31.3646 Y-5.5456
G01 X31.3617 Y-5.5638
G01 X31.3332 Y-5.5530
G01 X31.2895 Y-5.5385
G01 X31.2534 Y-5.5283
G00 Z2.0000
G00 X31.2031 Y-5.0283
G01 F60.00
G01 Z-0.0933
G01 F120.00
G01 X31.2363 Y-5.0207
G01 X31.2842 Y-5.0075
G01 X31.3367 Y-4.9902
G01 X31.3830 Y-4.9723
G01 X31.4268 Y-4.9529
G01 X31.4778 Y-4.9273
G01 X31.5210 Y-4.9028
G01 X31.5615 Y-4.8773
G01 X31.6067 Y-4.8456
G01 X31.6473 Y-4.8139
G01 X31.6836 Y-4.7826
G01 X31.7262 Y-4.7420
G01 X31.7592 Y-4.7073
G01 X31.7905 Y-4.6711
G01 X31.8246 Y-4.6277
G01 X31.8542 Y-4.5855
G01 X31.8799 Y-4.5451
G01 X31.9081 Y-4.4955
G01 X31.9304 Y-4.4511
G01 X31.9498 Y-4.4074
G01 X31.9704 Y-4.3542
G01 X31.9860 Y-4.3070
G01 X31.9993 Y-4.2591
G01 X32.0107 Y-4.2088
G01 X32.0158 Y-4.1801
G01 X32.0158 Y-4.5000
G01 X31.4875 Y-5.0283
G01 X31.2031 Y-5.0283
G00 Z2.0000
G00 X30.6238 Y-4.9895
G01 F60.00
G01 Z-0.0933
G01 F120.00
G01 X30.6782 Y-5.0075
G01 X30.7261 Y-5.0207
G01 X30.7593 Y-5.0283
G01 X30.6156 Y-5.0283
G01 X30.6210 Y-5.0092
G01 X30.6238 Y-4.9895
G00 Z2.0000
G00 X30.5928 Y-5.5283
G01 F60.00
G01 Z-0.0933
G01 F120.00
G01 X30.7090 Y-5.5283
G01 X30.6729 Y-5.5385
G01 X30.6292 Y-5.5530
G01 X30.6007 Y-5.5638
G01 X30.5978 Y-5.5456
G01 X30.5928 Y-5.5283
G00 Z2.0000
G00 X29.5454 Y-5.1197
G01 F60.00
G01 Z-0.0933
G01 F120.00
G01 X29.5540 Y-5.1115
G01 X29.5711 Y-5.0975
G01 X29.5895 Y-5.0852
G01 X29.6090 Y-5.0748
G01 X29.6191 Y-5.0703
G01 X29.6399 Y-5.0629
G01 X29.6613 Y-5.0575
G01 X29.6831 Y-5.0543
G01 X29.7061 Y-5.0531
G01 X30.4770 Y-5.0531
G01 X30.4934 Y-5.0507
G01 X30.5080 Y-5.0451
G01 X30.5218 Y-5.0361
G01 X30.5328 Y-5.0250
G01 X30.5404 Y-5.0135
G01 X30.5455 Y-5.0017
G01 X30.5486 Y-4.9882
G01 X30.5492 Y-4.9754
G01 X30.5476 Y-4.9626
G01 X30.5439 Y-4.9503
G01 X30.5381 Y-4.9388
G01 X30.5298 Y-4.9278
G01 X30.5225 Y-4.9208
G01 X30.5136 Y-4.9143
G01 X30.4543 Y-4.8814
G01 X30.4118 Y-4.8544
G01 X30.3706 Y-4.8255
G01 X30.3310 Y-4.7945
G01 X30.2929 Y-4.7617
G01 X30.2564 Y-4.7270
G01 X30.2217 Y-4.6905
G01 X30.1889 Y-4.6524
G01 X30.1579 Y-4.6128
G01 X30.1290 Y-4.5716
G01 X30.1020 Y-4.5291
G01 X30.0773 Y-4.4854
G01 X30.0546 Y-4.4404
G01 X30.0342 Y-4.3944
G01 X30.0161 Y-4.3475
G01 X30.0004 Y-4.2997
G01 X29.9869 Y-4.2512
G01 X29.9759 Y-4.2022
G01 X29.9673 Y-4.1526
G01 X29.9612 Y-4.1027
G01 X29.9575 Y-4.0525
G01 X29.9562 Y-4.0022
G01 X29.9575 Y-3.9519
G01 X29.9612 Y-3.9017
G01 X29.9673 Y-3.8518
G01 X29.9759 Y-3.8022
G01 X29.9869 Y-3.7532
G01 X30.0004 Y-3.7047
G01 X30.0161 Y-3.6569
G01 X30.0342 Y-3.6100
G01 X30.0546 Y-3.5640
G01 X30.0773 Y-3.5190
G01 X30.1020 Y-3.4753
G01 X30.1290 Y-3.4328
G01 X30.1579 Y-3.3916
G01 X30.1889 Y-3.3520
G01 X30.2217 Y-3.3139
G01 X30.2564 Y-3.2774
G01 X30.2929 Y-3.2427
G01 X30.3310 Y-3.2099
G01 X30.3706 Y-3.1789
G01 X30.4118 Y-3.1500
G01 X30.4543 Y-3.1230
G01 X30.4980 Y-3.0983
G01 X30.5430 Y-3.0756
G01 X30.5890 Y-3.0552
G01 X30.6359 Y-3.0371
G01 X30.6837 Y-3.0214
G01 X30.7322 Y-3.0079
G01 X30.7812 Y-2.9969
G01 X30.8308 Y-2.9883
G01 X30.8807 Y-2.9822
G01 X30.9283 Y-2.9786
G01 X30.9374 Y-2.9773
G01 X30.9454 Y-2.9751
G01 X30.9540 Y-2.9717
G01 X30.9620 Y-2.9673
G01 X30.9695 Y-2.9619
G01 X32.0750 Y-1.8573
G01 X32.0921 Y-1.8433
G01 X32.1011 Y-1.8369
G01 X32.1105 Y-1.8310
G01 X32.1299 Y-1.8206
G01 X32.1504 Y-1.8121
G01 X32.1608 Y-1.8087
G01 X32.1823 Y-1.8033
G01 X32.1932 Y-1.8014
G01 X32.2152 Y-1.7992
G01 X32.2271 Y-1.7989
G01 X43.9332 Y-1.7989
G01 X43.9451 Y-1.7992
G01 X43.9671 Y-1.8014
G01 X43.9780 Y-1.8033
G01 X43.9995 Y-1.8087
G01 X44.0099 Y-1.8121
G01 X44.0304 Y-1.8206
G01 X44.0498 Y-1.8310
G01 X44.0592 Y-1.8369
G01 X44.0769 Y-1.8501
G01 X44.0853 Y-1.8573
