(G-CODE GENERATED BY FLATCAM v8.95 - www.flatcam.org - Version Date: 2019/08/17)

(Name: Syntez2_Ф1_верх.gbr_iso_cnc)
(Type: G-code from Geometry)
(Units: MM)

(Created on Saturday, 12 September 2020 at 19:05)

(TOOL DIAMETER: 0.14 mm)
(Feedrate: 50.0 mm/min)
(Feedrate_Z: 79.9998 mm/min)
(Feedrate rapids 79.9998 mm/min)

(Z_Cut: -0.0746 mm)
(Z_Move: 3.0 mm)
(Z Toolchange: 12.7 mm)
(X,Y Toolchange: 0.0000, 0.0000 mm)
(Z Start: None mm)
(Z End: 12.7 mm)
(Steps per circle: 128)
(Postprocessor Geometry: default)

(X range:    1.2137 ...  101.4580  mm)
(Y range:  -34.3861 ...   -1.2479  mm)

(Spindle Speed: None RPM)

G21
G90
G94

G01 F50.00
G00 Z3.0000

M03
G00 X2.4294 Y-1.9228
G01 F80.00
G01 Z-0.0746
G01 F50.00
G01 X2.0974 Y-2.2548
G01 X2.0949 Y-2.2581
G01 X2.0940 Y-2.2622
G01 X2.0956 Y-2.2675
G01 X2.0994 Y-2.2708
G01 X2.1049 Y-2.2716
G01 X2.1099 Y-2.2693
G01 X2.3078 Y-2.0714
G01 X2.3156 Y-2.0647
G01 X2.3243 Y-2.0592
G01 X2.3369 Y-2.0539
G01 X2.3504 Y-2.0513
G01 X2.3607 Y-2.0510
G01 X2.3743 Y-2.0530
G01 X2.3872 Y-2.0576
G01 X2.3990 Y-2.0647
G01 X2.4091 Y-2.0739
G01 X2.4173 Y-2.0849
G01 X2.4219 Y-2.0941
G01 X2.4252 Y-2.1039
G01 X2.4269 Y-2.1141
G01 X2.4273 Y-2.1209
G01 X2.4273 Y-2.8183
G01 X2.4280 Y-2.8214
G01 X2.4301 Y-2.8245
G01 X2.4332 Y-2.8266
G01 X2.4368 Y-2.8273
G01 X2.4409 Y-2.8264
G01 X2.4439 Y-2.8242
G01 X2.4458 Y-2.8210
G01 X2.4463 Y-2.8169
G01 X2.4463 Y-1.9298
G01 X2.4450 Y-1.9240
G01 X2.4404 Y-1.9201
G01 X2.4345 Y-1.9197
G01 X2.4294 Y-1.9228
G00 Z3.0000
G00 X2.8060 Y-1.9802
G01 F80.00
G01 Z-0.0746
G01 F50.00
G01 X2.7393 Y-2.0915
G01 X2.7384 Y-2.0951
G01 X2.7389 Y-2.0988
G01 X2.7408 Y-2.1020
G01 X2.7438 Y-2.1042
G01 X2.7470 Y-2.1051
G01 X2.7502 Y-2.1048
G01 X2.7532 Y-2.1035
G01 X2.7555 Y-2.1013
G01 X2.8111 Y-2.0089
G01 X2.8175 Y-2.0008
G01 X2.8249 Y-1.9937
G01 X2.8333 Y-1.9878
G01 X2.8424 Y-1.9831
G01 X2.9369 Y-1.9438
G01 X2.9501 Y-1.9398
G01 X2.9638 Y-1.9384
G01 X3.0653 Y-1.9384
G01 X3.0756 Y-1.9392
G01 X3.0824 Y-1.9406
G01 X3.0922 Y-1.9438
G01 X3.1899 Y-1.9845
G01 X3.1988 Y-1.9896
G01 X3.2043 Y-1.9937
G01 X3.2094 Y-1.9983
G01 X3.2161 Y-2.0061
G01 X3.2634 Y-2.0846
G01 X3.2663 Y-2.0908
G01 X3.2696 Y-2.1006
G01 X3.2713 Y-2.1107
G01 X3.2717 Y-2.1176
G01 X3.2716 Y-2.1881
G01 X3.2696 Y-2.2017
G01 X3.2663 Y-2.2115
G01 X3.2617 Y-2.2207
G01 X3.2181 Y-2.2933
G01 X3.2117 Y-2.3014
G01 X3.2043 Y-2.3085
G01 X3.1959 Y-2.3144
G01 X3.1867 Y-2.3191
G01 X3.0771 Y-2.3647
G01 X3.0730 Y-2.3684
G01 X3.0717 Y-2.3742
G01 X3.0735 Y-2.3790
G01 X3.0771 Y-2.3819
G01 X3.1929 Y-2.4306
G01 X3.1988 Y-2.4341
G01 X3.2069 Y-2.4404
G01 X3.2161 Y-2.4506
G01 X3.2617 Y-2.5260
G01 X3.2649 Y-2.5321
G01 X3.2686 Y-2.5417
G01 X3.2709 Y-2.5517
G01 X3.2716 Y-2.5586
G01 X3.2713 Y-2.6359
G01 X3.2696 Y-2.6461
G01 X3.2676 Y-2.6527
G01 X3.2617 Y-2.6651
G01 X3.2180 Y-2.7377
G01 X3.2117 Y-2.7458
G01 X3.2043 Y-2.7529
G01 X3.1959 Y-2.7588
G01 X3.1868 Y-2.7635
G01 X3.0922 Y-2.8029
G01 X3.0790 Y-2.8069
G01 X3.0687 Y-2.8082
G01 X2.9638 Y-2.8083
G01 X2.9501 Y-2.8069
G01 X2.9369 Y-2.8029
G01 X2.8393 Y-2.7621
G01 X2.8304 Y-2.7570
G01 X2.8249 Y-2.7529
G01 X2.8175 Y-2.7458
G01 X2.8131 Y-2.7406
G01 X2.7549 Y-2.6447
G01 X2.7524 Y-2.6427
G01 X2.7488 Y-2.6416
G01 X2.7451 Y-2.6420
G01 X2.7422 Y-2.6435
G01 X2.7397 Y-2.6462
G01 X2.7386 Y-2.6492
G01 X2.7385 Y-2.6525
G01 X2.7395 Y-2.6556
G01 X2.8060 Y-2.7664
G01 X2.8086 Y-2.7696
G01 X2.9456 Y-2.8270
G01 X3.0831 Y-2.8271
G01 X3.2191 Y-2.7706
G01 X3.2232 Y-2.7664
G01 X3.2889 Y-2.6567
G01 X3.2907 Y-2.6520
G01 X3.2903 Y-2.5372
G01 X3.2232 Y-2.4247
G01 X3.2163 Y-2.4164
G01 X3.2106 Y-2.4078
G01 X3.2075 Y-2.4017
G01 X3.2040 Y-2.3920
G01 X3.2020 Y-2.3819
G01 X3.2015 Y-2.3751
G01 X3.2020 Y-2.3648
G01 X3.2032 Y-2.3580
G01 X3.2062 Y-2.3482
G01 X3.2106 Y-2.3389
G01 X3.2163 Y-2.3303
G01 X3.2232 Y-2.3220
G01 X3.2903 Y-2.2095
G01 X3.2907 Y-2.0965
G01 X3.2896 Y-2.0911
G01 X3.2232 Y-1.9802
G01 X3.2206 Y-1.9770
G01 X3.0835 Y-1.9197
G01 X2.9460 Y-1.9196
G01 X2.8117 Y-1.9753
G01 X2.8082 Y-1.9774
G01 X2.8060 Y-1.9802
G00 Z3.0000
G00 X4.1061 Y-2.0816
G01 F80.00
G01 Z-0.0746
G01 F50.00
G01 X4.0625 Y-2.0089
G01 X4.0538 Y-1.9983
G01 X4.0460 Y-1.9916
G01 X4.0403 Y-1.9878
G01 X4.0311 Y-1.9831
G01 X3.9366 Y-1.9438
G01 X3.9301 Y-1.9415
G01 X3.9200 Y-1.9392
G01 X3.9097 Y-1.9384
G01 X3.8082 Y-1.9384
G01 X3.8013 Y-1.9388
G01 X3.7911 Y-1.9406
G01 X3.7813 Y-1.9438
G01 X3.6837 Y-1.9845
G01 X3.6777 Y-1.9878
G01 X3.6693 Y-1.9937
G01 X3.6619 Y-2.0008
G01 X3.6555 Y-2.0089
G01 X3.6101 Y-2.0846
G01 X3.6049 Y-2.0973
G01 X3.6022 Y-2.1108
G01 X3.6019 Y-2.6325
G01 X3.6026 Y-2.6393
G01 X3.6049 Y-2.6494
G01 X3.6072 Y-2.6559
G01 X3.6118 Y-2.6651
G01 X3.6556 Y-2.7378
G01 X3.6642 Y-2.7483
G01 X3.6748 Y-2.7570
G01 X3.6868 Y-2.7635
G01 X3.7813 Y-2.8029
G01 X3.7945 Y-2.8069
G01 X3.8082 Y-2.8083
G01 X3.9131 Y-2.8082
G01 X3.9234 Y-2.8069
G01 X3.9334 Y-2.8041
G01 X4.0343 Y-2.7621
G01 X4.0432 Y-2.7570
G01 X4.0513 Y-2.7507
G01 X4.0561 Y-2.7458
G01 X4.0624 Y-2.7377
G01 X4.1078 Y-2.6621
G01 X4.1130 Y-2.6494
G01 X4.1153 Y-2.6394
G01 X4.1160 Y-2.6325
G01 X4.1161 Y-2.1176
G01 X4.1153 Y-2.1073
G01 X4.1130 Y-2.0973
G01 X4.1107 Y-2.0908
G01 X4.1061 Y-2.0816
G00 Z3.0000
G00 X4.1340 Y-2.0911
G01 F80.00
G01 Z-0.0746
G01 F50.00
G01 X4.0676 Y-1.9802
G01 X4.0650 Y-1.9770
G01 X3.9279 Y-1.9197
G01 X3.7904 Y-1.9196
G01 X3.6561 Y-1.9753
G01 X3.6514 Y-1.9787
G01 X3.5846 Y-2.0900
G01 X3.5828 Y-2.0947
G01 X3.5828 Y-2.6502
G01 X3.5831 Y-2.6534
G01 X3.5846 Y-2.6567
G01 X3.6504 Y-2.7664
G01 X3.6533 Y-2.7698
G01 X3.7904 Y-2.8271
G01 X3.9247 Y-2.8273
G01 X3.9301 Y-2.8263
G01 X4.0619 Y-2.7713
G01 X4.0666 Y-2.7679
G01 X4.1333 Y-2.6567
G01 X4.1351 Y-2.6520
G01 X4.1351 Y-2.0965
G01 X4.1340 Y-2.0911
G00 Z3.0000
G00 X4.8462 Y-2.8169
G01 F80.00
G01 Z-0.0746
G01 F50.00
G01 X4.8462 Y-2.3187
G01 X4.8458 Y-2.3150
G01 X4.8441 Y-2.3118
G01 X4.8395 Y-2.3087
G01 X4.8339 Y-2.3087
G01 X4.8291 Y-2.3121
G01 X4.8272 Y-2.3173
G01 X4.8272 Y-2.6802
G01 X4.8258 Y-2.6940
G01 X4.8217 Y-2.7072
G01 X4.8152 Y-2.7194
G01 X4.7794 Y-2.7670
G01 X4.7700 Y-2.7764
G01 X4.7590 Y-2.7839
G01 X4.7499 Y-2.7880
G01 X4.7370 Y-2.7914
G01 X4.6482 Y-2.8062
G01 X4.6350 Y-2.8071
G01 X4.6252 Y-2.8062
G01 X4.5331 Y-2.7908
G01 X4.5235 Y-2.7880
G01 X4.5144 Y-2.7839
G01 X4.5034 Y-2.7764
G01 X4.4940 Y-2.7670
G01 X4.4582 Y-2.7194
G01 X4.4517 Y-2.7072
G01 X4.4476 Y-2.6940
G01 X4.4462 Y-2.6802
G01 X4.4462 Y-2.3173
G01 X4.4446 Y-2.3125
G01 X4.4403 Y-2.3090
G01 X4.4353 Y-2.3084
G01 X4.4307 Y-2.3104
G01 X4.4279 Y-2.3142
G01 X4.4272 Y-2.3187
G01 X4.4273 Y-2.7081
G01 X4.4296 Y-2.7131
G01 X4.4961 Y-2.8017
G01 X4.4988 Y-2.8040
G01 X4.5027 Y-2.8051
G01 X4.6365 Y-2.8273
G01 X4.7761 Y-2.8046
G01 X4.7898 Y-2.8050
G01 X4.8062 Y-2.8092
G01 X4.8184 Y-2.8153
G01 X4.8310 Y-2.8254
G01 X4.8348 Y-2.8271
G01 X4.8390 Y-2.8270
G01 X4.8431 Y-2.8249
G01 X4.8455 Y-2.8214
G01 X4.8462 Y-2.8169
G00 Z3.0000
G00 X5.6617 Y-2.0816
G01 F80.00
G01 Z-0.0746
G01 F50.00
G01 X5.6180 Y-2.0089
G01 X5.6093 Y-1.9983
G01 X5.6015 Y-1.9916
G01 X5.5958 Y-1.9878
G01 X5.5867 Y-1.9831
G01 X5.4922 Y-1.9438
G01 X5.4824 Y-1.9406
G01 X5.4756 Y-1.9392
G01 X5.4653 Y-1.9384
G01 X5.3637 Y-1.9384
G01 X5.3534 Y-1.9392
G01 X5.3466 Y-1.9406
G01 X5.3368 Y-1.9438
G01 X5.2392 Y-1.9845
G01 X5.2303 Y-1.9896
G01 X5.2222 Y-1.9959
G01 X5.2151 Y-2.0034
G01 X5.2110 Y-2.0089
G01 X5.1656 Y-2.0846
G01 X5.1604 Y-2.0973
G01 X5.1577 Y-2.1108
G01 X5.1574 Y-2.6325
G01 X5.1587 Y-2.6427
G01 X5.1604 Y-2.6494
G01 X5.1627 Y-2.6559
G01 X5.1673 Y-2.6651
G01 X5.2111 Y-2.7378
G01 X5.2197 Y-2.7483
G01 X5.2303 Y-2.7570
G01 X5.2423 Y-2.7635
G01 X5.3368 Y-2.8029
G01 X5.3500 Y-2.8069
G01 X5.3637 Y-2.8083
G01 X5.4687 Y-2.8082
G01 X5.4790 Y-2.8069
G01 X5.4890 Y-2.8041
G01 X5.5898 Y-2.7621
G01 X5.5987 Y-2.7570
G01 X5.6068 Y-2.7507
G01 X5.6116 Y-2.7458
G01 X5.6179 Y-2.7378
G01 X5.6634 Y-2.6621
G01 X5.6686 Y-2.6494
G01 X5.6703 Y-2.6427
G01 X5.6716 Y-2.6325
G01 X5.6717 Y-2.1176
G01 X5.6709 Y-2.1073
G01 X5.6696 Y-2.1006
G01 X5.6663 Y-2.0908
G01 X5.6617 Y-2.0816
G00 Z3.0000
G00 X5.6890 Y-2.0900
G01 F80.00
G01 Z-0.0746
G01 F50.00
G01 X5.6231 Y-1.9802
G01 X5.6205 Y-1.9770
G01 X5.4835 Y-1.9197
G01 X5.3459 Y-1.9196
G01 X5.2116 Y-1.9753
G01 X5.2069 Y-1.9787
G01 X5.1401 Y-2.0900
G01 X5.1383 Y-2.0947
G01 X5.1383 Y-2.6502
G01 X5.1386 Y-2.6534
G01 X5.1401 Y-2.6567
G01 X5.2059 Y-2.7664
G01 X5.2092 Y-2.7701
G01 X5.3459 Y-2.8271
G01 X5.4803 Y-2.8273
G01 X5.4857 Y-2.8263
G01 X5.6174 Y-2.7713
G01 X5.6221 Y-2.7679
G01 X5.6889 Y-2.6567
G01 X5.6907 Y-2.6520
G01 X5.6907 Y-2.0964
G01 X5.6904 Y-2.0933
G01 X5.6890 Y-2.0900
G00 Z3.0000
G00 X5.9931 Y-2.8273
G01 F80.00
G01 Z-0.0746
G01 F50.00
G01 X6.5247 Y-2.8273
G01 X6.5301 Y-2.8262
G01 X6.5340 Y-2.8223
G01 X6.5351 Y-2.8178
G01 X6.5338 Y-2.8129
G01 X6.5305 Y-2.8096
G01 X6.5261 Y-2.8083
G01 X6.0993 Y-2.8083
G01 X6.0891 Y-2.8075
G01 X6.0790 Y-2.8052
G01 X6.0663 Y-2.8000
G01 X6.0576 Y-2.7945
G01 X6.0498 Y-2.7877
G01 X6.0411 Y-2.7771
G01 X6.0361 Y-2.7682
G01 X6.0314 Y-2.7552
G01 X6.0297 Y-2.7451
G01 X6.0294 Y-2.7348
G01 X6.0301 Y-2.7279
G01 X6.0324 Y-2.7179
G01 X6.0361 Y-2.7083
G01 X6.0619 Y-2.6647
G01 X6.0704 Y-2.6543
G01 X6.4653 Y-2.3248
G01 X6.5340 Y-2.2112
G01 X6.5351 Y-2.2058
G01 X6.5347 Y-2.0928
G01 X6.4675 Y-1.9802
G01 X6.4634 Y-1.9760
G01 X6.3275 Y-1.9196
G01 X6.1899 Y-1.9197
G01 X6.0529 Y-1.9770
G01 X6.0503 Y-1.9802
G01 X5.9838 Y-2.0911
G01 X5.9828 Y-2.0942
G01 X5.9829 Y-2.0975
G01 X5.9843 Y-2.1009
G01 X5.9865 Y-2.1032
G01 X5.9894 Y-2.1047
G01 X5.9931 Y-2.1051
G01 X5.9963 Y-2.1042
G01 X5.9993 Y-2.1020
G01 X6.0574 Y-2.0061
G01 X6.0641 Y-1.9983
G01 X6.0692 Y-1.9937
G01 X6.0776 Y-1.9878
G01 X6.0836 Y-1.9845
G01 X6.1812 Y-1.9438
G01 X6.1944 Y-1.9398
G01 X6.2081 Y-1.9384
G01 X6.3132 Y-1.9385
G01 X6.3268 Y-1.9406
G01 X6.3366 Y-1.9438
G01 X6.4342 Y-1.9845
G01 X6.4431 Y-1.9896
G01 X6.4512 Y-1.9959
G01 X6.4583 Y-2.0034
G01 X6.4624 Y-2.0089
G01 X6.5078 Y-2.0846
G01 X6.5107 Y-2.0908
G01 X6.5140 Y-2.1006
G01 X6.5153 Y-2.1073
G01 X6.5161 Y-2.1176
G01 X6.5160 Y-2.1881
G01 X6.5147 Y-2.1983
G01 X6.5130 Y-2.2050
G01 X6.5107 Y-2.2115
G01 X6.5061 Y-2.2207
G01 X6.4539 Y-2.3069
G01 X6.4424 Y-2.3191
G01 X6.0518 Y-2.6447
G01 X5.9831 Y-2.7594
G01 X5.9828 Y-2.8192
G01 X5.9840 Y-2.8227
G01 X5.9862 Y-2.8252
G01 X5.9894 Y-2.8269
G01 X5.9931 Y-2.8273
G00 Z3.0000
G00 X7.1740 Y-3.8653
G01 F80.00
G01 Z-0.0746
G01 F50.00
G01 X7.2558 Y-3.8969
G01 X7.3680 Y-3.9466
G01 X7.4807 Y-4.0033
G01 X7.5905 Y-4.0654
G01 X7.6971 Y-4.1328
G01 X7.8003 Y-4.2054
G01 X7.8997 Y-4.2829
G01 X7.9953 Y-4.3652
G01 X8.0867 Y-4.4521
G01 X8.1738 Y-4.5434
G01 X8.2562 Y-4.6389
G01 X8.3339 Y-4.7383
G01 X8.4085 Y-4.8442
G01 X8.4759 Y-4.9508
G01 X8.5380 Y-5.0606
G01 X8.5947 Y-5.1733
G01 X8.6444 Y-5.2856
G01 X8.6760 Y-5.3673
G01 X8.7403 Y-5.3673
G01 X8.7005 Y-5.2642
G01 X8.6482 Y-5.1461
G01 X8.5901 Y-5.0308
G01 X8.5265 Y-4.9185
G01 X8.4574 Y-4.8095
G01 X8.3831 Y-4.7039
G01 X8.3037 Y-4.6022
G01 X8.2194 Y-4.5044
G01 X8.1304 Y-4.4109
G01 X8.0369 Y-4.3219
G01 X7.9391 Y-4.2376
G01 X7.8374 Y-4.1582
G01 X7.7318 Y-4.0839
G01 X7.6228 Y-4.0148
G01 X7.5105 Y-3.9512
G01 X7.3952 Y-3.8931
G01 X7.2771 Y-3.8408
G01 X7.1740 Y-3.8010
G01 X7.1740 Y-3.8653
G00 Z3.0000
G00 X10.0223 Y-1.9084
G01 F80.00
G01 Z-0.0746
G01 F50.00
G01 X9.9744 Y-1.8288
G01 X9.9658 Y-1.8183
G01 X9.9580 Y-1.8116
G01 X9.9493 Y-1.8061
G01 X9.9432 Y-1.8031
G01 X9.8392 Y-1.7598
G01 X9.8294 Y-1.7566
G01 X9.8226 Y-1.7552
G01 X9.8123 Y-1.7544
G01 X9.7007 Y-1.7544
G01 X9.6938 Y-1.7548
G01 X9.6836 Y-1.7566
G01 X9.6738 Y-1.7598
G01 X9.5637 Y-1.8061
G01 X9.5550 Y-1.8116
G01 X9.5472 Y-1.8183
G01 X9.5405 Y-1.8260
G01 X9.5367 Y-1.8317
G01 X9.4890 Y-1.9114
G01 X9.4838 Y-1.9241
G01 X9.4811 Y-1.9376
G01 X9.4808 Y-2.5105
G01 X9.4815 Y-2.5173
G01 X9.4838 Y-2.5274
G01 X9.4861 Y-2.5339
G01 X9.4907 Y-2.5431
G01 X9.5386 Y-2.6227
G01 X9.5426 Y-2.6283
G01 X9.5497 Y-2.6357
G01 X9.5607 Y-2.6439
G01 X9.5699 Y-2.6485
G01 X9.6738 Y-2.6918
G01 X9.6870 Y-2.6958
G01 X9.7007 Y-2.6972
G01 X9.8157 Y-2.6971
G01 X9.8260 Y-2.6958
G01 X9.8360 Y-2.6930
G01 X9.9463 Y-2.6471
G01 X9.9552 Y-2.6420
G01 X9.9633 Y-2.6357
G01 X9.9704 Y-2.6283
G01 X9.9763 Y-2.6199
G01 X10.0240 Y-2.5401
G01 X10.0292 Y-2.5274
G01 X10.0309 Y-2.5207
G01 X10.0322 Y-2.5105
G01 X10.0323 Y-1.9444
G01 X10.0315 Y-1.9342
G01 X10.0292 Y-1.9241
G01 X10.0269 Y-1.9176
G01 X10.0223 Y-1.9084
G00 Z3.0000
G00 X10.0644 Y-1.9105
G01 F80.00
G01 Z-0.0746
G01 F50.00
G01 X9.9920 Y-1.7897
G01 X9.9876 Y-1.7845
G01 X9.9825 Y-1.7815
G01 X9.8341 Y-1.7199
G01 X9.8289 Y-1.7194
G01 X9.6798 Y-1.7197
G01 X9.5305 Y-1.7815
G01 X9.5260 Y-1.7839
G01 X9.5224 Y-1.7876
G01 X9.4486 Y-1.9104
G01 X9.4467 Y-1.9143
G01 X9.4458 Y-1.9185
G01 X9.4457 Y-2.5304
G01 X9.4462 Y-2.5356
G01 X9.4486 Y-2.5411
G01 X9.5210 Y-2.6619
G01 X9.5260 Y-2.6677
G01 X9.5305 Y-2.6701
G01 X9.6798 Y-2.7319
G01 X9.8289 Y-2.7322
G01 X9.8373 Y-2.7306
G01 X9.9825 Y-2.6701
G01 X9.9870 Y-2.6677
G01 X9.9906 Y-2.6640
G01 X10.0644 Y-2.5411
G01 X10.0663 Y-2.5372
G01 X10.0672 Y-2.5330
G01 X10.0673 Y-1.9210
G01 X10.0668 Y-1.9159
G01 X10.0644 Y-1.9105
G00 Z3.0000
G00 X10.8496 Y-2.7138
G01 F80.00
G01 Z-0.0746
G01 F50.00
G01 X10.8496 Y-2.1656
G01 X10.8486 Y-2.1588
G01 X10.8456 Y-2.1536
G01 X10.8418 Y-2.1501
G01 X10.8372 Y-2.1479
G01 X10.8321 Y-2.1472
G01 X10.8270 Y-2.1479
G01 X10.8224 Y-2.1501
G01 X10.8186 Y-2.1536
G01 X10.8159 Y-2.1580
G01 X10.8147 Y-2.1630
G01 X10.8146 Y-2.5632
G01 X10.8132 Y-2.5770
G01 X10.8091 Y-2.5902
G01 X10.8026 Y-2.6024
G01 X10.7636 Y-2.6543
G01 X10.7542 Y-2.6637
G01 X10.7432 Y-2.6711
G01 X10.7310 Y-2.6763
G01 X10.7213 Y-2.6787
G01 X10.6236 Y-2.6950
G01 X10.6104 Y-2.6959
G01 X10.6006 Y-2.6950
G01 X10.4996 Y-2.6780
G01 X10.4900 Y-2.6752
G01 X10.4809 Y-2.6711
G01 X10.4699 Y-2.6636
G01 X10.4605 Y-2.6542
G01 X10.4216 Y-2.6024
G01 X10.4151 Y-2.5902
G01 X10.4110 Y-2.5770
G01 X10.4096 Y-2.5632
G01 X10.4095 Y-2.1630
G01 X10.4083 Y-2.1580
G01 X10.4062 Y-2.1543
G01 X10.4025 Y-2.1506
G01 X10.3988 Y-2.1485
G01 X10.3947 Y-2.1474
G01 X10.3895 Y-2.1474
G01 X10.3846 Y-2.1489
G01 X10.3810 Y-2.1512
G01 X10.3763 Y-2.1572
G01 X10.3749 Y-2.1613
G01 X10.3746 Y-2.1656
G01 X10.3748 Y-2.5950
G01 X10.3759 Y-2.5992
G01 X10.3786 Y-2.6036
G01 X10.4519 Y-2.7014
G01 X10.4563 Y-2.7052
G01 X10.4617 Y-2.7073
G01 X10.6117 Y-2.7322
G01 X10.7590 Y-2.7079
G01 X10.7692 Y-2.7070
G01 X10.7828 Y-2.7080
G01 X10.7959 Y-2.7117
G01 X10.8081 Y-2.7179
G01 X10.8238 Y-2.7302
G01 X10.8287 Y-2.7319
G01 X10.8338 Y-2.7321
G01 X10.8396 Y-2.7305
G01 X10.8451 Y-2.7265
G01 X10.8486 Y-2.7206
G01 X10.8496 Y-2.7138
G00 Z3.0000
G00 X11.3637 Y-2.6664
G01 F80.00
G01 Z-0.0746
G01 F50.00
G01 X11.3541 Y-2.6567
G01 X11.3466 Y-2.6453
G01 X11.3414 Y-2.6327
G01 X11.3385 Y-2.6160
G01 X11.3384 Y-2.2522
G01 X11.3388 Y-2.2454
G01 X11.3405 Y-2.2352
G01 X11.3452 Y-2.2223
G01 X11.3484 Y-2.2163
G01 X11.3543 Y-2.2078
G01 X11.3614 Y-2.2004
G01 X11.3667 Y-2.1960
G01 X11.3785 Y-2.1890
G01 X11.3914 Y-2.1843
G01 X11.4016 Y-2.1826
G01 X11.4719 Y-2.1817
G01 X11.4773 Y-2.1793
G01 X11.4817 Y-2.1751
G01 X11.4844 Y-2.1698
G01 X11.4851 Y-2.1638
G01 X11.4841 Y-2.1588
G01 X11.4811 Y-2.1536
G01 X11.4766 Y-2.1497
G01 X11.4710 Y-2.1475
G01 X11.4050 Y-2.1471
G01 X11.3948 Y-2.1458
G01 X11.3817 Y-2.1418
G01 X11.3754 Y-2.1389
G01 X11.3667 Y-2.1334
G01 X11.3566 Y-2.1242
G01 X11.3484 Y-2.1131
G01 X11.3425 Y-2.1007
G01 X11.3398 Y-2.0908
G01 X11.3384 Y-2.0772
G01 X11.3384 Y-1.7360
G01 X11.3367 Y-1.7294
G01 X11.3327 Y-1.7239
G01 X11.3268 Y-1.7204
G01 X11.3200 Y-1.7194
G01 X11.3134 Y-1.7211
G01 X11.3085 Y-1.7245
G01 X11.3047 Y-1.7302
G01 X11.3034 Y-1.7360
G01 X11.3034 Y-2.0772
G01 X11.3026 Y-2.0874
G01 X11.2993 Y-2.1007
G01 X11.2934 Y-2.1131
G01 X11.2852 Y-2.1242
G01 X11.2751 Y-2.1334
G01 X11.2633 Y-2.1404
G01 X11.2504 Y-2.1451
G01 X11.2402 Y-2.1468
G01 X11.1700 Y-2.1477
G01 X11.1646 Y-2.1501
G01 X11.1602 Y-2.1543
G01 X11.1575 Y-2.1596
G01 X11.1568 Y-2.1656
G01 X11.1578 Y-2.1706
G01 X11.1608 Y-2.1758
G01 X11.1653 Y-2.1797
G01 X11.1709 Y-2.1819
G01 X11.2402 Y-2.1826
G01 X11.2504 Y-2.1843
G01 X11.2633 Y-2.1890
G01 X11.2751 Y-2.1960
G01 X11.2804 Y-2.2004
G01 X11.2875 Y-2.2078
G01 X11.2951 Y-2.2192
G01 X11.3003 Y-2.2319
G01 X11.3026 Y-2.2420
G01 X11.3034 Y-2.2522
G01 X11.3034 Y-2.6527
G01 X11.3039 Y-2.6578
G01 X11.3058 Y-2.6625
G01 X11.3103 Y-2.6676
G01 X11.3824 Y-2.7276
G01 X11.3866 Y-2.7305
G01 X11.3915 Y-2.7320
G01 X11.3957 Y-2.7322
G01 X11.4007 Y-2.7311
G01 X11.4740 Y-2.7065
G01 X11.4777 Y-2.7045
G01 X11.4809 Y-2.7016
G01 X11.4833 Y-2.6980
G01 X11.4847 Y-2.6940
G01 X11.4849 Y-2.6871
G01 X11.4824 Y-2.6808
G01 X11.4776 Y-2.6758
G01 X11.4714 Y-2.6731
G01 X11.4671 Y-2.6727
G01 X11.4629 Y-2.6733
G01 X11.4285 Y-2.6844
G01 X11.4184 Y-2.6860
G01 X11.4083 Y-2.6861
G01 X11.3982 Y-2.6847
G01 X11.3853 Y-2.6806
G01 X11.3734 Y-2.6741
G01 X11.3637 Y-2.6664
G00 Z3.0000
G00 X12.1492 Y-2.7138
G01 F80.00
G01 Z-0.0746
G01 F50.00
G01 X12.1502 Y-2.7206
G01 X12.1537 Y-2.7265
G01 X12.1592 Y-2.7305
G01 X12.1658 Y-2.7322
G01 X12.1718 Y-2.7315
G01 X12.1778 Y-2.7282
G01 X12.1822 Y-2.7230
G01 X12.1841 Y-2.7164
G01 X12.1843 Y-2.3099
G01 X12.1863 Y-2.2963
G01 X12.1896 Y-2.2866
G01 X12.1942 Y-2.2774
G01 X12.2024 Y-2.2663
G01 X12.2125 Y-2.2571
G01 X12.2243 Y-2.2501
G01 X12.2372 Y-2.2454
G01 X12.2508 Y-2.2434
G01 X12.5324 Y-2.2433
G01 X12.5392 Y-2.2423
G01 X12.6860 Y-2.1812
G01 X12.6911 Y-2.1782
G01 X12.6955 Y-2.1730
G01 X12.7679 Y-2.0522
G01 X12.7703 Y-2.0467
G01 X12.7708 Y-2.0415
G01 X12.7708 Y-1.9211
G01 X12.7701 Y-1.9151
G01 X12.7679 Y-1.9104
G01 X12.6955 Y-1.7897
G01 X12.6924 Y-1.7856
G01 X12.6890 Y-1.7830
G01 X12.5408 Y-1.7210
G01 X12.5350 Y-1.7195
G01 X12.1676 Y-1.7194
G01 X12.1624 Y-1.7199
G01 X12.1584 Y-1.7214
G01 X12.1549 Y-1.7239
G01 X12.1517 Y-1.7279
G01 X12.1497 Y-1.7326
G01 X12.1492 Y-1.7378
G01 X12.1492 Y-2.7138
G00 Z3.0000
G00 X12.2542 Y-2.2083
G01 F80.00
G01 Z-0.0746
G01 F50.00
G01 X12.5158 Y-2.2083
G01 X12.5261 Y-2.2075
G01 X12.5329 Y-2.2061
G01 X12.5427 Y-2.2029
G01 X12.6466 Y-2.1596
G01 X12.6558 Y-2.1550
G01 X12.6668 Y-2.1468
G01 X12.6739 Y-2.1394
G01 X12.6779 Y-2.1338
G01 X12.7275 Y-2.0512
G01 X12.7317 Y-2.0418
G01 X12.7337 Y-2.0352
G01 X12.7354 Y-2.0250
G01 X12.7358 Y-2.0182
G01 X12.7357 Y-1.9410
G01 X12.7344 Y-1.9308
G01 X12.7327 Y-1.9241
G01 X12.7304 Y-1.9176
G01 X12.7258 Y-1.9084
G01 X12.6798 Y-1.8317
G01 X12.6716 Y-1.8207
G01 X12.6642 Y-1.8137
G01 X12.6587 Y-1.8096
G01 X12.6467 Y-1.8031
G01 X12.5427 Y-1.7598
G01 X12.5329 Y-1.7566
G01 X12.5227 Y-1.7548
G01 X12.2508 Y-1.7545
G01 X12.2406 Y-1.7558
G01 X12.2275 Y-1.7598
G01 X12.2154 Y-1.7662
G01 X12.2072 Y-1.7726
G01 X12.1980 Y-1.7827
G01 X12.1910 Y-1.7945
G01 X12.1863 Y-1.8074
G01 X12.1843 Y-1.8210
G01 X12.1846 Y-2.1451
G01 X12.1873 Y-2.1586
G01 X12.1910 Y-2.1682
G01 X12.1980 Y-2.1800
G01 X12.2072 Y-2.1901
G01 X12.2154 Y-2.1965
G01 X12.2275 Y-2.2029
G01 X12.2406 Y-2.2069
G01 X12.2542 Y-2.2083
G00 Z3.0000
G00 X13.5181 Y-2.5437
G01 F80.00
G01 Z-0.0746
G01 F50.00
G01 X13.5181 Y-2.3479
G01 X13.5167 Y-2.3342
G01 X13.5127 Y-2.3210
G01 X13.5081 Y-2.3118
G01 X13.4640 Y-2.2385
G01 X13.4576 Y-2.2304
G01 X13.4528 Y-2.2256
G01 X13.4417 Y-2.2174
G01 X13.4357 Y-2.2141
G01 X13.4261 Y-2.2104
G01 X13.3325 Y-2.1870
G01 X13.3224 Y-2.1853
G01 X13.3156 Y-2.1849
G01 X13.3088 Y-2.1853
G01 X13.2986 Y-2.1870
G01 X13.2051 Y-2.2104
G01 X13.1954 Y-2.2142
G01 X13.1865 Y-2.2192
G01 X13.1783 Y-2.2256
G01 X13.1735 Y-2.2304
G01 X13.1653 Y-2.2415
G01 X13.1231 Y-2.3118
G01 X13.1172 Y-2.3242
G01 X13.1145 Y-2.3342
G01 X13.1131 Y-2.3478
G01 X13.1131 Y-2.5438
G01 X13.1135 Y-2.5506
G01 X13.1152 Y-2.5608
G01 X13.1185 Y-2.5706
G01 X13.1214 Y-2.5768
G01 X13.1650 Y-2.6494
G01 X13.1759 Y-2.6621
G01 X13.1895 Y-2.6719
G01 X13.2051 Y-2.6781
G01 X13.3106 Y-2.6958
G01 X13.3271 Y-2.6950
G01 X13.4195 Y-2.6796
G01 X13.4293 Y-2.6772
G01 X13.4386 Y-2.6734
G01 X13.4501 Y-2.6664
G01 X13.4577 Y-2.6598
G01 X13.4662 Y-2.6494
G01 X13.5113 Y-2.5737
G01 X13.5160 Y-2.5608
G01 X13.5177 Y-2.5506
G01 X13.5181 Y-2.5437
G00 Z3.0000
G00 X13.5502 Y-2.5777
G01 F80.00
G01 Z-0.0746
G01 F50.00
G01 X13.5524 Y-2.5731
G01 X13.5531 Y-2.5672
G01 X13.5528 Y-2.3202
G01 X13.5502 Y-2.3138
G01 X13.4777 Y-2.1930
G01 X13.4746 Y-2.1889
G01 X13.4704 Y-2.1858
G01 X13.4656 Y-2.1841
G01 X13.3207 Y-2.1479
G01 X13.3156 Y-2.1472
G01 X13.3105 Y-2.1479
G01 X13.1655 Y-2.1841
G01 X13.1606 Y-2.1858
G01 X13.1565 Y-2.1889
G01 X13.1534 Y-2.1930
G01 X13.0810 Y-2.3138
G01 X13.0786 Y-2.3193
G01 X13.0781 Y-2.3245
G01 X13.0784 Y-2.5714
G01 X13.0810 Y-2.5778
G01 X13.1534 Y-2.6985
G01 X13.1564 Y-2.7025
G01 X13.1612 Y-2.7059
G01 X13.1668 Y-2.7076
G01 X13.3152 Y-2.7322
G01 X13.4675 Y-2.7069
G01 X13.4727 Y-2.7042
G01 X13.4768 Y-2.6999
G01 X13.5502 Y-2.5777
G00 Z3.0000
G00 X14.1628 Y-2.5050
G01 F80.00
G01 Z-0.0746
G01 F50.00
G01 X14.1582 Y-2.5143
G01 X14.1544 Y-2.5201
G01 X14.1501 Y-2.5255
G01 X14.1426 Y-2.5328
G01 X14.1341 Y-2.5388
G01 X14.1249 Y-2.5435
G01 X14.1150 Y-2.5468
G01 X14.1082 Y-2.5482
G01 X14.0978 Y-2.5490
G01 X14.0874 Y-2.5482
G01 X14.0806 Y-2.5468
G01 X14.0707 Y-2.5435
G01 X14.0645 Y-2.5405
G01 X14.0557 Y-2.5349
G01 X14.0479 Y-2.5281
G01 X14.0433 Y-2.5229
G01 X14.0374 Y-2.5143
G01 X14.0328 Y-2.5050
G01 X13.8937 Y-2.1574
G01 X13.8891 Y-2.1513
G01 X13.8823 Y-2.1478
G01 X13.8780 Y-2.1472
G01 X13.8737 Y-2.1477
G01 X13.8668 Y-2.1510
G01 X13.8629 Y-2.1555
G01 X13.8609 Y-2.1602
G01 X13.8603 Y-2.1662
G01 X13.8618 Y-2.1720
G01 X14.0812 Y-2.7204
G01 X14.0842 Y-2.7257
G01 X14.0880 Y-2.7292
G01 X14.0927 Y-2.7315
G01 X14.0978 Y-2.7322
G01 X14.1029 Y-2.7315
G01 X14.1076 Y-2.7292
G01 X14.1109 Y-2.7264
G01 X14.1137 Y-2.7220
G01 X14.2557 Y-2.3681
G01 X14.2592 Y-2.3621
G01 X14.2655 Y-2.3539
G01 X14.2730 Y-2.3466
G01 X14.2815 Y-2.3406
G01 X14.2907 Y-2.3359
G01 X14.3006 Y-2.3326
G01 X14.3074 Y-2.3312
G01 X14.3178 Y-2.3304
G01 X14.3247 Y-2.3308
G01 X14.3350 Y-2.3326
G01 X14.3449 Y-2.3359
G01 X14.3511 Y-2.3389
G01 X14.3599 Y-2.3445
G01 X14.3677 Y-2.3513
G01 X14.3723 Y-2.3565
G01 X14.3782 Y-2.3651
G01 X14.3828 Y-2.3744
G01 X14.5219 Y-2.7220
G01 X14.5241 Y-2.7256
G01 X14.5272 Y-2.7286
G01 X14.5309 Y-2.7308
G01 X14.5350 Y-2.7320
G01 X14.5427 Y-2.7315
G01 X14.5466 Y-2.7299
G01 X14.5500 Y-2.7273
G01 X14.5531 Y-2.7232
G01 X14.5550 Y-2.7184
G01 X14.7011 Y-2.1700
G01 X14.7018 Y-2.1624
G01 X14.6991 Y-2.1552
G01 X14.6957 Y-2.1513
G01 X14.6921 Y-2.1490
G01 X14.6872 Y-2.1474
G01 X14.6821 Y-2.1473
G01 X14.6771 Y-2.1487
G01 X14.6735 Y-2.1510
G01 X14.6700 Y-2.1547
G01 X14.6680 Y-2.1585
G01 X14.5888 Y-2.4553
G01 X14.5840 Y-2.4682
G01 X14.5806 Y-2.4742
G01 X14.5746 Y-2.4825
G01 X14.5674 Y-2.4899
G01 X14.5592 Y-2.4961
G01 X14.5502 Y-2.5010
G01 X14.5405 Y-2.5046
G01 X14.5305 Y-2.5067
G01 X14.5202 Y-2.5073
G01 X14.5099 Y-2.5064
G01 X14.5032 Y-2.5050
G01 X14.4967 Y-2.5029
G01 X14.4873 Y-2.4986
G01 X14.4787 Y-2.4930
G01 X14.4735 Y-2.4886
G01 X14.4665 Y-2.4810
G01 X14.4607 Y-2.4726
G01 X14.4561 Y-2.4633
G01 X14.3337 Y-2.1574
G01 X14.3297 Y-2.1518
G01 X14.3229 Y-2.1479
G01 X14.3152 Y-2.1474
G01 X14.3080 Y-2.1502
G01 X14.3042 Y-2.1537
G01 X14.3012 Y-2.1590
G01 X14.1628 Y-2.5050
G00 Z3.0000
G00 X15.0092 Y-2.5305
G01 F80.00
G01 Z-0.0746
G01 F50.00
G01 X15.0098 Y-2.5362
G01 X15.0387 Y-2.6568
G01 X15.0405 Y-2.6617
G01 X15.0429 Y-2.6653
G01 X15.0462 Y-2.6681
G01 X15.0501 Y-2.6701
G01 X15.1976 Y-2.7315
G01 X15.2036 Y-2.7322
G01 X15.3485 Y-2.7322
G01 X15.3535 Y-2.7317
G01 X15.3581 Y-2.7299
G01 X15.4740 Y-2.6696
G01 X15.4796 Y-2.6655
G01 X15.4828 Y-2.6605
G01 X15.4842 Y-2.6547
G01 X15.4835 Y-2.6487
G01 X15.4809 Y-2.6433
G01 X15.4766 Y-2.6391
G01 X15.4711 Y-2.6367
G01 X15.4652 Y-2.6361
G01 X15.4578 Y-2.6384
G01 X15.3572 Y-2.6907
G01 X15.3412 Y-2.6959
G01 X15.3279 Y-2.6972
G01 X15.2168 Y-2.6971
G01 X15.2065 Y-2.6958
G01 X15.1933 Y-2.6918
G01 X15.0976 Y-2.6515
G01 X15.0861 Y-2.6438
G01 X15.0810 Y-2.6391
G01 X15.0743 Y-2.6312
G01 X15.0688 Y-2.6224
G01 X15.0636 Y-2.6096
G01 X15.0462 Y-2.5373
G01 X15.0443 Y-2.5243
G01 X15.0442 Y-2.4966
G01 X15.0450 Y-2.4864
G01 X15.0483 Y-2.4731
G01 X15.0542 Y-2.4607
G01 X15.0601 Y-2.4522
G01 X15.0698 Y-2.4425
G01 X15.0812 Y-2.4349
G01 X15.0939 Y-2.4297
G01 X15.1040 Y-2.4274
G01 X15.1142 Y-2.4266
G01 X15.4658 Y-2.4266
G01 X15.4701 Y-2.4263
G01 X15.4742 Y-2.4249
G01 X15.4778 Y-2.4226
G01 X15.4813 Y-2.4188
G01 X15.4832 Y-2.4150
G01 X15.4842 Y-2.4100
G01 X15.4842 Y-2.2878
G01 X15.4837 Y-2.2825
G01 X15.4820 Y-2.2784
G01 X15.4072 Y-2.1905
G01 X15.4022 Y-2.1862
G01 X15.3967 Y-2.1841
G01 X15.2518 Y-2.1479
G01 X15.2467 Y-2.1472
G01 X15.2416 Y-2.1479
G01 X15.0966 Y-2.1841
G01 X15.0917 Y-2.1858
G01 X15.0876 Y-2.1889
G01 X15.0845 Y-2.1930
G01 X15.0121 Y-2.3138
G01 X15.0097 Y-2.3193
G01 X15.0092 Y-2.3245
G01 X15.0092 Y-2.5305
G00 Z3.0000
G00 X15.1300 Y-2.3916
G01 F80.00
G01 Z-0.0746
G01 F50.00
G01 X15.3792 Y-2.3916
G01 X15.3894 Y-2.3908
G01 X15.3995 Y-2.3885
G01 X15.4122 Y-2.3833
G01 X15.4236 Y-2.3757
G01 X15.4333 Y-2.3660
G01 X15.4409 Y-2.3546
G01 X15.4461 Y-2.3419
G01 X15.4488 Y-2.3284
G01 X15.4488 Y-2.3122
G01 X15.4460 Y-2.2984
G01 X15.4404 Y-2.2853
G01 X15.4345 Y-2.2765
G01 X15.3959 Y-2.2314
G01 X15.3832 Y-2.2208
G01 X15.3745 Y-2.2160
G01 X15.3652 Y-2.2124
G01 X15.2636 Y-2.1870
G01 X15.2535 Y-2.1853
G01 X15.2467 Y-2.1849
G01 X15.2399 Y-2.1853
G01 X15.2297 Y-2.1870
G01 X15.1362 Y-2.2104
G01 X15.1265 Y-2.2142
G01 X15.1176 Y-2.2192
G01 X15.1069 Y-2.2279
G01 X15.1002 Y-2.2357
G01 X15.0667 Y-2.2916
G01 X15.0621 Y-2.3045
G01 X15.0601 Y-2.3181
G01 X15.0607 Y-2.3318
G01 X15.0641 Y-2.3451
G01 X15.0699 Y-2.3575
G01 X15.0738 Y-2.3633
G01 X15.0805 Y-2.3711
G01 X15.0911 Y-2.3798
G01 X15.1032 Y-2.3862
G01 X15.1163 Y-2.3902
G01 X15.1300 Y-2.3916
G00 Z3.0000
G00 X15.7914 Y-2.1656
G01 F80.00
G01 Z-0.0746
G01 F50.00
G01 X15.7914 Y-2.7156
G01 X15.7931 Y-2.7222
G01 X15.7971 Y-2.7277
G01 X15.8030 Y-2.7312
G01 X15.8098 Y-2.7322
G01 X15.8164 Y-2.7305
G01 X15.8213 Y-2.7271
G01 X15.8251 Y-2.7214
G01 X15.8264 Y-2.7156
G01 X15.8264 Y-2.3279
G01 X15.8285 Y-2.3110
G01 X15.8346 Y-2.2952
G01 X15.8421 Y-2.2838
G01 X15.8516 Y-2.2741
G01 X15.9424 Y-2.1985
G01 X15.9479 Y-2.1943
G01 X15.9570 Y-2.1891
G01 X15.9700 Y-2.1844
G01 X15.9837 Y-2.1823
G01 X16.1048 Y-2.1820
G01 X16.1105 Y-2.1802
G01 X16.1157 Y-2.1758
G01 X16.1187 Y-2.1706
G01 X16.1197 Y-2.1638
G01 X16.1184 Y-2.1580
G01 X16.1146 Y-2.1523
G01 X16.1097 Y-2.1489
G01 X16.1039 Y-2.1473
G01 X15.9538 Y-2.1473
G01 X15.9495 Y-2.1482
G01 X15.9457 Y-2.1502
G01 X15.9222 Y-2.1695
G01 X15.9106 Y-2.1766
G01 X15.8978 Y-2.1814
G01 X15.8810 Y-2.1837
G01 X15.8642 Y-2.1818
G01 X15.8482 Y-2.1760
G01 X15.8341 Y-2.1666
G01 X15.8200 Y-2.1512
G01 X15.8164 Y-2.1489
G01 X15.8123 Y-2.1475
G01 X15.8046 Y-2.1477
G01 X15.7978 Y-2.1512
G01 X15.7931 Y-2.1572
G01 X15.7917 Y-2.1613
G01 X15.7914 Y-2.1656
G00 Z3.0000
G00 X17.0651 Y-2.3305
G01 F80.00
G01 Z-0.0746
G01 F50.00
G01 X17.2707 Y-2.3305
G01 X17.2845 Y-2.3291
G01 X17.2945 Y-2.3263
G01 X17.3040 Y-2.3221
G01 X17.3127 Y-2.3165
G01 X17.3181 Y-2.3120
G01 X17.3252 Y-2.3045
G01 X17.3311 Y-2.2960
G01 X17.3343 Y-2.2898
G01 X17.3379 Y-2.2801
G01 X17.3401 Y-2.2699
G01 X17.3407 Y-2.2596
G01 X17.3398 Y-2.2492
G01 X17.3374 Y-2.2391
G01 X17.2322 Y-1.9584
G01 X17.2254 Y-1.9464
G01 X17.2212 Y-1.9409
G01 X17.2139 Y-1.9335
G01 X17.2027 Y-1.9255
G01 X17.1933 Y-1.9210
G01 X17.1867 Y-1.9188
G01 X17.1765 Y-1.9168
G01 X17.1662 Y-1.9163
G01 X17.1525 Y-1.9180
G01 X17.1425 Y-1.9210
G01 X17.1332 Y-1.9255
G01 X17.1219 Y-1.9335
G01 X17.1146 Y-1.9409
G01 X17.1067 Y-1.9522
G01 X17.1024 Y-1.9617
G01 X16.9984 Y-2.2392
G01 X16.9966 Y-2.2458
G01 X16.9952 Y-2.2561
G01 X16.9951 Y-2.2631
G01 X16.9963 Y-2.2734
G01 X16.9990 Y-2.2834
G01 X17.0016 Y-2.2898
G01 X17.0086 Y-2.3017
G01 X17.0178 Y-2.3120
G01 X17.0259 Y-2.3185
G01 X17.0319 Y-2.3221
G01 X17.0413 Y-2.3263
G01 X17.0480 Y-2.3283
G01 X17.0547 Y-2.3297
G01 X17.0651 Y-2.3305
G00 Z3.0000
G00 X17.3364 Y-2.3655
G01 F80.00
G01 Z-0.0746
G01 F50.00
G01 X17.3466 Y-2.3663
G01 X17.3565 Y-2.3685
G01 X17.3720 Y-2.3753
G01 X17.3804 Y-2.3811
G01 X17.3878 Y-2.3880
G01 X17.3977 Y-2.4017
G01 X17.4020 Y-2.4110
G01 X17.5185 Y-2.7217
G01 X17.5230 Y-2.7279
G01 X17.5289 Y-2.7313
G01 X17.5366 Y-2.7321
G01 X17.5431 Y-2.7300
G01 X17.5478 Y-2.7263
G01 X17.5512 Y-2.7204
G01 X17.5521 Y-2.7144
G01 X17.5507 Y-2.7077
G01 X17.1846 Y-1.7316
G01 X17.1812 Y-1.7255
G01 X17.1758 Y-1.7213
G01 X17.1701 Y-1.7195
G01 X17.1632 Y-1.7200
G01 X17.1592 Y-1.7217
G01 X17.1557 Y-1.7243
G01 X17.1530 Y-1.7276
G01 X17.1512 Y-1.7316
G01 X16.7852 Y-2.7077
G01 X16.7840 Y-2.7119
G01 X16.7838 Y-2.7162
G01 X16.7847 Y-2.7204
G01 X16.7866 Y-2.7242
G01 X16.7893 Y-2.7275
G01 X16.7928 Y-2.7300
G01 X16.7976 Y-2.7318
G01 X16.8019 Y-2.7322
G01 X16.8070 Y-2.7313
G01 X16.8108 Y-2.7294
G01 X16.8147 Y-2.7260
G01 X16.8170 Y-2.7224
G01 X16.9352 Y-2.4078
G01 X16.9399 Y-2.3988
G01 X16.9458 Y-2.3906
G01 X16.9529 Y-2.3833
G01 X16.9610 Y-2.3771
G01 X16.9699 Y-2.3721
G01 X16.9794 Y-2.3685
G01 X16.9961 Y-2.3656
G01 X17.3364 Y-2.3655
G00 Z3.0000
G00 X17.9623 Y-2.9135
G01 F80.00
G01 Z-0.0746
G01 F50.00
G01 X17.9556 Y-2.9213
G01 X17.9478 Y-2.9279
G01 X17.9361 Y-2.9349
G01 X17.9265 Y-2.9386
G01 X17.9131 Y-2.9412
G01 X17.8759 Y-2.9416
G01 X17.8685 Y-2.9436
G01 X17.8633 Y-2.9480
G01 X17.8600 Y-2.9540
G01 X17.8594 Y-2.9608
G01 X17.8613 Y-2.9674
G01 X17.8644 Y-2.9715
G01 X17.8678 Y-2.9741
G01 X17.8717 Y-2.9759
G01 X17.8759 Y-2.9766
G01 X17.9510 Y-2.9766
G01 X17.9552 Y-2.9759
G01 X17.9591 Y-2.9742
G01 X17.9647 Y-2.9689
G01 X18.0369 Y-2.8725
G01 X18.0392 Y-2.8688
G01 X18.0406 Y-2.8647
G01 X18.0409 Y-2.1656
G01 X18.0399 Y-2.1588
G01 X18.0364 Y-2.1529
G01 X18.0309 Y-2.1489
G01 X18.0251 Y-2.1473
G01 X18.0183 Y-2.1479
G01 X18.0123 Y-2.1512
G01 X18.0079 Y-2.1564
G01 X18.0059 Y-2.1638
G01 X18.0055 Y-2.8390
G01 X18.0028 Y-2.8526
G01 X18.0004 Y-2.8591
G01 X17.9957 Y-2.8684
G01 X17.9623 Y-2.9135
G00 Z3.0000
G00 X24.9930 Y-3.2909
G01 F80.00
G01 Z-0.0746
G01 F50.00
G01 X24.9881 Y-3.3308
G01 X24.9852 Y-3.3710
G01 X24.9843 Y-3.4112
G01 X24.9854 Y-3.4515
G01 X24.9884 Y-3.4916
G01 X24.9934 Y-3.5315
G01 X25.0004 Y-3.5712
G01 X25.0093 Y-3.6104
G01 X25.0201 Y-3.6492
G01 X25.0328 Y-3.6874
G01 X25.0474 Y-3.7249
G01 X25.0638 Y-3.7616
G01 X25.0820 Y-3.7976
G01 X25.1019 Y-3.8325
G01 X25.1233 Y-3.8662
G01 X25.1467 Y-3.8993
G01 X25.1715 Y-3.9310
G01 X25.1979 Y-3.9614
G01 X25.2233 Y-3.9881
G01 X25.2524 Y-4.0159
G01 X25.2828 Y-4.0423
G01 X25.3145 Y-4.0671
G01 X25.3473 Y-4.0903
G01 X25.3813 Y-4.1119
G01 X25.4162 Y-4.1318
G01 X25.4522 Y-4.1500
G01 X25.4889 Y-4.1664
G01 X25.5264 Y-4.1810
G01 X25.5646 Y-4.1937
G01 X25.6034 Y-4.2045
G01 X25.6426 Y-4.2134
G01 X25.6853 Y-4.2208
G01 X25.7222 Y-4.2254
G01 X25.7623 Y-4.2284
G01 X25.8026 Y-4.2295
G01 X25.8463 Y-4.2284
G01 X25.8864 Y-4.2254
G01 X25.9229 Y-4.2209
G01 X25.9626 Y-4.2141
G01 X26.0019 Y-4.2053
G01 X26.0407 Y-4.1947
G01 X26.0789 Y-4.1821
G01 X26.1197 Y-4.1664
G01 X26.1564 Y-4.1500
G01 X26.1924 Y-4.1318
G01 X26.2273 Y-4.1119
G01 X26.2610 Y-4.0905
G01 X26.2938 Y-4.0674
G01 X26.3232 Y-4.0444
G01 X26.3537 Y-4.0182
G01 X26.3829 Y-3.9905
G01 X26.4107 Y-3.9614
G01 X26.4371 Y-3.9310
G01 X26.4639 Y-3.8966
G01 X26.4851 Y-3.8665
G01 X26.5067 Y-3.8325
G01 X26.5266 Y-3.7976
G01 X26.5448 Y-3.7616
G01 X26.5612 Y-3.7249
G01 X26.5758 Y-3.6874
G01 X26.5885 Y-3.6492
G01 X26.5940 Y-3.6296
G01 X28.1542 Y-3.6296
G01 X28.8483 Y-4.3236
G01 X28.8388 Y-4.3386
G01 X28.8154 Y-4.3801
G01 X28.7942 Y-4.4225
G01 X28.7762 Y-4.4630
G01 X28.7578 Y-4.5106
G01 X28.7430 Y-4.5558
G01 X28.7312 Y-4.5984
G01 X28.7200 Y-4.6483
G01 X28.7120 Y-4.6947
G01 X28.7063 Y-4.7419
G01 X28.7028 Y-4.7899
G01 X28.7017 Y-4.8375
G01 X28.7028 Y-4.8817
G01 X28.7066 Y-4.9326
G01 X28.7120 Y-4.9764
G01 X28.7200 Y-5.0233
G01 X28.7312 Y-5.0732
G01 X28.7430 Y-5.1157
G01 X28.7578 Y-5.1610
G01 X28.7762 Y-5.2085
G01 X28.7941 Y-5.2490
G01 X28.8154 Y-5.2915
G01 X28.8406 Y-5.3359
G01 X28.8642 Y-5.3733
G01 X28.8916 Y-5.4122
G01 X28.9230 Y-5.4525
G01 X28.9541 Y-5.4885
G01 X28.9870 Y-5.5229
G01 X29.0190 Y-5.5534
G01 X29.0550 Y-5.5845
G01 X29.0925 Y-5.6139
G01 X29.1342 Y-5.6433
G01 X29.1745 Y-5.6687
G01 X29.2129 Y-5.6904
G01 X29.2554 Y-5.7119
G01 X29.2989 Y-5.7313
G01 X29.3465 Y-5.7497
G01 X29.3885 Y-5.7635
G01 X29.4343 Y-5.7763
G01 X29.4808 Y-5.7868
G01 X29.5306 Y-5.7955
G01 X29.5783 Y-5.8013
G01 X29.6258 Y-5.8047
G01 X29.6734 Y-5.8058
G01 X29.7176 Y-5.8047
G01 X29.7651 Y-5.8013
G01 X29.8157 Y-5.7950
G01 X29.8626 Y-5.7868
G01 X29.9057 Y-5.7771
G01 X29.9549 Y-5.7635
G01 X29.9969 Y-5.7497
G01 X30.0413 Y-5.7326
G01 X30.0880 Y-5.7119
G01 X30.1305 Y-5.6904
G01 X30.1689 Y-5.6687
G01 X30.2092 Y-5.6433
G01 X30.2508 Y-5.6139
G01 X30.2857 Y-5.5867
G01 X30.3218 Y-5.5557
G01 X30.3564 Y-5.5229
G01 X30.3916 Y-5.4859
G01 X30.4226 Y-5.4498
G01 X30.4498 Y-5.4150
G01 X30.4773 Y-5.3761
G01 X30.5046 Y-5.3330
G01 X30.5263 Y-5.2946
G01 X30.5478 Y-5.2521
G01 X30.5685 Y-5.2054
G01 X30.5856 Y-5.1610
G01 X30.5994 Y-5.1190
G01 X30.6130 Y-5.0698
G01 X30.6234 Y-5.0233
G01 X30.6314 Y-4.9769
G01 X30.6368 Y-4.9326
G01 X30.6406 Y-4.8825
G01 X30.6417 Y-4.8341
G01 X30.6406 Y-4.7899
G01 X30.6372 Y-4.7424
G01 X30.6309 Y-4.6918
G01 X30.6227 Y-4.6449
G01 X30.6130 Y-4.6018
G01 X30.5994 Y-4.5526
G01 X30.5844 Y-4.5074
G01 X30.5672 Y-4.4631
G01 X30.5493 Y-4.4226
G01 X30.5280 Y-4.3801
G01 X30.5028 Y-4.3357
G01 X30.4792 Y-4.2983
G01 X30.4649 Y-4.2779
G01 X32.8352 Y-1.9076
G01 X55.1382 Y-1.9076
G01 X50.6382 Y-6.4077
G01 X47.9425 Y-6.4077
G01 X47.9192 Y-6.4090
G01 X47.8979 Y-6.4123
G01 X47.8803 Y-6.4167
G01 X47.8667 Y-6.4212
G01 X47.8403 Y-6.4329
G01 X47.8188 Y-6.4458
G01 X47.7960 Y-6.4636
G01 X47.6471 Y-6.6122
G01 X47.6378 Y-6.6230
G01 X47.6251 Y-6.6405
G01 X47.6157 Y-6.6561
G01 X47.6093 Y-6.6688
G01 X47.6012 Y-6.6888
G01 X47.5951 Y-6.7095
G01 X47.5911 Y-6.7307
G01 X47.5892 Y-6.7514
G01 X47.5889 Y-7.0855
G01 X44.3889 Y-7.0654
G01 X44.3413 Y-7.0179
G01 X44.3315 Y-7.0097
G01 X44.3232 Y-7.0048
G01 X44.3132 Y-7.0007
G01 X44.3027 Y-6.9982
G01 X44.2919 Y-6.9974
G01 X43.1883 Y-6.9974
G01 X43.1776 Y-6.9988
G01 X43.1706 Y-7.0006
G01 X43.1606 Y-7.0047
G01 X43.1523 Y-7.0096
G01 X43.1424 Y-7.0178
G01 X43.1029 Y-7.0573
G01 X41.5020 Y-7.0473
G01 X41.4732 Y-7.0484
G01 X41.4545 Y-7.0506
G01 X41.4275 Y-7.0557
G01 X41.4072 Y-7.0612
G01 X39.9136 Y-7.0613
G01 X39.9033 Y-7.0625
G01 X39.8902 Y-7.0665
G01 X39.8781 Y-7.0730
G01 X39.8700 Y-7.0793
G01 X39.8608 Y-7.0895
G01 X39.8553 Y-7.0982
G01 X39.8511 Y-7.1076
G01 X39.8478 Y-7.1209
G01 X39.8470 Y-7.1312
G01 X39.8470 Y-7.4998
G01 X39.3757 Y-7.4993
G01 X39.3757 Y-7.1185
G01 X39.3749 Y-7.1082
G01 X39.3727 Y-7.0982
G01 X39.3690 Y-7.0886
G01 X39.3639 Y-7.0796
G01 X39.3576 Y-7.0715
G01 X39.3501 Y-7.0644
G01 X39.3417 Y-7.0585
G01 X39.3325 Y-7.0538
G01 X39.3194 Y-7.0498
G01 X39.3057 Y-7.0485
G01 X38.0023 Y-7.0486
G01 X37.9920 Y-7.0498
G01 X37.9789 Y-7.0538
G01 X37.9697 Y-7.0585
G01 X37.9613 Y-7.0644
G01 X37.9538 Y-7.0715
G01 X37.9457 Y-7.0825
G01 X37.9398 Y-7.0949
G01 X37.9370 Y-7.1048
G01 X37.9357 Y-7.1185
G01 X37.9358 Y-8.5219
G01 X37.9370 Y-8.5322
G01 X37.9410 Y-8.5453
G01 X37.9475 Y-8.5574
G01 X37.9538 Y-8.5655
G01 X37.9613 Y-8.5726
G01 X37.9697 Y-8.5785
G01 X37.9821 Y-8.5844
G01 X37.9920 Y-8.5872
G01 X38.0057 Y-8.5885
G01 X39.3057 Y-8.5885
G01 X39.3160 Y-8.5877
G01 X39.3260 Y-8.5855
G01 X39.3356 Y-8.5818
G01 X39.3446 Y-8.5767
G01 X39.3527 Y-8.5704
G01 X39.3598 Y-8.5629
G01 X39.3657 Y-8.5545
G01 X39.3704 Y-8.5453
G01 X39.3736 Y-8.5355
G01 X39.3754 Y-8.5254
G01 X39.3757 Y-8.1395
G01 X39.8470 Y-8.1401
G01 X39.8470 Y-8.4312
G01 X39.8478 Y-8.4415
G01 X39.8511 Y-8.4548
G01 X39.8553 Y-8.4642
G01 X39.8608 Y-8.4729
G01 X39.8675 Y-8.4807
G01 X39.8753 Y-8.4874
G01 X39.8840 Y-8.4929
G01 X39.8934 Y-8.4971
G01 X39.9067 Y-8.5004
G01 X39.9170 Y-8.5012
G01 X41.5170 Y-8.5012
G01 X41.5239 Y-8.5009
G01 X41.5340 Y-8.4991
G01 X41.5469 Y-8.4945
G01 X41.5559 Y-8.4894
G01 X41.5640 Y-8.4831
G01 X41.5711 Y-8.4756
G01 X41.5787 Y-8.4642
G01 X41.5829 Y-8.4548
G01 X41.5857 Y-8.4449
G01 X41.5869 Y-8.4346
G01 X41.5870 Y-7.6881
G01 X43.1234 Y-7.6977
G01 X43.1448 Y-7.7190
G01 X43.1579 Y-7.7284
G01 X43.1673 Y-7.7328
G01 X43.1742 Y-7.7350
G01 X43.1848 Y-7.7369
G01 X43.1920 Y-7.7373
G01 X44.2956 Y-7.7372
G01 X44.3098 Y-7.7350
G01 X44.3167 Y-7.7328
G01 X44.3261 Y-7.7284
G01 X44.3367 Y-7.7211
G01 X44.3529 Y-7.7054
G01 X47.6756 Y-7.7263
G01 X48.3614 Y-8.4116
G01 X48.3883 Y-8.4337
G01 X48.4116 Y-8.4493
G01 X48.4282 Y-8.4587
G01 X48.4423 Y-8.4657
G01 X48.4681 Y-8.4764
G01 X48.5015 Y-8.4865
G01 X48.5289 Y-8.4920
G01 X48.5445 Y-8.4940
G01 X48.5776 Y-8.4957
G01 X50.9165 Y-8.4957
G01 X50.9165 Y-9.7631
G01 X50.9182 Y-9.7962
G01 X50.9202 Y-9.8118
G01 X50.9257 Y-9.8392
G01 X50.9358 Y-9.8726
G01 X50.9465 Y-9.8984
G01 X50.9551 Y-9.9155
G01 X50.9695 Y-9.9395
G01 X50.9785 Y-9.9524
G01 X50.9902 Y-9.9675
G01 X51.0090 Y-9.9882
G01 X51.0349 Y-10.0116
G01 X51.0573 Y-10.0283
G01 X51.0706 Y-10.0368
G01 X51.1013 Y-10.0532
G01 X51.1304 Y-10.0651
G01 X51.1605 Y-10.0740
G01 X51.1909 Y-10.0799
G01 X51.2218 Y-10.0829
G01 X51.8088 Y-10.0832
G01 X51.8424 Y-10.1169
G01 X51.8523 Y-10.1251
G01 X51.8606 Y-10.1300
G01 X51.8706 Y-10.1341
G01 X51.8776 Y-10.1359
G01 X51.8883 Y-10.1373
G01 X52.9955 Y-10.1373
G01 X53.0062 Y-10.1359
G01 X53.0199 Y-10.1315
G01 X53.0315 Y-10.1251
G01 X53.0414 Y-10.1169
G01 X53.2436 Y-9.9145
G01 X53.2514 Y-9.9042
G01 X53.2560 Y-9.8953
G01 X53.2604 Y-9.8816
G01 X53.2618 Y-9.8709
G01 X53.2618 Y-9.6637
G01 X53.2596 Y-9.6495
G01 X53.2545 Y-9.6360
G01 X53.2496 Y-9.6277
G01 X53.2414 Y-9.6178
G01 X53.0415 Y-9.4179
G01 X53.0316 Y-9.4097
G01 X53.0233 Y-9.4048
G01 X53.0098 Y-9.3997
G01 X52.9992 Y-9.3978
G01 X52.9920 Y-9.3974
G01 X51.8883 Y-9.3975
G01 X51.8776 Y-9.3989
G01 X51.8706 Y-9.4007
G01 X51.8638 Y-9.4033
G01 X51.8550 Y-9.4079
G01 X51.8447 Y-9.4157
G01 X51.8174 Y-9.4430
G01 X51.5567 Y-9.4430
G01 X51.5567 Y-8.4957
G01 X51.8214 Y-8.4957
G01 X51.8450 Y-8.5192
G01 X51.8560 Y-8.5273
G01 X51.8652 Y-8.5320
G01 X51.8717 Y-8.5343
G01 X51.8817 Y-8.5365
G01 X51.8886 Y-8.5372
G01 X52.9919 Y-8.5374
G01 X53.0022 Y-8.5366
G01 X53.0089 Y-8.5353
G01 X53.0187 Y-8.5321
G01 X53.0279 Y-8.5274
G01 X53.0363 Y-8.5215
G01 X53.0414 Y-8.5169
G01 X53.2415 Y-8.3169
G01 X53.2502 Y-8.3063
G01 X53.2553 Y-8.2973
G01 X53.2599 Y-8.2844
G01 X53.2619 Y-8.2708
G01 X53.2619 Y-8.0673
G01 X53.2611 Y-8.0570
G01 X53.2598 Y-8.0503
G01 X53.2566 Y-8.0405
G01 X53.2536 Y-8.0343
G01 X53.2481 Y-8.0256
G01 X53.2414 Y-8.0178
G01 X53.0389 Y-7.8154
G01 X53.0308 Y-7.8091
G01 X53.0187 Y-7.8026
G01 X53.0089 Y-7.7994
G01 X52.9988 Y-7.7976
G01 X51.8886 Y-7.7975
G01 X51.8783 Y-7.7987
G01 X51.8717 Y-7.8004
G01 X51.8621 Y-7.8041
G01 X51.8531 Y-7.8092
G01 X51.8425 Y-7.8179
G01 X51.8049 Y-7.8555
G01 X51.2278 Y-7.8555
G01 X51.0995 Y-7.7272
G01 X51.0995 Y-6.7104
G01 X54.8892 Y-2.9206
G01 X54.8892 Y-6.0169
G01 X54.5588 Y-6.3473
G01 X53.1709 Y-6.3473
G01 X53.0392 Y-6.2157
G01 X53.0289 Y-6.2079
G01 X53.0200 Y-6.2033
G01 X53.0098 Y-6.1997
G01 X52.9992 Y-6.1978
G01 X51.8919 Y-6.1974
G01 X51.8847 Y-6.1978
G01 X51.8741 Y-6.1997
G01 X51.8672 Y-6.2019
G01 X51.8578 Y-6.2063
G01 X51.8497 Y-6.2116
G01 X51.8424 Y-6.2179
G01 X51.7402 Y-6.3202
G01 X51.7308 Y-6.3333
G01 X51.7264 Y-6.3427
G01 X51.7242 Y-6.3496
G01 X51.7223 Y-6.3602
G01 X51.7219 Y-6.3674
G01 X51.7219 Y-6.7673
G01 X51.7232 Y-6.7810
G01 X51.7272 Y-6.7941
G01 X51.7337 Y-6.8062
G01 X51.7400 Y-6.8143
G01 X51.8447 Y-6.9190
G01 X51.8550 Y-6.9268
G01 X51.8639 Y-6.9314
G01 X51.8741 Y-6.9350
G01 X51.8847 Y-6.9369
G01 X52.9955 Y-6.9372
G01 X53.0062 Y-6.9358
G01 X53.0166 Y-6.9328
G01 X53.0260 Y-6.9284
G01 X53.0366 Y-6.9211
G01 X53.1708 Y-6.7875
G01 X54.6500 Y-6.7875
G01 X54.6699 Y-6.7866
G01 X54.6946 Y-6.7829
G01 X54.7122 Y-6.7785
G01 X54.7258 Y-6.7740
G01 X54.7522 Y-6.7623
G01 X54.7737 Y-6.7494
G01 X54.7883 Y-6.7386
G01 X54.7991 Y-6.7293
G01 X54.8892 Y-6.6394
G01 X54.8893 Y-7.7115
G01 X54.8905 Y-7.7218
G01 X54.8933 Y-7.7317
G01 X54.8975 Y-7.7411
G01 X54.9010 Y-7.7470
G01 X54.9073 Y-7.7551
G01 X54.9122 Y-7.7600
G01 X54.9175 Y-7.7643
G01 X54.9262 Y-7.7698
G01 X54.9356 Y-7.7740
G01 X54.9422 Y-7.7760
G01 X54.9523 Y-7.7778
G01 X54.9592 Y-7.7781
G01 X56.8592 Y-7.7781
G01 X56.8695 Y-7.7773
G01 X56.8795 Y-7.7751
G01 X56.8922 Y-7.7698
G01 X56.9009 Y-7.7643
G01 X56.9111 Y-7.7551
G01 X56.9174 Y-7.7470
G01 X56.9209 Y-7.7411
G01 X56.9251 Y-7.7317
G01 X56.9271 Y-7.7251
G01 X56.9289 Y-7.7150
G01 X56.9292 Y-7.7081
G01 X56.9292 Y-2.9081
G01 X56.9279 Y-2.8944
G01 X56.9239 Y-2.8813
G01 X56.9192 Y-2.8721
G01 X56.9133 Y-2.8637
G01 X56.9062 Y-2.8562
G01 X56.8981 Y-2.8499
G01 X56.8891 Y-2.8448
G01 X56.8795 Y-2.8411
G01 X56.8695 Y-2.8389
G01 X56.8592 Y-2.8381
G01 X54.9717 Y-2.8381
G01 X55.9022 Y-1.9076
G01 X57.9015 Y-1.9076
G01 X57.9015 Y-9.5646
G01 X57.9032 Y-9.5977
G01 X57.9080 Y-9.6287
G01 X57.9148 Y-9.6559
G01 X57.9196 Y-9.6708
G01 X57.9265 Y-9.6887
G01 X57.9385 Y-9.7140
G01 X57.9479 Y-9.7306
G01 X57.9635 Y-9.7539
G01 X57.9752 Y-9.7690
G01 X57.9940 Y-9.7897
G01 X60.1608 Y-11.9564
G01 X60.1608 Y-13.0237
G01 X60.1616 Y-13.0340
G01 X60.1638 Y-13.0440
G01 X60.1675 Y-13.0536
G01 X60.1726 Y-13.0626
G01 X60.1789 Y-13.0707
G01 X60.1864 Y-13.0778
G01 X60.1948 Y-13.0837
G01 X60.2040 Y-13.0884
G01 X60.2138 Y-13.0916
G01 X60.2239 Y-13.0934
G01 X60.6594 Y-13.0937
G01 X60.7752 Y-14.0921
G01 X60.5483 Y-14.0921
G01 X60.5346 Y-14.0934
G01 X60.5247 Y-14.0962
G01 X60.5153 Y-14.1004
G01 X60.5066 Y-14.1059
G01 X60.4988 Y-14.1126
G01 X60.4921 Y-14.1204
G01 X60.4866 Y-14.1291
G01 X60.4824 Y-14.1385
G01 X60.4796 Y-14.1484
G01 X60.4783 Y-14.1621
G01 X60.4783 Y-15.7621
G01 X60.4796 Y-15.7758
G01 X60.4824 Y-15.7857
G01 X60.4866 Y-15.7951
G01 X60.4921 Y-15.8038
G01 X60.5013 Y-15.8140
G01 X60.5094 Y-15.8203
G01 X60.5184 Y-15.8254
G01 X60.5280 Y-15.8291
G01 X60.5380 Y-15.8313
G01 X60.5483 Y-15.8321
G01 X60.8780 Y-15.8321
G01 X60.8780 Y-15.8901
G01 X59.9900 Y-18.0137
G01 X59.9836 Y-18.0301
G01 X59.9754 Y-18.0571
G01 X59.9685 Y-18.0916
G01 X59.9666 Y-18.1073
G01 X59.9652 Y-18.1355
G01 X59.9652 Y-18.5919
G01 X59.9353 Y-18.5919
G01 X59.9250 Y-18.5927
G01 X59.9117 Y-18.5960
G01 X59.9023 Y-18.6002
G01 X59.8964 Y-18.6037
G01 X59.8858 Y-18.6124
G01 X59.8812 Y-18.6175
G01 X59.8753 Y-18.6259
G01 X59.8706 Y-18.6351
G01 X59.8683 Y-18.6416
G01 X59.8661 Y-18.6516
G01 X59.8654 Y-18.6585
G01 X59.8653 Y-19.7295
G01 X58.5014 Y-21.0961
G01 X58.4889 Y-21.1106
G01 X58.4723 Y-21.1331
G01 X58.4544 Y-21.1630
G01 X58.4425 Y-21.1882
G01 X58.4356 Y-21.2061
G01 X58.4275 Y-21.2328
G01 X58.4233 Y-21.2515
G01 X58.4189 Y-21.2826
G01 X58.4175 Y-21.3122
G01 X58.4175 Y-28.6517
G01 X54.6633 Y-28.6517
G01 X53.5959 Y-27.5842
G01 X53.5739 Y-27.5642
G01 X53.5488 Y-27.5454
G01 X53.5189 Y-27.5275
G01 X53.4904 Y-27.5142
G01 X53.4757 Y-27.5086
G01 X53.4489 Y-27.5005
G01 X53.4152 Y-27.4938
G01 X53.3869 Y-27.4910
G01 X53.3695 Y-27.4905
G01 X53.1361 Y-27.4905
G01 X53.1360 Y-27.4081
G01 X53.1348 Y-27.3978
G01 X53.1320 Y-27.3879
G01 X53.1294 Y-27.3816
G01 X53.1243 Y-27.3726
G01 X53.1180 Y-27.3645
G01 X53.1105 Y-27.3574
G01 X53.1021 Y-27.3515
G01 X53.0960 Y-27.3482
G01 X53.0864 Y-27.3445
G01 X53.0798 Y-27.3428
G01 X53.0661 Y-27.3415
G01 X52.4177 Y-27.3415
G01 X51.5112 Y-26.4350
G01 X51.4965 Y-26.4216
G01 X51.4793 Y-26.4086
G01 X51.4608 Y-26.3973
G01 X51.4481 Y-26.3909
G01 X51.4281 Y-26.3828
G01 X51.4002 Y-26.3751
G01 X51.3789 Y-26.3718
G01 X51.3573 Y-26.3705
G01 X50.2471 Y-26.3705
G01 X50.2376 Y-26.3651
G01 X50.2280 Y-26.3614
G01 X50.2180 Y-26.3592
G01 X50.2077 Y-26.3584
G01 X49.6077 Y-26.3584
G01 X49.5940 Y-26.3597
G01 X49.5809 Y-26.3637
G01 X49.5717 Y-26.3684
G01 X49.5633 Y-26.3743
G01 X49.5558 Y-26.3814
G01 X49.5495 Y-26.3895
G01 X49.5444 Y-26.3985
G01 X49.5407 Y-26.4081
G01 X49.5385 Y-26.4181
G01 X49.5377 Y-26.4284
G01 X49.5376 Y-28.0417
G01 X49.5334 Y-28.0585
G01 X49.5310 Y-28.0725
G01 X49.5292 Y-28.0906
G01 X49.5288 Y-28.1031
G01 X49.5288 Y-29.7483
G01 X48.2408 Y-29.7483
G01 X48.2175 Y-29.7496
G01 X48.1996 Y-29.7522
G01 X48.1786 Y-29.7573
G01 X48.1650 Y-29.7618
G01 X48.1483 Y-29.7687
G01 X48.1356 Y-29.7751
G01 X48.1200 Y-29.7845
G01 X48.1087 Y-29.7924
G01 X48.0943 Y-29.8042
G01 X48.0840 Y-29.8140
G01 X48.0696 Y-29.8301
G01 X48.0588 Y-29.8447
G01 X48.0512 Y-29.8567
G01 X48.0426 Y-29.8728
G01 X48.0368 Y-29.8858
G01 X48.0307 Y-29.9029
G01 X48.0269 Y-29.9166
G01 X48.0220 Y-29.9451
G01 X48.0207 Y-29.9684
G01 X48.0207 Y-30.8812
G01 X48.0211 Y-30.8937
G01 X48.0229 Y-30.9118
G01 X48.0253 Y-30.9258
G01 X48.0289 Y-30.9405
G01 X48.0289 Y-32.8337
G01 X48.0302 Y-32.8474
G01 X48.0330 Y-32.8573
G01 X48.0389 Y-32.8697
G01 X48.0470 Y-32.8807
G01 X48.0572 Y-32.8899
G01 X48.0690 Y-32.8970
G01 X48.0819 Y-32.9016
G01 X48.0955 Y-32.9036
G01 X48.3989 Y-32.9037
G01 X48.4092 Y-32.9029
G01 X48.4225 Y-32.8996
G01 X48.4319 Y-32.8954
G01 X48.4406 Y-32.8899
G01 X48.4484 Y-32.8832
G01 X48.4551 Y-32.8754
G01 X48.4606 Y-32.8667
G01 X48.4648 Y-32.8573
G01 X48.4681 Y-32.8440
G01 X48.4689 Y-32.8337
G01 X48.4689 Y-30.8337
G01 X48.4686 Y-30.8268
G01 X48.4668 Y-30.8167
G01 X48.4609 Y-30.8012
G01 X48.4609 Y-30.1885
G01 X49.7614 Y-30.1881
G01 X49.7829 Y-30.1858
G01 X49.8040 Y-30.1814
G01 X49.8247 Y-30.1750
G01 X49.8445 Y-30.1666
G01 X49.8635 Y-30.1563
G01 X49.8810 Y-30.1444
G01 X49.8980 Y-30.1303
G01 X49.9131 Y-30.1149
G01 X49.9267 Y-30.0981
G01 X49.9368 Y-30.0830
G01 X49.9471 Y-30.0640
G01 X49.9529 Y-30.0510
G01 X49.9590 Y-30.0339
G01 X49.9644 Y-30.0130
G01 X49.9668 Y-29.9990
G01 X49.9687 Y-29.9783
G01 X49.9690 Y-28.4984
G01 X50.2077 Y-28.4984
G01 X50.2237 Y-28.4965
G01 X51.3961 Y-28.4965
G01 X51.3961 Y-28.7115
G01 X51.3974 Y-28.7252
G01 X51.4002 Y-28.7351
G01 X51.4044 Y-28.7445
G01 X51.4099 Y-28.7532
G01 X51.4191 Y-28.7634
G01 X51.4301 Y-28.7715
G01 X51.4393 Y-28.7762
G01 X51.4491 Y-28.7794
G01 X51.4592 Y-28.7812
G01 X53.0730 Y-28.7812
G01 X53.0864 Y-28.7785
G01 X53.0960 Y-28.7748
G01 X53.1078 Y-28.7677
G01 X53.1156 Y-28.7610
G01 X53.1243 Y-28.7504
G01 X53.1294 Y-28.7414
G01 X53.1331 Y-28.7318
G01 X53.1358 Y-28.7184
G01 X53.1361 Y-28.1307
G01 X53.2369 Y-28.1307
G01 X54.3145 Y-29.2078
G01 X54.3290 Y-29.2203
G01 X54.3514 Y-29.2370
G01 X54.3676 Y-29.2472
G01 X54.3923 Y-29.2604
G01 X54.4245 Y-29.2738
G01 X54.4513 Y-29.2819
G01 X54.4699 Y-29.2861
G01 X54.5005 Y-29.2905
G01 X54.5307 Y-29.2919
G01 X58.7516 Y-29.2916
G01 X58.7829 Y-29.2887
G01 X58.8170 Y-29.2819
G01 X58.8471 Y-29.2726
G01 X58.8760 Y-29.2604
G01 X58.9007 Y-29.2472
G01 X58.9140 Y-29.2389
G01 X58.9393 Y-29.2203
G01 X58.9652 Y-29.1969
G01 X58.9861 Y-29.1735
G01 X59.0028 Y-29.1511
G01 X59.0191 Y-29.1242
G01 X59.0277 Y-29.1071
G01 X59.0396 Y-29.0780
G01 X59.0485 Y-29.0479
G01 X59.0540 Y-29.0205
G01 X59.0563 Y-29.0015
G01 X59.0577 Y-28.9718
G01 X59.0577 Y-21.4446
G01 X59.8654 Y-20.6356
G01 X59.8654 Y-20.8619
G01 X59.8662 Y-20.8722
G01 X59.8675 Y-20.8789
G01 X59.8707 Y-20.8887
G01 X59.8754 Y-20.8979
G01 X59.8813 Y-20.9063
G01 X59.8884 Y-20.9138
G01 X59.8965 Y-20.9201
G01 X59.9055 Y-20.9252
G01 X59.9151 Y-20.9289
G01 X59.9251 Y-20.9311
G01 X59.9354 Y-20.9319
G01 X60.6388 Y-20.9317
G01 X60.6491 Y-20.9305
G01 X60.6590 Y-20.9277
G01 X60.6653 Y-20.9251
G01 X60.6743 Y-20.9200
G01 X60.6798 Y-20.9159
G01 X60.6873 Y-20.9088
G01 X60.6936 Y-20.9007
G01 X60.6987 Y-20.8917
G01 X60.7033 Y-20.8788
G01 X60.7051 Y-20.8687
G01 X60.7054 Y-20.8618
G01 X60.7052 Y-18.6584
G01 X60.7045 Y-18.6515
G01 X60.7023 Y-18.6415
G01 X60.6986 Y-18.6319
G01 X60.6953 Y-18.6258
G01 X60.6872 Y-18.6148
G01 X60.6823 Y-18.6099
G01 X60.6742 Y-18.6036
G01 X60.6683 Y-18.6001
G01 X60.6589 Y-18.5959
G01 X60.6456 Y-18.5926
G01 X60.6353 Y-18.5918
G01 X60.6055 Y-18.5918
G01 X60.6054 Y-18.2014
G01 X61.4986 Y-16.0648
G01 X61.5089 Y-16.0312
G01 X61.5144 Y-16.0035
G01 X61.5168 Y-15.9849
G01 X61.5182 Y-15.9545
G01 X61.5182 Y-15.8321
G01 X61.8552 Y-15.8318
G01 X61.8620 Y-15.8308
G01 X61.8719 Y-15.8280
G01 X61.8813 Y-15.8238
G01 X61.8900 Y-15.8183
G01 X61.8953 Y-15.8140
G01 X61.9024 Y-15.8065
G01 X61.9065 Y-15.8010
G01 X61.9116 Y-15.7920
G01 X61.9162 Y-15.7791
G01 X61.9175 Y-15.7724
G01 X61.9183 Y-15.7621
G01 X61.9183 Y-15.2822
G01 X68.3420 Y-15.2823
G01 X68.3706 Y-15.2810
G01 X68.4007 Y-15.2769
G01 X68.4302 Y-15.2699
G01 X68.4478 Y-15.2643
G01 X68.4760 Y-15.2529
G01 X68.5015 Y-15.2398
G01 X72.2289 Y-13.0984
G01 X73.3212 Y-12.5034
G01 X73.3469 Y-12.5278
G01 X73.3869 Y-12.5622
G01 X73.4256 Y-12.5924
G01 X73.4685 Y-12.6227
G01 X73.5158 Y-12.6526
G01 X73.5615 Y-12.6784
G01 X73.6084 Y-12.7019
G01 X73.6533 Y-12.7219
G01 X73.7023 Y-12.7409
G01 X73.7522 Y-12.7574
G01 X73.8027 Y-12.7715
G01 X73.8573 Y-12.7838
G01 X73.9091 Y-12.7927
G01 X73.9607 Y-12.7990
G01 X74.0102 Y-12.8026
G01 X74.0627 Y-12.8040
G01 X74.1186 Y-12.8026
G01 X74.1676 Y-12.7990
G01 X74.2197 Y-12.7927
G01 X74.2715 Y-12.7838
G01 X74.3227 Y-12.7723
G01 X74.3734 Y-12.7584
G01 X74.4232 Y-12.7420
G01 X74.4755 Y-12.7219
G01 X74.5203 Y-12.7020
G01 X74.5673 Y-12.6784
G01 X74.6130 Y-12.6526
G01 X74.6574 Y-12.6246
G01 X74.7032 Y-12.5924
G01 X74.7445 Y-12.5600
G01 X74.7842 Y-12.5256
G01 X74.8222 Y-12.4894
G01 X74.8582 Y-12.4515
G01 X74.8926 Y-12.4115
G01 X74.9248 Y-12.3700
G01 X74.9550 Y-12.3270
G01 X74.9830 Y-12.2826
G01 X75.0088 Y-12.2369
G01 X75.0323 Y-12.1900
G01 X75.0523 Y-12.1451
G01 X75.0713 Y-12.0961
G01 X75.0878 Y-12.0462
G01 X75.1019 Y-11.9957
G01 X75.1135 Y-11.9444
G01 X75.1225 Y-11.8927
G01 X75.1294 Y-11.8372
G01 X75.1332 Y-11.7848
G01 X75.1344 Y-11.7323
G01 X75.1330 Y-11.6798
G01 X75.1291 Y-11.6274
G01 X75.1225 Y-11.5753
G01 X75.1135 Y-11.5236
G01 X75.1019 Y-11.4723
G01 X75.0878 Y-11.4218
G01 X75.0713 Y-11.3719
G01 X75.0523 Y-11.3229
G01 X75.0309 Y-11.2750
G01 X75.0075 Y-11.2287
G01 X75.8186 Y-10.4007
G01 X76.1715 Y-10.4007
G01 X76.1854 Y-10.4427
G01 X76.2031 Y-10.4885
G01 X76.2258 Y-10.5396
G01 X76.2495 Y-10.5865
G01 X76.2737 Y-10.6292
G01 X76.3017 Y-10.6736
G01 X76.3336 Y-10.7190
G01 X76.3663 Y-10.7607
G01 X76.3985 Y-10.7981
G01 X76.4345 Y-10.8360
G01 X76.4748 Y-10.8744
G01 X76.5148 Y-10.9088
G01 X76.5535 Y-10.9390
G01 X76.5964 Y-10.9693
G01 X76.6437 Y-10.9992
G01 X76.6864 Y-11.0234
G01 X76.7333 Y-11.0471
G01 X76.7844 Y-11.0698
G01 X76.8335 Y-11.0886
G01 X76.8801 Y-11.1040
G01 X76.9306 Y-11.1181
G01 X76.9852 Y-11.1304
G01 X77.0370 Y-11.1393
G01 X77.0886 Y-11.1456
G01 X77.1381 Y-11.1492
G01 X77.1906 Y-11.1506
G01 X77.2431 Y-11.1494
G01 X77.2955 Y-11.1456
G01 X77.3476 Y-11.1393
G01 X77.3948 Y-11.1311
G01 X77.4105 Y-11.1332
G01 X77.4304 Y-11.1341
G01 X79.6132 Y-11.1341
G01 X79.6257 Y-11.1337
G01 X79.6438 Y-11.1319
G01 X79.6683 Y-11.1270
G01 X79.6958 Y-11.1180
G01 X79.7184 Y-11.1073
G01 X79.7340 Y-11.0979
G01 X79.7457 Y-11.0897
G01 X79.7597 Y-11.0782
G01 X79.7688 Y-11.0696
G01 X81.6738 Y-9.1646
G01 X81.6872 Y-9.1499
G01 X81.7002 Y-9.1327
G01 X81.7115 Y-9.1142
G01 X81.7208 Y-9.0948
G01 X81.7283 Y-9.0745
G01 X81.7337 Y-9.0536
G01 X81.7370 Y-9.0323
G01 X81.7383 Y-9.0090
G01 X81.7383 Y-4.8140
G01 X82.8794 Y-3.6729
G01 X87.6191 Y-3.6729
G01 X87.6194 Y-4.3248
G01 X87.6221 Y-4.3382
G01 X87.6258 Y-4.3478
G01 X87.6309 Y-4.3568
G01 X87.6396 Y-4.3674
G01 X87.6502 Y-4.3761
G01 X87.6592 Y-4.3812
G01 X87.6688 Y-4.3849
G01 X87.6808 Y-4.3874
G01 X87.6808 Y-8.6502
G01 X87.6816 Y-8.6605
G01 X87.6838 Y-8.6705
G01 X87.6875 Y-8.6801
G01 X87.6908 Y-8.6862
G01 X87.6967 Y-8.6946
G01 X87.7013 Y-8.6997
G01 X87.7091 Y-8.7064
G01 X87.7178 Y-8.7119
G01 X87.7272 Y-8.7161
G01 X87.7338 Y-8.7181
G01 X87.7405 Y-8.7194
G01 X87.7508 Y-8.7202
G01 X91.9154 Y-8.7202
G01 X91.9290 Y-8.7208
G01 X91.9519 Y-8.7246
G01 X91.9596 Y-8.7250
G01 X92.1192 Y-8.7250
G01 X92.1269 Y-10.3274
G01 X92.1269 Y-11.5550
G01 X92.1277 Y-11.5653
G01 X92.1310 Y-11.5786
G01 X92.1352 Y-11.5880
G01 X92.1428 Y-11.5994
G01 X92.1499 Y-11.6069
G01 X92.1580 Y-11.6132
G01 X92.1670 Y-11.6183
G01 X92.1799 Y-11.6229
G01 X92.1866 Y-11.6242
G01 X92.1969 Y-11.6250
G01 X94.1969 Y-11.6250
G01 X94.2072 Y-11.6242
G01 X94.2139 Y-11.6229
G01 X94.2268 Y-11.6183
G01 X94.2358 Y-11.6132
G01 X94.2413 Y-11.6091
G01 X94.2464 Y-11.6045
G01 X94.2531 Y-11.5967
G01 X94.2602 Y-11.5849
G01 X94.2639 Y-11.5753
G01 X94.2661 Y-11.5653
G01 X94.2669 Y-11.5550
G01 X94.2669 Y-9.0550
G01 X94.2656 Y-9.0413
G01 X94.2616 Y-9.0283
G01 X94.2602 Y-8.7250
G01 X94.7231 Y-8.7250
G01 X94.7311 Y-8.7245
G01 X94.7654 Y-8.7196
G01 X94.8036 Y-8.7178
G01 X101.3105 Y-8.7178
G01 X101.3487 Y-8.7196
G01 X101.3795 Y-8.7240
G01 X101.3899 Y-8.7244
G01 X101.4037 Y-8.7227
G01 X101.4169 Y-8.7182
G01 X101.4260 Y-8.7132
G01 X101.4369 Y-8.7045
G01 X101.4458 Y-8.6939
G01 X101.4525 Y-8.6816
G01 X101.4558 Y-8.6717
G01 X101.4579 Y-8.6580
G01 X101.4580 Y-1.3234
G01 X101.4572 Y-1.3132
G01 X101.4550 Y-1.3031
G01 X101.4513 Y-1.2935
G01 X101.4462 Y-1.2845
G01 X101.4398 Y-1.2764
G01 X101.4324 Y-1.2693
G01 X101.4210 Y-1.2617
G01 X101.4116 Y-1.2575
G01 X101.3982 Y-1.2542
G01 X101.3880 Y-1.2534
G01 X92.9163 Y-1.2534
G01 X92.9028 Y-1.2492
G01 X92.8891 Y-1.2479
G01 X79.4544 Y-1.2483
G01 X79.4345 Y-1.2492
G01 X79.4204 Y-1.2510
G01 X79.3993 Y-1.2554
G01 X79.3819 Y-1.2606
G01 X79.3686 Y-1.2658
G01 X79.3522 Y-1.2735
G01 X79.3398 Y-1.2805
G01 X79.3247 Y-1.2906
G01 X79.3135 Y-1.2994
G01 X79.2988 Y-1.3128
G01 X78.3452 Y-2.2665
G01 X78.3263 Y-2.2884
G01 X78.3124 Y-2.3092
G01 X78.3038 Y-2.3253
G01 X78.2980 Y-2.3383
G01 X78.2890 Y-2.3658
G01 X78.2841 Y-2.3903
G01 X78.2823 Y-2.4084
G01 X78.2819 Y-2.4209
G01 X78.2819 Y-8.0844
G01 X77.3448 Y-9.0216
G01 X77.2960 Y-9.0156
G01 X77.2431 Y-9.0118
G01 X77.1940 Y-9.0106
G01 X77.1415 Y-9.0118
G01 X77.0857 Y-9.0159
G01 X77.0336 Y-9.0225
G01 X76.9819 Y-9.0315
G01 X76.9306 Y-9.0431
G01 X76.8801 Y-9.0572
G01 X76.8335 Y-9.0726
G01 X76.7844 Y-9.0914
G01 X76.7333 Y-9.1141
G01 X76.6864 Y-9.1378
G01 X76.6407 Y-9.1637
G01 X76.5967 Y-9.1917
G01 X76.5539 Y-9.2219
G01 X76.5148 Y-9.2524
G01 X76.4750 Y-9.2866
G01 X76.4369 Y-9.3228
G01 X76.4007 Y-9.3608
G01 X76.3641 Y-9.4031
G01 X76.3319 Y-9.4446
G01 X76.3017 Y-9.4876
G01 X76.2737 Y-9.5320
G01 X76.2495 Y-9.5747
G01 X76.2258 Y-9.6216
G01 X76.2044 Y-9.6695
G01 X76.1854 Y-9.7185
G01 X76.1715 Y-9.7605
G01 X75.6664 Y-9.7610
G01 X75.6382 Y-9.7638
G01 X75.6225 Y-9.7665
G01 X75.5883 Y-9.7752
G01 X75.5617 Y-9.7848
G01 X75.5471 Y-9.7913
G01 X75.5161 Y-9.8081
G01 X75.4927 Y-9.8240
G01 X75.4801 Y-9.8339
G01 X75.4554 Y-9.8566
G01 X74.5500 Y-10.7809
G01 X74.5204 Y-10.7661
G01 X74.4755 Y-10.7461
G01 X74.4232 Y-10.7260
G01 X74.3766 Y-10.7106
G01 X74.3261 Y-10.6965
G01 X74.2748 Y-10.6849
G01 X74.2197 Y-10.6753
G01 X74.1676 Y-10.6690
G01 X74.1152 Y-10.6652
G01 X74.0661 Y-10.6640
G01 X74.0136 Y-10.6652
G01 X73.9578 Y-10.6693
G01 X73.9057 Y-10.6759
G01 X73.8540 Y-10.6849
G01 X73.8061 Y-10.6957
G01 X73.7522 Y-10.7106
G01 X73.7023 Y-10.7271
G01 X73.6533 Y-10.7461
G01 X73.6085 Y-10.7660
G01 X73.5615 Y-10.7896
G01 X73.5128 Y-10.8171
G01 X73.4714 Y-10.8434
G01 X73.4284 Y-10.8736
G01 X73.3869 Y-10.9058
G01 X73.3471 Y-10.9400
G01 X73.3066 Y-10.9786
G01 X73.2706 Y-11.0165
G01 X73.2384 Y-11.0539
G01 X73.2040 Y-11.0980
G01 X73.1757 Y-11.1381
G01 X73.1475 Y-11.1824
G01 X73.1200 Y-11.2311
G01 X73.0965 Y-11.2780
G01 X73.0765 Y-11.3229
G01 X73.0564 Y-11.3752
G01 X73.0410 Y-11.4218
G01 X73.0269 Y-11.4723
G01 X73.0146 Y-11.5269
G01 X73.0057 Y-11.5787
G01 X72.9994 Y-11.6303
G01 X72.9956 Y-11.6832
G01 X72.9944 Y-11.7323
G01 X72.9956 Y-11.7848
G01 X72.9997 Y-11.8406
G01 X73.0063 Y-11.8927
G01 X73.0147 Y-11.9413
G01 X71.9131 Y-12.5414
G01 X68.2566 Y-14.6421
G01 X61.9183 Y-14.6420
G01 X61.9182 Y-14.1587
G01 X61.9170 Y-14.1484
G01 X61.9130 Y-14.1353
G01 X61.9065 Y-14.1232
G01 X61.9002 Y-14.1151
G01 X61.8900 Y-14.1059
G01 X61.8782 Y-14.0988
G01 X61.8653 Y-14.0942
G01 X61.8517 Y-14.0922
G01 X61.4197 Y-14.0921
G01 X61.3039 Y-13.0937
G01 X61.5308 Y-13.0937
G01 X61.5445 Y-13.0924
G01 X61.5544 Y-13.0896
G01 X61.5638 Y-13.0854
G01 X61.5725 Y-13.0799
G01 X61.5803 Y-13.0732
G01 X61.5870 Y-13.0654
G01 X61.5925 Y-13.0567
G01 X61.5967 Y-13.0473
G01 X61.5995 Y-13.0374
G01 X61.6008 Y-13.0237
G01 X61.6008 Y-11.4237
G01 X61.5995 Y-11.4100
G01 X61.5967 Y-11.4001
G01 X61.5925 Y-11.3907
G01 X61.5849 Y-11.3793
G01 X61.5752 Y-11.3696
G01 X61.5668 Y-11.3637
G01 X61.5544 Y-11.3578
G01 X61.5445 Y-11.3550
G01 X61.5308 Y-11.3537
G01 X61.2009 Y-11.3537
G01 X61.2008 Y-8.3369
G01 X61.5338 Y-8.3370
G01 X61.5338 Y-8.3669
G01 X61.5346 Y-8.3772
G01 X61.5379 Y-8.3905
G01 X61.5421 Y-8.3999
G01 X61.5456 Y-8.4058
G01 X61.5519 Y-8.4139
G01 X61.5568 Y-8.4188
G01 X61.5678 Y-8.4269
G01 X61.5770 Y-8.4316
G01 X61.5835 Y-8.4339
G01 X61.5901 Y-8.4356
G01 X61.6004 Y-8.4368
G01 X63.8038 Y-8.4369
G01 X63.8107 Y-8.4366
G01 X63.8208 Y-8.4348
G01 X63.8337 Y-8.4302
G01 X63.8427 Y-8.4251
G01 X63.8508 Y-8.4188
G01 X63.8579 Y-8.4113
G01 X63.8655 Y-8.3999
G01 X63.8697 Y-8.3905
G01 X63.8725 Y-8.3806
G01 X63.8737 Y-8.3703
G01 X63.8738 Y-7.6669
G01 X63.8735 Y-7.6600
G01 X63.8717 Y-7.6499
G01 X63.8671 Y-7.6370
G01 X63.8620 Y-7.6280
G01 X63.8557 Y-7.6199
G01 X63.8482 Y-7.6128
G01 X63.8368 Y-7.6052
G01 X63.8274 Y-7.6010
G01 X63.8175 Y-7.5982
G01 X63.8038 Y-7.5969
G01 X61.6004 Y-7.5970
G01 X61.5868 Y-7.5990
G01 X61.5770 Y-7.6022
G01 X61.5708 Y-7.6052
G01 X61.5621 Y-7.6107
G01 X61.5568 Y-7.6150
G01 X61.5519 Y-7.6199
G01 X61.5456 Y-7.6280
G01 X61.5421 Y-7.6339
G01 X61.5379 Y-7.6433
G01 X61.5346 Y-7.6566
G01 X61.5338 Y-7.6669
G01 X61.5338 Y-7.6967
G01 X60.8807 Y-7.6967
G01 X60.8476 Y-7.6984
G01 X60.8166 Y-7.7032
G01 X60.7861 Y-7.7110
G01 X60.7566 Y-7.7217
G01 X60.7313 Y-7.7337
G01 X60.7147 Y-7.7431
G01 X60.6886 Y-7.7607
G01 X60.6645 Y-7.7808
G01 X60.6424 Y-7.8031
G01 X60.6246 Y-7.8247
G01 X60.6070 Y-7.8508
G01 X60.5921 Y-7.8784
G01 X60.5843 Y-7.8959
G01 X60.5749 Y-7.9222
G01 X60.5671 Y-7.9527
G01 X60.5623 Y-7.9837
G01 X60.5606 Y-8.0151
G01 X60.5607 Y-11.3537
G01 X60.4635 Y-11.3537
G01 X58.5417 Y-9.4320
G01 X58.5414 Y-1.5735
G01 X58.5400 Y-1.5544
G01 X58.5352 Y-1.5234
G01 X58.5284 Y-1.4962
G01 X58.5224 Y-1.4780
G01 X58.5117 Y-1.4522
G01 X58.5031 Y-1.4351
G01 X58.4887 Y-1.4111
G01 X58.4777 Y-1.3954
G01 X58.4599 Y-1.3738
G01 X58.4467 Y-1.3599
G01 X58.4233 Y-1.3390
G01 X58.4009 Y-1.3223
G01 X58.3847 Y-1.3121
G01 X58.3600 Y-1.2989
G01 X58.3425 Y-1.2911
G01 X58.3162 Y-1.2817
G01 X58.2977 Y-1.2766
G01 X58.2673 Y-1.2707
G01 X58.2390 Y-1.2679
G01 X58.2216 Y-1.2674
G01 X32.6852 Y-1.2679
G01 X32.6539 Y-1.2711
G01 X32.6265 Y-1.2766
G01 X32.5964 Y-1.2855
G01 X32.5785 Y-1.2924
G01 X32.5502 Y-1.3060
G01 X32.5236 Y-1.3221
G01 X32.5009 Y-1.3390
G01 X32.4775 Y-1.3599
G01 X29.9348 Y-3.9024
G01 X29.9057 Y-3.8945
G01 X29.8626 Y-3.8848
G01 X29.8157 Y-3.8766
G01 X29.7656 Y-3.8704
G01 X29.7210 Y-3.8671
G01 X29.6734 Y-3.8658
G01 X29.6258 Y-3.8669
G01 X29.5783 Y-3.8703
G01 X29.5311 Y-3.8761
G01 X29.4842 Y-3.8841
G01 X29.4343 Y-3.8953
G01 X29.3885 Y-3.9081
G01 X29.3433 Y-3.9231
G01 X29.2990 Y-3.9403
G01 X29.2554 Y-3.9597
G01 X29.2129 Y-3.9812
G01 X29.1745 Y-4.0029
G01 X29.1595 Y-4.0124
G01 X28.3945 Y-3.2476
G01 X28.3837 Y-3.2383
G01 X28.3691 Y-3.2275
G01 X28.3476 Y-3.2146
G01 X28.3212 Y-3.2029
G01 X28.3076 Y-3.1984
G01 X28.2900 Y-3.1940
G01 X28.2687 Y-3.1907
G01 X28.2454 Y-3.1894
G01 X26.5940 Y-3.1894
G01 X26.5885 Y-3.1698
G01 X26.5769 Y-3.1349
G01 X26.5612 Y-3.0941
G01 X26.5463 Y-3.0605
G01 X26.5283 Y-3.0245
G01 X26.5067 Y-2.9865
G01 X26.4853 Y-2.9528
G01 X26.4639 Y-2.9224
G01 X26.4371 Y-2.8880
G01 X26.4107 Y-2.8576
G01 X26.3853 Y-2.8309
G01 X26.3537 Y-2.8008
G01 X26.3258 Y-2.7767
G01 X26.2941 Y-2.7519
G01 X26.2584 Y-2.7268
G01 X26.2244 Y-2.7053
G01 X26.1924 Y-2.6872
G01 X26.1534 Y-2.6676
G01 X26.1197 Y-2.6526
G01 X26.0822 Y-2.6380
G01 X26.0407 Y-2.6243
G01 X26.0052 Y-2.6145
G01 X25.9660 Y-2.6056
G01 X25.9229 Y-2.5981
G01 X25.8830 Y-2.5933
G01 X25.8428 Y-2.5904
G01 X25.8026 Y-2.5895
G01 X25.7623 Y-2.5906
G01 X25.7222 Y-2.5936
G01 X25.6823 Y-2.5986
G01 X25.6426 Y-2.6056
G01 X25.6034 Y-2.6145
G01 X25.5646 Y-2.6253
G01 X25.5264 Y-2.6380
G01 X25.4889 Y-2.6526
G01 X25.4522 Y-2.6690
G01 X25.4162 Y-2.6872
G01 X25.3813 Y-2.7071
G01 X25.3476 Y-2.7285
G01 X25.3148 Y-2.7516
G01 X25.2828 Y-2.7767
G01 X25.2524 Y-2.8031
G01 X25.2233 Y-2.8309
G01 X25.1956 Y-2.8601
G01 X25.1694 Y-2.8906
G01 X25.1447 Y-2.9224
G01 X25.1216 Y-2.9554
G01 X25.1001 Y-2.9894
G01 X25.0803 Y-3.0245
G01 X25.0624 Y-3.0604
G01 X25.0461 Y-3.0973
G01 X25.0317 Y-3.1349
G01 X25.0191 Y-3.1731
G01 X25.0085 Y-3.2119
G01 X24.9997 Y-3.2512
G01 X24.9930 Y-3.2909
G00 Z3.0000
G00 X24.9930 Y-5.8309
G01 F80.00
G01 Z-0.0746
G01 F50.00
G01 X24.9881 Y-5.8708
G01 X24.9852 Y-5.9110
G01 X24.9843 Y-5.9512
G01 X24.9854 Y-5.9915
G01 X24.9884 Y-6.0316
G01 X24.9934 Y-6.0715
G01 X25.0004 Y-6.1112
G01 X25.0093 Y-6.1504
G01 X25.0201 Y-6.1892
G01 X25.0328 Y-6.2274
G01 X25.0474 Y-6.2649
G01 X25.0638 Y-6.3016
G01 X25.0820 Y-6.3376
G01 X25.1019 Y-6.3725
G01 X25.1233 Y-6.4062
G01 X25.1467 Y-6.4393
G01 X25.1715 Y-6.4710
G01 X25.1956 Y-6.4989
G01 X25.2233 Y-6.5281
G01 X25.2524 Y-6.5559
G01 X25.2828 Y-6.5823
G01 X25.3145 Y-6.6071
G01 X25.3473 Y-6.6303
G01 X25.3813 Y-6.6519
G01 X25.4162 Y-6.6718
G01 X25.4522 Y-6.6900
G01 X25.4889 Y-6.7064
G01 X25.5264 Y-6.7210
G01 X25.5646 Y-6.7337
G01 X25.6034 Y-6.7445
G01 X25.6426 Y-6.7534
G01 X25.6853 Y-6.7608
G01 X25.7222 Y-6.7654
G01 X25.7623 Y-6.7684
G01 X25.8026 Y-6.7695
G01 X25.8463 Y-6.7684
G01 X25.8864 Y-6.7654
G01 X25.9229 Y-6.7609
G01 X25.9626 Y-6.7541
G01 X26.0019 Y-6.7453
G01 X26.0407 Y-6.7347
G01 X26.0789 Y-6.7221
G01 X26.1197 Y-6.7064
G01 X26.1564 Y-6.6900
G01 X26.1924 Y-6.6718
G01 X26.2273 Y-6.6519
G01 X26.2610 Y-6.6305
G01 X26.2938 Y-6.6074
G01 X26.3232 Y-6.5844
G01 X26.3537 Y-6.5582
G01 X26.3829 Y-6.5305
G01 X26.4107 Y-6.5014
G01 X26.4371 Y-6.4710
G01 X26.4639 Y-6.4366
G01 X26.4851 Y-6.4065
G01 X26.5067 Y-6.3725
G01 X26.5266 Y-6.3376
G01 X26.5448 Y-6.3016
G01 X26.5612 Y-6.2649
G01 X26.5758 Y-6.2274
G01 X26.5885 Y-6.1892
G01 X26.5940 Y-6.1696
G01 X28.1542 Y-6.1696
G01 X28.7017 Y-6.7170
G01 X28.7017 Y-8.2758
G01 X28.7030 Y-8.2895
G01 X28.7070 Y-8.3026
G01 X28.7100 Y-8.3088
G01 X28.7155 Y-8.3175
G01 X28.7247 Y-8.3277
G01 X28.7357 Y-8.3358
G01 X28.7481 Y-8.3417
G01 X28.7614 Y-8.3450
G01 X28.7717 Y-8.3458
G01 X30.5751 Y-8.3457
G01 X30.5887 Y-8.3437
G01 X30.6016 Y-8.3391
G01 X30.6106 Y-8.3340
G01 X30.6212 Y-8.3253
G01 X30.6299 Y-8.3147
G01 X30.6364 Y-8.3026
G01 X30.6404 Y-8.2895
G01 X30.6416 Y-8.2792
G01 X30.6417 Y-6.7170
G01 X31.0269 Y-6.3319
G01 X32.8216 Y-6.3319
G01 X32.8341 Y-6.3315
G01 X32.8522 Y-6.3297
G01 X32.8662 Y-6.3273
G01 X32.8838 Y-6.3229
G01 X32.9074 Y-6.3144
G01 X32.9332 Y-6.3014
G01 X32.9537 Y-6.2878
G01 X32.9760 Y-6.2686
G01 X33.6519 Y-5.5928
G01 X33.6653 Y-5.5781
G01 X33.6783 Y-5.5609
G01 X33.6859 Y-5.5489
G01 X33.6945 Y-5.5328
G01 X33.7003 Y-5.5198
G01 X33.7064 Y-5.5027
G01 X33.7102 Y-5.4890
G01 X33.7137 Y-5.4712
G01 X33.7154 Y-5.4576
G01 X33.7164 Y-5.4389
G01 X33.7164 Y-3.5043
G01 X34.0638 Y-3.1569
G01 X44.3986 Y-3.1569
G01 X45.0989 Y-3.8572
G01 X45.0900 Y-4.2702
G01 X44.9381 Y-4.4227
G01 X44.9308 Y-4.4333
G01 X44.9264 Y-4.4427
G01 X44.9227 Y-4.4566
G01 X44.9219 Y-4.4674
G01 X44.9223 Y-5.5746
G01 X44.9242 Y-5.5852
G01 X44.9278 Y-5.5954
G01 X44.9324 Y-5.6043
G01 X44.9381 Y-5.6121
G01 X45.0424 Y-5.7169
G01 X45.0523 Y-5.7251
G01 X45.0606 Y-5.7300
G01 X45.0741 Y-5.7351
G01 X45.0847 Y-5.7370
G01 X45.4919 Y-5.7373
G01 X45.4991 Y-5.7369
G01 X45.5097 Y-5.7350
G01 X45.5166 Y-5.7328
G01 X45.5260 Y-5.7284
G01 X45.5341 Y-5.7232
G01 X45.5413 Y-5.7168
G01 X45.6436 Y-5.6146
G01 X45.6514 Y-5.6043
G01 X45.6560 Y-5.5955
G01 X45.6604 Y-5.5817
G01 X45.6619 Y-5.5674
G01 X45.6618 Y-4.4638
G01 X45.6604 Y-4.4531
G01 X45.6574 Y-4.4427
G01 X45.6530 Y-4.4333
G01 X45.6457 Y-4.4227
G01 X45.5295 Y-4.3060
G01 X45.5408 Y-3.7599
G01 X45.5377 Y-3.7303
G01 X45.5347 Y-3.7160
G01 X45.5295 Y-3.6980
G01 X45.5200 Y-3.6742
G01 X45.5055 Y-3.6482
G01 X45.4925 Y-3.6302
G01 X45.4765 Y-3.6124
G01 X44.6389 Y-2.7749
G01 X44.6281 Y-2.7656
G01 X44.6135 Y-2.7548
G01 X44.6015 Y-2.7472
G01 X44.5854 Y-2.7386
G01 X44.5724 Y-2.7328
G01 X44.5553 Y-2.7267
G01 X44.5416 Y-2.7229
G01 X44.5208 Y-2.7189
G01 X44.5023 Y-2.7171
G01 X44.4898 Y-2.7167
G01 X33.9601 Y-2.7171
G01 X33.9386 Y-2.7194
G01 X33.9208 Y-2.7229
G01 X33.9001 Y-2.7290
G01 X33.8868 Y-2.7342
G01 X33.8674 Y-2.7435
G01 X33.8518 Y-2.7529
G01 X33.8343 Y-2.7656
G01 X33.8235 Y-2.7749
G01 X33.3395 Y-3.2587
G01 X33.3251 Y-3.2748
G01 X33.3124 Y-3.2923
G01 X33.3014 Y-3.3109
G01 X33.2923 Y-3.3305
G01 X33.2852 Y-3.3508
G01 X33.2802 Y-3.3715
G01 X33.2771 Y-3.3932
G01 X33.2762 Y-3.4131
G01 X33.2762 Y-5.3460
G01 X32.7305 Y-5.8917
G01 X30.9357 Y-5.8917
G01 X30.9232 Y-5.8921
G01 X30.9051 Y-5.8939
G01 X30.8911 Y-5.8963
G01 X30.8735 Y-5.9007
G01 X30.8599 Y-5.9052
G01 X30.8432 Y-5.9121
G01 X30.8305 Y-5.9185
G01 X30.8149 Y-5.9279
G01 X30.8036 Y-5.9358
G01 X30.7892 Y-5.9476
G01 X30.3305 Y-6.4058
G01 X29.0129 Y-6.4058
G01 X28.3998 Y-5.7927
G01 X28.3837 Y-5.7783
G01 X28.3662 Y-5.7656
G01 X28.3476 Y-5.7546
G01 X28.3280 Y-5.7455
G01 X28.3076 Y-5.7384
G01 X28.2870 Y-5.7334
G01 X28.2653 Y-5.7303
G01 X28.2454 Y-5.7294
G01 X26.5940 Y-5.7294
G01 X26.5885 Y-5.7098
G01 X26.5758 Y-5.6716
G01 X26.5612 Y-5.6341
G01 X26.5463 Y-5.6005
G01 X26.5266 Y-5.5614
G01 X26.5067 Y-5.5265
G01 X26.4853 Y-5.4928
G01 X26.4622 Y-5.4600
G01 X26.4392 Y-5.4306
G01 X26.4107 Y-5.3976
G01 X26.3853 Y-5.3709
G01 X26.3562 Y-5.3431
G01 X26.3258 Y-5.3167
G01 X26.2941 Y-5.2919
G01 X26.2584 Y-5.2668
G01 X26.2244 Y-5.2453
G01 X26.1924 Y-5.2272
G01 X26.1564 Y-5.2090
G01 X26.1197 Y-5.1926
G01 X26.0789 Y-5.1769
G01 X26.0407 Y-5.1643
G01 X26.0019 Y-5.1537
G01 X25.9660 Y-5.1456
G01 X25.9263 Y-5.1386
G01 X25.8830 Y-5.1333
G01 X25.8428 Y-5.1304
G01 X25.8060 Y-5.1295
G01 X25.7658 Y-5.1304
G01 X25.7256 Y-5.1333
G01 X25.6857 Y-5.1381
G01 X25.6460 Y-5.1449
G01 X25.6034 Y-5.1545
G01 X25.5646 Y-5.1653
G01 X25.5264 Y-5.1780
G01 X25.4889 Y-5.1926
G01 X25.4522 Y-5.2090
G01 X25.4162 Y-5.2272
G01 X25.3813 Y-5.2471
G01 X25.3476 Y-5.2685
G01 X25.3148 Y-5.2916
G01 X25.2854 Y-5.3146
G01 X25.2549 Y-5.3408
G01 X25.2257 Y-5.3685
G01 X25.1979 Y-5.3976
G01 X25.1715 Y-5.4280
G01 X25.1467 Y-5.4597
G01 X25.1216 Y-5.4954
G01 X25.1001 Y-5.5294
G01 X25.0803 Y-5.5645
G01 X25.0624 Y-5.6004
G01 X25.0461 Y-5.6373
G01 X25.0317 Y-5.6749
G01 X25.0201 Y-5.7098
G01 X25.0093 Y-5.7486
G01 X25.0004 Y-5.7878
G01 X24.9930 Y-5.8309
G00 Z3.0000
G00 X25.4843 Y-7.6095
G01 F80.00
G01 Z-0.0746
G01 F50.00
G01 X24.9243 Y-7.6095
G01 X24.9243 Y-8.1695
G01 X24.9843 Y-8.1695
G01 X24.9844 Y-7.7361
G01 X24.9856 Y-7.7258
G01 X24.9896 Y-7.7127
G01 X24.9961 Y-7.7006
G01 X25.0048 Y-7.6900
G01 X25.0154 Y-7.6813
G01 X25.0244 Y-7.6762
G01 X25.0373 Y-7.6716
G01 X25.0509 Y-7.6696
G01 X25.4843 Y-7.6695
G01 X25.4843 Y-7.6095
G00 Z3.0000
G00 X26.6843 Y-8.1695
G01 F80.00
G01 Z-0.0746
G01 F50.00
G01 X26.6843 Y-7.6095
G01 X26.1243 Y-7.6095
G01 X26.1243 Y-7.6695
G01 X26.5577 Y-7.6696
G01 X26.5713 Y-7.6716
G01 X26.5842 Y-7.6762
G01 X26.5932 Y-7.6813
G01 X26.6038 Y-7.6900
G01 X26.6125 Y-7.7006
G01 X26.6190 Y-7.7127
G01 X26.6230 Y-7.7258
G01 X26.6242 Y-7.7361
G01 X26.6243 Y-8.1695
G01 X26.6843 Y-8.1695
G00 Z3.0000
G00 X26.1243 Y-9.3695
G01 F80.00
G01 Z-0.0746
G01 F50.00
G01 X26.6843 Y-9.3695
G01 X26.6843 Y-8.8095
G01 X26.6243 Y-8.8095
G01 X26.6242 Y-9.2429
G01 X26.6230 Y-9.2532
G01 X26.6190 Y-9.2663
G01 X26.6125 Y-9.2784
G01 X26.6038 Y-9.2890
G01 X26.5932 Y-9.2977
G01 X26.5842 Y-9.3028
G01 X26.5713 Y-9.3074
G01 X26.5577 Y-9.3094
G01 X26.1243 Y-9.3095
G01 X26.1243 Y-9.3695
G00 Z3.0000
G00 X24.9243 Y-9.3695
G01 F80.00
G01 Z-0.0746
G01 F50.00
G01 X25.4843 Y-9.3695
G01 X25.4843 Y-9.3095
G01 X25.0509 Y-9.3094
G01 X25.0373 Y-9.3074
G01 X25.0275 Y-9.3042
G01 X25.0183 Y-9.2995
G01 X25.0073 Y-9.2914
G01 X24.9981 Y-9.2812
G01 X24.9910 Y-9.2694
G01 X24.9864 Y-9.2565
G01 X24.9844 Y-9.2429
G01 X24.9843 Y-8.8095
G01 X24.9243 Y-8.8095
G01 X24.9243 Y-9.3695
G00 Z3.0000
G00 X26.4118 Y-12.8746
G01 F80.00
G01 Z-0.0746
G01 F50.00
G01 X27.7118 Y-12.8746
G01 X27.7187 Y-12.8743
G01 X27.7288 Y-12.8725
G01 X27.7386 Y-12.8693
G01 X27.7478 Y-12.8646
G01 X27.7562 Y-12.8587
G01 X27.7637 Y-12.8516
G01 X27.7700 Y-12.8435
G01 X27.7751 Y-12.8345
G01 X27.7788 Y-12.8249
G01 X27.7810 Y-12.8149
G01 X27.7818 Y-12.8046
G01 X27.7818 Y-12.5212
G01 X29.2156 Y-12.8977
G01 X31.2782 Y-14.9602
G01 X31.2917 Y-14.9724
G01 X31.3028 Y-14.9811
G01 X31.3180 Y-14.9913
G01 X31.3304 Y-14.9983
G01 X31.3468 Y-15.0060
G01 X31.3671 Y-15.0135
G01 X31.3808 Y-15.0173
G01 X31.3986 Y-15.0208
G01 X31.4127 Y-15.0226
G01 X31.4326 Y-15.0235
G01 X39.0254 Y-15.0231
G01 X39.0469 Y-15.0208
G01 X39.0647 Y-15.0173
G01 X39.0854 Y-15.0112
G01 X39.0987 Y-15.0060
G01 X39.1151 Y-14.9983
G01 X39.1337 Y-14.9873
G01 X39.1512 Y-14.9746
G01 X39.1620 Y-14.9653
G01 X39.9772 Y-14.1504
G01 X42.0688 Y-14.1504
G01 X42.0813 Y-14.1500
G01 X42.0994 Y-14.1482
G01 X42.1239 Y-14.1433
G01 X42.1514 Y-14.1343
G01 X42.1740 Y-14.1236
G01 X42.1896 Y-14.1142
G01 X42.2013 Y-14.1060
G01 X42.2153 Y-14.0945
G01 X42.2244 Y-14.0859
G01 X43.7730 Y-12.5373
G01 X44.2956 Y-12.5372
G01 X44.3063 Y-12.5358
G01 X44.3201 Y-12.5314
G01 X44.3289 Y-12.5268
G01 X44.3392 Y-12.5190
G01 X44.4436 Y-12.4144
G01 X44.4496 Y-12.4069
G01 X44.4545 Y-12.3986
G01 X44.4586 Y-12.3886
G01 X44.4604 Y-12.3816
G01 X44.4619 Y-12.3673
G01 X44.4618 Y-11.9637
G01 X44.4604 Y-11.9530
G01 X44.4560 Y-11.9392
G01 X44.4496 Y-11.9277
G01 X44.4414 Y-11.9178
G01 X44.3366 Y-11.8135
G01 X44.3288 Y-11.8079
G01 X44.3199 Y-11.8033
G01 X44.3097 Y-11.7997
G01 X44.2991 Y-11.7978
G01 X43.1919 Y-11.7973
G01 X43.1847 Y-11.7977
G01 X43.1741 Y-11.7996
G01 X43.1606 Y-11.8047
G01 X43.1523 Y-11.8096
G01 X43.1424 Y-11.8178
G01 X42.9403 Y-12.0203
G01 X42.9325 Y-12.0305
G01 X42.9265 Y-12.0427
G01 X42.9228 Y-12.0566
G01 X42.9220 Y-12.0674
G01 X42.9221 Y-12.2709
G01 X42.9243 Y-12.2851
G01 X42.9294 Y-12.2986
G01 X42.9362 Y-12.3095
G01 X42.9425 Y-12.3168
G01 X43.1424 Y-12.5169
G01 X43.1497 Y-12.5232
G01 X43.1588 Y-12.5291
G01 X41.9776 Y-13.7102
G01 X39.8860 Y-13.7102
G01 X39.8735 Y-13.7106
G01 X39.8554 Y-13.7124
G01 X39.8414 Y-13.7148
G01 X39.8238 Y-13.7192
G01 X39.8002 Y-13.7277
G01 X39.7743 Y-13.7407
G01 X39.7539 Y-13.7543
G01 X39.7316 Y-13.7735
G01 X38.9217 Y-14.5833
G01 X31.5238 Y-14.5833
G01 X29.4847 Y-12.5444
G01 X29.4678 Y-12.5291
G01 X29.4507 Y-12.5166
G01 X29.4326 Y-12.5058
G01 X29.4165 Y-12.4981
G01 X29.4036 Y-12.4929
G01 X29.3850 Y-12.4871
G01 X27.7818 Y-12.0661
G01 X27.7815 Y-11.3977
G01 X27.7797 Y-11.3876
G01 X27.7765 Y-11.3778
G01 X27.7718 Y-11.3686
G01 X27.7637 Y-11.3576
G01 X27.7562 Y-11.3505
G01 X27.7448 Y-11.3429
G01 X27.7321 Y-11.3376
G01 X27.7221 Y-11.3354
G01 X27.7118 Y-11.3346
G01 X26.4118 Y-11.3346
G01 X26.4049 Y-11.3349
G01 X26.3948 Y-11.3367
G01 X26.3819 Y-11.3413
G01 X26.3729 Y-11.3464
G01 X26.3674 Y-11.3505
G01 X26.3577 Y-11.3602
G01 X26.3501 Y-11.3716
G01 X26.3459 Y-11.3810
G01 X26.3426 Y-11.3943
G01 X26.3418 Y-11.4046
G01 X26.3419 Y-12.8080
G01 X26.3439 Y-12.8216
G01 X26.3485 Y-12.8345
G01 X26.3556 Y-12.8463
G01 X26.3648 Y-12.8565
G01 X26.3758 Y-12.8646
G01 X26.3882 Y-12.8705
G01 X26.4015 Y-12.8738
G01 X26.4118 Y-12.8746
G00 Z3.0000
G00 X26.2604 Y-14.3259
G01 F80.00
G01 Z-0.0746
G01 F50.00
G01 X26.2612 Y-14.3157
G01 X26.2635 Y-14.3056
G01 X26.2687 Y-14.2929
G01 X26.2742 Y-14.2842
G01 X26.2834 Y-14.2741
G01 X26.2916 Y-14.2677
G01 X26.3005 Y-14.2627
G01 X26.3101 Y-14.2590
G01 X26.3202 Y-14.2567
G01 X26.3304 Y-14.2559
G01 X26.5379 Y-14.2558
G01 X26.5452 Y-14.2534
G01 X26.5508 Y-14.2481
G01 X26.5535 Y-14.2410
G01 X26.5530 Y-14.2333
G01 X26.5508 Y-14.2287
G01 X26.5466 Y-14.2243
G01 X26.5413 Y-14.2216
G01 X26.5353 Y-14.2209
G01 X25.9505 Y-14.2209
G01 X25.9445 Y-14.2216
G01 X25.9392 Y-14.2243
G01 X25.9355 Y-14.2280
G01 X25.9328 Y-14.2333
G01 X25.9323 Y-14.2410
G01 X25.9350 Y-14.2481
G01 X25.9406 Y-14.2534
G01 X25.9479 Y-14.2558
G01 X26.1554 Y-14.2559
G01 X26.1622 Y-14.2563
G01 X26.1724 Y-14.2580
G01 X26.1789 Y-14.2600
G01 X26.1884 Y-14.2642
G01 X26.1942 Y-14.2677
G01 X26.2024 Y-14.2741
G01 X26.2095 Y-14.2815
G01 X26.2154 Y-14.2900
G01 X26.2200 Y-14.2992
G01 X26.2223 Y-14.3056
G01 X26.2246 Y-14.3157
G01 X26.2254 Y-14.3259
G01 X26.2254 Y-15.2153
G01 X26.2267 Y-15.2229
G01 X26.2305 Y-15.2286
G01 X26.2362 Y-15.2324
G01 X26.2429 Y-15.2337
G01 X26.2496 Y-15.2324
G01 X26.2553 Y-15.2286
G01 X26.2591 Y-15.2229
G01 X26.2604 Y-15.2153
G01 X26.2604 Y-14.3259
G00 Z3.0000
G00 X25.3315 Y-15.0320
G01 F80.00
G01 Z-0.0746
G01 F50.00
G01 X25.3319 Y-14.8691
G01 X25.3346 Y-14.8556
G01 X25.3398 Y-14.8429
G01 X25.3474 Y-14.8315
G01 X25.3571 Y-14.8218
G01 X25.3656 Y-14.8159
G01 X25.3780 Y-14.8100
G01 X25.3879 Y-14.8073
G01 X25.3981 Y-14.8060
G01 X25.6099 Y-14.8057
G01 X25.6163 Y-14.8034
G01 X25.6208 Y-14.7995
G01 X25.6241 Y-14.7935
G01 X25.6248 Y-14.7875
G01 X25.6231 Y-14.7809
G01 X25.6197 Y-14.7760
G01 X25.6148 Y-14.7726
G01 X25.6090 Y-14.7710
G01 X25.3981 Y-14.7708
G01 X25.3879 Y-14.7695
G01 X25.3780 Y-14.7668
G01 X25.3656 Y-14.7609
G01 X25.3571 Y-14.7550
G01 X25.3497 Y-14.7479
G01 X25.3415 Y-14.7368
G01 X25.3369 Y-14.7276
G01 X25.3329 Y-14.7145
G01 X25.3315 Y-14.7009
G01 X25.3314 Y-14.5423
G01 X25.3298 Y-14.5365
G01 X25.3258 Y-14.5310
G01 X25.3199 Y-14.5275
G01 X25.3131 Y-14.5265
G01 X25.3073 Y-14.5278
G01 X25.3022 Y-14.5310
G01 X25.2982 Y-14.5365
G01 X25.2966 Y-14.5423
G01 X25.2965 Y-14.7009
G01 X25.2951 Y-14.7145
G01 X25.2911 Y-14.7276
G01 X25.2865 Y-14.7368
G01 X25.2783 Y-14.7479
G01 X25.2709 Y-14.7550
G01 X25.2624 Y-14.7609
G01 X25.2500 Y-14.7668
G01 X25.2401 Y-14.7695
G01 X25.2299 Y-14.7708
G01 X25.0181 Y-14.7711
G01 X25.0124 Y-14.7729
G01 X25.0072 Y-14.7773
G01 X25.0039 Y-14.7833
G01 X25.0032 Y-14.7893
G01 X25.0049 Y-14.7959
G01 X25.0083 Y-14.8008
G01 X25.0132 Y-14.8042
G01 X25.0190 Y-14.8058
G01 X25.2299 Y-14.8060
G01 X25.2401 Y-14.8073
G01 X25.2500 Y-14.8100
G01 X25.2595 Y-14.8142
G01 X25.2682 Y-14.8197
G01 X25.2783 Y-14.8289
G01 X25.2865 Y-14.8400
G01 X25.2924 Y-14.8524
G01 X25.2957 Y-14.8657
G01 X25.2965 Y-14.8759
G01 X25.2965 Y-15.0320
G01 X25.2972 Y-15.0380
G01 X25.3005 Y-15.0440
G01 X25.3050 Y-15.0479
G01 X25.3106 Y-15.0501
G01 X25.3166 Y-15.0502
G01 X25.3230 Y-15.0479
G01 X25.3275 Y-15.0440
G01 X25.3305 Y-15.0388
G01 X25.3315 Y-15.0320
G00 Z3.0000
G00 X27.5972 Y-14.2286
G01 F80.00
G01 Z-0.0746
G01 F50.00
G01 X27.2990 Y-14.6261
G01 X27.2866 Y-14.6378
G01 X27.2749 Y-14.6447
G01 X27.2587 Y-14.6501
G01 X27.2452 Y-14.6514
G01 X27.2316 Y-14.6501
G01 X27.2154 Y-14.6447
G01 X27.2037 Y-14.6378
G01 X27.1935 Y-14.6286
G01 X26.8920 Y-14.2272
G01 X26.8889 Y-14.2243
G01 X26.8851 Y-14.2222
G01 X26.8775 Y-14.2209
G01 X26.8702 Y-14.2230
G01 X26.8644 Y-14.2280
G01 X26.8620 Y-14.2326
G01 X26.8610 Y-14.2385
G01 X26.8620 Y-14.2444
G01 X26.8650 Y-14.2496
G01 X27.1937 Y-14.6881
G01 X27.1989 Y-14.6971
G01 X27.2027 Y-14.7068
G01 X27.2050 Y-14.7169
G01 X27.2057 Y-14.7273
G01 X27.2050 Y-14.7377
G01 X27.2016 Y-14.7511
G01 X27.1973 Y-14.7606
G01 X27.1917 Y-14.7693
G01 X26.8640 Y-15.2064
G01 X26.8613 Y-15.2127
G01 X26.8612 Y-15.2187
G01 X26.8634 Y-15.2251
G01 X26.8680 Y-15.2302
G01 X26.8742 Y-15.2332
G01 X26.8801 Y-15.2336
G01 X26.8867 Y-15.2317
G01 X26.8920 Y-15.2274
G01 X27.1935 Y-14.8260
G01 X27.2037 Y-14.8168
G01 X27.2154 Y-14.8099
G01 X27.2316 Y-14.8045
G01 X27.2452 Y-14.8032
G01 X27.2587 Y-14.8045
G01 X27.2749 Y-14.8099
G01 X27.2866 Y-14.8168
G01 X27.2968 Y-14.8260
G01 X27.5983 Y-15.2274
G01 X27.6014 Y-15.2303
G01 X27.6052 Y-15.2324
G01 X27.6128 Y-15.2337
G01 X27.6201 Y-15.2316
G01 X27.6259 Y-15.2266
G01 X27.6283 Y-15.2220
G01 X27.6293 Y-15.2170
G01 X27.6288 Y-15.2119
G01 X27.6263 Y-15.2064
G01 X27.2986 Y-14.7693
G01 X27.2930 Y-14.7606
G01 X27.2887 Y-14.7511
G01 X27.2859 Y-14.7411
G01 X27.2847 Y-14.7308
G01 X27.2849 Y-14.7204
G01 X27.2867 Y-14.7102
G01 X27.2900 Y-14.7003
G01 X27.2966 Y-14.6881
G01 X27.6268 Y-14.2475
G01 X27.6290 Y-14.2419
G01 X27.6290 Y-14.2351
G01 X27.6264 Y-14.2287
G01 X27.6216 Y-14.2239
G01 X27.6153 Y-14.2212
G01 X27.6085 Y-14.2212
G01 X27.6021 Y-14.2238
G01 X27.5972 Y-14.2286
G00 Z3.0000
G00 X28.0724 Y-15.3028
G01 F80.00
G01 Z-0.0746
G01 F50.00
G01 X28.0686 Y-15.3552
G01 X28.0674 Y-15.4077
G01 X28.0688 Y-15.4602
G01 X28.0727 Y-15.5126
G01 X28.0792 Y-15.5647
G01 X28.0883 Y-15.6165
G01 X28.0999 Y-15.6678
G01 X28.1140 Y-15.7184
G01 X28.1306 Y-15.7683
G01 X28.1496 Y-15.8172
G01 X28.1709 Y-15.8652
G01 X28.1945 Y-15.9119
G01 X28.2206 Y-15.9578
G01 X28.2488 Y-16.0022
G01 X28.2791 Y-16.0451
G01 X28.3115 Y-16.0864
G01 X28.3459 Y-16.1262
G01 X28.3809 Y-16.1630
G01 X29.7951 Y-17.5772
G01 X29.8319 Y-17.6122
G01 X29.8743 Y-17.6488
G01 X29.9158 Y-17.6810
G01 X29.9559 Y-17.7093
G01 X30.0003 Y-17.7375
G01 X30.0460 Y-17.7635
G01 X30.0929 Y-17.7872
G01 X30.1409 Y-17.8085
G01 X30.1931 Y-17.8287
G01 X30.2430 Y-17.8451
G01 X30.2937 Y-17.8590
G01 X30.3416 Y-17.8698
G01 X30.3967 Y-17.8793
G01 X30.4455 Y-17.8854
G01 X30.4979 Y-17.8893
G01 X30.5504 Y-17.8907
G01 X30.6063 Y-17.8893
G01 X30.6553 Y-17.8857
G01 X30.7075 Y-17.8793
G01 X30.7626 Y-17.8698
G01 X30.8139 Y-17.8582
G01 X30.8645 Y-17.8441
G01 X30.9111 Y-17.8287
G01 X30.9602 Y-17.8099
G01 X31.0113 Y-17.7872
G01 X31.0580 Y-17.7636
G01 X31.1010 Y-17.7393
G01 X31.1454 Y-17.7112
G01 X31.1912 Y-17.6790
G01 X31.2299 Y-17.6488
G01 X31.2697 Y-17.6145
G01 X31.3091 Y-17.5772
G01 X31.3464 Y-17.5378
G01 X31.3807 Y-17.4980
G01 X31.4109 Y-17.4593
G01 X31.4431 Y-17.4135
G01 X31.4712 Y-17.3691
G01 X31.4970 Y-17.3233
G01 X31.5205 Y-17.2763
G01 X31.5404 Y-17.2314
G01 X31.5606 Y-17.1792
G01 X31.5760 Y-17.1326
G01 X31.5901 Y-17.0820
G01 X31.6023 Y-17.0274
G01 X31.6112 Y-16.9756
G01 X31.6173 Y-16.9268
G01 X31.6212 Y-16.8744
G01 X31.6226 Y-16.8185
G01 X31.6212 Y-16.7660
G01 X31.6176 Y-16.7170
G01 X31.6112 Y-16.6648
G01 X31.6017 Y-16.6097
G01 X31.5909 Y-16.5618
G01 X31.5827 Y-16.5316
G01 X32.2503 Y-16.5316
G01 X32.2506 Y-16.9685
G01 X32.2533 Y-16.9819
G01 X32.2570 Y-16.9915
G01 X32.2621 Y-17.0005
G01 X32.2684 Y-17.0086
G01 X32.2759 Y-17.0157
G01 X32.2843 Y-17.0216
G01 X32.2935 Y-17.0263
G01 X32.3066 Y-17.0303
G01 X32.3203 Y-17.0316
G01 X33.7237 Y-17.0315
G01 X33.7340 Y-17.0303
G01 X33.7439 Y-17.0275
G01 X33.7533 Y-17.0233
G01 X33.7620 Y-17.0178
G01 X33.7722 Y-17.0086
G01 X33.7785 Y-17.0005
G01 X33.7836 Y-16.9915
G01 X33.7873 Y-16.9819
G01 X33.7895 Y-16.9719
G01 X33.7903 Y-16.9616
G01 X33.7902 Y-15.6582
G01 X33.7890 Y-15.6479
G01 X33.7862 Y-15.6380
G01 X33.7820 Y-15.6286
G01 X33.7765 Y-15.6199
G01 X33.7698 Y-15.6121
G01 X33.7620 Y-15.6054
G01 X33.7502 Y-15.5983
G01 X33.7406 Y-15.5946
G01 X33.7306 Y-15.5924
G01 X33.7203 Y-15.5916
G01 X32.3203 Y-15.5916
G01 X32.3066 Y-15.5929
G01 X32.2967 Y-15.5957
G01 X32.2873 Y-15.5999
G01 X32.2759 Y-15.6075
G01 X32.2684 Y-15.6146
G01 X32.2621 Y-15.6227
G01 X32.2570 Y-15.6317
G01 X32.2533 Y-15.6413
G01 X32.2506 Y-15.6547
G01 X32.2503 Y-16.0915
G01 X31.3360 Y-16.0915
G01 X31.3091 Y-16.0632
G01 X29.8949 Y-14.6490
G01 X29.8555 Y-14.6117
G01 X29.8157 Y-14.5774
G01 X29.7742 Y-14.5452
G01 X29.7312 Y-14.5150
G01 X29.6897 Y-14.4887
G01 X29.6440 Y-14.4627
G01 X29.5940 Y-14.4376
G01 X29.5491 Y-14.4177
G01 X29.5002 Y-14.3987
G01 X29.4470 Y-14.3811
G01 X29.3963 Y-14.3672
G01 X29.3484 Y-14.3564
G01 X29.2933 Y-14.3469
G01 X29.2445 Y-14.3408
G01 X29.1921 Y-14.3369
G01 X29.1396 Y-14.3355
G01 X29.0871 Y-14.3367
G01 X29.0347 Y-14.3405
G01 X28.9825 Y-14.3469
G01 X28.9307 Y-14.3558
G01 X28.8795 Y-14.3672
G01 X28.8288 Y-14.3811
G01 X28.7789 Y-14.3975
G01 X28.7298 Y-14.4163
G01 X28.6818 Y-14.4376
G01 X28.6348 Y-14.4611
G01 X28.5890 Y-14.4869
G01 X28.5446 Y-14.5150
G01 X28.5016 Y-14.5452
G01 X28.4601 Y-14.5774
G01 X28.4203 Y-14.6117
G01 X28.3809 Y-14.6490
G01 X28.3459 Y-14.6858
G01 X28.3115 Y-14.7256
G01 X28.2791 Y-14.7669
G01 X28.2488 Y-14.8098
G01 X28.2206 Y-14.8542
G01 X28.1946 Y-14.8999
G01 X28.1709 Y-14.9468
G01 X28.1496 Y-14.9948
G01 X28.1306 Y-15.0437
G01 X28.1140 Y-15.0936
G01 X28.0999 Y-15.1442
G01 X28.0883 Y-15.1955
G01 X28.0793 Y-15.2472
G01 X28.0724 Y-15.3028
G00 Z3.0000
G00 X31.3376 Y-13.2070
G01 F80.00
G01 Z-0.0746
G01 F50.00
G01 X32.7376 Y-13.2070
G01 X32.7513 Y-13.2057
G01 X32.7612 Y-13.2029
G01 X32.7706 Y-13.1987
G01 X32.7793 Y-13.1932
G01 X32.7871 Y-13.1865
G01 X32.7938 Y-13.1787
G01 X32.7993 Y-13.1700
G01 X32.8035 Y-13.1606
G01 X32.8063 Y-13.1507
G01 X32.8073 Y-13.1439
G01 X32.8076 Y-12.7088
G01 X33.5693 Y-12.7105
G01 X33.5693 Y-13.1421
G01 X33.5701 Y-13.1524
G01 X33.5734 Y-13.1657
G01 X33.5776 Y-13.1751
G01 X33.5852 Y-13.1865
G01 X33.5949 Y-13.1962
G01 X33.6033 Y-13.2021
G01 X33.6157 Y-13.2080
G01 X33.6290 Y-13.2113
G01 X33.6393 Y-13.2121
G01 X35.0393 Y-13.2121
G01 X35.0530 Y-13.2108
G01 X35.0629 Y-13.2080
G01 X35.0723 Y-13.2038
G01 X35.0810 Y-13.1983
G01 X35.0888 Y-13.1916
G01 X35.0955 Y-13.1838
G01 X35.1010 Y-13.1751
G01 X35.1052 Y-13.1657
G01 X35.1080 Y-13.1558
G01 X35.1090 Y-13.1490
G01 X35.1093 Y-12.6993
G01 X35.8902 Y-12.6863
G01 X35.8902 Y-13.1420
G01 X35.8910 Y-13.1523
G01 X35.8943 Y-13.1656
G01 X35.8985 Y-13.1750
G01 X35.9061 Y-13.1864
G01 X35.9158 Y-13.1961
G01 X35.9242 Y-13.2020
G01 X35.9366 Y-13.2079
G01 X35.9499 Y-13.2112
G01 X35.9602 Y-13.2120
G01 X37.5602 Y-13.2120
G01 X37.5705 Y-13.2112
G01 X37.5805 Y-13.2090
G01 X37.5901 Y-13.2053
G01 X37.5991 Y-13.2002
G01 X37.6072 Y-13.1939
G01 X37.6143 Y-13.1864
G01 X37.6202 Y-13.1780
G01 X37.6249 Y-13.1688
G01 X37.6281 Y-13.1590
G01 X37.6299 Y-13.1489
G01 X37.6302 Y-12.7121
G01 X38.5707 Y-12.7121
G01 X38.5708 Y-12.7287
G01 X38.5728 Y-12.7423
G01 X38.5748 Y-12.7489
G01 X38.5790 Y-12.7583
G01 X38.5866 Y-12.7697
G01 X38.5963 Y-12.7794
G01 X38.6077 Y-12.7870
G01 X38.6171 Y-12.7912
G01 X38.6237 Y-12.7932
G01 X38.6373 Y-12.7952
G01 X39.9407 Y-12.7953
G01 X39.9544 Y-12.7940
G01 X39.9643 Y-12.7912
G01 X39.9737 Y-12.7870
G01 X39.9851 Y-12.7794
G01 X39.9926 Y-12.7723
G01 X39.9989 Y-12.7642
G01 X40.0054 Y-12.7521
G01 X40.0094 Y-12.7390
G01 X40.0106 Y-12.7287
G01 X40.0107 Y-11.3253
G01 X40.0094 Y-11.3116
G01 X40.0066 Y-11.3017
G01 X40.0007 Y-11.2893
G01 X39.9926 Y-11.2783
G01 X39.9851 Y-11.2712
G01 X39.9737 Y-11.2636
G01 X39.9643 Y-11.2594
G01 X39.9544 Y-11.2566
G01 X39.9441 Y-11.2554
G01 X38.6407 Y-11.2553
G01 X38.6304 Y-11.2561
G01 X38.6204 Y-11.2583
G01 X38.6108 Y-11.2620
G01 X38.6018 Y-11.2671
G01 X38.5963 Y-11.2712
G01 X38.5888 Y-11.2783
G01 X38.5825 Y-11.2864
G01 X38.5790 Y-11.2923
G01 X38.5737 Y-11.3050
G01 X38.5720 Y-11.3116
G01 X38.5708 Y-11.3219
G01 X38.5707 Y-12.2719
G01 X37.6302 Y-12.2719
G01 X37.6302 Y-11.8420
G01 X37.6294 Y-11.8317
G01 X37.6261 Y-11.8184
G01 X37.6219 Y-11.8090
G01 X37.6164 Y-11.8003
G01 X37.6072 Y-11.7901
G01 X37.5962 Y-11.7820
G01 X37.5870 Y-11.7773
G01 X37.5772 Y-11.7741
G01 X37.5636 Y-11.7721
G01 X35.9602 Y-11.7720
G01 X35.9465 Y-11.7733
G01 X35.9366 Y-11.7761
G01 X35.9272 Y-11.7803
G01 X35.9158 Y-11.7879
G01 X35.9083 Y-11.7950
G01 X35.9020 Y-11.8031
G01 X35.8969 Y-11.8121
G01 X35.8932 Y-11.8217
G01 X35.8905 Y-11.8351
G01 X35.8902 Y-12.2461
G01 X35.1093 Y-12.2591
G01 X35.1090 Y-11.8352
G01 X35.1072 Y-11.8251
G01 X35.1040 Y-11.8153
G01 X35.0993 Y-11.8061
G01 X35.0934 Y-11.7977
G01 X35.0863 Y-11.7902
G01 X35.0782 Y-11.7839
G01 X35.0692 Y-11.7788
G01 X35.0596 Y-11.7751
G01 X35.0496 Y-11.7729
G01 X35.0393 Y-11.7721
G01 X33.6393 Y-11.7721
G01 X33.6290 Y-11.7729
G01 X33.6190 Y-11.7751
G01 X33.6063 Y-11.7804
G01 X33.5949 Y-11.7880
G01 X33.5874 Y-11.7951
G01 X33.5811 Y-11.8032
G01 X33.5760 Y-11.8122
G01 X33.5723 Y-11.8218
G01 X33.5696 Y-11.8352
G01 X33.5693 Y-12.2703
G01 X32.8076 Y-12.2686
G01 X32.8073 Y-11.8301
G01 X32.8046 Y-11.8167
G01 X32.8009 Y-11.8071
G01 X32.7958 Y-11.7981
G01 X32.7895 Y-11.7900
G01 X32.7820 Y-11.7829
G01 X32.7736 Y-11.7770
G01 X32.7612 Y-11.7711
G01 X32.7513 Y-11.7683
G01 X32.7376 Y-11.7670
G01 X31.3376 Y-11.7670
G01 X31.3239 Y-11.7683
G01 X31.3140 Y-11.7711
G01 X31.3016 Y-11.7770
G01 X31.2906 Y-11.7851
G01 X31.2835 Y-11.7926
G01 X31.2776 Y-11.8010
G01 X31.2729 Y-11.8102
G01 X31.2689 Y-11.8233
G01 X31.2677 Y-11.8336
G01 X31.2676 Y-13.1370
G01 X31.2689 Y-13.1507
G01 X31.2729 Y-13.1638
G01 X31.2794 Y-13.1759
G01 X31.2881 Y-13.1865
G01 X31.2987 Y-13.1952
G01 X31.3108 Y-13.2017
G01 X31.3239 Y-13.2057
G01 X31.3376 Y-13.2070
G00 Z3.0000
G00 X32.1903 Y-15.9614
G01 F80.00
G01 Z-0.0746
G01 F50.00
G01 X32.1890 Y-15.9750
G01 X32.1850 Y-15.9881
G01 X32.1785 Y-16.0003
G01 X32.1698 Y-16.0109
G01 X32.1592 Y-16.0196
G01 X32.1471 Y-16.0260
G01 X32.1373 Y-16.0293
G01 X32.1237 Y-16.0313
G01 X31.3912 Y-16.0314
G01 X31.3843 Y-16.0311
G01 X31.3742 Y-16.0293
G01 X31.3644 Y-16.0261
G01 X31.3552 Y-16.0214
G01 X31.3495 Y-16.0176
G01 X31.3417 Y-16.0109
G01 X29.9380 Y-14.6072
G01 X29.8972 Y-14.5683
G01 X29.8551 Y-14.5321
G01 X29.8114 Y-14.4979
G01 X29.7660 Y-14.4660
G01 X29.7191 Y-14.4363
G01 X29.6709 Y-14.4089
G01 X29.6213 Y-14.3840
G01 X29.5706 Y-14.3615
G01 X29.5188 Y-14.3415
G01 X29.4661 Y-14.3241
G01 X29.4126 Y-14.3093
G01 X29.3585 Y-14.2971
G01 X29.3038 Y-14.2877
G01 X29.2487 Y-14.2809
G01 X29.1934 Y-14.2768
G01 X29.1379 Y-14.2754
G01 X29.0824 Y-14.2768
G01 X29.0271 Y-14.2809
G01 X28.9720 Y-14.2877
G01 X28.9173 Y-14.2971
G01 X28.8632 Y-14.3093
G01 X28.8097 Y-14.3241
G01 X28.7570 Y-14.3415
G01 X28.7052 Y-14.3615
G01 X28.6545 Y-14.3840
G01 X28.6049 Y-14.4089
G01 X28.5567 Y-14.4363
G01 X28.5098 Y-14.4660
G01 X28.4644 Y-14.4979
G01 X28.4207 Y-14.5321
G01 X28.3786 Y-14.5683
G01 X28.3385 Y-14.6066
G01 X28.3002 Y-14.6467
G01 X28.2640 Y-14.6888
G01 X28.2298 Y-14.7325
G01 X28.1979 Y-14.7779
G01 X28.1682 Y-14.8248
G01 X28.1408 Y-14.8730
G01 X28.1159 Y-14.9226
G01 X28.0934 Y-14.9733
G01 X28.0734 Y-15.0251
G01 X28.0560 Y-15.0778
G01 X28.0412 Y-15.1313
G01 X28.0290 Y-15.1854
G01 X28.0196 Y-15.2401
G01 X28.0128 Y-15.2952
G01 X28.0087 Y-15.3505
G01 X28.0073 Y-15.4060
G01 X28.0087 Y-15.4615
G01 X28.0128 Y-15.5168
G01 X28.0196 Y-15.5719
G01 X28.0290 Y-15.6266
G01 X28.0412 Y-15.6807
G01 X28.0560 Y-15.7342
G01 X28.0734 Y-15.7869
G01 X28.0934 Y-15.8387
G01 X28.1159 Y-15.8894
G01 X28.1408 Y-15.9390
G01 X28.1682 Y-15.9872
G01 X28.1979 Y-16.0341
G01 X28.2298 Y-16.0795
G01 X28.2640 Y-16.1232
G01 X28.3002 Y-16.1653
G01 X28.3391 Y-16.2061
G01 X29.7520 Y-17.6190
G01 X29.7928 Y-17.6579
G01 X29.8349 Y-17.6941
G01 X29.8786 Y-17.7283
G01 X29.9240 Y-17.7602
G01 X29.9709 Y-17.7899
G01 X30.0191 Y-17.8173
G01 X30.0687 Y-17.8422
G01 X30.1194 Y-17.8647
G01 X30.1712 Y-17.8847
G01 X30.2239 Y-17.9021
G01 X30.2774 Y-17.9169
G01 X30.3315 Y-17.9291
G01 X30.3862 Y-17.9385
G01 X30.4413 Y-17.9453
G01 X30.4966 Y-17.9494
G01 X30.5521 Y-17.9508
G01 X30.6076 Y-17.9494
G01 X30.6629 Y-17.9453
G01 X30.7180 Y-17.9385
G01 X30.7727 Y-17.9291
G01 X30.8268 Y-17.9169
G01 X30.8803 Y-17.9021
G01 X30.9330 Y-17.8847
G01 X30.9848 Y-17.8647
G01 X31.0355 Y-17.8422
G01 X31.0851 Y-17.8173
G01 X31.1333 Y-17.7899
G01 X31.1802 Y-17.7602
G01 X31.2256 Y-17.7283
G01 X31.2693 Y-17.6941
G01 X31.3114 Y-17.6579
G01 X31.3515 Y-17.6196
G01 X31.3898 Y-17.5795
G01 X31.4260 Y-17.5374
G01 X31.4602 Y-17.4937
G01 X31.4921 Y-17.4483
G01 X31.5218 Y-17.4014
G01 X31.5492 Y-17.3532
G01 X31.5741 Y-17.3036
G01 X31.5966 Y-17.2529
G01 X31.6166 Y-17.2011
G01 X31.6340 Y-17.1484
G01 X31.6488 Y-17.0949
G01 X31.6610 Y-17.0408
G01 X31.6704 Y-16.9861
G01 X31.6772 Y-16.9310
G01 X31.6813 Y-16.8757
G01 X31.6827 Y-16.8202
G01 X31.6813 Y-16.7647
G01 X31.6772 Y-16.7094
G01 X31.6721 Y-16.6668
G01 X31.6719 Y-16.6599
G01 X31.6730 Y-16.6495
G01 X31.6756 Y-16.6393
G01 X31.6796 Y-16.6297
G01 X31.6831 Y-16.6237
G01 X31.6894 Y-16.6154
G01 X31.6969 Y-16.6081
G01 X31.7054 Y-16.6020
G01 X31.7147 Y-16.5972
G01 X31.7246 Y-16.5939
G01 X31.7349 Y-16.5921
G01 X31.7419 Y-16.5917
G01 X32.1237 Y-16.5918
G01 X32.1373 Y-16.5938
G01 X32.1502 Y-16.5984
G01 X32.1620 Y-16.6055
G01 X32.1722 Y-16.6147
G01 X32.1803 Y-16.6257
G01 X32.1850 Y-16.6349
G01 X32.1890 Y-16.6481
G01 X32.1902 Y-16.6583
G01 X32.1903 Y-17.0916
G01 X33.8503 Y-17.0916
G01 X33.8503 Y-15.5316
G01 X32.1903 Y-15.5316
G01 X32.1903 Y-15.9614
G00 Z3.0000
G00 X34.6194 Y-17.0341
G01 F80.00
G01 Z-0.0746
G01 F50.00
G01 X36.0194 Y-17.0341
G01 X36.0331 Y-17.0328
G01 X36.0430 Y-17.0300
G01 X36.0524 Y-17.0258
G01 X36.0611 Y-17.0203
G01 X36.0689 Y-17.0136
G01 X36.0756 Y-17.0058
G01 X36.0811 Y-16.9971
G01 X36.0853 Y-16.9877
G01 X36.0881 Y-16.9778
G01 X36.0891 Y-16.9710
G01 X36.0894 Y-16.5296
G01 X39.1715 Y-16.5316
G01 X39.1840 Y-16.5312
G01 X39.2021 Y-16.5294
G01 X39.2266 Y-16.5246
G01 X39.2542 Y-16.5155
G01 X39.2768 Y-16.5048
G01 X39.2924 Y-16.4954
G01 X39.3040 Y-16.4872
G01 X39.3260 Y-16.4683
G01 X40.3344 Y-15.4601
G01 X43.0213 Y-15.4601
G01 X43.0412 Y-15.4592
G01 X43.0553 Y-15.4574
G01 X43.0731 Y-15.4539
G01 X43.0938 Y-15.4478
G01 X43.1138 Y-15.4397
G01 X43.1359 Y-15.4279
G01 X43.1596 Y-15.4112
G01 X43.1769 Y-15.3956
G01 X44.7390 Y-13.8335
G01 X44.9219 Y-13.8348
G01 X44.9219 Y-14.2673
G01 X44.9227 Y-14.2781
G01 X44.9252 Y-14.2886
G01 X44.9308 Y-14.3014
G01 X44.9402 Y-14.3145
G01 X45.1424 Y-14.5169
G01 X45.1530 Y-14.5256
G01 X45.1651 Y-14.5321
G01 X45.1782 Y-14.5361
G01 X45.1919 Y-14.5374
G01 X45.3956 Y-14.5373
G01 X45.4063 Y-14.5359
G01 X45.4200 Y-14.5315
G01 X45.4289 Y-14.5269
G01 X45.4392 Y-14.5191
G01 X45.6437 Y-14.3145
G01 X45.6497 Y-14.3069
G01 X45.6546 Y-14.2986
G01 X45.6587 Y-14.2886
G01 X45.6612 Y-14.2781
G01 X45.6620 Y-14.2673
G01 X45.6619 Y-13.1673
G01 X45.6611 Y-13.1565
G01 X45.6574 Y-13.1426
G01 X45.6514 Y-13.1304
G01 X45.6436 Y-13.1201
G01 X45.5390 Y-13.0157
G01 X45.5315 Y-13.0097
G01 X45.5232 Y-13.0048
G01 X45.5132 Y-13.0007
G01 X45.5062 Y-12.9989
G01 X45.4919 Y-12.9974
G01 X45.0919 Y-12.9973
G01 X45.0811 Y-12.9981
G01 X45.0706 Y-13.0006
G01 X45.0606 Y-13.0047
G01 X45.0523 Y-13.0096
G01 X45.0424 Y-13.0178
G01 X44.9402 Y-13.1203
G01 X44.9308 Y-13.1333
G01 X44.9252 Y-13.1461
G01 X44.9227 Y-13.1566
G01 X44.9219 Y-13.1674
G01 X44.9219 Y-13.3946
G01 X44.6500 Y-13.3927
G01 X44.6265 Y-13.3938
G01 X44.5977 Y-13.3987
G01 X44.5839 Y-13.4024
G01 X44.5666 Y-13.4085
G01 X44.5535 Y-13.4143
G01 X44.5373 Y-13.4229
G01 X44.5254 Y-13.4304
G01 X44.5104 Y-13.4415
G01 X44.4929 Y-13.4572
G01 X42.9301 Y-15.0199
G01 X40.2432 Y-15.0199
G01 X40.2307 Y-15.0203
G01 X40.2126 Y-15.0221
G01 X40.1986 Y-15.0245
G01 X40.1810 Y-15.0289
G01 X40.1574 Y-15.0374
G01 X40.1315 Y-15.0504
G01 X40.1107 Y-15.0643
G01 X40.0888 Y-15.0832
G01 X39.0805 Y-16.0914
G01 X36.0894 Y-16.0894
G01 X36.0891 Y-15.6572
G01 X36.0873 Y-15.6471
G01 X36.0841 Y-15.6373
G01 X36.0794 Y-15.6281
G01 X36.0735 Y-15.6197
G01 X36.0664 Y-15.6122
G01 X36.0583 Y-15.6059
G01 X36.0493 Y-15.6008
G01 X36.0397 Y-15.5971
G01 X36.0297 Y-15.5949
G01 X36.0194 Y-15.5941
G01 X34.6194 Y-15.5941
G01 X34.6091 Y-15.5949
G01 X34.5958 Y-15.5982
G01 X34.5864 Y-15.6024
G01 X34.5777 Y-15.6079
G01 X34.5699 Y-15.6146
G01 X34.5632 Y-15.6224
G01 X34.5577 Y-15.6311
G01 X34.5535 Y-15.6405
G01 X34.5507 Y-15.6504
G01 X34.5495 Y-15.6607
G01 X34.5494 Y-16.9641
G01 X34.5507 Y-16.9778
G01 X34.5547 Y-16.9909
G01 X34.5612 Y-17.0030
G01 X34.5699 Y-17.0136
G01 X34.5805 Y-17.0223
G01 X34.5926 Y-17.0288
G01 X34.6057 Y-17.0328
G01 X34.6194 Y-17.0341
G00 Z3.0000
G00 X37.3245 Y-19.3584
G01 F80.00
G01 Z-0.0746
G01 F50.00
G01 X37.3243 Y-25.5587
G01 X37.3252 Y-25.5786
G01 X37.3270 Y-25.5926
G01 X37.3305 Y-25.6105
G01 X37.3343 Y-25.6242
G01 X37.3447 Y-25.6512
G01 X37.3565 Y-25.6733
G01 X37.3732 Y-25.6970
G01 X37.3888 Y-25.7143
G01 X40.2464 Y-28.5718
G01 X40.2611 Y-28.5852
G01 X40.2723 Y-28.5940
G01 X40.2903 Y-28.6058
G01 X40.3094 Y-28.6158
G01 X40.3263 Y-28.6228
G01 X40.3469 Y-28.6292
G01 X40.3608 Y-28.6324
G01 X40.3821 Y-28.6354
G01 X40.4003 Y-28.6363
G01 X41.5943 Y-28.6363
G01 X41.6159 Y-28.6350
G01 X41.6372 Y-28.6317
G01 X41.6581 Y-28.6263
G01 X41.6784 Y-28.6188
G01 X41.6978 Y-28.6095
G01 X41.7163 Y-28.5982
G01 X41.7335 Y-28.5852
G01 X41.7482 Y-28.5718
G01 X42.7950 Y-27.5251
G01 X44.8910 Y-27.5251
G01 X44.8913 Y-27.9519
G01 X44.8923 Y-27.9587
G01 X44.8951 Y-27.9686
G01 X44.8993 Y-27.9780
G01 X44.9048 Y-27.9867
G01 X44.9115 Y-27.9945
G01 X44.9193 Y-28.0012
G01 X44.9280 Y-28.0067
G01 X44.9374 Y-28.0109
G01 X44.9473 Y-28.0137
G01 X44.9610 Y-28.0150
G01 X46.2410 Y-28.0150
G01 X46.2547 Y-28.0137
G01 X46.2646 Y-28.0109
G01 X46.2740 Y-28.0067
G01 X46.2854 Y-27.9991
G01 X46.2951 Y-27.9894
G01 X46.3027 Y-27.9780
G01 X46.3069 Y-27.9686
G01 X46.3102 Y-27.9553
G01 X46.3110 Y-27.9450
G01 X46.3110 Y-27.5251
G01 X47.1347 Y-27.5251
G01 X47.2358 Y-27.5534
G01 X47.2358 Y-28.4284
G01 X47.2371 Y-28.4421
G01 X47.2399 Y-28.4520
G01 X47.2458 Y-28.4644
G01 X47.2539 Y-28.4754
G01 X47.2641 Y-28.4846
G01 X47.2759 Y-28.4917
G01 X47.2888 Y-28.4963
G01 X47.3024 Y-28.4983
G01 X47.9058 Y-28.4984
G01 X47.9195 Y-28.4971
G01 X47.9261 Y-28.4954
G01 X47.9357 Y-28.4917
G01 X47.9475 Y-28.4846
G01 X47.9528 Y-28.4803
G01 X47.9599 Y-28.4728
G01 X47.9675 Y-28.4614
G01 X47.9717 Y-28.4520
G01 X47.9745 Y-28.4421
G01 X47.9758 Y-28.4284
G01 X47.9758 Y-26.4284
G01 X47.9745 Y-26.4147
G01 X47.9717 Y-26.4048
G01 X47.9675 Y-26.3954
G01 X47.9620 Y-26.3867
G01 X47.9553 Y-26.3789
G01 X47.9475 Y-26.3722
G01 X47.9388 Y-26.3667
G01 X47.9261 Y-26.3614
G01 X47.9161 Y-26.3592
G01 X47.9058 Y-26.3584
G01 X47.3024 Y-26.3585
G01 X47.2888 Y-26.3605
G01 X47.2759 Y-26.3651
G01 X47.2641 Y-26.3722
G01 X47.2539 Y-26.3814
G01 X47.2476 Y-26.3895
G01 X47.2411 Y-26.4016
G01 X47.2379 Y-26.4114
G01 X47.2359 Y-26.4250
G01 X47.2358 Y-27.0963
G01 X47.2031 Y-27.0883
G01 X47.1865 Y-27.0860
G01 X47.1665 Y-27.0849
G01 X46.3110 Y-27.0849
G01 X46.3110 Y-26.6650
G01 X46.3102 Y-26.6547
G01 X46.3069 Y-26.6414
G01 X46.3027 Y-26.6320
G01 X46.2951 Y-26.6206
G01 X46.2854 Y-26.6109
G01 X46.2770 Y-26.6050
G01 X46.2646 Y-26.5991
G01 X46.2547 Y-26.5963
G01 X46.2410 Y-26.5950
G01 X44.9610 Y-26.5950
G01 X44.9473 Y-26.5963
G01 X44.9374 Y-26.5991
G01 X44.9280 Y-26.6033
G01 X44.9193 Y-26.6088
G01 X44.9115 Y-26.6155
G01 X44.9048 Y-26.6233
G01 X44.8993 Y-26.6320
G01 X44.8951 Y-26.6414
G01 X44.8923 Y-26.6513
G01 X44.8913 Y-26.6581
G01 X44.8910 Y-27.0849
G01 X42.7038 Y-27.0849
G01 X42.6805 Y-27.0862
G01 X42.6520 Y-27.0911
G01 X42.6383 Y-27.0949
G01 X42.6212 Y-27.1010
G01 X42.5986 Y-27.1117
G01 X42.5830 Y-27.1211
G01 X42.5717 Y-27.1290
G01 X42.5494 Y-27.1482
G01 X41.5014 Y-28.1961
G01 X40.4932 Y-28.1961
G01 X37.7645 Y-25.4675
G01 X37.7645 Y-19.4587
G01 X39.5010 Y-17.7223
G01 X44.6486 Y-17.7223
G01 X44.6684 Y-17.7214
G01 X44.6825 Y-17.7196
G01 X44.7002 Y-17.7161
G01 X44.7139 Y-17.7123
G01 X44.7310 Y-17.7063
G01 X44.7439 Y-17.7005
G01 X44.7599 Y-17.6920
G01 X44.7719 Y-17.6845
G01 X44.7891 Y-17.6715
G01 X44.8026 Y-17.6594
G01 X44.8124 Y-17.6492
G01 X44.8249 Y-17.6339
G01 X47.0472 Y-14.6573
G01 X47.0598 Y-14.6385
G01 X47.0697 Y-14.6200
G01 X47.0801 Y-14.5940
G01 X47.0856 Y-14.5738
G01 X47.0892 Y-14.5532
G01 X47.0905 Y-14.5395
G01 X47.0924 Y-14.4658
G01 X47.2414 Y-14.3169
G01 X47.2496 Y-14.3070
G01 X47.2545 Y-14.2987
G01 X47.2586 Y-14.2887
G01 X47.2604 Y-14.2817
G01 X47.2619 Y-14.2674
G01 X47.2615 Y-13.1602
G01 X47.2596 Y-13.1496
G01 X47.2560 Y-13.1394
G01 X47.2514 Y-13.1305
G01 X47.2458 Y-13.1227
G01 X47.1368 Y-13.0136
G01 X47.1262 Y-13.0063
G01 X47.1167 Y-13.0019
G01 X47.1063 Y-12.9989
G01 X47.0956 Y-12.9975
G01 X46.6919 Y-12.9973
G01 X46.6776 Y-12.9988
G01 X46.6672 Y-13.0018
G01 X46.6606 Y-13.0047
G01 X46.6523 Y-13.0096
G01 X46.6447 Y-13.0156
G01 X46.5425 Y-13.1178
G01 X46.5325 Y-13.1304
G01 X46.5279 Y-13.1393
G01 X46.5243 Y-13.1495
G01 X46.5228 Y-13.1565
G01 X46.5220 Y-13.1673
G01 X46.5223 Y-14.2745
G01 X46.5242 Y-14.2851
G01 X46.5278 Y-14.2953
G01 X46.5324 Y-14.3042
G01 X46.5381 Y-14.3120
G01 X46.6530 Y-14.4275
G01 X46.6525 Y-14.4503
G01 X44.5383 Y-17.2821
G01 X39.4098 Y-17.2821
G01 X39.3973 Y-17.2825
G01 X39.3792 Y-17.2843
G01 X39.3652 Y-17.2867
G01 X39.3476 Y-17.2911
G01 X39.3241 Y-17.2995
G01 X39.2981 Y-17.3126
G01 X39.2774 Y-17.3264
G01 X39.2633 Y-17.3380
G01 X39.2542 Y-17.3466
G01 X37.3888 Y-19.2119
G01 X37.3754 Y-19.2266
G01 X37.3624 Y-19.2438
G01 X37.3511 Y-19.2622
G01 X37.3418 Y-19.2817
G01 X37.3343 Y-19.3020
G01 X37.3289 Y-19.3229
G01 X37.3256 Y-19.3442
G01 X37.3245 Y-19.3584
G00 Z3.0000
G00 X38.7949 Y-20.1703
G01 F80.00
G01 Z-0.0746
G01 F50.00
G01 X38.7931 Y-20.1884
G01 X38.7927 Y-20.2009
G01 X38.7928 Y-24.6461
G01 X38.7937 Y-24.6660
G01 X38.7955 Y-24.6801
G01 X38.7990 Y-24.6979
G01 X38.8028 Y-24.7116
G01 X38.8103 Y-24.7319
G01 X38.8233 Y-24.7578
G01 X38.8371 Y-24.7785
G01 X38.8561 Y-24.8005
G01 X39.9029 Y-25.8473
G01 X39.8802 Y-25.8833
G01 X39.8544 Y-25.9290
G01 X39.8309 Y-25.9759
G01 X39.8109 Y-26.0208
G01 X39.7908 Y-26.0731
G01 X39.7754 Y-26.1197
G01 X39.7613 Y-26.1702
G01 X39.7490 Y-26.2248
G01 X39.7401 Y-26.2766
G01 X39.7338 Y-26.3282
G01 X39.7302 Y-26.3777
G01 X39.7288 Y-26.4302
G01 X39.7302 Y-26.4861
G01 X39.7338 Y-26.5351
G01 X39.7401 Y-26.5872
G01 X39.7490 Y-26.6390
G01 X39.7605 Y-26.6902
G01 X39.7754 Y-26.7441
G01 X39.7908 Y-26.7907
G01 X39.8096 Y-26.8398
G01 X39.8323 Y-26.8909
G01 X39.8560 Y-26.9378
G01 X39.8802 Y-26.9805
G01 X39.9101 Y-27.0278
G01 X39.9401 Y-27.0703
G01 X39.9728 Y-27.1120
G01 X40.0050 Y-27.1494
G01 X40.0410 Y-27.1873
G01 X40.0813 Y-27.2257
G01 X40.1187 Y-27.2579
G01 X40.1600 Y-27.2903
G01 X40.2058 Y-27.3225
G01 X40.2472 Y-27.3488
G01 X40.2929 Y-27.3747
G01 X40.3428 Y-27.3998
G01 X40.3877 Y-27.4198
G01 X40.4367 Y-27.4388
G01 X40.4898 Y-27.4563
G01 X40.5405 Y-27.4702
G01 X40.5884 Y-27.4810
G01 X40.6435 Y-27.4906
G01 X40.6951 Y-27.4969
G01 X40.7446 Y-27.5005
G01 X40.8005 Y-27.5019
G01 X40.8496 Y-27.5007
G01 X40.9020 Y-27.4969
G01 X40.9575 Y-27.4900
G01 X41.0092 Y-27.4810
G01 X41.0571 Y-27.4702
G01 X41.1110 Y-27.4553
G01 X41.1609 Y-27.4388
G01 X41.2099 Y-27.4198
G01 X41.2578 Y-27.3984
G01 X41.3017 Y-27.3763
G01 X41.3474 Y-27.3505
G01 X41.3918 Y-27.3225
G01 X41.4372 Y-27.2906
G01 X41.4789 Y-27.2579
G01 X41.5186 Y-27.2235
G01 X41.5566 Y-27.1873
G01 X41.5904 Y-27.1517
G01 X41.6248 Y-27.1120
G01 X41.6592 Y-27.0679
G01 X41.6894 Y-27.0249
G01 X41.7174 Y-26.9805
G01 X41.7416 Y-26.9378
G01 X41.7653 Y-26.8909
G01 X41.7867 Y-26.8430
G01 X41.8057 Y-26.7940
G01 X41.8222 Y-26.7441
G01 X41.8371 Y-26.6902
G01 X41.8479 Y-26.6423
G01 X41.8569 Y-26.5906
G01 X41.8635 Y-26.5385
G01 X41.8674 Y-26.4861
G01 X41.8688 Y-26.4336
G01 X41.8674 Y-26.3777
G01 X41.8635 Y-26.3253
G01 X41.8569 Y-26.2732
G01 X41.8479 Y-26.2215
G01 X41.8371 Y-26.1736
G01 X41.8222 Y-26.1197
G01 X41.8057 Y-26.0698
G01 X41.7867 Y-26.0208
G01 X41.7653 Y-25.9729
G01 X41.7416 Y-25.9260
G01 X41.7174 Y-25.8833
G01 X41.6894 Y-25.8389
G01 X41.6575 Y-25.7935
G01 X41.6270 Y-25.7544
G01 X41.5926 Y-25.7144
G01 X41.5566 Y-25.6765
G01 X41.5163 Y-25.6381
G01 X41.4789 Y-25.6059
G01 X41.4376 Y-25.5735
G01 X41.3947 Y-25.5432
G01 X41.3504 Y-25.5150
G01 X41.3047 Y-25.4891
G01 X41.2578 Y-25.4654
G01 X41.2099 Y-25.4440
G01 X41.1609 Y-25.4250
G01 X41.1110 Y-25.4085
G01 X41.0605 Y-25.3944
G01 X41.0092 Y-25.3828
G01 X40.9575 Y-25.3738
G01 X40.9025 Y-25.3669
G01 X40.8530 Y-25.3633
G01 X40.8005 Y-25.3619
G01 X40.7480 Y-25.3631
G01 X40.6956 Y-25.3669
G01 X40.6435 Y-25.3732
G01 X40.5917 Y-25.3821
G01 X40.5405 Y-25.3936
G01 X40.4898 Y-25.4075
G01 X40.4400 Y-25.4239
G01 X40.3909 Y-25.4427
G01 X40.3429 Y-25.4639
G01 X40.2959 Y-25.4875
G01 X40.2502 Y-25.5133
G01 X40.2141 Y-25.5360
G01 X39.2330 Y-24.5549
G01 X39.2329 Y-20.2921
G01 X40.3741 Y-19.1510
G01 X49.8873 Y-19.1510
G01 X49.8998 Y-19.1506
G01 X49.9179 Y-19.1488
G01 X49.9424 Y-19.1439
G01 X49.9598 Y-19.1387
G01 X49.9731 Y-19.1335
G01 X49.9990 Y-19.1205
G01 X50.0198 Y-19.1066
G01 X50.0338 Y-19.0951
G01 X50.0429 Y-19.0865
G01 X51.0884 Y-18.0409
G01 X51.1008 Y-18.0272
G01 X51.1096 Y-18.0159
G01 X51.1198 Y-18.0006
G01 X51.1268 Y-17.9880
G01 X51.1386 Y-17.9612
G01 X51.1430 Y-17.9475
G01 X51.1474 Y-17.9296
G01 X51.1506 Y-17.9080
G01 X51.1517 Y-17.8845
G01 X51.1196 Y-14.4387
G01 X51.2457 Y-14.3121
G01 X51.2514 Y-14.3043
G01 X51.2560 Y-14.2954
G01 X51.2596 Y-14.2852
G01 X51.2615 Y-14.2746
G01 X51.2619 Y-13.1674
G01 X51.2615 Y-13.1602
G01 X51.2596 Y-13.1496
G01 X51.2574 Y-13.1427
G01 X51.2530 Y-13.1333
G01 X51.2477 Y-13.1252
G01 X51.2414 Y-13.1179
G01 X51.1391 Y-13.0156
G01 X51.1261 Y-13.0062
G01 X51.1166 Y-13.0018
G01 X51.1097 Y-12.9996
G01 X51.1027 Y-12.9981
G01 X51.0919 Y-12.9973
G01 X50.6920 Y-12.9974
G01 X50.6777 Y-12.9989
G01 X50.6673 Y-13.0019
G01 X50.6551 Y-13.0079
G01 X50.6448 Y-13.0157
G01 X50.5403 Y-13.1202
G01 X50.5309 Y-13.1333
G01 X50.5265 Y-13.1427
G01 X50.5243 Y-13.1496
G01 X50.5228 Y-13.1566
G01 X50.5220 Y-13.1674
G01 X50.5223 Y-14.2746
G01 X50.5242 Y-14.2852
G01 X50.5278 Y-14.2954
G01 X50.5324 Y-14.3043
G01 X50.5402 Y-14.3146
G01 X50.6796 Y-14.4541
G01 X50.7107 Y-17.7962
G01 X49.7961 Y-18.7108
G01 X40.2829 Y-18.7108
G01 X40.2704 Y-18.7112
G01 X40.2523 Y-18.7130
G01 X40.2383 Y-18.7154
G01 X40.2174 Y-18.7208
G01 X40.2003 Y-18.7269
G01 X40.1873 Y-18.7327
G01 X40.1683 Y-18.7430
G01 X40.1532 Y-18.7531
G01 X40.1420 Y-18.7619
G01 X40.1285 Y-18.7741
G01 X38.8572 Y-20.0453
G01 X38.8438 Y-20.0600
G01 X38.8351 Y-20.0711
G01 X38.8249 Y-20.0863
G01 X38.8146 Y-20.1053
G01 X38.8088 Y-20.1183
G01 X38.8017 Y-20.1386
G01 X38.7973 Y-20.1563
G01 X38.7949 Y-20.1703
G00 Z3.0000
G00 X39.7338 Y-21.2487
G01 F80.00
G01 Z-0.0746
G01 F50.00
G01 X39.7300 Y-21.3011
G01 X39.7288 Y-21.3536
G01 X39.7302 Y-21.4061
G01 X39.7341 Y-21.4585
G01 X39.7407 Y-21.5106
G01 X39.7497 Y-21.5623
G01 X39.7613 Y-21.6136
G01 X39.7754 Y-21.6641
G01 X39.7919 Y-21.7140
G01 X39.8109 Y-21.7630
G01 X39.8323 Y-21.8109
G01 X39.8560 Y-21.8578
G01 X39.8802 Y-21.9005
G01 X39.9099 Y-21.9475
G01 X39.9401 Y-21.9903
G01 X39.9706 Y-22.0294
G01 X40.0048 Y-22.0692
G01 X40.0410 Y-22.1073
G01 X40.0813 Y-22.1457
G01 X40.1187 Y-22.1779
G01 X40.1600 Y-22.2103
G01 X40.2029 Y-22.2406
G01 X40.2472 Y-22.2688
G01 X40.2929 Y-22.2947
G01 X40.3428 Y-22.3198
G01 X40.3909 Y-22.3411
G01 X40.4400 Y-22.3599
G01 X40.4898 Y-22.3763
