(G-CODE GENERATED BY FLATCAM v8.95 - www.flatcam.org - Version Date: 2019/08/17)

(Name: Syntez2_Test_Ф1_верх.gbr_ncc_cnc)
(Type: G-code from Geometry)
(Units: MM)

(Created on Thursday, 10 September 2020 at 22:13)

(TOOL DIAMETER: 0.1 mm)
(Feedrate: 20.0 mm/min)
(Feedrate_Z: 79.9998 mm/min)
(Feedrate rapids 79.9998 mm/min)

(Z_Cut: -0.07 mm)
(Z_Move: 3.0 mm)
(Z Toolchange: 12.7 mm)
(X,Y Toolchange: 0.0000, 0.0000 mm)
(Z Start: None mm)
(Z End: 12.7 mm)
(Steps per circle: 128)
(Postprocessor Geometry: default)

(X range:    0.0000 ...    0.0000  mm)
(Y range:    0.0000 ...    0.0000  mm)

(Spindle Speed: None RPM)

G21
G90
G94

G01 F20.00
G00 Z3.0000

M03
G00 X0.8833 Y-1.0240
G01 F80.00
G01 Z-0.0700
G01 F20.00
G01 X0.8833 Y-0.9230
G01 X0.9843 Y-0.9230
G01 X0.9554 Y-0.9463
G01 X0.9293 Y-0.9707
G01 X0.9060 Y-0.9958
G01 X0.8833 Y-1.0240
G00 Z3.0000
G00 X2.4155 Y-1.9084
G01 F80.00
G01 Z-0.0700
G01 F20.00
G01 X2.4216 Y-1.9036
G01 X2.4296 Y-1.9003
G01 X2.4382 Y-1.8994
G01 X2.4467 Y-1.9011
G01 X2.4544 Y-1.9052
G01 X2.4605 Y-1.9113
G01 X2.4646 Y-1.9190
G01 X2.4663 Y-1.9275
G01 X2.4663 Y-2.8192
G01 X2.4654 Y-2.8250
G01 X2.4635 Y-2.8304
G01 X2.4577 Y-2.8387
G01 X2.4494 Y-2.8445
G01 X2.4397 Y-2.8472
G01 X2.4339 Y-2.8472
G01 X2.4282 Y-2.8461
G01 X2.4229 Y-2.8438
G01 X2.4181 Y-2.8406
G01 X2.4140 Y-2.8365
G01 X2.4101 Y-2.8304
G01 X2.4082 Y-2.8250
G01 X2.4073 Y-2.8192
G01 X2.4073 Y-2.1209
G01 X2.4067 Y-2.1136
G01 X2.4051 Y-2.1064
G01 X2.4001 Y-2.0952
G01 X2.3943 Y-2.0873
G01 X2.3870 Y-2.0808
G01 X2.3786 Y-2.0757
G01 X2.3718 Y-2.0731
G01 X2.3622 Y-2.0712
G01 X2.3524 Y-2.0712
G01 X2.3427 Y-2.0731
G01 X2.3337 Y-2.0768
G01 X2.3275 Y-2.0808
G01 X2.3219 Y-2.0856
G01 X2.1211 Y-2.2859
G01 X2.1148 Y-2.2895
G01 X2.1064 Y-2.2916
G01 X2.0977 Y-2.2912
G01 X2.0909 Y-2.2889
G01 X2.0848 Y-2.2850
G01 X2.0790 Y-2.2786
G01 X2.0757 Y-2.2721
G01 X2.0741 Y-2.2651
G01 X2.0743 Y-2.2579
G01 X2.0757 Y-2.2523
G01 X2.0790 Y-2.2458
G01 X2.0830 Y-2.2409
G01 X2.4155 Y-1.9084
G01 X2.3725 Y-2.0221
G01 X2.4163 Y-1.9783
G01 X2.4163 Y-2.0403
G01 X2.4076 Y-2.0345
G01 X2.3967 Y-2.0290
G01 X2.3851 Y-2.0249
G01 X2.3725 Y-2.0221
G00 Z3.0000
G00 X2.7890 Y-1.9697
G01 F80.00
G01 Z-0.0700
G01 F20.00
G01 X2.7948 Y-1.9625
G01 X2.8019 Y-1.9577
G01 X2.9407 Y-1.9003
G01 X2.9485 Y-1.8994
G01 X3.0806 Y-1.8994
G01 X3.0870 Y-1.8999
G01 X3.0931 Y-1.9019
G01 X3.2254 Y-1.9569
G01 X3.2334 Y-1.9616
G01 X3.2403 Y-1.9697
G01 X3.3072 Y-2.0817
G01 X3.3098 Y-2.0884
G01 X3.3107 Y-2.0962
G01 X3.3107 Y-2.2061
G01 X3.3095 Y-2.2153
G01 X3.3062 Y-2.2224
G01 X3.2403 Y-2.3325
G01 X3.2280 Y-2.3487
G01 X3.2249 Y-2.3554
G01 X3.2227 Y-2.3624
G01 X3.2215 Y-2.3746
G01 X3.2233 Y-2.3867
G01 X3.2280 Y-2.3980
G01 X3.2403 Y-2.4142
G01 X3.3062 Y-2.5243
G01 X3.3095 Y-2.5314
G01 X3.3107 Y-2.5406
G01 X3.3106 Y-2.6540
G01 X3.3090 Y-2.6610
G01 X3.3062 Y-2.6668
G01 X3.2403 Y-2.7769
G01 X3.2355 Y-2.7831
G01 X3.2286 Y-2.7882
G01 X3.0931 Y-2.8448
G01 X3.0870 Y-2.8468
G01 X3.0806 Y-2.8473
G01 X2.9485 Y-2.8473
G01 X2.9407 Y-2.8464
G01 X2.8038 Y-2.7897
G01 X2.7958 Y-2.7850
G01 X2.7890 Y-2.7769
G01 X2.7219 Y-2.6650
G01 X2.7189 Y-2.6569
G01 X2.7185 Y-2.6482
G01 X2.7206 Y-2.6398
G01 X2.7251 Y-2.6324
G01 X2.7315 Y-2.6266
G01 X2.7393 Y-2.6229
G01 X2.7493 Y-2.6216
G01 X2.7578 Y-2.6233
G01 X2.7655 Y-2.6274
G01 X2.7716 Y-2.6335
G01 X2.8278 Y-2.7266
G01 X2.8357 Y-2.7359
G01 X2.8457 Y-2.7429
G01 X2.9446 Y-2.7844
G01 X2.9540 Y-2.7873
G01 X2.9638 Y-2.7883
G01 X3.0678 Y-2.7882
G01 X3.0751 Y-2.7873
G01 X3.0845 Y-2.7844
G01 X3.1791 Y-2.7450
G01 X3.1856 Y-2.7417
G01 X3.1916 Y-2.7375
G01 X3.1969 Y-2.7324
G01 X3.2014 Y-2.7266
G01 X3.2445 Y-2.6548
G01 X3.2487 Y-2.6459
G01 X3.2514 Y-2.6340
G01 X3.2517 Y-2.5620
G01 X3.2511 Y-2.5547
G01 X3.2495 Y-2.5475
G01 X3.2445 Y-2.5363
G01 X3.2000 Y-2.4625
G01 X3.1916 Y-2.4536
G01 X3.1813 Y-2.4471
G01 X3.0660 Y-2.3986
G01 X3.0603 Y-2.3941
G01 X3.0559 Y-2.3884
G01 X3.0529 Y-2.3818
G01 X3.0518 Y-2.3762
G01 X3.0522 Y-2.3675
G01 X3.0545 Y-2.3607
G01 X3.0593 Y-2.3535
G01 X3.0660 Y-2.3480
G01 X3.1791 Y-2.3006
G01 X3.1877 Y-2.2960
G01 X3.1935 Y-2.2915
G01 X3.1985 Y-2.2861
G01 X3.2027 Y-2.2801
G01 X3.2479 Y-2.2038
G01 X3.2507 Y-2.1944
G01 X3.2517 Y-2.1847
G01 X3.2517 Y-2.1176
G01 X3.2502 Y-2.1055
G01 X3.2479 Y-2.0985
G01 X3.2446 Y-2.0919
G01 X3.2014 Y-2.0200
G01 X3.1969 Y-2.0142
G01 X3.1916 Y-2.0091
G01 X3.1813 Y-2.0026
G01 X3.0845 Y-1.9623
G01 X3.0775 Y-1.9600
G01 X3.0653 Y-1.9584
G01 X2.9638 Y-1.9584
G01 X2.9540 Y-1.9594
G01 X2.9446 Y-1.9623
G01 X2.8501 Y-2.0016
G01 X2.8395 Y-2.0076
G01 X2.8323 Y-2.0142
G01 X2.8278 Y-2.0200
G01 X2.7707 Y-2.1143
G01 X2.7643 Y-2.1202
G01 X2.7565 Y-2.1239
G01 X2.7479 Y-2.1251
G01 X2.7393 Y-2.1239
G01 X2.7340 Y-2.1216
G01 X2.7292 Y-2.1184
G01 X2.7251 Y-2.1143
G01 X2.7219 Y-2.1095
G01 X2.7196 Y-2.1042
G01 X2.7185 Y-2.0985
G01 X2.7185 Y-2.0927
G01 X2.7196 Y-2.0870
G01 X2.7229 Y-2.0799
G01 X2.7890 Y-1.9697
G00 Z3.0000
G00 X3.1728 Y-2.3893
G01 F80.00
G01 Z-0.0700
G01 F20.00
G01 X3.1344 Y-2.3733
G01 X3.1728 Y-2.3574
G01 X3.1715 Y-2.3721
G01 X3.1728 Y-2.3893
G00 Z3.0000
G00 X4.0961 Y-2.1176
G01 F80.00
G01 Z-0.0700
G01 F20.00
G01 X4.0946 Y-2.1055
G01 X4.0902 Y-2.0940
G01 X4.0471 Y-2.0221
G01 X4.0429 Y-2.0161
G01 X4.0378 Y-2.0107
G01 X4.0321 Y-2.0062
G01 X4.0234 Y-2.0016
G01 X3.9289 Y-1.9623
G01 X3.9219 Y-1.9600
G01 X3.9097 Y-1.9584
G01 X3.8082 Y-1.9584
G01 X3.7960 Y-1.9600
G01 X3.7890 Y-1.9623
G01 X3.6923 Y-2.0026
G01 X3.6859 Y-2.0062
G01 X3.6801 Y-2.0107
G01 X3.6722 Y-2.0200
G01 X3.6278 Y-2.0940
G01 X3.6240 Y-2.1031
G01 X3.6221 Y-2.1127
G01 X3.6218 Y-2.6291
G01 X3.6233 Y-2.6412
G01 X3.6278 Y-2.6527
G01 X3.6736 Y-2.7286
G01 X3.6820 Y-2.7375
G01 X3.6923 Y-2.7440
G01 X3.7890 Y-2.7844
G01 X3.7960 Y-2.7867
G01 X3.8082 Y-2.7883
G01 X3.9097 Y-2.7883
G01 X3.9195 Y-2.7873
G01 X3.9266 Y-2.7853
G01 X4.0235 Y-2.7450
G01 X4.0300 Y-2.7417
G01 X4.0360 Y-2.7375
G01 X4.0444 Y-2.7286
G01 X4.0902 Y-2.6527
G01 X4.0939 Y-2.6436
G01 X4.0958 Y-2.6340
G01 X4.0961 Y-2.1176
G01 X4.1542 Y-2.0884
G01 X4.1551 Y-2.0962
G01 X4.1551 Y-2.6525
G01 X4.1539 Y-2.6597
G01 X4.1506 Y-2.6668
G01 X4.0847 Y-2.7769
G01 X4.0788 Y-2.7841
G01 X4.0698 Y-2.7897
G01 X3.9328 Y-2.8464
G01 X3.9250 Y-2.8473
G01 X3.7929 Y-2.8473
G01 X3.7865 Y-2.8468
G01 X3.7804 Y-2.8448
G01 X3.6482 Y-2.7897
G01 X3.6426 Y-2.7867
G01 X3.6371 Y-2.7820
G01 X3.6334 Y-2.7769
G01 X3.5673 Y-2.6668
G01 X3.5641 Y-2.6597
G01 X3.5628 Y-2.6505
G01 X3.5629 Y-2.0927
G01 X3.5645 Y-2.0856
G01 X3.5673 Y-2.0799
G01 X3.6353 Y-1.9668
G01 X3.6414 Y-1.9607
G01 X3.6482 Y-1.9569
G01 X3.7804 Y-1.9019
G01 X3.7865 Y-1.8999
G01 X3.7929 Y-1.8994
G01 X3.9250 Y-1.8994
G01 X3.9328 Y-1.9003
G01 X4.0698 Y-1.9569
G01 X4.0778 Y-1.9616
G01 X4.0847 Y-1.9697
G01 X4.1506 Y-2.0799
G01 X4.1542 Y-2.0884
G00 Z3.0000
G00 X4.8085 Y-2.7783
G01 F80.00
G01 Z-0.0700
G01 F20.00
G01 X4.8162 Y-2.7681
G01 X4.8162 Y-2.7809
G01 X4.8085 Y-2.7783
G01 X4.8662 Y-2.8172
G01 X4.8657 Y-2.8236
G01 X4.8634 Y-2.8304
G01 X4.8595 Y-2.8365
G01 X4.8543 Y-2.8415
G01 X4.8493 Y-2.8445
G01 X4.8425 Y-2.8468
G01 X4.8367 Y-2.8473
G01 X4.8295 Y-2.8464
G01 X4.8215 Y-2.8431
G01 X4.8097 Y-2.8336
G01 X4.8012 Y-2.8288
G01 X4.7920 Y-2.8257
G01 X4.7799 Y-2.8244
G01 X4.7726 Y-2.8251
G01 X4.6421 Y-2.8468
G01 X4.6346 Y-2.8473
G01 X4.4972 Y-2.8245
G01 X4.4881 Y-2.8208
G01 X4.4807 Y-2.8144
G01 X4.4122 Y-2.7232
G01 X4.4089 Y-2.7167
G01 X4.4073 Y-2.7096
G01 X4.4072 Y-2.3164
G01 X4.4081 Y-2.3106
G01 X4.4100 Y-2.3052
G01 X4.4139 Y-2.2991
G01 X4.4180 Y-2.2950
G01 X4.4241 Y-2.2911
G01 X4.4309 Y-2.2888
G01 X4.4381 Y-2.2883
G01 X4.4466 Y-2.2900
G01 X4.4531 Y-2.2933
G01 X4.4595 Y-2.2991
G01 X4.4634 Y-2.3052
G01 X4.4659 Y-2.3135
G01 X4.4662 Y-2.6802
G01 X4.4672 Y-2.6900
G01 X4.4701 Y-2.6995
G01 X4.4762 Y-2.7102
G01 X4.5094 Y-2.7543
G01 X4.5161 Y-2.7610
G01 X4.5240 Y-2.7663
G01 X4.5305 Y-2.7692
G01 X4.5397 Y-2.7717
G01 X4.6355 Y-2.7872
G01 X4.6449 Y-2.7865
G01 X4.7337 Y-2.7717
G01 X4.7407 Y-2.7700
G01 X4.7473 Y-2.7674
G01 X4.7554 Y-2.7624
G01 X4.7640 Y-2.7543
G01 X4.7972 Y-2.7102
G01 X4.8023 Y-2.7017
G01 X4.8062 Y-2.6900
G01 X4.8072 Y-2.6802
G01 X4.8075 Y-2.3135
G01 X4.8100 Y-2.3052
G01 X4.8148 Y-2.2980
G01 X4.8215 Y-2.2925
G01 X4.8295 Y-2.2892
G01 X4.8381 Y-2.2883
G01 X4.8466 Y-2.2900
G01 X4.8531 Y-2.2933
G01 X4.8595 Y-2.2991
G01 X4.8645 Y-2.3079
G01 X4.8662 Y-2.3184
G01 X4.8662 Y-2.8172
G00 Z3.0000
G00 X5.6517 Y-2.1176
G01 F80.00
G01 Z-0.0700
G01 F20.00
G01 X5.6502 Y-2.1055
G01 X5.6457 Y-2.0940
G01 X5.6026 Y-2.0220
G01 X5.5984 Y-2.0161
G01 X5.5934 Y-2.0107
G01 X5.5855 Y-2.0049
G01 X5.5790 Y-2.0016
G01 X5.4845 Y-1.9623
G01 X5.4775 Y-1.9600
G01 X5.4653 Y-1.9584
G01 X5.3637 Y-1.9584
G01 X5.3515 Y-1.9600
G01 X5.3445 Y-1.9623
G01 X5.2478 Y-2.0026
G01 X5.2375 Y-2.0091
G01 X5.2322 Y-2.0142
G01 X5.2277 Y-2.0200
G01 X5.1833 Y-2.0940
G01 X5.1795 Y-2.1031
G01 X5.1776 Y-2.1127
G01 X5.1773 Y-2.6291
G01 X5.1788 Y-2.6412
G01 X5.1833 Y-2.6527
G01 X5.2291 Y-2.7286
G01 X5.2339 Y-2.7342
G01 X5.2394 Y-2.7390
G01 X5.2500 Y-2.7450
G01 X5.3468 Y-2.7853
G01 X5.3539 Y-2.7873
G01 X5.3637 Y-2.7883
G01 X5.4653 Y-2.7883
G01 X5.4775 Y-2.7867
G01 X5.4845 Y-2.7844
G01 X5.5812 Y-2.7440
G01 X5.5915 Y-2.7375
G01 X5.5999 Y-2.7286
G01 X5.6457 Y-2.6527
G01 X5.6495 Y-2.6436
G01 X5.6514 Y-2.6340
G01 X5.6517 Y-2.1176
G01 X5.7062 Y-2.0799
G01 X5.7095 Y-2.0870
G01 X5.7107 Y-2.0962
G01 X5.7107 Y-2.6526
G01 X5.7094 Y-2.6597
G01 X5.7062 Y-2.6668
G01 X5.6401 Y-2.7769
G01 X5.6343 Y-2.7841
G01 X5.6253 Y-2.7897
G01 X5.4884 Y-2.8464
G01 X5.4806 Y-2.8473
G01 X5.3484 Y-2.8473
G01 X5.3420 Y-2.8468
G01 X5.3359 Y-2.8448
G01 X5.2037 Y-2.7897
G01 X5.1981 Y-2.7867
G01 X5.1926 Y-2.7820
G01 X5.1889 Y-2.7769
G01 X5.1228 Y-2.6668
G01 X5.1196 Y-2.6597
G01 X5.1183 Y-2.6505
G01 X5.1184 Y-2.0927
G01 X5.1200 Y-2.0856
G01 X5.1228 Y-2.0799
G01 X5.1908 Y-1.9668
G01 X5.1969 Y-1.9607
G01 X5.2037 Y-1.9569
G01 X5.3406 Y-1.9003
G01 X5.3484 Y-1.8994
G01 X5.4806 Y-1.8994
G01 X5.4870 Y-1.8999
G01 X5.4931 Y-1.9019
G01 X5.6253 Y-1.9569
G01 X5.6332 Y-1.9616
G01 X5.6401 Y-1.9697
G01 X5.7062 Y-2.0799
G00 Z3.0000
G00 X6.0127 Y-2.7973
G01 F80.00
G01 Z-0.0700
G01 F20.00
G01 X6.0127 Y-2.7881
G01 X6.0187 Y-2.7973
G01 X6.0127 Y-2.7973
G01 X5.9928 Y-2.8473
G01 X5.9864 Y-2.8468
G01 X5.9809 Y-2.8451
G01 X5.9758 Y-2.8423
G01 X5.9713 Y-2.8387
G01 X5.9655 Y-2.8304
G01 X5.9628 Y-2.8207
G01 X5.9627 Y-2.7628
G01 X5.9640 Y-2.7536
G01 X5.9672 Y-2.7465
G01 X6.0352 Y-2.6336
G01 X6.0405 Y-2.6280
G01 X6.4296 Y-2.3037
G01 X6.4348 Y-2.2987
G01 X6.4405 Y-2.2910
G01 X6.4889 Y-2.2104
G01 X6.4931 Y-2.2015
G01 X6.4951 Y-2.1944
G01 X6.4960 Y-2.1871
G01 X6.4960 Y-2.1152
G01 X6.4939 Y-2.1031
G01 X6.4901 Y-2.0940
G01 X6.4457 Y-2.0200
G01 X6.4412 Y-2.0142
G01 X6.4359 Y-2.0091
G01 X6.4299 Y-2.0049
G01 X6.4234 Y-2.0016
G01 X6.3289 Y-1.9623
G01 X6.3195 Y-1.9594
G01 X6.3122 Y-1.9585
G01 X6.2081 Y-1.9584
G01 X6.1983 Y-1.9594
G01 X6.1889 Y-1.9623
G01 X6.0900 Y-2.0037
G01 X6.0800 Y-2.0107
G01 X6.0721 Y-2.0200
G01 X6.0159 Y-2.1132
G01 X6.0098 Y-2.1193
G01 X6.0021 Y-2.1234
G01 X5.9936 Y-2.1251
G01 X5.9850 Y-2.1242
G01 X5.9770 Y-2.1209
G01 X5.9703 Y-2.1154
G01 X5.9649 Y-2.1069
G01 X5.9628 Y-2.0985
G01 X5.9632 Y-2.0898
G01 X5.9662 Y-2.0817
G01 X6.0333 Y-1.9697
G01 X6.0402 Y-1.9616
G01 X6.0481 Y-1.9569
G01 X6.1850 Y-1.9003
G01 X6.1928 Y-1.8994
G01 X6.3250 Y-1.8994
G01 X6.3314 Y-1.8999
G01 X6.3375 Y-1.9019
G01 X6.4729 Y-1.9584
G01 X6.4798 Y-1.9635
G01 X6.4845 Y-1.9697
G01 X6.5506 Y-2.0799
G01 X6.5539 Y-2.0870
G01 X6.5551 Y-2.0962
G01 X6.5551 Y-2.2061
G01 X6.5542 Y-2.2139
G01 X6.5516 Y-2.2206
G01 X6.4845 Y-2.3325
G01 X6.4799 Y-2.3386
G01 X6.0864 Y-2.6668
G01 X6.0786 Y-2.6758
G01 X6.0542 Y-2.7169
G01 X6.0515 Y-2.7237
G01 X6.0499 Y-2.7309
G01 X6.0496 Y-2.7431
G01 X6.0508 Y-2.7504
G01 X6.0541 Y-2.7596
G01 X6.0592 Y-2.7680
G01 X6.0640 Y-2.7736
G01 X6.0716 Y-2.7798
G01 X6.0780 Y-2.7835
G01 X6.0872 Y-2.7868
G01 X6.0944 Y-2.7880
G01 X6.5250 Y-2.7883
G01 X6.5314 Y-2.7888
G01 X6.5382 Y-2.7911
G01 X6.5443 Y-2.7950
G01 X6.5484 Y-2.7991
G01 X6.5523 Y-2.8052
G01 X6.5546 Y-2.8120
G01 X6.5551 Y-2.8192
G01 X6.5542 Y-2.8250
G01 X6.5516 Y-2.8317
G01 X6.5475 Y-2.8376
G01 X6.5420 Y-2.8423
G01 X6.5342 Y-2.8461
G01 X6.5270 Y-2.8473
G01 X5.9928 Y-2.8473
G00 Z3.0000
G00 X7.1540 Y-3.8790
G01 F80.00
G01 Z-0.0700
G01 F20.00
G01 X7.1540 Y-3.7724
G01 X7.2848 Y-3.8223
G01 X7.4037 Y-3.8750
G01 X7.5199 Y-3.9335
G01 X7.6331 Y-3.9976
G01 X7.7430 Y-4.0672
G01 X7.8493 Y-4.1421
G01 X7.9518 Y-4.2221
G01 X8.0503 Y-4.3071
G01 X8.1445 Y-4.3968
G01 X8.2342 Y-4.4910
G01 X8.3192 Y-4.5895
G01 X8.3992 Y-4.6920
G01 X8.4741 Y-4.7983
G01 X8.5437 Y-4.9082
G01 X8.6078 Y-5.0214
G01 X8.6663 Y-5.1376
G01 X8.7190 Y-5.2565
G01 X8.7689 Y-5.3873
G01 X8.6623 Y-5.3873
G01 X8.6261 Y-5.2936
G01 X8.5764 Y-5.1815
G01 X8.5202 Y-5.0696
G01 X8.4573 Y-4.9586
G01 X8.3903 Y-4.8529
G01 X8.3181 Y-4.7506
G01 X8.2426 Y-4.6539
G01 X8.1609 Y-4.5590
G01 X8.0747 Y-4.4684
G01 X7.9841 Y-4.3820
G01 X7.8893 Y-4.3002
G01 X7.7907 Y-4.2232
G01 X7.6884 Y-4.1510
G01 X7.5827 Y-4.0840
G01 X7.4738 Y-4.0223
G01 X7.3621 Y-3.9660
G01 X7.2477 Y-3.9152
G01 X7.1540 Y-3.8790
G00 Z3.0000
G00 X10.0123 Y-1.9444
G01 F80.00
G01 Z-0.0700
G01 F20.00
G01 X10.0108 Y-1.9323
G01 X10.0063 Y-1.9209
G01 X9.9591 Y-1.8420
G01 X9.9549 Y-1.8360
G01 X9.9499 Y-1.8307
G01 X9.9420 Y-1.8249
G01 X9.9355 Y-1.8216
G01 X9.8315 Y-1.7783
G01 X9.8245 Y-1.7760
G01 X9.8123 Y-1.7744
G01 X9.7007 Y-1.7744
G01 X9.6885 Y-1.7760
G01 X9.6815 Y-1.7783
G01 X9.5753 Y-1.8226
G01 X9.5689 Y-1.8262
G01 X9.5631 Y-1.8307
G01 X9.5552 Y-1.8400
G01 X9.5067 Y-1.9209
G01 X9.5029 Y-1.9299
G01 X9.5010 Y-1.9395
G01 X9.5007 Y-2.5071
G01 X9.5022 Y-2.5192
G01 X9.5066 Y-2.5306
G01 X9.5566 Y-2.6136
G01 X9.5614 Y-2.6192
G01 X9.5669 Y-2.6240
G01 X9.5775 Y-2.6300
G01 X9.6838 Y-2.6742
G01 X9.6933 Y-2.6766
G01 X9.7007 Y-2.6772
G01 X9.8123 Y-2.6772
G01 X9.8245 Y-2.6756
G01 X9.8315 Y-2.6733
G01 X9.9377 Y-2.6290
G01 X9.9480 Y-2.6225
G01 X9.9564 Y-2.6136
G01 X10.0064 Y-2.5306
G01 X10.0101 Y-2.5216
G01 X10.0120 Y-2.5120
G01 X10.0123 Y-1.9444
G01 X10.0817 Y-1.9004
G01 X10.0857 Y-1.9093
G01 X10.0873 Y-1.9208
G01 X10.0873 Y-2.5331
G01 X10.0857 Y-2.5422
G01 X10.0817 Y-2.5511
G01 X10.0090 Y-2.6724
G01 X10.0017 Y-2.6814
G01 X9.9958 Y-2.6858
G01 X9.9904 Y-2.6885
G01 X9.8390 Y-2.7511
G01 X9.8292 Y-2.7522
G01 X9.6838 Y-2.7522
G01 X9.6758 Y-2.7515
G01 X9.6682 Y-2.7491
G01 X9.5226 Y-2.6885
G01 X9.5156 Y-2.6848
G01 X9.5087 Y-2.6788
G01 X9.5040 Y-2.6724
G01 X9.4313 Y-2.5511
G01 X9.4268 Y-2.5404
G01 X9.4257 Y-2.5307
G01 X9.4259 Y-1.9165
G01 X9.4279 Y-1.9075
G01 X9.4313 Y-1.9004
G01 X9.5064 Y-1.7756
G01 X9.5127 Y-1.7690
G01 X9.5204 Y-1.7641
G01 X9.6740 Y-1.7005
G01 X9.6838 Y-1.6994
G01 X9.8292 Y-1.6994
G01 X9.8372 Y-1.7001
G01 X9.8448 Y-1.7025
G01 X9.9904 Y-1.7631
G01 X10.0003 Y-1.7690
G01 X10.0055 Y-1.7742
G01 X10.0090 Y-1.7792
G01 X10.0817 Y-1.9004
G00 Z3.0000
G00 X10.7829 Y-2.6777
G01 F80.00
G01 Z-0.0700
G01 F20.00
G01 X10.8196 Y-2.6297
G01 X10.8196 Y-2.6898
G01 X10.8102 Y-2.6852
G01 X10.8011 Y-2.6817
G01 X10.7829 Y-2.6777
G01 X10.8696 Y-2.7141
G01 X10.8680 Y-2.7256
G01 X10.8660 Y-2.7307
G01 X10.8622 Y-2.7371
G01 X10.8545 Y-2.7448
G01 X10.8465 Y-2.7494
G01 X10.8376 Y-2.7518
G01 X10.8284 Y-2.7520
G01 X10.8212 Y-2.7506
G01 X10.8144 Y-2.7478
G01 X10.8097 Y-2.7448
G01 X10.7994 Y-2.7361
G01 X10.7887 Y-2.7304
G01 X10.7769 Y-2.7274
G01 X10.7672 Y-2.7271
G01 X10.6189 Y-2.7516
G01 X10.6094 Y-2.7521
G01 X10.4575 Y-2.7269
G01 X10.4507 Y-2.7247
G01 X10.4444 Y-2.7213
G01 X10.4389 Y-2.7168
G01 X10.4350 Y-2.7122
G01 X10.3610 Y-2.6134
G01 X10.3568 Y-2.6051
G01 X10.3548 Y-2.5961
G01 X10.3546 Y-2.1629
G01 X10.3557 Y-2.1556
G01 X10.3590 Y-2.1470
G01 X10.3631 Y-2.1409
G01 X10.3697 Y-2.1346
G01 X10.3777 Y-2.1300
G01 X10.3866 Y-2.1276
G01 X10.3958 Y-2.1274
G01 X10.4065 Y-2.1300
G01 X10.4145 Y-2.1346
G01 X10.4211 Y-2.1409
G01 X10.4268 Y-2.1503
G01 X10.4292 Y-2.1592
G01 X10.4296 Y-2.5632
G01 X10.4306 Y-2.5731
G01 X10.4335 Y-2.5825
G01 X10.4396 Y-2.5932
G01 X10.4759 Y-2.6415
G01 X10.4826 Y-2.6482
G01 X10.4905 Y-2.6535
G01 X10.4970 Y-2.6565
G01 X10.5062 Y-2.6589
G01 X10.6109 Y-2.6759
G01 X10.6203 Y-2.6753
G01 X10.7180 Y-2.6589
G01 X10.7249 Y-2.6573
G01 X10.7315 Y-2.6546
G01 X10.7415 Y-2.6482
G01 X10.7482 Y-2.6415
G01 X10.7845 Y-2.5932
G01 X10.7897 Y-2.5848
G01 X10.7930 Y-2.5755
G01 X10.7946 Y-2.5632
G01 X10.7950 Y-2.1592
G01 X10.7982 Y-2.1487
G01 X10.8043 Y-2.1395
G01 X10.8128 Y-2.1325
G01 X10.8230 Y-2.1283
G01 X10.8339 Y-2.1272
G01 X10.8447 Y-2.1294
G01 X10.8545 Y-2.1346
G01 X10.8611 Y-2.1409
G01 X10.8643 Y-2.1454
G01 X10.8674 Y-2.1521
G01 X10.8692 Y-2.1592
G01 X10.8696 Y-2.1653
G01 X10.8696 Y-2.7141
G00 Z3.0000
G00 X11.3584 Y-2.6126
G01 F80.00
G01 Z-0.0700
G01 F20.00
G01 X11.3584 Y-2.2522
G01 X11.3590 Y-2.2449
G01 X11.3606 Y-2.2377
G01 X11.3656 Y-2.2265
G01 X11.3731 Y-2.2169
G01 X11.3827 Y-2.2094
G01 X11.3939 Y-2.2044
G01 X11.4060 Y-2.2023
G01 X11.4694 Y-2.2022
G01 X11.4767 Y-2.2011
G01 X11.4853 Y-2.1978
G01 X11.4941 Y-2.1912
G01 X11.4998 Y-2.1840
G01 X11.5040 Y-2.1738
G01 X11.5051 Y-2.1629
G01 X11.5029 Y-2.1521
G01 X11.4988 Y-2.1439
G01 X11.4914 Y-2.1357
G01 X11.4836 Y-2.1308
G01 X11.4767 Y-2.1283
G01 X11.4694 Y-2.1272
G01 X11.4060 Y-2.1271
G01 X11.3939 Y-2.1250
G01 X11.3827 Y-2.1200
G01 X11.3749 Y-2.1142
G01 X11.3669 Y-2.1049
G01 X11.3622 Y-2.0963
G01 X11.3594 Y-2.0869
G01 X11.3584 Y-2.0772
G01 X11.3582 Y-1.7332
G01 X11.3573 Y-1.7278
G01 X11.3548 Y-1.7209
G01 X11.3521 Y-1.7161
G01 X11.3474 Y-1.7104
G01 X11.3417 Y-1.7057
G01 X11.3369 Y-1.7030
G01 X11.3300 Y-1.7005
G01 X11.3246 Y-1.6996
G01 X11.3172 Y-1.6996
G01 X11.3100 Y-1.7010
G01 X11.3032 Y-1.7038
G01 X11.2971 Y-1.7079
G01 X11.2919 Y-1.7131
G01 X11.2878 Y-1.7192
G01 X11.2850 Y-1.7260
G01 X11.2836 Y-1.7332
G01 X11.2834 Y-2.0772
G01 X11.2824 Y-2.0869
G01 X11.2796 Y-2.0963
G01 X11.2735 Y-2.1069
G01 X11.2669 Y-2.1142
G01 X11.2591 Y-2.1200
G01 X11.2479 Y-2.1250
G01 X11.2358 Y-2.1271
G01 X11.1725 Y-2.1272
G01 X11.1652 Y-2.1283
G01 X11.1566 Y-2.1316
G01 X11.1478 Y-2.1382
G01 X11.1412 Y-2.1470
G01 X11.1375 Y-2.1574
G01 X11.1370 Y-2.1684
G01 X11.1390 Y-2.1773
G01 X11.1442 Y-2.1871
G01 X11.1519 Y-2.1948
G01 X11.1599 Y-2.1994
G01 X11.1652 Y-2.2011
G01 X11.1725 Y-2.2022
G01 X11.2334 Y-2.2022
G01 X11.2455 Y-2.2037
G01 X11.2569 Y-2.2081
G01 X11.2651 Y-2.2136
G01 X11.2735 Y-2.2225
G01 X11.2786 Y-2.2309
G01 X11.2824 Y-2.2425
G01 X11.2834 Y-2.2522
G01 X11.2834 Y-2.6530
G01 X11.2845 Y-2.6626
G01 X11.2886 Y-2.6728
G01 X11.2955 Y-2.6812
G01 X11.3717 Y-2.7447
G01 X11.3796 Y-2.7492
G01 X11.3865 Y-2.7514
G01 X11.3955 Y-2.7522
G01 X11.4027 Y-2.7513
G01 X11.4789 Y-2.7260
G01 X11.4893 Y-2.7208
G01 X11.4973 Y-2.7132
G01 X11.5027 Y-2.7036
G01 X11.5050 Y-2.6928
G01 X11.5042 Y-2.6818
G01 X11.5002 Y-2.6716
G01 X11.4934 Y-2.6629
G01 X11.4844 Y-2.6566
G01 X11.4739 Y-2.6532
G01 X11.4665 Y-2.6527
G01 X11.4592 Y-2.6536
G01 X11.4264 Y-2.6643
G01 X11.4192 Y-2.6658
G01 X11.4072 Y-2.6659
G01 X11.3954 Y-2.6631
G01 X11.3847 Y-2.6575
G01 X11.3746 Y-2.6494
G01 X11.3667 Y-2.6402
G01 X11.3622 Y-2.6316
G01 X11.3594 Y-2.6222
G01 X11.3584 Y-2.6126
G01 X11.2817 Y-2.1647
G01 X11.2939 Y-2.1727
G01 X11.3032 Y-2.1807
G01 X11.3129 Y-2.1917
G01 X11.3209 Y-2.2039
G01 X11.3289 Y-2.1917
G01 X11.3386 Y-2.1807
G01 X11.3479 Y-2.1727
G01 X11.3601 Y-2.1647
G01 X11.3479 Y-2.1567
G01 X11.3369 Y-2.1470
G01 X11.3289 Y-2.1377
G01 X11.3209 Y-2.1255
G01 X11.3129 Y-2.1377
G01 X11.3049 Y-2.1470
G01 X11.2939 Y-2.1567
G01 X11.2817 Y-2.1647
G00 Z3.0000
G00 X12.1792 Y-2.2043
G01 F80.00
G01 Z-0.0700
G01 F20.00
G01 X12.1792 Y-2.2473
G01 X12.1918 Y-2.2353
G01 X12.2059 Y-2.2258
G01 X12.1918 Y-2.2163
G01 X12.1792 Y-2.2043
G01 X12.2042 Y-2.1383
G01 X12.2043 Y-1.8220
G01 X12.2064 Y-1.8099
G01 X12.2101 Y-1.8009
G01 X12.2156 Y-1.7927
G01 X12.2245 Y-1.7843
G01 X12.2307 Y-1.7803
G01 X12.2374 Y-1.7774
G01 X12.2445 Y-1.7754
G01 X12.2518 Y-1.7745
G01 X12.5207 Y-1.7747
G01 X12.5280 Y-1.7760
G01 X12.5350 Y-1.7783
G01 X12.6412 Y-1.8226
G01 X12.6515 Y-1.8291
G01 X12.6599 Y-1.8380
G01 X12.7086 Y-1.9187
G01 X12.7136 Y-1.9299
G01 X12.7152 Y-1.9371
G01 X12.7158 Y-1.9444
G01 X12.7157 Y-2.0206
G01 X12.7136 Y-2.0327
G01 X12.7086 Y-2.0439
G01 X12.6613 Y-2.1227
G01 X12.6568 Y-2.1285
G01 X12.6515 Y-2.1336
G01 X12.6455 Y-2.1378
G01 X12.6390 Y-2.1411
G01 X12.5350 Y-2.1844
G01 X12.5232 Y-2.1877
G01 X12.5158 Y-2.1883
G01 X12.2542 Y-2.1883
G01 X12.2445 Y-2.1873
G01 X12.2374 Y-2.1853
G01 X12.2307 Y-2.1824
G01 X12.2245 Y-2.1784
G01 X12.2189 Y-2.1736
G01 X12.2127 Y-2.1660
G01 X12.2090 Y-2.1596
G01 X12.2064 Y-2.1528
G01 X12.2048 Y-2.1456
G01 X12.2043 Y-2.1407
G01 X12.2042 Y-2.1383
G01 X12.1882 Y-1.7494
G01 X12.1792 Y-1.7494
G01 X12.1792 Y-1.7584
G01 X12.1882 Y-1.7494
G01 X12.1292 Y-1.7375
G01 X12.1292 Y-2.7165
G01 X12.1303 Y-2.7238
G01 X12.1320 Y-2.7291
G01 X12.1355 Y-2.7355
G01 X12.1402 Y-2.7412
G01 X12.1459 Y-2.7459
G01 X12.1523 Y-2.7494
G01 X12.1594 Y-2.7515
G01 X12.1667 Y-2.7522
G01 X12.1740 Y-2.7515
G01 X12.1811 Y-2.7494
G01 X12.1875 Y-2.7459
G01 X12.1919 Y-2.7425
G01 X12.1968 Y-2.7371
G01 X12.2006 Y-2.7307
G01 X12.2031 Y-2.7238
G01 X12.2040 Y-2.7184
G01 X12.2042 Y-2.3133
G01 X12.2048 Y-2.3060
G01 X12.2064 Y-2.2988
G01 X12.2090 Y-2.2920
G01 X12.2141 Y-2.2836
G01 X12.2225 Y-2.2747
G01 X12.2307 Y-2.2692
G01 X12.2397 Y-2.2655
G01 X12.2518 Y-2.2634
G01 X12.5327 Y-2.2633
G01 X12.5407 Y-2.2626
G01 X12.5483 Y-2.2602
G01 X12.6939 Y-2.1996
G01 X12.7009 Y-2.1959
G01 X12.7078 Y-2.1899
G01 X12.7125 Y-2.1835
G01 X12.7852 Y-2.0622
G01 X12.7892 Y-2.0533
G01 X12.7908 Y-2.0418
G01 X12.7906 Y-1.9165
G01 X12.7886 Y-1.9075
G01 X12.7852 Y-1.9004
G01 X12.7125 Y-1.7792
G01 X12.7052 Y-1.7702
G01 X12.6993 Y-1.7658
G01 X12.6939 Y-1.7631
G01 X12.5425 Y-1.7005
G01 X12.5327 Y-1.6994
G01 X12.1630 Y-1.6996
G01 X12.1576 Y-1.7005
G01 X12.1507 Y-1.7030
G01 X12.1443 Y-1.7068
G01 X12.1389 Y-1.7117
G01 X12.1345 Y-1.7176
G01 X12.1314 Y-1.7243
G01 X12.1296 Y-1.7314
G01 X12.1292 Y-1.7375
G00 Z3.0000
G00 X13.4909 Y-2.5695
G01 F80.00
G01 Z-0.0700
G01 F20.00
G01 X13.4959 Y-2.5583
G01 X13.4980 Y-2.5462
G01 X13.4981 Y-2.3479
G01 X13.4975 Y-2.3405
G01 X13.4951 Y-2.3310
G01 X13.4921 Y-2.3243
G01 X13.4487 Y-2.2517
G01 X13.4444 Y-2.2457
G01 X13.4394 Y-2.2404
G01 X13.4336 Y-2.2359
G01 X13.4271 Y-2.2322
G01 X13.4203 Y-2.2296
G01 X13.3277 Y-2.2064
G01 X13.3180 Y-2.2050
G01 X13.3107 Y-2.2052
G01 X13.3035 Y-2.2064
G01 X13.2132 Y-2.2289
G01 X13.2062 Y-2.2312
G01 X13.1996 Y-2.2345
G01 X13.1936 Y-2.2388
G01 X13.1883 Y-2.2439
G01 X13.1838 Y-2.2497
G01 X13.1390 Y-2.3243
G01 X13.1353 Y-2.3333
G01 X13.1332 Y-2.3454
G01 X13.1331 Y-2.5438
G01 X13.1341 Y-2.5535
G01 X13.1361 Y-2.5606
G01 X13.1403 Y-2.5695
G01 X13.1803 Y-2.6362
G01 X13.1877 Y-2.6457
G01 X13.1931 Y-2.6504
G01 X13.1991 Y-2.6543
G01 X13.2057 Y-2.6573
G01 X13.2126 Y-2.6594
G01 X13.3097 Y-2.6756
G01 X13.3168 Y-2.6759
G01 X13.3238 Y-2.6753
G01 X13.4185 Y-2.6594
G01 X13.4277 Y-2.6565
G01 X13.4341 Y-2.6531
G01 X13.4417 Y-2.6474
G01 X13.4495 Y-2.6383
G01 X13.4909 Y-2.5695
G01 X13.5675 Y-2.5878
G01 X13.4934 Y-2.7110
G01 X13.4889 Y-2.7166
G01 X13.4848 Y-2.7202
G01 X13.4802 Y-2.7231
G01 X13.4736 Y-2.7259
G01 X13.3224 Y-2.7516
G01 X13.3147 Y-2.7522
G01 X13.1609 Y-2.7269
G01 X13.1541 Y-2.7247
G01 X13.1493 Y-2.7222
G01 X13.1410 Y-2.7153
G01 X13.1364 Y-2.7090
G01 X13.0637 Y-2.5878
G01 X13.0609 Y-2.5824
G01 X13.0588 Y-2.5753
G01 X13.0581 Y-2.5674
G01 X13.0581 Y-2.3242
G01 X13.0592 Y-2.3145
G01 X13.0637 Y-2.3038
G01 X13.1364 Y-2.1825
G01 X13.1437 Y-2.1735
G01 X13.1512 Y-2.1682
G01 X13.1604 Y-2.1647
G01 X13.3059 Y-2.1284
G01 X13.3156 Y-2.1272
G01 X13.3253 Y-2.1284
G01 X13.4707 Y-2.1647
G01 X13.4799 Y-2.1682
G01 X13.4887 Y-2.1747
G01 X13.4947 Y-2.1825
G01 X13.5675 Y-2.3038
G01 X13.5703 Y-2.3092
G01 X13.5724 Y-2.3163
G01 X13.5731 Y-2.3242
G01 X13.5731 Y-2.5674
G01 X13.5720 Y-2.5771
G01 X13.5675 Y-2.5878
G00 Z3.0000
G00 X14.0526 Y-2.5682
G01 F80.00
G01 Z-0.0700
G01 F20.00
G01 X14.0978 Y-2.6812
G01 X14.1430 Y-2.5682
G01 X14.1330 Y-2.5726
G01 X14.1211 Y-2.5762
G01 X14.1089 Y-2.5784
G01 X14.0966 Y-2.5790
G01 X14.0867 Y-2.5784
G01 X14.0745 Y-2.5762
G01 X14.0626 Y-2.5726
G01 X14.0526 Y-2.5682
G01 X14.0514 Y-2.4976
G01 X13.9119 Y-2.1491
G01 X13.9082 Y-2.1427
G01 X13.9033 Y-2.1372
G01 X13.8975 Y-2.1327
G01 X13.8891 Y-2.1289
G01 X13.8801 Y-2.1272
G01 X13.8727 Y-2.1275
G01 X13.8639 Y-2.1299
G01 X13.8573 Y-2.1332
G01 X13.8529 Y-2.1366
G01 X13.8479 Y-2.1420
G01 X13.8449 Y-2.1466
G01 X13.8420 Y-2.1534
G01 X13.8407 Y-2.1587
G01 X13.8403 Y-2.1661
G01 X13.8413 Y-2.1734
G01 X13.8432 Y-2.1792
G01 X14.0637 Y-2.7303
G01 X14.0686 Y-2.7382
G01 X14.0768 Y-2.7458
G01 X14.0868 Y-2.7506
G01 X14.0978 Y-2.7522
G01 X14.1088 Y-2.7506
G01 X14.1188 Y-2.7458
G01 X14.1270 Y-2.7382
G01 X14.1319 Y-2.7303
G01 X14.2734 Y-2.3773
G01 X14.2805 Y-2.3672
G01 X14.2858 Y-2.3620
G01 X14.2919 Y-2.3577
G01 X14.3031 Y-2.3526
G01 X14.3104 Y-2.3510
G01 X14.3178 Y-2.3504
G01 X14.3252 Y-2.3510
G01 X14.3325 Y-2.3526
G01 X14.3437 Y-2.3577
G01 X14.3498 Y-2.3620
G01 X14.3551 Y-2.3672
G01 X14.3622 Y-2.3773
G01 X14.5027 Y-2.7281
G01 X14.5063 Y-2.7352
G01 X14.5109 Y-2.7409
G01 X14.5181 Y-2.7466
G01 X14.5247 Y-2.7499
G01 X14.5336 Y-2.7520
G01 X14.5410 Y-2.7521
G01 X14.5499 Y-2.7502
G01 X14.5582 Y-2.7462
G01 X14.5640 Y-2.7416
G01 X14.5706 Y-2.7329
G01 X14.5742 Y-2.7238
G01 X14.7205 Y-2.1750
G01 X14.7217 Y-2.1689
G01 X14.7218 Y-2.1616
G01 X14.7205 Y-2.1543
G01 X14.7178 Y-2.1475
G01 X14.7126 Y-2.1399
G01 X14.7042 Y-2.1328
G01 X14.6958 Y-2.1290
G01 X14.6850 Y-2.1272
G01 X14.6740 Y-2.1286
G01 X14.6640 Y-2.1332
G01 X14.6570 Y-2.1391
G01 X14.6507 Y-2.1481
G01 X14.6480 Y-2.1556
G01 X14.5688 Y-2.4525
G01 X14.5649 Y-2.4615
G01 X14.5593 Y-2.4696
G01 X14.5523 Y-2.4764
G01 X14.5441 Y-2.4817
G01 X14.5350 Y-2.4854
G01 X14.5254 Y-2.4871
G01 X14.5156 Y-2.4870
G01 X14.5083 Y-2.4857
G01 X14.5014 Y-2.4833
G01 X14.4928 Y-2.4785
G01 X14.4853 Y-2.4722
G01 X14.4792 Y-2.4646
G01 X14.4747 Y-2.4559
G01 X14.3519 Y-2.1491
G01 X14.3458 Y-2.1397
G01 X14.3373 Y-2.1326
G01 X14.3270 Y-2.1283
G01 X14.3159 Y-2.1272
G01 X14.3068 Y-2.1288
G01 X14.2968 Y-2.1336
G01 X14.2886 Y-2.1412
G01 X14.2837 Y-2.1491
G01 X14.1442 Y-2.4976
G01 X14.1382 Y-2.5084
G01 X14.1334 Y-2.5140
G01 X14.1278 Y-2.5189
G01 X14.1171 Y-2.5251
G01 X14.1052 Y-2.5284
G01 X14.0928 Y-2.5287
G01 X14.0855 Y-2.5275
G01 X14.0785 Y-2.5251
G01 X14.0678 Y-2.5189
G01 X14.0622 Y-2.5140
G01 X14.0574 Y-2.5084
G01 X14.0514 Y-2.4976
G00 Z3.0000
G00 X14.2726 Y-2.3112
G01 F80.00
G01 Z-0.0700
G01 F20.00
G01 X14.3178 Y-2.1982
G01 X14.3630 Y-2.3112
G01 X14.3530 Y-2.3068
G01 X14.3411 Y-2.3032
G01 X14.3289 Y-2.3010
G01 X14.3166 Y-2.3004
G01 X14.3067 Y-2.3010
G01 X14.2945 Y-2.3032
G01 X14.2826 Y-2.3068
G01 X14.2726 Y-2.3112
G00 Z3.0000
G00 X14.4759 Y-2.5265
G01 F80.00
G01 Z-0.0700
G01 F20.00
G01 X14.4874 Y-2.5314
G01 X14.4991 Y-2.5349
G01 X14.5112 Y-2.5368
G01 X14.5259 Y-2.5372
G01 X14.5405 Y-2.5354
G01 X14.5523 Y-2.5323
G01 X14.5659 Y-2.5267
G01 X14.5767 Y-2.5205
G01 X14.5354 Y-2.6752
G01 X14.4759 Y-2.5265
G00 Z3.0000
G00 X14.9892 Y-2.3242
G01 F80.00
G01 Z-0.0700
G01 F20.00
G01 X14.9903 Y-2.3145
G01 X14.9936 Y-2.3059
G01 X15.0675 Y-2.1825
G01 X15.0710 Y-2.1775
G01 X15.0762 Y-2.1723
G01 X15.0823 Y-2.1682
G01 X15.0874 Y-2.1660
G01 X15.2370 Y-2.1284
G01 X15.2467 Y-2.1272
G01 X15.2564 Y-2.1284
G01 X15.4018 Y-2.1647
G01 X15.4091 Y-2.1673
G01 X15.4152 Y-2.1709
G01 X15.4222 Y-2.1773
G01 X15.4948 Y-2.2620
G01 X15.4995 Y-2.2687
G01 X15.5025 Y-2.2757
G01 X15.5042 Y-2.2875
G01 X15.5042 Y-2.4109
G01 X15.5031 Y-2.4182
G01 X15.5014 Y-2.4235
G01 X15.4979 Y-2.4299
G01 X15.4932 Y-2.4356
G01 X15.4875 Y-2.4403
G01 X15.4811 Y-2.4438
G01 X15.4758 Y-2.4455
G01 X15.4685 Y-2.4466
G01 X15.1142 Y-2.4466
G01 X15.1045 Y-2.4476
G01 X15.0929 Y-2.4514
G01 X15.0845 Y-2.4565
G01 X15.0756 Y-2.4649
G01 X15.0690 Y-2.4753
G01 X15.0664 Y-2.4821
G01 X15.0645 Y-2.4917
G01 X15.0647 Y-2.5280
G01 X15.0828 Y-2.6039
G01 X15.0877 Y-2.6153
G01 X15.0952 Y-2.6251
G01 X15.1028 Y-2.6314
G01 X15.1093 Y-2.6351
G01 X15.2033 Y-2.6742
G01 X15.2104 Y-2.6762
G01 X15.2202 Y-2.6772
G01 X15.3279 Y-2.6772
G01 X15.3398 Y-2.6757
G01 X15.3510 Y-2.6715
G01 X15.4510 Y-2.6195
G01 X15.4598 Y-2.6167
G01 X15.4671 Y-2.6161
G01 X15.4780 Y-2.6178
G01 X15.4863 Y-2.6216
G01 X15.4948 Y-2.6287
G01 X15.5008 Y-2.6379
G01 X15.5039 Y-2.6485
G01 X15.5038 Y-2.6595
G01 X15.5004 Y-2.6700
G01 X15.4942 Y-2.6791
G01 X15.4887 Y-2.6840
G01 X15.4835 Y-2.6872
G01 X15.3672 Y-2.7477
G01 X15.3582 Y-2.7512
G01 X15.3487 Y-2.7522
G01 X15.2033 Y-2.7522
G01 X15.1953 Y-2.7515
G01 X15.1877 Y-2.7491
G01 X15.0421 Y-2.6885
G01 X15.0366 Y-2.6857
G01 X15.0307 Y-2.6813
G01 X15.0246 Y-2.6742
G01 X15.0200 Y-2.6641
G01 X14.9893 Y-2.5348
G01 X14.9892 Y-2.3242
G01 X15.0871 Y-2.2959
G01 X15.0821 Y-2.3070
G01 X15.0805 Y-2.3142
G01 X15.0800 Y-2.3216
G01 X15.0815 Y-2.3337
G01 X15.0859 Y-2.3451
G01 X15.0898 Y-2.3513
G01 X15.0946 Y-2.3569
G01 X15.1043 Y-2.3644
G01 X15.1109 Y-2.3678
G01 X15.1178 Y-2.3701
G01 X15.1300 Y-2.3716
G01 X15.3792 Y-2.3716
G01 X15.3865 Y-2.3710
G01 X15.3937 Y-2.3694
G01 X15.4027 Y-2.3657
G01 X15.4089 Y-2.3617
G01 X15.4145 Y-2.3569
G01 X15.4193 Y-2.3513
G01 X15.4244 Y-2.3429
G01 X15.4270 Y-2.3361
G01 X15.4289 Y-2.3265
G01 X15.4291 Y-2.3168
G01 X15.4281 Y-2.3092
G01 X15.4260 Y-2.3019
G01 X15.4216 Y-2.2929
G01 X15.4171 Y-2.2867
G01 X15.3830 Y-2.2469
G01 X15.3780 Y-2.2419
G01 X15.3723 Y-2.2376
G01 X15.3639 Y-2.2332
G01 X15.3571 Y-2.2310
G01 X15.2588 Y-2.2064
G01 X15.2516 Y-2.2052
G01 X15.2418 Y-2.2052
G01 X15.2346 Y-2.2064
G01 X15.1443 Y-2.2289
G01 X15.1329 Y-2.2333
G01 X15.1247 Y-2.2388
G01 X15.1163 Y-2.2477
G01 X15.0871 Y-2.2959
G00 Z3.0000
G00 X15.0392 Y-2.4306
G01 F80.00
G01 Z-0.0700
G01 F20.00
G01 X15.0392 Y-2.3634
G01 X15.0462 Y-2.3761
G01 X15.0535 Y-2.3859
G01 X15.0638 Y-2.3965
G01 X15.0746 Y-2.4048
G01 X15.0639 Y-2.4103
G01 X15.0557 Y-2.4156
G01 X15.0462 Y-2.4234
G01 X15.0392 Y-2.4306
G01 X15.4452 Y-2.3966
G01 X15.4542 Y-2.3876
G01 X15.4542 Y-2.3966
G01 X15.4452 Y-2.3966
G00 Z3.0000
G00 X15.7714 Y-2.1653
G01 F80.00
G01 Z-0.0700
G01 F20.00
G01 X15.7721 Y-2.1574
G01 X15.7742 Y-2.1503
G01 X15.7777 Y-2.1439
G01 X15.7824 Y-2.1382
G01 X15.7881 Y-2.1335
G01 X15.7945 Y-2.1300
G01 X15.8016 Y-2.1279
G01 X15.8089 Y-2.1272
G01 X15.8198 Y-2.1288
G01 X15.8297 Y-2.1335
G01 X15.8354 Y-2.1382
G01 X15.8472 Y-2.1514
G01 X15.8573 Y-2.1582
G01 X15.8687 Y-2.1624
G01 X15.8807 Y-2.1637
G01 X15.8927 Y-2.1620
G01 X15.9040 Y-2.1575
G01 X15.9101 Y-2.1536
G01 X15.9344 Y-2.1336
G01 X15.9427 Y-2.1294
G01 X15.9499 Y-2.1276
G01 X16.1059 Y-2.1274
G01 X16.1113 Y-2.1283
G01 X16.1182 Y-2.1308
G01 X16.1230 Y-2.1335
G01 X16.1287 Y-2.1382
G01 X16.1334 Y-2.1439
G01 X16.1369 Y-2.1503
G01 X16.1386 Y-2.1556
G01 X16.1397 Y-2.1629
G01 X16.1393 Y-2.1702
G01 X16.1381 Y-2.1756
G01 X16.1361 Y-2.1807
G01 X16.1323 Y-2.1871
G01 X16.1287 Y-2.1912
G01 X16.1230 Y-2.1959
G01 X16.1166 Y-2.1994
G01 X16.1113 Y-2.2011
G01 X16.1016 Y-2.2022
G01 X15.9847 Y-2.2023
G01 X15.9749 Y-2.2038
G01 X15.9656 Y-2.2071
G01 X15.9552 Y-2.2138
G01 X15.8644 Y-2.2895
G01 X15.8576 Y-2.2964
G01 X15.8534 Y-2.3024
G01 X15.8486 Y-2.3135
G01 X15.8470 Y-2.3206
G01 X15.8464 Y-2.3279
G01 X15.8462 Y-2.7184
G01 X15.8453 Y-2.7238
G01 X15.8428 Y-2.7307
G01 X15.8390 Y-2.7371
G01 X15.8341 Y-2.7425
G01 X15.8297 Y-2.7459
G01 X15.8233 Y-2.7494
G01 X15.8162 Y-2.7515
G01 X15.8089 Y-2.7522
G01 X15.8016 Y-2.7515
G01 X15.7945 Y-2.7494
G01 X15.7881 Y-2.7459
G01 X15.7824 Y-2.7412
G01 X15.7777 Y-2.7355
G01 X15.7742 Y-2.7291
G01 X15.7725 Y-2.7238
G01 X15.7714 Y-2.7165
G01 X15.7714 Y-2.1653
G01 X15.8214 Y-2.1947
G01 X15.8293 Y-2.1998
G01 X15.8379 Y-2.2044
G01 X15.8562 Y-2.2108
G01 X15.8657 Y-2.2126
G01 X15.8774 Y-2.2136
G01 X15.8315 Y-2.2519
G01 X15.8214 Y-2.2619
G01 X15.8214 Y-2.1947
G00 Z3.0000
G00 X16.9523 Y-2.3474
G01 F80.00
G01 Z-0.0700
G01 F20.00
G01 X16.9716 Y-2.2959
G01 X16.9771 Y-2.3079
G01 X16.9783 Y-2.3101
G01 X16.9796 Y-2.3122
G01 X16.9809 Y-2.3143
G01 X16.9836 Y-2.3184
G01 X16.9914 Y-2.3280
G01 X16.9991 Y-2.3355
G01 X16.9862 Y-2.3364
G01 X16.9743 Y-2.3388
G01 X16.9628 Y-2.3425
G01 X16.9523 Y-2.3474
G01 X17.0183 Y-2.2429
G01 X17.0154 Y-2.2549
G01 X17.0153 Y-2.2648
G01 X17.0171 Y-2.2745
G01 X17.0220 Y-2.2858
G01 X17.0278 Y-2.2938
G01 X17.0371 Y-2.3019
G01 X17.0481 Y-2.3075
G01 X17.0577 Y-2.3099
G01 X17.0651 Y-2.3105
G01 X17.2757 Y-2.3102
G01 X17.2877 Y-2.3075
G01 X17.2987 Y-2.3019
G01 X17.3063 Y-2.2956
G01 X17.3138 Y-2.2858
G01 X17.3187 Y-2.2745
G01 X17.3206 Y-2.2648
G01 X17.3204 Y-2.2549
G01 X17.3176 Y-2.2429
G01 X17.2138 Y-1.9664
G01 X17.2090 Y-1.9578
G01 X17.2043 Y-1.9520
G01 X17.1989 Y-1.9470
G01 X17.1927 Y-1.9428
G01 X17.1837 Y-1.9388
G01 X17.1741 Y-1.9366
G01 X17.1642 Y-1.9364
G01 X17.1545 Y-1.9381
G01 X17.1453 Y-1.9417
G01 X17.1369 Y-1.9470
G01 X17.1298 Y-1.9538
G01 X17.1242 Y-1.9620
G01 X17.1211 Y-1.9687
G01 X17.0183 Y-2.2429
G00 Z3.0000
G00 X17.3368 Y-2.3355
G01 F80.00
G01 Z-0.0700
G01 F20.00
G01 X17.3445 Y-2.3280
G01 X17.3522 Y-2.3184
G01 X17.3588 Y-2.3079
G01 X17.3642 Y-2.2959
G01 X17.3835 Y-2.3474
G01 X17.3731 Y-2.3425
G01 X17.3616 Y-2.3388
G01 X17.3497 Y-2.3364
G01 X17.3368 Y-2.3355
G00 Z3.0000
G00 X17.3832 Y-2.4180
G01 F80.00
G01 Z-0.0700
G01 F20.00
G01 X17.3802 Y-2.4114
G01 X17.3762 Y-2.4053
G01 X17.3714 Y-2.3998
G01 X17.3659 Y-2.3951
G01 X17.3597 Y-2.3913
G01 X17.3531 Y-2.3884
G01 X17.3460 Y-2.3865
G01 X17.3388 Y-2.3856
G01 X16.9995 Y-2.3855
G01 X16.9875 Y-2.3870
G01 X16.9762 Y-2.3913
G01 X16.9700 Y-2.3952
G01 X16.9628 Y-2.4016
G01 X16.9569 Y-2.4093
G01 X16.9535 Y-2.4157
G01 X16.8367 Y-2.7273
G01 X16.8332 Y-2.7345
G01 X16.8274 Y-2.7416
G01 X16.8201 Y-2.7472
G01 X16.8117 Y-2.7508
G01 X16.8007 Y-2.7522
G01 X16.7899 Y-2.7504
G01 X16.7815 Y-2.7466
G01 X16.7744 Y-2.7408
G01 X16.7679 Y-2.7319
G01 X16.7652 Y-2.7251
G01 X16.7638 Y-2.7160
G01 X16.7643 Y-2.7086
G01 X16.7664 Y-2.7009
G01 X17.1325 Y-1.7243
G01 X17.1382 Y-1.7140
G01 X17.1461 Y-1.7063
G01 X17.1560 Y-1.7013
G01 X17.1614 Y-1.6999
G01 X17.1688 Y-1.6994
G01 X17.1798 Y-1.7013
G01 X17.1897 Y-1.7063
G01 X17.1976 Y-1.7140
G01 X17.2033 Y-1.7243
G01 X17.5695 Y-2.7009
G01 X17.5716 Y-2.7086
G01 X17.5721 Y-2.7160
G01 X17.5707 Y-2.7250
G01 X17.5680 Y-2.7319
G01 X17.5615 Y-2.7408
G01 X17.5528 Y-2.7475
G01 X17.5443 Y-2.7510
G01 X17.5333 Y-2.7522
G01 X17.5225 Y-2.7502
G01 X17.5127 Y-2.7452
G01 X17.5048 Y-2.7375
G01 X17.5002 Y-2.7296
G01 X17.3832 Y-2.4180
G01 X17.2150 Y-1.8981
G01 X17.2053 Y-1.8935
G01 X17.1936 Y-1.8896
G01 X17.1815 Y-1.8872
G01 X17.1691 Y-1.8863
G01 X17.1568 Y-1.8869
G01 X17.1446 Y-1.8890
G01 X17.1328 Y-1.8926
G01 X17.1208 Y-1.8981
G01 X17.1679 Y-1.7724
G01 X17.2150 Y-1.8981
G00 Z3.0000
G00 X17.9063 Y-2.9216
G01 F80.00
G01 Z-0.0700
G01 F20.00
G01 X17.9160 Y-2.9206
G01 X17.9253 Y-2.9178
G01 X17.9340 Y-2.9132
G01 X17.9415 Y-2.9071
G01 X17.9773 Y-2.8601
G01 X17.9829 Y-2.8491
G01 X17.9853 Y-2.8395
G01 X17.9859 Y-2.8321
G01 X17.9859 Y-2.1629
G01 X17.9870 Y-2.1556
G01 X17.9903 Y-2.1470
G01 X17.9944 Y-2.1409
G01 X17.9996 Y-2.1357
G01 X18.0074 Y-2.1308
G01 X18.0143 Y-2.1283
G01 X18.0216 Y-2.1272
G01 X18.0289 Y-2.1276
G01 X18.0360 Y-2.1294
G01 X18.0411 Y-2.1316
G01 X18.0472 Y-2.1357
G01 X18.0512 Y-2.1395
G01 X18.0546 Y-2.1439
G01 X18.0581 Y-2.1503
G01 X18.0598 Y-2.1556
G01 X18.0609 Y-2.1629
G01 X18.0605 Y-2.8668
G01 X18.0587 Y-2.8740
G01 X18.0545 Y-2.8823
G01 X17.9805 Y-2.9811
G01 X17.9724 Y-2.9893
G01 X17.9627 Y-2.9945
G01 X17.9556 Y-2.9962
G01 X17.9495 Y-2.9966
G01 X17.8731 Y-2.9964
G01 X17.8642 Y-2.9944
G01 X17.8575 Y-2.9913
G01 X17.8516 Y-2.9869
G01 X17.8467 Y-2.9815
G01 X17.8429 Y-2.9751
G01 X17.8409 Y-2.9700
G01 X17.8397 Y-2.9646
G01 X17.8393 Y-2.9573
G01 X17.8404 Y-2.9500
G01 X17.8421 Y-2.9447
G01 X17.8456 Y-2.9383
G01 X17.8503 Y-2.9326
G01 X17.8591 Y-2.9260
G01 X17.8695 Y-2.9223
G01 X17.8774 Y-2.9216
G01 X17.9063 Y-2.9216
G00 Z3.0000
G00 X25.0128 Y-3.5257
G01 F80.00
G01 Z-0.0700
G01 F20.00
G01 X25.0199 Y-3.5668
G01 X25.0286 Y-3.6051
G01 X25.0391 Y-3.6429
G01 X25.0507 Y-3.6780
G01 X25.0647 Y-3.7145
G01 X25.0806 Y-3.7505
G01 X25.0982 Y-3.7855
G01 X25.1175 Y-3.8197
G01 X25.1385 Y-3.8529
G01 X25.1625 Y-3.8870
G01 X25.1867 Y-3.9180
G01 X25.2124 Y-3.9476
G01 X25.2395 Y-3.9760
G01 X25.2666 Y-4.0018
G01 X25.2962 Y-4.0274
G01 X25.3270 Y-4.0515
G01 X25.3590 Y-4.0741
G01 X25.3920 Y-4.0950
G01 X25.4261 Y-4.1144
G01 X25.4612 Y-4.1322
G01 X25.4993 Y-4.1491
G01 X25.5358 Y-4.1631
G01 X25.5733 Y-4.1754
G01 X25.6087 Y-4.1852
G01 X25.6470 Y-4.1939
G01 X25.6857 Y-4.2006
G01 X25.7247 Y-4.2055
G01 X25.7663 Y-4.2086
G01 X25.8031 Y-4.2095
G01 X25.8423 Y-4.2086
G01 X25.8839 Y-4.2055
G01 X25.9208 Y-4.2010
G01 X25.9616 Y-4.1939
G01 X25.9999 Y-4.1852
G01 X26.0353 Y-4.1754
G01 X26.0750 Y-4.1623
G01 X26.1116 Y-4.1481
G01 X26.1474 Y-4.1322
G01 X26.1825 Y-4.1144
G01 X26.2166 Y-4.0950
G01 X26.2498 Y-4.0740
G01 X26.2799 Y-4.0528
G01 X26.3109 Y-4.0287
G01 X26.3406 Y-4.0031
G01 X26.3708 Y-3.9743
G01 X26.3966 Y-3.9472
G01 X26.4222 Y-3.9176
G01 X26.4463 Y-3.8868
G01 X26.4689 Y-3.8548
G01 X26.4898 Y-3.8218
G01 X26.5092 Y-3.7877
G01 X26.5280 Y-3.7504
G01 X26.5429 Y-3.7168
G01 X26.5571 Y-3.6802
G01 X26.5695 Y-3.6429
G01 X26.5788 Y-3.6096
G01 X28.1625 Y-3.6096
G01 X28.8737 Y-4.3208
G01 X28.8562 Y-4.3485
G01 X28.8333 Y-4.3891
G01 X28.8124 Y-4.4307
G01 X28.7945 Y-4.4711
G01 X28.7768 Y-4.5169
G01 X28.7623 Y-4.5612
G01 X28.7505 Y-4.6038
G01 X28.7397 Y-4.6517
G01 X28.7318 Y-4.6976
G01 X28.7264 Y-4.7415
G01 X28.7228 Y-4.7904
G01 X28.7217 Y-4.8370
G01 X28.7228 Y-4.8818
G01 X28.7264 Y-4.9301
G01 X28.7319 Y-4.9743
G01 X28.7397 Y-5.0199
G01 X28.7505 Y-5.0678
G01 X28.7623 Y-5.1104
G01 X28.7769 Y-5.1548
G01 X28.7945 Y-5.2005
G01 X28.8124 Y-5.2409
G01 X28.8333 Y-5.2825
G01 X28.8575 Y-5.3252
G01 X28.8825 Y-5.3646
G01 X28.9079 Y-5.4007
G01 X28.9366 Y-5.4375
G01 X28.9686 Y-5.4747
G01 X29.0008 Y-5.5084
G01 X29.0328 Y-5.5389
G01 X29.0681 Y-5.5694
G01 X29.1068 Y-5.5996
G01 X29.1449 Y-5.6264
G01 X29.1844 Y-5.6513
G01 X29.2228 Y-5.6730
G01 X29.2644 Y-5.6941
G01 X29.3093 Y-5.7139
G01 X29.3528 Y-5.7307
G01 X29.3971 Y-5.7452
G01 X29.4397 Y-5.7570
G01 X29.4852 Y-5.7673
G01 X29.5335 Y-5.7757
G01 X29.5798 Y-5.7813
G01 X29.6263 Y-5.7847
G01 X29.6705 Y-5.7858
G01 X29.7177 Y-5.7847
G01 X29.7660 Y-5.7811
G01 X29.8102 Y-5.7756
G01 X29.8558 Y-5.7678
G01 X29.9013 Y-5.7576
G01 X29.9486 Y-5.7445
G01 X29.9907 Y-5.7306
G01 X30.0341 Y-5.7139
G01 X30.0768 Y-5.6951
G01 X30.1206 Y-5.6730
G01 X30.1611 Y-5.6500
G01 X30.1985 Y-5.6264
G01 X30.2366 Y-5.5996
G01 X30.2753 Y-5.5694
G01 X30.3106 Y-5.5389
G01 X30.3426 Y-5.5084
G01 X30.3764 Y-5.4729
G01 X30.4068 Y-5.4375
G01 X30.4340 Y-5.4027
G01 X30.4610 Y-5.3644
G01 X30.4872 Y-5.3231
G01 X30.5089 Y-5.2847
G01 X30.5300 Y-5.2431
G01 X30.5498 Y-5.1982
G01 X30.5665 Y-5.1548
G01 X30.5804 Y-5.1127
G01 X30.5929 Y-5.0678
G01 X30.6037 Y-5.0199
G01 X30.6116 Y-4.9740
G01 X30.6170 Y-4.9301
G01 X30.6206 Y-4.8812
G01 X30.6217 Y-4.8370
G01 X30.6206 Y-4.7904
G01 X30.6172 Y-4.7435
G01 X30.6112 Y-4.6952
G01 X30.6032 Y-4.6493
G01 X30.5935 Y-4.6062
G01 X30.5811 Y-4.5612
G01 X30.5657 Y-4.5146
G01 X30.5489 Y-4.4711
G01 X30.5310 Y-4.4307
G01 X30.5101 Y-4.3891
G01 X30.4859 Y-4.3464
G01 X30.4623 Y-4.3090
G01 X30.4388 Y-4.2756
G01 X32.8269 Y-1.8876
G01 X57.9215 Y-1.8876
G01 X57.9215 Y-9.5646
G01 X57.9231 Y-9.5952
G01 X57.9249 Y-9.6099
G01 X57.9302 Y-9.6363
G01 X57.9394 Y-9.6669
G01 X57.9498 Y-9.6918
G01 X57.9575 Y-9.7072
G01 X57.9648 Y-9.7199
G01 X57.9798 Y-9.7424
G01 X57.9904 Y-9.7559
G01 X58.0085 Y-9.7759
G01 X60.1808 Y-11.9482
G01 X60.1808 Y-13.0237
G01 X60.1813 Y-13.0310
G01 X60.1830 Y-13.0382
G01 X60.1867 Y-13.0473
G01 X60.1906 Y-13.0535
G01 X60.1954 Y-13.0591
G01 X60.2010 Y-13.0639
G01 X60.2072 Y-13.0678
G01 X60.2140 Y-13.0708
G01 X60.2210 Y-13.0727
G01 X60.2283 Y-13.0736
G01 X60.6772 Y-13.0737
G01 X60.7976 Y-14.1121
G01 X60.5483 Y-14.1121
G01 X60.5410 Y-14.1126
G01 X60.5338 Y-14.1143
G01 X60.5247 Y-14.1180
G01 X60.5185 Y-14.1219
G01 X60.5129 Y-14.1267
G01 X60.5081 Y-14.1323
G01 X60.5042 Y-14.1385
G01 X60.5005 Y-14.1476
G01 X60.4988 Y-14.1548
G01 X60.4983 Y-14.1621
G01 X60.4983 Y-15.7621
G01 X60.4988 Y-15.7694
G01 X60.5005 Y-15.7766
G01 X60.5031 Y-15.7835
G01 X60.5067 Y-15.7899
G01 X60.5113 Y-15.7957
G01 X60.5166 Y-15.8008
G01 X60.5226 Y-15.8050
G01 X60.5292 Y-15.8083
G01 X60.5385 Y-15.8111
G01 X60.5483 Y-15.8121
G01 X60.7311 Y-15.8121
G01 X60.1986 Y-18.6119
G01 X59.9353 Y-18.6119
G01 X59.9280 Y-18.6124
G01 X59.9208 Y-18.6141
G01 X59.9139 Y-18.6167
G01 X59.9075 Y-18.6203
G01 X59.9017 Y-18.6249
G01 X59.8966 Y-18.6302
G01 X59.8912 Y-18.6383
G01 X59.8882 Y-18.6451
G01 X59.8863 Y-18.6521
G01 X59.8853 Y-18.6619
G01 X59.8853 Y-19.7377
G01 X58.5159 Y-21.1099
G01 X58.5047 Y-21.1229
G01 X58.4879 Y-21.1456
G01 X58.4795 Y-21.1591
G01 X58.4668 Y-21.1829
G01 X58.4598 Y-21.1986
G01 X58.4507 Y-21.2240
G01 X58.4462 Y-21.2405
G01 X58.4409 Y-21.2670
G01 X58.4388 Y-21.2840
G01 X58.4375 Y-21.3122
G01 X58.4375 Y-28.6717
G01 X54.6550 Y-28.6717
G01 X53.5817 Y-27.5984
G01 X53.5608 Y-27.5794
G01 X53.5352 Y-27.5604
G01 X53.5121 Y-27.5465
G01 X53.4967 Y-27.5388
G01 X53.4718 Y-27.5284
G01 X53.4578 Y-27.5238
G01 X53.4412 Y-27.5192
G01 X53.4147 Y-27.5139
G01 X53.3977 Y-27.5118
G01 X53.3695 Y-27.5105
G01 X53.1161 Y-27.5105
G01 X53.1161 Y-27.4115
G01 X53.1151 Y-27.4017
G01 X53.1113 Y-27.3901
G01 X53.1048 Y-27.3798
G01 X53.0959 Y-27.3713
G01 X53.0852 Y-27.3653
G01 X53.0759 Y-27.3625
G01 X53.0661 Y-27.3615
G01 X51.4661 Y-27.3615
G01 X51.4588 Y-27.3620
G01 X51.4493 Y-27.3644
G01 X51.4425 Y-27.3674
G01 X51.4344 Y-27.3728
G01 X51.4291 Y-27.3779
G01 X51.4232 Y-27.3858
G01 X51.4199 Y-27.3924
G01 X51.4175 Y-27.4000
G01 X50.2577 Y-27.4000
G01 X50.2577 Y-26.7459
G01 X50.2567 Y-26.7361
G01 X50.2539 Y-26.7268
G01 X50.2493 Y-26.7181
G01 X50.2431 Y-26.7105
G01 X50.2355 Y-26.7043
G01 X50.2268 Y-26.6997
G01 X50.2175 Y-26.6969
G01 X50.2077 Y-26.6959
G01 X49.6077 Y-26.6959
G01 X49.5979 Y-26.6969
G01 X49.5886 Y-26.6997
G01 X49.5820 Y-26.7030
G01 X49.5760 Y-26.7072
G01 X49.5707 Y-26.7123
G01 X49.5661 Y-26.7181
G01 X49.5625 Y-26.7245
G01 X49.5599 Y-26.7314
G01 X49.5582 Y-26.7386
G01 X49.5577 Y-26.7459
G01 X49.5577 Y-28.3617
G01 X49.5545 Y-28.3732
G01 X49.5512 Y-28.3900
G01 X49.5497 Y-28.4022
G01 X49.5488 Y-28.4206
G01 X49.5488 Y-30.0858
G01 X48.2408 Y-30.0858
G01 X48.2224 Y-30.0867
G01 X48.2006 Y-30.0899
G01 X48.1839 Y-30.0941
G01 X48.1722 Y-30.0979
G01 X48.1476 Y-30.1089
G01 X48.1286 Y-30.1202
G01 X48.1148 Y-30.1305
G01 X48.1055 Y-30.1385
G01 X48.0869 Y-30.1580
G01 X48.0738 Y-30.1758
G01 X48.0649 Y-30.1905
G01 X48.0594 Y-30.2015
G01 X48.0520 Y-30.2197
G01 X48.0448 Y-30.2457
G01 X48.0418 Y-30.2651
G01 X48.0407 Y-30.2859
G01 X48.0407 Y-31.1987
G01 X48.0427 Y-31.2268
G01 X48.0448 Y-31.2389
G01 X48.0489 Y-31.2552
G01 X48.0489 Y-33.1512
G01 X48.0499 Y-33.1610
G01 X48.0527 Y-33.1703
G01 X48.0573 Y-33.1790
G01 X48.0635 Y-33.1866
G01 X48.0691 Y-33.1914
G01 X48.0775 Y-33.1964
G01 X48.0868 Y-33.1997
G01 X48.0964 Y-33.2011
G01 X48.4038 Y-33.2010
G01 X48.4134 Y-33.1990
G01 X48.4203 Y-33.1964
G01 X48.4287 Y-33.1914
G01 X48.4343 Y-33.1866
G01 X48.4391 Y-33.1810
G01 X48.4441 Y-33.1726
G01 X48.4467 Y-33.1657
G01 X48.4484 Y-33.1585
G01 X48.4489 Y-33.1512
G01 X48.4489 Y-31.1512
G01 X48.4484 Y-31.1439
G01 X48.4467 Y-31.1367
G01 X48.4409 Y-31.1241
G01 X48.4409 Y-30.4860
G01 X49.7581 Y-30.4858
G01 X49.7795 Y-30.4836
G01 X49.7987 Y-30.4797
G01 X49.8175 Y-30.4739
G01 X49.8355 Y-30.4662
G01 X49.8528 Y-30.4569
G01 X49.8691 Y-30.4459
G01 X49.8842 Y-30.4333
G01 X49.8980 Y-30.4193
G01 X49.9090 Y-30.4058
G01 X49.9199 Y-30.3898
G01 X49.9259 Y-30.3791
G01 X49.9342 Y-30.3613
G01 X49.9400 Y-30.3451
G01 X49.9449 Y-30.3261
G01 X49.9470 Y-30.3140
G01 X49.9488 Y-30.2945
G01 X49.9490 Y-28.7959
G01 X50.2102 Y-28.7958
G01 X50.2175 Y-28.7949
G01 X50.2268 Y-28.7921
G01 X50.2355 Y-28.7875
G01 X50.2431 Y-28.7813
G01 X50.2479 Y-28.7757
G01 X50.2529 Y-28.7673
G01 X50.2562 Y-28.7580
G01 X50.2576 Y-28.7484
G01 X50.2577 Y-28.4765
G01 X51.4161 Y-28.4765
G01 X51.4161 Y-28.7115
G01 X51.4166 Y-28.7188
G01 X51.4190 Y-28.7283
G01 X51.4220 Y-28.7351
G01 X51.4259 Y-28.7413
G01 X51.4325 Y-28.7485
G01 X51.4383 Y-28.7531
G01 X51.4447 Y-28.7567
G01 X51.4516 Y-28.7593
G01 X51.4612 Y-28.7613
G01 X53.0710 Y-28.7613
G01 X53.0782 Y-28.7600
G01 X53.0875 Y-28.7567
G01 X53.0959 Y-28.7517
G01 X53.1015 Y-28.7469
G01 X53.1077 Y-28.7393
G01 X53.1113 Y-28.7329
G01 X53.1146 Y-28.7236
G01 X53.1160 Y-28.7140
G01 X53.1161 Y-28.1107
G01 X53.2452 Y-28.1107
G01 X54.3282 Y-29.1933
G01 X54.3413 Y-29.2046
G01 X54.3629 Y-29.2207
G01 X54.3775 Y-29.2298
G01 X54.4013 Y-29.2426
G01 X54.4308 Y-29.2548
G01 X54.4566 Y-29.2626
G01 X54.4734 Y-29.2664
G01 X54.5025 Y-29.2706
G01 X54.5307 Y-29.2719
G01 X58.7511 Y-29.2716
G01 X58.7807 Y-29.2688
G01 X58.8117 Y-29.2626
G01 X58.8399 Y-29.2540
G01 X58.8648 Y-29.2436
G01 X58.8780 Y-29.2371
G01 X58.9054 Y-29.2207
G01 X58.9289 Y-29.2030
G01 X58.9507 Y-29.1831
G01 X58.9688 Y-29.1631
G01 X58.9779 Y-29.1516
G01 X58.9878 Y-29.1375
G01 X59.0029 Y-29.1122
G01 X59.0144 Y-29.0878
G01 X59.0206 Y-29.0717
G01 X59.0290 Y-29.0435
G01 X59.0343 Y-29.0170
G01 X59.0364 Y-29.0000
G01 X59.0377 Y-28.9718
G01 X59.0377 Y-21.4364
G01 X59.8854 Y-20.5873
G01 X59.8856 Y-20.8668
G01 X59.8883 Y-20.8787
G01 X59.8913 Y-20.8855
G01 X59.8952 Y-20.8917
G01 X59.9000 Y-20.8973
G01 X59.9056 Y-20.9021
G01 X59.9118 Y-20.9060
G01 X59.9186 Y-20.9090
G01 X59.9281 Y-20.9114
G01 X59.9354 Y-20.9119
G01 X60.6379 Y-20.9117
G01 X60.6499 Y-20.9096
G01 X60.6568 Y-20.9070
G01 X60.6632 Y-20.9034
G01 X60.6724 Y-20.8954
G01 X60.6770 Y-20.8896
G01 X60.6806 Y-20.8832
G01 X60.6839 Y-20.8739
G01 X60.6854 Y-20.8618
G01 X60.6853 Y-19.2654
G01 X61.3421 Y-15.8121
G01 X61.8508 Y-15.8120
G01 X61.8604 Y-15.8106
G01 X61.8697 Y-15.8073
G01 X61.8781 Y-15.8023
G01 X61.8837 Y-15.7975
G01 X61.8899 Y-15.7899
G01 X61.8945 Y-15.7812
G01 X61.8968 Y-15.7742
G01 X61.8982 Y-15.7646
G01 X61.8983 Y-15.2622
G01 X68.3420 Y-15.2623
G01 X68.3692 Y-15.2611
G01 X68.3974 Y-15.2572
G01 X68.4251 Y-15.2506
G01 X68.4409 Y-15.2456
G01 X68.4673 Y-15.2349
G01 X68.4915 Y-15.2224
G01 X72.2192 Y-13.0809
G01 X73.3244 Y-12.4789
G01 X73.3602 Y-12.5128
G01 X73.3977 Y-12.5451
G01 X73.4379 Y-12.5766
G01 X73.4800 Y-12.6063
G01 X73.5257 Y-12.6352
G01 X73.5705 Y-12.6606
G01 X73.6166 Y-12.6837
G01 X73.6615 Y-12.7036
G01 X73.7095 Y-12.7222
G01 X73.7584 Y-12.7384
G01 X73.8081 Y-12.7522
G01 X73.8584 Y-12.7636
G01 X73.9091 Y-12.7724
G01 X73.9627 Y-12.7790
G01 X74.0141 Y-12.7828
G01 X74.0656 Y-12.7840
G01 X74.1147 Y-12.7828
G01 X74.1661 Y-12.7790
G01 X74.2197 Y-12.7724
G01 X74.2704 Y-12.7636
G01 X74.3183 Y-12.7528
G01 X74.3680 Y-12.7391
G01 X74.4170 Y-12.7230
G01 X74.4673 Y-12.7036
G01 X74.5144 Y-12.6827
G01 X74.5604 Y-12.6594
G01 X74.6053 Y-12.6340
G01 X74.6467 Y-12.6077
G01 X74.6909 Y-12.5766
G01 X74.7315 Y-12.5449
G01 X74.7704 Y-12.5112
G01 X74.8077 Y-12.4756
G01 X74.8420 Y-12.4396
G01 X74.8755 Y-12.4007
G01 X74.9085 Y-12.3585
G01 X74.9369 Y-12.3182
G01 X74.9656 Y-12.2727
G01 X74.9910 Y-12.2279
G01 X75.0141 Y-12.1818
G01 X75.0349 Y-12.1347
G01 X75.0534 Y-12.0866
G01 X75.0695 Y-12.0376
G01 X75.0832 Y-11.9879
G01 X75.0944 Y-11.9376
G01 X75.1032 Y-11.8869
G01 X75.1094 Y-11.8357
G01 X75.1131 Y-11.7867
G01 X75.1144 Y-11.7352
G01 X75.1132 Y-11.6837
G01 X75.1094 Y-11.6319
G01 X75.1032 Y-11.5811
G01 X75.0944 Y-11.5304
G01 X75.0832 Y-11.4801
G01 X75.0695 Y-11.4304
G01 X75.0534 Y-11.3814
G01 X75.0349 Y-11.3333
G01 X75.0141 Y-11.2861
G01 X74.9910 Y-11.2401
G01 X74.9827 Y-11.2254
G01 X75.8102 Y-10.3807
G01 X76.1862 Y-10.3807
G01 X76.2033 Y-10.4332
G01 X76.2227 Y-10.4835
G01 X76.2426 Y-10.5285
G01 X76.2657 Y-10.5745
G01 X76.2923 Y-10.6215
G01 X76.3200 Y-10.6650
G01 X76.3482 Y-10.7051
G01 X76.3799 Y-10.7458
G01 X76.4151 Y-10.7866
G01 X76.4490 Y-10.8222
G01 X76.4863 Y-10.8578
G01 X76.5271 Y-10.8930
G01 X76.5661 Y-10.9234
G01 X76.6081 Y-10.9531
G01 X76.6536 Y-10.9818
G01 X76.6984 Y-11.0072
G01 X76.7423 Y-11.0293
G01 X76.7916 Y-11.0511
G01 X76.8397 Y-11.0696
G01 X76.8863 Y-11.0850
G01 X76.9360 Y-11.0988
G01 X76.9887 Y-11.1106
G01 X77.0394 Y-11.1194
G01 X77.0882 Y-11.1254
G01 X77.1396 Y-11.1293
G01 X77.1911 Y-11.1306
G01 X77.2426 Y-11.1294
G01 X77.2944 Y-11.1256
G01 X77.3452 Y-11.1194
G01 X77.3948 Y-11.1108
G01 X77.4120 Y-11.1132
G01 X77.4304 Y-11.1141
G01 X79.6132 Y-11.1141
G01 X79.6413 Y-11.1121
G01 X79.6630 Y-11.1078
G01 X79.6887 Y-11.0993
G01 X79.7086 Y-11.0899
G01 X79.7233 Y-11.0810
G01 X79.7334 Y-11.0740
G01 X79.7547 Y-11.0555
G01 X81.6597 Y-9.1505
G01 X81.6721 Y-9.1369
G01 X81.6840 Y-9.1210
G01 X81.6941 Y-9.1044
G01 X81.7026 Y-9.0867
G01 X81.7093 Y-9.0682
G01 X81.7142 Y-9.0492
G01 X81.7172 Y-9.0298
G01 X81.7183 Y-9.0090
G01 X81.7183 Y-4.8057
G01 X82.8711 Y-3.6529
G01 X87.6391 Y-3.6529
G01 X87.6393 Y-4.3228
G01 X87.6413 Y-4.3324
G01 X87.6450 Y-4.3415
G01 X87.6521 Y-4.3515
G01 X87.6593 Y-4.3581
G01 X87.6677 Y-4.3631
G01 X87.6770 Y-4.3664
G01 X87.6866 Y-4.3678
G01 X87.7008 Y-4.3679
G01 X87.7008 Y-8.6502
G01 X87.7023 Y-8.6623
G01 X87.7046 Y-8.6693
G01 X87.7079 Y-8.6759
G01 X87.7154 Y-8.6856
G01 X87.7251 Y-8.6931
G01 X87.7363 Y-8.6980
G01 X87.7435 Y-8.6997
G01 X87.7508 Y-8.7002
G01 X91.9157 Y-8.7002
G01 X91.9310 Y-8.7009
G01 X91.9596 Y-8.7050
G01 X92.1391 Y-8.7050
G01 X92.1469 Y-10.3271
G01 X92.1469 Y-11.5550
G01 X92.1474 Y-11.5623
G01 X92.1498 Y-11.5718
G01 X92.1528 Y-11.5786
G01 X92.1567 Y-11.5848
G01 X92.1633 Y-11.5920
G01 X92.1691 Y-11.5966
G01 X92.1778 Y-11.6012
G01 X92.1848 Y-11.6035
G01 X92.1969 Y-11.6050
G01 X94.1969 Y-11.6050
G01 X94.2067 Y-11.6040
G01 X94.2183 Y-11.6002
G01 X94.2286 Y-11.5937
G01 X94.2371 Y-11.5848
G01 X94.2410 Y-11.5786
G01 X94.2440 Y-11.5718
G01 X94.2464 Y-11.5623
G01 X94.2469 Y-11.5550
G01 X94.2469 Y-9.0550
G01 X94.2454 Y-9.0429
G01 X94.2416 Y-9.0327
G01 X94.2401 Y-8.7050
G01 X94.7231 Y-8.7050
G01 X94.7635 Y-8.6997
G01 X94.8033 Y-8.6978
G01 X101.3108 Y-8.6978
G01 X101.3506 Y-8.6997
G01 X101.3818 Y-8.7041
G01 X101.3891 Y-8.7045
G01 X101.3987 Y-8.7033
G01 X101.4079 Y-8.7003
G01 X101.4163 Y-8.6957
G01 X101.4220 Y-8.6911
G01 X101.4284 Y-8.6839
G01 X101.4333 Y-8.6756
G01 X101.4365 Y-8.6665
G01 X101.4379 Y-8.6569
G01 X101.4380 Y-1.3234
G01 X101.4374 Y-1.3161
G01 X101.4358 Y-1.3089
G01 X101.4332 Y-1.3020
G01 X101.4295 Y-1.2956
G01 X101.4233 Y-1.2881
G01 X101.4178 Y-1.2833
G01 X101.4115 Y-1.2793
G01 X101.4048 Y-1.2763
G01 X101.3953 Y-1.2740
G01 X101.3880 Y-1.2734
G01 X92.9119 Y-1.2734
G01 X92.9012 Y-1.2694
G01 X92.8891 Y-1.2679
G01 X79.4544 Y-1.2683
G01 X79.4360 Y-1.2692
G01 X79.4238 Y-1.2707
G01 X79.4046 Y-1.2746
G01 X79.3882 Y-1.2796
G01 X79.3767 Y-1.2840
G01 X79.3612 Y-1.2914
G01 X79.3505 Y-1.2974
G01 X79.3362 Y-1.3070
G01 X79.3265 Y-1.3145
G01 X79.3129 Y-1.3269
G01 X78.3597 Y-2.2803
G01 X78.3418 Y-2.3010
G01 X78.3298 Y-2.3191
G01 X78.3176 Y-2.3432
G01 X78.3132 Y-2.3547
G01 X78.3082 Y-2.3711
G01 X78.3039 Y-2.3928
G01 X78.3019 Y-2.4209
G01 X78.3019 Y-8.0927
G01 X77.3518 Y-9.0429
G01 X77.2940 Y-9.0356
G01 X77.2426 Y-9.0318
G01 X77.1911 Y-9.0306
G01 X77.1396 Y-9.0319
G01 X77.0902 Y-9.0356
G01 X77.0394 Y-9.0418
G01 X76.9887 Y-9.0506
G01 X76.9360 Y-9.0624
G01 X76.8863 Y-9.0762
G01 X76.8374 Y-9.0924
G01 X76.7894 Y-9.1110
G01 X76.7423 Y-9.1319
G01 X76.6963 Y-9.1552
G01 X76.6514 Y-9.1806
G01 X76.6079 Y-9.2083
G01 X76.5658 Y-9.2380
G01 X76.5252 Y-9.2697
G01 X76.4863 Y-9.3034
G01 X76.4490 Y-9.3390
G01 X76.4147 Y-9.3750
G01 X76.3814 Y-9.4135
G01 X76.3497 Y-9.4541
G01 X76.3198 Y-9.4964
G01 X76.2923 Y-9.5397
G01 X76.2669 Y-9.5846
G01 X76.2436 Y-9.6306
G01 X76.2227 Y-9.6777
G01 X76.2041 Y-9.7257
G01 X76.1862 Y-9.7805
G01 X75.6679 Y-9.7809
G01 X75.6407 Y-9.7836
G01 X75.6258 Y-9.7862
G01 X75.5947 Y-9.7941
G01 X75.5806 Y-9.7989
G01 X75.5553 Y-9.8095
G01 X75.5269 Y-9.8249
G01 X75.5144 Y-9.8331
G01 X75.4926 Y-9.8495
G01 X75.4701 Y-9.8702
G01 X74.5540 Y-10.8053
G01 X74.5122 Y-10.7843
G01 X74.4673 Y-10.7644
G01 X74.4170 Y-10.7450
G01 X74.3704 Y-10.7296
G01 X74.3207 Y-10.7158
G01 X74.2704 Y-10.7044
G01 X74.2173 Y-10.6952
G01 X74.1661 Y-10.6890
G01 X74.1147 Y-10.6852
G01 X74.0656 Y-10.6840
G01 X74.0141 Y-10.6852
G01 X73.9623 Y-10.6890
G01 X73.9091 Y-10.6956
G01 X73.8584 Y-10.7044
G01 X73.8105 Y-10.7152
G01 X73.7584 Y-10.7296
G01 X73.7118 Y-10.7450
G01 X73.6637 Y-10.7635
G01 X73.6165 Y-10.7843
G01 X73.5684 Y-10.8086
G01 X73.5235 Y-10.8340
G01 X73.4800 Y-10.8617
G01 X73.4399 Y-10.8899
G01 X73.3973 Y-10.9231
G01 X73.3584 Y-10.9568
G01 X73.3228 Y-10.9907
G01 X73.2856 Y-11.0298
G01 X73.2533 Y-11.0673
G01 X73.2203 Y-11.1095
G01 X73.1919 Y-11.1498
G01 X73.1644 Y-11.1931
G01 X73.1378 Y-11.2401
G01 X73.1147 Y-11.2862
G01 X73.0948 Y-11.3311
G01 X73.0754 Y-11.3814
G01 X73.0593 Y-11.4304
G01 X73.0456 Y-11.4801
G01 X73.0348 Y-11.5280
G01 X73.0260 Y-11.5787
G01 X73.0194 Y-11.6323
G01 X73.0156 Y-11.6837
G01 X73.0144 Y-11.7328
G01 X73.0157 Y-11.7867
G01 X73.0194 Y-11.8361
G01 X73.0256 Y-11.8869
G01 X73.0344 Y-11.9376
G01 X73.0374 Y-11.9517
G01 X71.9231 Y-12.5588
G01 X68.2619 Y-14.6621
G01 X61.8983 Y-14.6620
G01 X61.8983 Y-14.1621
G01 X61.8978 Y-14.1548
G01 X61.8954 Y-14.1453
G01 X61.8912 Y-14.1364
G01 X61.8853 Y-14.1285
G01 X61.8781 Y-14.1219
G01 X61.8697 Y-14.1169
G01 X61.8604 Y-14.1136
G01 X61.8508 Y-14.1122
G01 X61.4019 Y-14.1121
G01 X61.2815 Y-13.0737
G01 X61.5308 Y-13.0737
G01 X61.5381 Y-13.0732
G01 X61.5453 Y-13.0715
G01 X61.5522 Y-13.0689
G01 X61.5586 Y-13.0653
G01 X61.5644 Y-13.0607
G01 X61.5695 Y-13.0554
G01 X61.5749 Y-13.0473
G01 X61.5779 Y-13.0405
G01 X61.5798 Y-13.0335
G01 X61.5808 Y-13.0237
G01 X61.5808 Y-11.4237
G01 X61.5803 Y-11.4164
G01 X61.5779 Y-11.4069
G01 X61.5737 Y-11.3980
G01 X61.5678 Y-11.3901
G01 X61.5606 Y-11.3835
G01 X61.5544 Y-11.3796
G01 X61.5476 Y-11.3766
G01 X61.5381 Y-11.3742
G01 X61.5308 Y-11.3737
G01 X61.1809 Y-11.3737
G01 X61.1808 Y-8.3169
G01 X61.5538 Y-8.3170
G01 X61.5539 Y-8.3694
G01 X61.5553 Y-8.3790
G01 X61.5586 Y-8.3883
G01 X61.5622 Y-8.3947
G01 X61.5668 Y-8.4005
G01 X61.5760 Y-8.4085
G01 X61.5824 Y-8.4121
G01 X61.5893 Y-8.4147
G01 X61.6013 Y-8.4168
G01 X63.8038 Y-8.4169
G01 X63.8159 Y-8.4154
G01 X63.8229 Y-8.4131
G01 X63.8295 Y-8.4098
G01 X63.8355 Y-8.4056
G01 X63.8425 Y-8.3986
G01 X63.8467 Y-8.3926
G01 X63.8509 Y-8.3837
G01 X63.8528 Y-8.3767
G01 X63.8537 Y-8.3694
G01 X63.8538 Y-7.6669
G01 X63.8523 Y-7.6548
G01 X63.8490 Y-7.6455
G01 X63.8454 Y-7.6391
G01 X63.8392 Y-7.6315
G01 X63.8336 Y-7.6267
G01 X63.8274 Y-7.6228
G01 X63.8206 Y-7.6198
G01 X63.8111 Y-7.6174
G01 X63.8038 Y-7.6169
G01 X61.6013 Y-7.6170
G01 X61.5940 Y-7.6179
G01 X61.5870 Y-7.6198
G01 X61.5760 Y-7.6253
G01 X61.5668 Y-7.6333
G01 X61.5622 Y-7.6391
G01 X61.5586 Y-7.6455
G01 X61.5553 Y-7.6548
G01 X61.5539 Y-7.6644
G01 X61.5538 Y-7.7167
G01 X60.8807 Y-7.7167
G01 X60.8501 Y-7.7183
G01 X60.8210 Y-7.7227
G01 X60.7924 Y-7.7300
G01 X60.7647 Y-7.7400
G01 X60.7403 Y-7.7515
G01 X60.7254 Y-7.7600
G01 X60.7009 Y-7.7765
G01 X60.6783 Y-7.7953
G01 X60.6575 Y-7.8162
G01 X60.6404 Y-7.8370
G01 X60.6239 Y-7.8615
G01 X60.6099 Y-7.8874
G01 X60.5985 Y-7.9145
G01 X60.5932 Y-7.9309
G01 X60.5861 Y-7.9595
G01 X60.5819 Y-7.9886
G01 X60.5806 Y-8.0156
G01 X60.5807 Y-11.3737
G01 X60.4552 Y-11.3737
G01 X58.5217 Y-9.4403
G01 X58.5214 Y-1.5740
G01 X58.5201 Y-1.5569
G01 X58.5157 Y-1.5277
G01 X58.5091 Y-1.5016
G01 X58.5038 Y-1.4852
G01 X58.4934 Y-1.4603
G01 X58.4857 Y-1.4449
G01 X58.4718 Y-1.4218
G01 X58.4619 Y-1.4077
G01 X58.4448 Y-1.3869
G01 X58.4329 Y-1.3744
G01 X58.4110 Y-1.3547
G01 X58.3894 Y-1.3386
G01 X58.3748 Y-1.3295
G01 X58.3488 Y-1.3157
G01 X58.3239 Y-1.3053
G01 X58.3075 Y-1.3000
G01 X58.2814 Y-1.2934
G01 X58.2644 Y-1.2905
G01 X58.2376 Y-1.2878
G01 X58.2216 Y-1.2874
G01 X32.6866 Y-1.2878
G01 X32.6574 Y-1.2908
G01 X32.6309 Y-1.2961
G01 X32.6027 Y-1.3045
G01 X32.5866 Y-1.3107
G01 X32.5600 Y-1.3234
G01 X32.5349 Y-1.3386
G01 X32.5113 Y-1.3563
G01 X32.4913 Y-1.3744
G01 X29.9407 Y-3.9248
G01 X29.9013 Y-3.9140
G01 X29.8582 Y-3.9043
G01 X29.8123 Y-3.8963
G01 X29.7660 Y-3.8905
G01 X29.7195 Y-3.8870
G01 X29.6729 Y-3.8858
G01 X29.6257 Y-3.8869
G01 X29.5794 Y-3.8903
G01 X29.5332 Y-3.8960
G01 X29.4852 Y-3.9043
G01 X29.4397 Y-3.9146
G01 X29.3948 Y-3.9271
G01 X29.3505 Y-3.9418
G01 X29.3070 Y-3.9586
G01 X29.2644 Y-3.9775
G01 X29.2228 Y-3.9986
G01 X29.1844 Y-4.0203
G01 X29.1567 Y-4.0378
G01 X28.3807 Y-3.2621
G01 X28.3636 Y-3.2481
G01 X28.3493 Y-3.2385
G01 X28.3386 Y-3.2325
G01 X28.3140 Y-3.2215
G01 X28.3023 Y-3.2177
G01 X28.2856 Y-3.2135
G01 X28.2662 Y-3.2105
G01 X28.2454 Y-3.2094
G01 X26.5788 Y-3.2094
G01 X26.5695 Y-3.1761
G01 X26.5571 Y-3.1388
G01 X26.5429 Y-3.1022
G01 X26.5280 Y-3.0685
G01 X26.5092 Y-3.0313
G01 X26.4898 Y-2.9972
G01 X26.4701 Y-2.9661
G01 X26.4461 Y-2.9320
G01 X26.4235 Y-2.9029
G01 X26.3979 Y-2.8732
G01 X26.3691 Y-2.8430
G01 X26.3420 Y-2.8172
G01 X26.3124 Y-2.7916
G01 X26.2816 Y-2.7675
G01 X26.2498 Y-2.7450
G01 X26.2145 Y-2.7227
G01 X26.1803 Y-2.7034
G01 X26.1474 Y-2.6868
G01 X26.1093 Y-2.6699
G01 X26.0728 Y-2.6559
G01 X26.0377 Y-2.6443
G01 X25.9975 Y-2.6332
G01 X25.9616 Y-2.6251
G01 X25.9229 Y-2.6184
G01 X25.8815 Y-2.6132
G01 X25.8423 Y-2.6104
G01 X25.8055 Y-2.6095
G01 X25.7663 Y-2.6104
G01 X25.7271 Y-2.6132
G01 X25.6878 Y-2.6180
G01 X25.6470 Y-2.6251
G01 X25.6087 Y-2.6338
G01 X25.5733 Y-2.6436
G01 X25.5359 Y-2.6559
G01 X25.4993 Y-2.6699
G01 X25.4633 Y-2.6858
G01 X25.4261 Y-2.7046
G01 X25.3920 Y-2.7240
G01 X25.3588 Y-2.7450
G01 X25.3268 Y-2.7677
G01 X25.2977 Y-2.7903
G01 X25.2680 Y-2.8159
G01 X25.2395 Y-2.8430
G01 X25.2124 Y-2.8714
G01 X25.1864 Y-2.9014
G01 X25.1623 Y-2.9322
G01 X25.1397 Y-2.9642
G01 X25.1175 Y-2.9993
G01 X25.0982 Y-3.0335
G01 X25.0816 Y-3.0664
G01 X25.0657 Y-3.1022
G01 X25.0515 Y-3.1388
G01 X25.0391 Y-3.1761
G01 X25.0286 Y-3.2139
G01 X25.0199 Y-3.2522
G01 X25.0128 Y-3.2933
G01 X25.0080 Y-3.3323
G01 X25.0052 Y-3.3715
G01 X25.0043 Y-3.4083
G01 X25.0052 Y-3.4475
G01 X25.0080 Y-3.4867
G01 X25.0128 Y-3.5257
G00 Z3.0000
G00 X26.5950 Y-3.0981
G01 F80.00
G01 Z-0.0700
G01 F20.00
G01 X26.6009 Y-3.1100
G01 X26.6095 Y-3.1223
G01 X26.6198 Y-3.1332
G01 X26.6295 Y-3.1411
G01 X26.6402 Y-3.1476
G01 X26.6540 Y-3.1537
G01 X26.6685 Y-3.1576
G01 X26.6834 Y-3.1592
G01 X28.2442 Y-3.1593
G01 X28.2577 Y-3.1597
G01 X28.2699 Y-3.1606
G01 X28.2821 Y-3.1621
G01 X28.2942 Y-3.1642
G01 X28.3062 Y-3.1669
G01 X28.3180 Y-3.1701
G01 X28.3297 Y-3.1740
G01 X28.3411 Y-3.1784
G01 X28.3524 Y-3.1834
G01 X28.3633 Y-3.1889
G01 X28.3740 Y-3.1949
G01 X28.3844 Y-3.2015
G01 X28.3944 Y-3.2086
G01 X28.4041 Y-3.2161
G01 X28.4134 Y-3.2242
G01 X28.4232 Y-3.2335
G01 X29.1115 Y-3.9218
G01 X29.1179 Y-3.9277
G01 X29.1301 Y-3.9364
G01 X29.1435 Y-3.9433
G01 X29.1577 Y-3.9480
G01 X29.1700 Y-3.9503
G01 X29.1850 Y-3.9510
G01 X29.1975 Y-3.9499
G01 X29.2121 Y-3.9465
G01 X29.2244 Y-3.9417
G01 X29.1992 Y-3.9545
G01 X29.1640 Y-3.9744
G01 X28.4205 Y-3.2310
G01 X28.3962 Y-3.2100
G01 X28.3750 Y-3.1956
G01 X28.3501 Y-3.1824
G01 X28.3203 Y-3.1709
G01 X28.3038 Y-3.1664
G01 X28.2833 Y-3.1623
G01 X28.2675 Y-3.1604
G01 X28.2460 Y-3.1594
G01 X26.6166 Y-3.1594
G01 X26.6049 Y-3.1241
G01 X26.5950 Y-3.0981
G00 Z3.0000
G00 X28.7776 Y-4.3885
G01 F80.00
G01 Z-0.0700
G01 F20.00
G01 X28.7824 Y-4.3762
G01 X28.7858 Y-4.3616
G01 X28.7870 Y-4.3466
G01 X28.7859 Y-4.3316
G01 X28.7826 Y-4.3170
G01 X28.7782 Y-4.3053
G01 X28.7710 Y-4.2921
G01 X28.7620 Y-4.2802
G01 X28.1702 Y-3.6881
G01 X28.1609 Y-3.6801
G01 X28.1507 Y-3.6733
G01 X28.1397 Y-3.6678
G01 X28.1306 Y-3.6644
G01 X28.1162 Y-3.6610
G01 X28.1004 Y-3.6597
G01 X26.6834 Y-3.6598
G01 X26.6685 Y-3.6614
G01 X26.6540 Y-3.6653
G01 X26.6402 Y-3.6714
G01 X26.6295 Y-3.6779
G01 X26.6198 Y-3.6858
G01 X26.6095 Y-3.6967
G01 X26.6009 Y-3.7090
G01 X26.5950 Y-3.7209
G01 X26.6049 Y-3.6949
G01 X26.6166 Y-3.6596
G01 X28.1418 Y-3.6596
G01 X28.8103 Y-4.3281
G01 X28.7904 Y-4.3633
G01 X28.7776 Y-4.3885
G00 Z3.0000
G00 X29.7670 Y-3.8404
G01 F80.00
G01 Z-0.0700
G01 F20.00
G01 X29.8172 Y-3.8465
G01 X29.8644 Y-3.8546
G01 X29.9260 Y-3.8689
G01 X32.4568 Y-1.3382
G01 X32.4795 Y-1.3176
G01 X32.5061 Y-1.2978
G01 X32.5247 Y-1.2859
G01 X32.5540 Y-1.2705
G01 X32.5834 Y-1.2583
G01 X32.6152 Y-1.2485
G01 X32.6367 Y-1.2437
G01 X32.6695 Y-1.2390
G01 X32.7026 Y-1.2374
G01 X58.2216 Y-1.2374
G01 X58.2584 Y-1.2393
G01 X58.2875 Y-1.2437
G01 X58.3055 Y-1.2476
G01 X58.3372 Y-1.2570
G01 X58.3578 Y-1.2650
G01 X58.3856 Y-1.2782
G01 X58.4141 Y-1.2950
G01 X58.4321 Y-1.3078
G01 X58.4558 Y-1.3273
G01 X58.4709 Y-1.3417
G01 X58.4930 Y-1.3663
G01 X58.5113 Y-1.3910
G01 X58.5231 Y-1.4096
G01 X58.5376 Y-1.4367
G01 X58.5504 Y-1.4672
G01 X58.5573 Y-1.4882
G01 X58.5647 Y-1.5180
G01 X58.5698 Y-1.5507
G01 X58.5714 Y-1.5719
G01 X58.5717 Y-9.4196
G01 X60.4759 Y-11.3237
G01 X60.5307 Y-11.3237
G01 X60.5306 Y-8.0150
G01 X60.5311 Y-7.9972
G01 X60.5340 Y-7.9679
G01 X60.5376 Y-7.9473
G01 X60.5417 Y-7.9294
G01 X60.5503 Y-7.9010
G01 X60.5568 Y-7.8840
G01 X60.5653 Y-7.8649
G01 X60.5792 Y-7.8389
G01 X60.5988 Y-7.8092
G01 X60.6205 Y-7.7826
G01 X60.6447 Y-7.7582
G01 X60.6712 Y-7.7363
G01 X60.6997 Y-7.7171
G01 X60.7299 Y-7.7008
G01 X60.7615 Y-7.6876
G01 X60.7933 Y-7.6778
G01 X60.8112 Y-7.6737
G01 X60.8318 Y-7.6701
G01 X60.8611 Y-7.6672
G01 X60.8789 Y-7.6667
G01 X61.5038 Y-7.6667
G01 X61.5055 Y-7.6486
G01 X61.5101 Y-7.6321
G01 X61.5187 Y-7.6144
G01 X61.5289 Y-7.6007
G01 X61.5413 Y-7.5888
G01 X61.5556 Y-7.5793
G01 X61.5713 Y-7.5723
G01 X61.5903 Y-7.5678
G01 X61.6038 Y-7.5669
G01 X62.7150 Y-7.5669
G01 X60.8820 Y-7.5665
G01 X60.8586 Y-7.5671
G01 X60.8366 Y-7.5687
G01 X60.8147 Y-7.5714
G01 X60.7929 Y-7.5752
G01 X60.7713 Y-7.5800
G01 X60.7500 Y-7.5859
G01 X60.7290 Y-7.5929
G01 X60.7084 Y-7.6008
G01 X60.6882 Y-7.6098
G01 X60.6685 Y-7.6197
G01 X60.6492 Y-7.6306
G01 X60.6306 Y-7.6424
G01 X60.6125 Y-7.6552
G01 X60.5951 Y-7.6688
G01 X60.5783 Y-7.6832
G01 X60.5623 Y-7.6984
G01 X60.5471 Y-7.7144
G01 X60.5327 Y-7.7312
G01 X60.5191 Y-7.7486
G01 X60.5063 Y-7.7667
G01 X60.4945 Y-7.7853
G01 X60.4836 Y-7.8046
G01 X60.4737 Y-7.8243
G01 X60.4647 Y-7.8445
G01 X60.4568 Y-7.8651
G01 X60.4498 Y-7.8861
G01 X60.4439 Y-7.9074
G01 X60.4391 Y-7.9290
G01 X60.4353 Y-7.9507
G01 X60.4326 Y-7.9727
G01 X60.4310 Y-7.9947
G01 X60.4304 Y-8.0180
G01 X60.4305 Y-10.8964
G01 X60.4292 Y-10.9111
G01 X60.4265 Y-10.9231
G01 X60.4214 Y-10.9369
G01 X60.4143 Y-10.9497
G01 X60.4054 Y-10.9615
G01 X60.3949 Y-10.9717
G01 X60.3850 Y-10.9790
G01 X60.3721 Y-10.9861
G01 X60.3583 Y-10.9913
G01 X60.3440 Y-10.9943
G01 X60.3293 Y-10.9952
G01 X60.3146 Y-10.9939
G01 X60.3003 Y-10.9905
G01 X60.2866 Y-10.9851
G01 X60.2739 Y-10.9777
G01 X60.2624 Y-10.9685
G01 X58.7012 Y-9.4074
G01 X58.6938 Y-9.3991
G01 X58.6881 Y-9.3912
G01 X58.6810 Y-9.3783
G01 X58.6758 Y-9.3645
G01 X58.6728 Y-9.3501
G01 X58.6719 Y-9.3367
G01 X58.6719 Y-1.5887
G01 X58.6713 Y-1.5654
G01 X58.6697 Y-1.5434
G01 X58.6670 Y-1.5214
G01 X58.6632 Y-1.4997
G01 X58.6584 Y-1.4781
G01 X58.6525 Y-1.4568
G01 X58.6455 Y-1.4358
G01 X58.6376 Y-1.4152
G01 X58.6286 Y-1.3950
G01 X58.6133 Y-1.3650
G01 X58.6096 Y-1.3557
G01 X58.6055 Y-1.3389
G01 X58.6043 Y-1.3241
G01 X58.6053 Y-1.3092
G01 X58.6092 Y-1.2923
G01 X58.6160 Y-1.2763
G01 X58.6255 Y-1.2618
G01 X58.6374 Y-1.2491
G01 X58.6512 Y-1.2386
G01 X58.6667 Y-1.2308
G01 X58.6809 Y-1.2262
G01 X58.6931 Y-1.2241
G01 X58.7042 Y-1.2234
G01 X78.9627 Y-1.2234
G01 X78.9737 Y-1.2240
G01 X78.9834 Y-1.2256
G01 X78.9952 Y-1.2289
G01 X79.0065 Y-1.2336
G01 X79.0172 Y-1.2396
G01 X79.0271 Y-1.2469
G01 X79.0359 Y-1.2554
G01 X79.0437 Y-1.2648
G01 X79.0503 Y-1.2752
G01 X79.0555 Y-1.2863
G01 X79.0594 Y-1.2979
G01 X79.0618 Y-1.3100
G01 X79.0627 Y-1.3222
G01 X79.0621 Y-1.3344
G01 X79.0600 Y-1.3465
G01 X79.0555 Y-1.3606
G01 X79.0503 Y-1.3716
G01 X79.0437 Y-1.3820
G01 X79.0334 Y-1.3941
G01 X78.2425 Y-2.1857
G01 X78.2313 Y-2.1988
G01 X78.2108 Y-2.2264
G01 X78.1932 Y-2.2558
G01 X78.1785 Y-2.2869
G01 X78.1723 Y-2.3029
G01 X78.1623 Y-2.3358
G01 X78.1585 Y-2.3526
G01 X78.1535 Y-2.3866
G01 X78.1518 Y-2.4221
G01 X78.1514 Y-4.1722
G01 X78.1490 Y-4.1869
G01 X78.1445 Y-4.2011
G01 X78.1391 Y-4.2122
G01 X78.1309 Y-4.2247
G01 X78.1210 Y-4.2357
G01 X78.1095 Y-4.2452
G01 X78.0968 Y-4.2528
G01 X78.0854 Y-4.2577
G01 X78.0711 Y-4.2617
G01 X78.0588 Y-4.2633
G01 X78.0439 Y-4.2633
G01 X78.0293 Y-4.2610
G01 X78.0174 Y-4.2575
G01 X78.0038 Y-4.2513
G01 X77.9914 Y-4.2432
G01 X77.9815 Y-4.2347
G01 X78.0082 Y-4.2628
G01 X78.0410 Y-4.3009
G01 X78.0743 Y-4.3434
G01 X78.1076 Y-4.3905
G01 X78.1370 Y-4.4372
G01 X78.1618 Y-4.4810
G01 X78.1856 Y-4.5281
G01 X78.2081 Y-4.5785
G01 X78.2288 Y-4.6323
G01 X78.2446 Y-4.6801
G01 X78.2519 Y-4.7064
G01 X78.2519 Y-2.4209
G01 X78.2529 Y-2.3988
G01 X78.2550 Y-2.3818
G01 X78.2591 Y-2.3613
G01 X78.2657 Y-2.3390
G01 X78.2765 Y-2.3129
G01 X78.2888 Y-2.2903
G01 X78.3071 Y-2.2642
G01 X78.3239 Y-2.2454
G01 X79.2789 Y-1.2903
G01 X79.2939 Y-1.2767
G01 X79.3074 Y-1.2661
G01 X79.3269 Y-1.2533
G01 X79.3453 Y-1.2434
G01 X79.3609 Y-1.2365
G01 X79.3806 Y-1.2295
G01 X79.3960 Y-1.2253
G01 X79.4165 Y-1.2212
G01 X79.4323 Y-1.2193
G01 X79.4544 Y-1.2183
G01 X92.8891 Y-1.2179
G01 X92.9050 Y-1.2192
G01 X92.9218 Y-1.2234
G01 X101.3941 Y-1.2236
G01 X101.4111 Y-1.2261
G01 X101.4296 Y-1.2325
G01 X101.4466 Y-1.2424
G01 X101.4595 Y-1.2536
G01 X101.4704 Y-1.2669
G01 X101.4799 Y-1.2840
G01 X101.4858 Y-1.3027
G01 X101.4880 Y-1.3222
G01 X101.4878 Y-8.6605
G01 X101.4848 Y-8.6796
G01 X101.4791 Y-8.6956
G01 X101.4695 Y-8.7123
G01 X101.4569 Y-8.7270
G01 X101.4437 Y-8.7375
G01 X101.4266 Y-8.7467
G01 X101.4082 Y-8.7524
G01 X101.3889 Y-8.7545
G01 X101.3769 Y-8.7538
G01 X101.3457 Y-8.7495
G01 X101.3102 Y-8.7478
G01 X94.8039 Y-8.7478
G01 X94.7684 Y-8.7495
G01 X94.7349 Y-8.7543
G01 X94.7242 Y-8.7550
G01 X94.2904 Y-8.7550
G01 X94.2916 Y-9.0228
G01 X94.2956 Y-9.0391
G01 X94.2969 Y-9.0550
G01 X94.2969 Y-11.5550
G01 X94.2956 Y-11.5709
G01 X94.2922 Y-11.5852
G01 X94.2857 Y-11.6011
G01 X94.2779 Y-11.6136
G01 X94.2702 Y-11.6231
G01 X94.2613 Y-11.6315
G01 X94.2514 Y-11.6388
G01 X94.2430 Y-11.6438
G01 X94.2340 Y-11.6478
G01 X94.2224 Y-11.6517
G01 X94.2104 Y-11.6541
G01 X94.1981 Y-11.6550
G01 X92.1969 Y-11.6550
G01 X92.1834 Y-11.6541
G01 X92.1691 Y-11.6510
G01 X92.1553 Y-11.6459
G01 X92.1424 Y-11.6388
G01 X92.1288 Y-11.6283
G01 X92.1188 Y-11.6175
G01 X92.1093 Y-11.6032
G01 X92.1032 Y-11.5898
G01 X92.0986 Y-11.5733
G01 X92.0970 Y-11.5587
G01 X92.0969 Y-10.3278
G01 X92.0893 Y-8.7550
G01 X91.9563 Y-8.7549
G01 X91.9453 Y-8.7540
G01 X91.9261 Y-8.7507
G01 X91.9151 Y-8.7502
G01 X87.7496 Y-8.7502
G01 X87.7373 Y-8.7493
G01 X87.7230 Y-8.7462
G01 X87.7114 Y-8.7421
G01 X87.7004 Y-8.7366
G01 X87.6903 Y-8.7298
G01 X87.6810 Y-8.7218
G01 X87.6727 Y-8.7127
G01 X87.6644 Y-8.7006
G01 X87.6589 Y-8.6896
G01 X87.6541 Y-8.6757
G01 X87.6517 Y-8.6637
G01 X87.6508 Y-8.6502
G01 X87.6508 Y-4.4103
G01 X87.6387 Y-4.4043
G01 X87.6266 Y-4.3960
G01 X87.6158 Y-4.3860
G01 X87.6081 Y-4.3765
G01 X87.6003 Y-4.3640
G01 X87.5954 Y-4.3527
G01 X87.5913 Y-4.3386
G01 X87.5895 Y-4.3265
G01 X87.5891 Y-3.7029
G01 X84.7812 Y-3.7029
G01 X84.8841 Y-3.7208
G01 X85.0086 Y-3.7488
G01 X85.1293 Y-3.7822
G01 X85.2493 Y-3.8218
G01 X85.3695 Y-3.8681
G01 X85.4851 Y-3.9192
G01 X85.5992 Y-3.9765
G01 X85.6206 Y-3.9885
G01 X85.6083 Y-3.9796
G01 X85.5962 Y-3.9677
G01 X85.5876 Y-3.9559
G01 X85.5799 Y-3.9407
G01 X85.5754 Y-3.9269
G01 X85.5728 Y-3.9101
G01 X85.5728 Y-3.8955
G01 X85.5755 Y-3.8787
G01 X85.5801 Y-3.8649
G01 X85.5879 Y-3.8498
G01 X85.5965 Y-3.8380
G01 X85.6086 Y-3.8261
G01 X85.6205 Y-3.8176
G01 X85.6357 Y-3.8101
G01 X85.6496 Y-3.8057
G01 X85.6664 Y-3.8032
G01 X87.3543 Y-3.8031
G01 X87.3665 Y-3.8043
G01 X87.3808 Y-3.8077
G01 X87.3922 Y-3.8121
G01 X87.4051 Y-3.8192
G01 X87.4150 Y-3.8265
G01 X87.4255 Y-3.8368
G01 X87.4331 Y-3.8465
G01 X87.4394 Y-3.8570
G01 X87.4443 Y-3.8682
G01 X87.4479 Y-3.8799
G01 X87.4500 Y-3.8920
G01 X87.4506 Y-3.9030
G01 X87.4506 Y-8.8491
G01 X87.4511 Y-8.8601
G01 X87.4526 Y-8.8698
G01 X87.4565 Y-8.8840
G01 X87.4602 Y-8.8931
G01 X87.4703 Y-8.9099
G01 X87.4799 Y-8.9211
G01 X87.4872 Y-8.9277
G01 X87.4993 Y-8.9361
G01 X87.5170 Y-8.9445
G01 X87.5360 Y-8.9493
G01 X87.5519 Y-8.9504
G01 X89.2569 Y-8.9504
G01 X89.2679 Y-8.9510
G01 X89.2800 Y-8.9531
G01 X89.2917 Y-8.9567
G01 X89.3030 Y-8.9616
G01 X89.3155 Y-8.9694
G01 X89.3250 Y-8.9771
G01 X89.3334 Y-8.9860
G01 X89.3407 Y-8.9959
G01 X89.3468 Y-9.0065
G01 X89.3515 Y-9.0179
G01 X89.3552 Y-9.0321
G01 X89.3567 Y-9.0443
G01 X89.3569 Y-9.8717
G01 X89.5569 Y-9.8717
G01 X89.5571 Y-9.0489
G01 X89.5591 Y-9.0343
G01 X89.5632 Y-9.0202
G01 X89.5693 Y-9.0068
G01 X89.5759 Y-8.9964
G01 X89.5853 Y-8.9852
G01 X89.5964 Y-8.9754
G01 X89.6065 Y-8.9686
G01 X89.6198 Y-8.9622
G01 X89.6386 Y-8.9567
G01 X89.6569 Y-8.9550
G01 X91.6569 Y-8.9550
G01 X91.6679 Y-8.9556
G01 X91.6776 Y-8.9572
G01 X91.6963 Y-8.9631
G01 X91.7094 Y-8.9699
G01 X91.7213 Y-8.9785
G01 X91.7318 Y-8.9888
G01 X91.7407 Y-9.0005
G01 X91.7468 Y-9.0111
G01 X91.7522 Y-9.0248
G01 X91.7556 Y-9.0391
G01 X91.7569 Y-9.0538
G01 X91.7569 Y-11.5550
G01 X91.7563 Y-11.5660
G01 X91.7547 Y-11.5757
G01 X91.7506 Y-11.5898
G01 X91.7433 Y-11.6054
G01 X91.7334 Y-11.6194
G01 X91.7231 Y-11.6299
G01 X91.7114 Y-11.6388
G01 X91.6985 Y-11.6459
G01 X91.6824 Y-11.6517
G01 X91.6679 Y-11.6544
G01 X91.6569 Y-11.6550
G01 X91.0902 Y-11.6550
G01 X91.0902 Y-11.8550
G01 X94.3525 Y-11.8550
G01 X94.3635 Y-11.8556
G01 X94.3732 Y-11.8572
G01 X94.3850 Y-11.8604
G01 X94.3941 Y-11.8641
G01 X94.4049 Y-11.8699
G01 X94.4130 Y-11.8754
G01 X94.4205 Y-11.8817
G01 X94.4290 Y-11.8906
G01 X94.4376 Y-11.9025
G01 X94.4444 Y-11.9156
G01 X94.4498 Y-11.9319
G01 X94.4521 Y-11.9464
G01 X94.4524 Y-12.1942
G01 X94.4498 Y-12.2136
G01 X94.4470 Y-12.2230
G01 X94.4423 Y-12.2344
G01 X94.4321 Y-12.2510
G01 X94.4187 Y-12.2654
G01 X94.4070 Y-12.2743
G01 X94.3919 Y-12.2824
G01 X94.3756 Y-12.2878
G01 X94.3586 Y-12.2903
G01 X93.9728 Y-12.2905
G01 X93.9728 Y-12.4905
G01 X94.3062 Y-12.4905
G01 X94.3245 Y-12.4922
G01 X94.3387 Y-12.4959
G01 X94.3501 Y-12.5006
G01 X94.3628 Y-12.5080
G01 X94.3743 Y-12.5172
G01 X94.3843 Y-12.5280
G01 X94.3926 Y-12.5401
G01 X94.3990 Y-12.5534
G01 X94.4035 Y-12.5674
G01 X94.4056 Y-12.5795
G01 X94.4062 Y-12.5905
G01 X94.4062 Y-14.1905
G01 X94.4049 Y-14.2064
G01 X94.4008 Y-14.2230
G01 X94.3938 Y-14.2387
G01 X94.3843 Y-14.2530
G01 X94.3724 Y-14.2654
G01 X94.3587 Y-14.2756
G01 X94.3433 Y-14.2833
G01 X94.3293 Y-14.2878
G01 X94.3172 Y-14.2899
G01 X94.3062 Y-14.2905
G01 X93.9728 Y-14.2905
G01 X93.9728 Y-14.4905
G01 X94.3586 Y-14.4907
G01 X94.3780 Y-14.4938
G01 X94.3941 Y-14.4996
G01 X94.4111 Y-14.5095
G01 X94.4257 Y-14.5224
G01 X94.4363 Y-14.5360
G01 X94.4444 Y-14.5511
G01 X94.4498 Y-14.5674
G01 X94.4524 Y-14.5868
G01 X94.4525 Y-14.8912
G01 X94.4529 Y-14.9096
G01 X94.4557 Y-14.9405
G01 X94.4558 Y-14.9501
G01 X94.4543 Y-14.9646
G01 X94.4514 Y-14.9763
G01 X94.4461 Y-14.9898
G01 X94.4402 Y-15.0004
G01 X94.4332 Y-15.0102
G01 X94.4232 Y-15.0207
G01 X94.4137 Y-15.0283
G01 X94.4035 Y-15.0346
G01 X94.3925 Y-15.0397
G01 X94.3810 Y-15.0435
G01 X94.3691 Y-15.0458
G01 X94.3559 Y-15.0467
G01 X74.4154 Y-15.0417
G01 X73.9700 Y-15.0530
G01 X73.5564 Y-15.0835
G01 X73.1252 Y-15.1362
G01 X72.6779 Y-15.2138
G01 X72.2542 Y-15.3094
G01 X71.8357 Y-15.4257
G01 X71.4418 Y-15.5558
G01 X71.0182 Y-15.7192
G01 X70.6391 Y-15.8873
G01 X70.2509 Y-16.0822
G01 X69.8727 Y-16.2959
G01 X69.4891 Y-16.5388
G01 X69.1342 Y-16.7893
G01 X68.7921 Y-17.0569
G01 X68.4635 Y-17.3410
G01 X68.1492 Y-17.6409
G01 X67.8500 Y-17.9558
G01 X67.5667 Y-18.2851
G01 X67.2998 Y-18.6278
G01 X67.0501 Y-18.9832
G01 X66.8181 Y-19.3505
G01 X66.6044 Y-19.7287
G01 X66.4095 Y-20.1169
G01 X66.2414 Y-20.4960
G01 X66.0847 Y-20.9011
G01 X65.9479 Y-21.3135
G01 X65.8316 Y-21.7320
G01 X65.7360 Y-22.1557
G01 X65.6612 Y-22.5836
G01 X65.6076 Y-23.0147
G01 X65.5752 Y-23.4478
G01 X65.5640 Y-23.8821
G01 X65.5649 Y-23.9177
G01 X65.5702 Y-23.9592
G01 X65.5708 Y-23.9702
G01 X65.5708 Y-34.3161
G01 X65.5691 Y-34.3344
G01 X65.5636 Y-34.3532
G01 X65.5546 Y-34.3706
G01 X65.5440 Y-34.3841
G01 X65.5294 Y-34.3971
G01 X65.5124 Y-34.4070
G01 X65.4963 Y-34.4128
G01 X65.4769 Y-34.4159
G01 X31.2943 Y-34.4161
G01 X31.2809 Y-34.4152
G01 X31.2665 Y-34.4121
G01 X31.2505 Y-34.4059
G01 X31.2378 Y-34.3985
G01 X31.2245 Y-34.3876
G01 X31.2147 Y-34.3766
G01 X31.2067 Y-34.3643
G01 X31.1998 Y-34.3486
G01 X31.1956 Y-34.3320
G01 X31.1943 Y-34.3161
G01 X31.1942 Y-23.8821
G01 X31.1830 Y-23.4478
G01 X31.1506 Y-23.0147
G01 X31.0970 Y-22.5836
G01 X31.0222 Y-22.1557
G01 X30.9266 Y-21.7320
G01 X30.8103 Y-21.3135
G01 X30.6735 Y-20.9011
G01 X30.5168 Y-20.4960
G01 X30.3403 Y-20.0991
G01 X30.1446 Y-19.7113
G01 X29.9300 Y-19.3336
G01 X29.6972 Y-18.9669
G01 X29.4467 Y-18.6120
G01 X29.1791 Y-18.2699
G01 X28.8950 Y-17.9413
G01 X28.5951 Y-17.6270
G01 X28.2802 Y-17.3278
G01 X27.9509 Y-17.0445
G01 X27.6082 Y-16.7776
G01 X27.2528 Y-16.5279
G01 X26.8855 Y-16.2959
G01 X26.5247 Y-16.0914
G01 X26.1191 Y-15.8873
G01 X25.7400 Y-15.7192
G01 X25.3349 Y-15.5625
G01 X24.9225 Y-15.4257
G01 X24.5040 Y-15.3094
G01 X24.0610 Y-15.2099
G01 X23.6330 Y-15.1362
G01 X23.2018 Y-15.0835
G01 X22.7882 Y-15.0530
G01 X22.3441 Y-15.0417
G01 X22.3098 Y-15.0434
G01 X22.2768 Y-15.0480
G01 X22.2658 Y-15.0486
G01 X1.2837 Y-15.0486
G01 X1.2678 Y-15.0473
G01 X1.2535 Y-15.0439
G01 X1.2399 Y-15.0384
G01 X1.2272 Y-15.0310
G01 X1.2157 Y-15.0218
G01 X1.2057 Y-15.0111
G01 X1.1973 Y-14.9989
G01 X1.1909 Y-14.9857
G01 X1.1854 Y-14.9669
G01 X1.1837 Y-14.9486
G01 X1.1837 Y-1.3234
G01 X1.1854 Y-1.3051
G01 X1.1909 Y-1.2863
G01 X1.1999 Y-1.2689
G01 X1.2105 Y-1.2554
G01 X1.2251 Y-1.2424
G01 X1.2421 Y-1.2325
G01 X1.2582 Y-1.2267
G01 X1.2776 Y-1.2236
G01 X32.1885 Y-1.2234
G01 X32.2068 Y-1.2251
G01 X32.2256 Y-1.2306
G01 X32.2430 Y-1.2396
G01 X32.2583 Y-1.2519
G01 X32.2709 Y-1.2669
G01 X32.2804 Y-1.2840
G01 X32.2863 Y-1.3027
G01 X32.2884 Y-1.3222
G01 X32.2868 Y-1.3417
G01 X32.2813 Y-1.3606
G01 X32.2723 Y-1.3780
G01 X32.2600 Y-1.3933
G01 X29.8420 Y-3.8112
G01 X29.8274 Y-3.8232
G01 X29.8188 Y-3.8285
G01 X29.8143 Y-3.8308
G01 X29.8120 Y-3.8318
G01 X29.8097 Y-3.8328
G01 X29.8002 Y-3.8362
G01 X29.7904 Y-3.8387
G01 X29.7804 Y-3.8401
G01 X29.7703 Y-3.8405
G01 X29.7670 Y-3.8404
G01 X29.9104 Y-3.8135
G01 X29.9106 Y-3.8136
G01 X32.4330 Y-1.2919
G01 X32.4613 Y-1.2683
G01 X32.4834 Y-1.2528
G01 X32.5151 Y-1.2341
G01 X32.5461 Y-1.2193
G01 X32.5710 Y-1.2097
G01 X32.6042 Y-1.1997
G01 X32.6282 Y-1.1944
G01 X32.6646 Y-1.1892
G01 X32.7026 Y-1.1874
G01 X58.2216 Y-1.1874
G01 X58.2572 Y-1.1890
G01 X58.2839 Y-1.1923
G01 X58.3200 Y-1.1997
G01 X58.3535 Y-1.2098
G01 X58.3781 Y-1.2193
G01 X58.4118 Y-1.2355
G01 X58.4429 Y-1.2541
G01 X58.4726 Y-1.2759
G01 X58.4930 Y-1.2935
G01 X58.5193 Y-1.3202
G01 X58.5422 Y-1.3482
G01 X58.5629 Y-1.3787
G01 X58.5762 Y-1.4022
G01 X58.5917 Y-1.4354
G01 X58.6041 Y-1.4702
G01 X58.6133 Y-1.5058
G01 X58.6179 Y-1.5321
G01 X58.6213 Y-1.5697
G01 X58.6217 Y-9.3989
G01 X60.4807 Y-11.2577
G01 X60.4806 Y-8.0165
G01 X60.4813 Y-7.9935
G01 X60.4844 Y-7.9617
G01 X60.4880 Y-7.9400
G01 X60.4933 Y-7.9166
G01 X60.4989 Y-7.8971
G01 X60.5099 Y-7.8665
G01 X60.5195 Y-7.8446
G01 X60.5296 Y-7.8250
G01 X60.5460 Y-7.7976
G01 X60.5601 Y-7.7775
G01 X60.5738 Y-7.7601
G01 X60.5952 Y-7.7365
G01 X60.6111 Y-7.7212
G01 X60.6293 Y-7.7056
G01 X60.6554 Y-7.6862
G01 X60.6739 Y-7.6743
G01 X60.6932 Y-7.6634
G01 X60.7130 Y-7.6536
G01 X60.7425 Y-7.6413
G01 X60.7634 Y-7.6343
G01 X60.7871 Y-7.6278
G01 X60.8184 Y-7.6216
G01 X60.8403 Y-7.6187
G01 X60.8648 Y-7.6170
G01 X61.4625 Y-7.6166
G01 X60.8826 Y-7.6165
G01 X60.8611 Y-7.6171
G01 X60.8415 Y-7.6185
G01 X60.8220 Y-7.6209
G01 X60.8026 Y-7.6243
G01 X60.7835 Y-7.6286
G01 X60.7645 Y-7.6338
G01 X60.7459 Y-7.6400
G01 X60.7276 Y-7.6470
G01 X60.7096 Y-7.6550
G01 X60.6920 Y-7.6638
G01 X60.6750 Y-7.6735
G01 X60.6584 Y-7.6840
G01 X60.6423 Y-7.6953
G01 X60.6268 Y-7.7074
G01 X60.6119 Y-7.7202
G01 X60.5977 Y-7.7338
G01 X60.5842 Y-7.7480
G01 X60.5713 Y-7.7629
G01 X60.5592 Y-7.7784
G01 X60.5479 Y-7.7944
G01 X60.5374 Y-7.8110
G01 X60.5277 Y-7.8281
G01 X60.5189 Y-7.8457
G01 X60.5109 Y-7.8636
G01 X60.5039 Y-7.8820
G01 X60.4977 Y-7.9006
G01 X60.4925 Y-7.9196
G01 X60.4882 Y-7.9387
G01 X60.4848 Y-7.9581
G01 X60.4824 Y-7.9776
G01 X60.4810 Y-7.9972
G01 X60.4804 Y-8.0187
G01 X60.4802 Y-10.9050
G01 X60.4781 Y-10.9221
G01 X60.4744 Y-10.9376
G01 X60.4681 Y-10.9549
G01 X60.4604 Y-10.9702
G01 X60.4502 Y-10.9856
G01 X60.4400 Y-10.9978
G01 X60.4275 Y-11.0096
G01 X60.4128 Y-11.0206
G01 X60.3990 Y-11.0286
G01 X60.3822 Y-11.0360
G01 X60.3646 Y-11.0413
G01 X60.3476 Y-11.0442
G01 X60.3317 Y-11.0452
G01 X60.3134 Y-11.0442
G01 X60.2964 Y-11.0413
G01 X60.2811 Y-11.0369
G01 X60.2653 Y-11.0303
G01 X60.2513 Y-11.0226
G01 X60.2373 Y-11.0127
G01 X60.2249 Y-11.0017
G01 X58.6658 Y-9.4427
G01 X58.6507 Y-9.4250
G01 X58.6385 Y-9.4052
G01 X58.6298 Y-9.3849
G01 X58.6239 Y-9.3611
G01 X58.6219 Y-9.3367
G01 X58.6219 Y-1.5893
G01 X58.6213 Y-1.5679
G01 X58.6199 Y-1.5483
G01 X58.6175 Y-1.5288
G01 X58.6141 Y-1.5094
G01 X58.6098 Y-1.4903
G01 X58.6046 Y-1.4713
G01 X58.5914 Y-1.4343
G01 X58.5834 Y-1.4164
G01 X58.5746 Y-1.3988
G01 X58.5708 Y-1.3919
G01 X58.5681 Y-1.3863
G01 X58.5621 Y-1.3713
G01 X58.5589 Y-1.3606
G01 X58.5562 Y-1.3472
G01 X58.5543 Y-1.3237
G01 X58.5549 Y-1.3101
G01 X58.5563 Y-1.2990
G01 X58.5619 Y-1.2761
G01 X58.5668 Y-1.2634
G01 X58.5722 Y-1.2522
G01 X58.5779 Y-1.2426
G01 X58.5858 Y-1.2314
G01 X58.6016 Y-1.2140
G01 X58.6120 Y-1.2051
G01 X58.6221 Y-1.1979
G01 X58.6317 Y-1.1922
G01 X58.6439 Y-1.1861
G01 X58.6555 Y-1.1816
G01 X58.6686 Y-1.1777
G01 X58.6869 Y-1.1744
G01 X58.7042 Y-1.1734
G01 X78.9627 Y-1.1734
G01 X78.9798 Y-1.1744
G01 X78.9979 Y-1.1776
G01 X79.0155 Y-1.1830
G01 X79.0323 Y-1.1906
G01 X79.0480 Y-1.2001
G01 X79.0616 Y-1.2107
G01 X79.0746 Y-1.2236
G01 X79.0860 Y-1.2381
G01 X79.0944 Y-1.2516
G01 X79.1022 Y-1.2683
G01 X79.1076 Y-1.2846
G01 X79.1112 Y-1.3026
G01 X79.1126 Y-1.3210
G01 X79.1118 Y-1.3393
G01 X79.1088 Y-1.3575
G01 X79.1035 Y-1.3751
G01 X79.0961 Y-1.3920
G01 X79.0867 Y-1.4078
G01 X79.0778 Y-1.4195
G01 X79.0688 Y-1.4295
G01 X78.2910 Y-2.2073
G01 X78.2796 Y-2.2193
G01 X78.2699 Y-2.2305
G01 X78.2609 Y-2.2421
G01 X78.2524 Y-2.2541
G01 X78.2445 Y-2.2666
G01 X78.2373 Y-2.2794
G01 X78.2306 Y-2.2926
G01 X78.2247 Y-2.3060
G01 X78.2194 Y-2.3198
G01 X78.2147 Y-2.3338
G01 X78.2108 Y-2.3480
G01 X78.2076 Y-2.3623
G01 X78.2051 Y-2.3769
G01 X78.2033 Y-2.3915
G01 X78.2022 Y-2.4062
G01 X78.2018 Y-2.4227
G01 X78.2015 Y-4.1722
G01 X78.1986 Y-4.1943
G01 X78.1932 Y-4.2134
G01 X78.1843 Y-4.2339
G01 X78.1731 Y-4.2517
G01 X78.1587 Y-4.2687
G01 X78.1439 Y-4.2819
G01 X78.1264 Y-4.2937
G01 X78.1064 Y-4.3032
G01 X78.1178 Y-4.3180
G01 X78.1502 Y-4.3643
G01 X78.1780 Y-4.4083
G01 X78.2019 Y-4.4503
G01 X78.2019 Y-2.4200
G01 X78.2033 Y-2.3927
G01 X78.2070 Y-2.3660
G01 X78.2119 Y-2.3444
G01 X78.2201 Y-2.3182
G01 X78.2315 Y-2.2910
G01 X78.2465 Y-2.2635
G01 X78.2588 Y-2.2451
G01 X78.2677 Y-2.2334
G01 X78.2874 Y-2.2111
G01 X79.2446 Y-1.2539
G01 X79.2631 Y-1.2372
G01 X79.2846 Y-1.2210
G01 X79.3027 Y-1.2095
G01 X79.3233 Y-1.1985
G01 X79.3423 Y-1.1901
G01 X79.3661 Y-1.1816
G01 X79.3923 Y-1.1749
G01 X79.4122 Y-1.1713
G01 X79.4360 Y-1.1689
G01 X79.4544 Y-1.1683
G01 X92.8891 Y-1.1679
G01 X92.9099 Y-1.1694
G01 X92.9294 Y-1.1734
G01 X101.3880 Y-1.1734
G01 X101.4002 Y-1.1739
G01 X101.4124 Y-1.1754
G01 X101.4268 Y-1.1785
G01 X101.4397 Y-1.1826
G01 X101.4532 Y-1.1884
G01 X101.4640 Y-1.1941
G01 X101.4763 Y-1.2022
G01 X101.4878 Y-1.2115
G01 X101.4974 Y-1.2209
G01 X101.5070 Y-1.2321
G01 X101.5140 Y-1.2421
G01 X101.5208 Y-1.2538
G01 X101.5270 Y-1.2672
G01 X101.5311 Y-1.2787
G01 X101.5348 Y-1.2930
G01 X101.5371 Y-1.3075
G01 X101.5380 Y-1.3216
G01 X101.5377 Y-8.6641
G01 X101.5362 Y-8.6774
G01 X101.5333 Y-8.6916
G01 X101.5290 Y-8.7055
G01 X101.5245 Y-8.7167
G01 X101.5178 Y-8.7296
G01 X101.5099 Y-8.7418
G01 X101.5009 Y-8.7531
G01 X101.4917 Y-8.7628
G01 X101.4808 Y-8.7723
G01 X101.4710 Y-8.7794
G01 X101.4585 Y-8.7868
G01 X101.4454 Y-8.7930
G01 X101.4329 Y-8.7976
G01 X101.4189 Y-8.8012
G01 X101.4045 Y-8.8035
G01 X101.3900 Y-8.8044
G01 X101.3719 Y-8.8036
G01 X101.3408 Y-8.7993
G01 X101.3096 Y-8.7978
G01 X94.8045 Y-8.7978
G01 X94.7733 Y-8.7993
G01 X94.7402 Y-8.8040
G01 X94.7247 Y-8.8050
G01 X94.3406 Y-8.8050
G01 X94.3415 Y-9.0153
G01 X94.3456 Y-9.0354
G01 X94.3469 Y-9.0550
G01 X94.3469 Y-11.5556
G01 X94.3449 Y-11.5794
G01 X94.3389 Y-11.6032
G01 X94.3298 Y-11.6246
G01 X94.3166 Y-11.6453
G01 X94.3064 Y-11.6575
G01 X94.2939 Y-11.6694
G01 X94.2812 Y-11.6790
G01 X94.2665 Y-11.6879
G01 X94.2520 Y-11.6945
G01 X94.2357 Y-11.6999
G01 X94.2177 Y-11.7035
G01 X94.2018 Y-11.7049
G01 X92.1969 Y-11.7050
G01 X92.1761 Y-11.7035
G01 X92.1545 Y-11.6989
G01 X92.1317 Y-11.6901
G01 X92.1115 Y-11.6783
G01 X92.0944 Y-11.6645
G01 X92.0779 Y-11.6463
G01 X92.0652 Y-11.6268
G01 X92.0561 Y-11.6067
G01 X92.0496 Y-11.5831
G01 X92.0470 Y-11.5611
G01 X92.0469 Y-10.3286
G01 X92.0396 Y-8.8050
G01 X91.9541 Y-8.8049
G01 X91.9387 Y-8.8035
G01 X91.9212 Y-8.8005
G01 X91.9145 Y-8.8002
G01 X87.7502 Y-8.8002
G01 X87.7276 Y-8.7984
G01 X87.7049 Y-8.7930
G01 X87.6823 Y-8.7836
G01 X87.6624 Y-8.7714
G01 X87.6483 Y-8.7597
G01 X87.6364 Y-8.7472
G01 X87.6268 Y-8.7345
G01 X87.6179 Y-8.7198
G01 X87.6113 Y-8.7053
G01 X87.6059 Y-8.6890
G01 X87.6026 Y-8.6734
G01 X87.6009 Y-8.6551
G01 X87.6008 Y-4.4391
G01 X87.5893 Y-4.4299
G01 X87.5771 Y-4.4177
G01 X87.5679 Y-4.4063
G01 X87.5592 Y-4.3929
G01 X87.5525 Y-4.3798
G01 X87.5463 Y-4.3638
G01 X87.5422 Y-4.3484
G01 X87.5397 Y-4.3314
G01 X87.5391 Y-4.3179
G01 X87.5391 Y-3.7529
G01 X85.2001 Y-3.7529
G01 X85.2702 Y-3.7761
G01 X85.3881 Y-3.8216
G01 X85.5054 Y-3.8735
G01 X85.5239 Y-3.8826
G01 X85.5263 Y-3.8695
G01 X85.5299 Y-3.8566
G01 X85.5341 Y-3.8452
G01 X85.5404 Y-3.8321
G01 X85.5472 Y-3.8206
G01 X85.5543 Y-3.8107
G01 X85.5630 Y-3.8006
G01 X85.5734 Y-3.7904
G01 X85.5829 Y-3.7827
G01 X85.5940 Y-3.7752
G01 X85.6067 Y-3.7682
G01 X85.6179 Y-3.7633
G01 X85.6305 Y-3.7590
G01 X85.6423 Y-3.7561
G01 X85.6567 Y-3.7539
G01 X85.6701 Y-3.7531
G01 X87.3567 Y-3.7532
G01 X87.3787 Y-3.7557
G01 X87.3988 Y-3.7610
G01 X87.4169 Y-3.7685
G01 X87.4349 Y-3.7790
G01 X87.4504 Y-3.7911
G01 X87.4650 Y-3.8060
G01 X87.4767 Y-3.8217
G01 X87.4872 Y-3.8411
G01 X87.4926 Y-3.8548
G01 X87.4972 Y-3.8714
G01 X87.4997 Y-3.8871
G01 X87.5006 Y-3.9030
G01 X87.5006 Y-8.8485
G01 X87.5016 Y-8.8601
G01 X87.5045 Y-8.8695
G01 X87.5105 Y-8.8801
G01 X87.5171 Y-8.8874
G01 X87.5250 Y-8.8932
G01 X87.5338 Y-8.8974
G01 X87.5434 Y-8.8998
G01 X87.5525 Y-8.9004
G01 X89.2587 Y-8.9004
G01 X89.2765 Y-8.9017
G01 X89.2922 Y-8.9046
G01 X89.3086 Y-8.9096
G01 X89.3232 Y-8.9159
G01 X89.3392 Y-8.9250
G01 X89.3539 Y-8.9360
G01 X89.3672 Y-8.9488
G01 X89.3802 Y-8.9650
G01 X89.3903 Y-8.9819
G01 X89.3977 Y-8.9987
G01 X89.4030 Y-9.0163
G01 X89.4063 Y-9.0369
G01 X89.4069 Y-9.0504
G01 X89.4069 Y-9.8217
G01 X89.5069 Y-9.8217
G01 X89.5069 Y-9.0550
G01 X89.5078 Y-9.0391
G01 X89.5111 Y-9.0197
G01 X89.5174 Y-8.9999
G01 X89.5258 Y-8.9821
G01 X89.5372 Y-8.9647
G01 X89.5500 Y-8.9498
G01 X89.5656 Y-8.9360
G01 X89.5819 Y-8.9251
G01 X89.6018 Y-8.9155
G01 X89.6145 Y-8.9111
G01 X89.6288 Y-8.9077
G01 X89.6434 Y-8.9056
G01 X89.6569 Y-8.9050
G01 X91.6569 Y-8.9050
G01 X91.6728 Y-8.9059
G01 X91.6874 Y-8.9081
G01 X91.7016 Y-8.9118
G01 X91.7154 Y-8.9169
G01 X91.7351 Y-8.9270
G01 X91.7511 Y-8.9383
G01 X91.7672 Y-8.9534
G01 X91.7802 Y-8.9696
G01 X91.7903 Y-8.9865
G01 X91.7989 Y-9.0068
G01 X91.8045 Y-9.0281
G01 X91.8068 Y-9.0501
G01 X91.8069 Y-11.5550
G01 X91.8060 Y-11.5709
G01 X91.8038 Y-11.5855
G01 X91.7977 Y-11.6067
G01 X91.7886 Y-11.6268
G01 X91.7766 Y-11.6453
G01 X91.7621 Y-11.6619
G01 X91.7453 Y-11.6762
G01 X91.7265 Y-11.6879
G01 X91.7063 Y-11.6966
G01 X91.6838 Y-11.7026
G01 X91.6704 Y-11.7044
G01 X91.6569 Y-11.7050
G01 X91.1402 Y-11.7050
G01 X91.1402 Y-11.8050
G01 X94.3543 Y-11.8050
G01 X94.3696 Y-11.8060
G01 X94.3865 Y-11.8089
G01 X94.4018 Y-11.8134
G01 X94.4177 Y-11.8199
G01 X94.4306 Y-11.8270
G01 X94.4438 Y-11.8360
G01 X94.4568 Y-11.8472
G01 X94.4676 Y-11.8589
G01 X94.4805 Y-11.8768
G01 X94.4906 Y-11.8965
G01 X94.4977 Y-11.9174
G01 X94.5016 Y-11.9391
G01 X94.5025 Y-11.9550
G01 X94.5025 Y-12.1911
G01 X94.5019 Y-12.2040
G01 X94.4998 Y-12.2186
G01 X94.4964 Y-12.2329
G01 X94.4920 Y-12.2456
G01 X94.4859 Y-12.2590
G01 X94.4798 Y-12.2697
G01 X94.4722 Y-12.2808
G01 X94.4628 Y-12.2921
G01 X94.4541 Y-12.3008
G01 X94.4428 Y-12.3102
G01 X94.4306 Y-12.3185
G01 X94.4188 Y-12.3250
G01 X94.4076 Y-12.3300
G01 X94.3937 Y-12.3347
G01 X94.3805 Y-12.3378
G01 X94.3684 Y-12.3396
G01 X94.3525 Y-12.3405
G01 X94.0228 Y-12.3405
G01 X94.0228 Y-12.4405
G01 X94.3080 Y-12.4405
G01 X94.3270 Y-12.4420
G01 X94.3450 Y-12.4456
G01 X94.3647 Y-12.4524
G01 X94.3823 Y-12.4612
G01 X94.3994 Y-12.4730
G01 X94.4140 Y-12.4862
G01 X94.4274 Y-12.5021
G01 X94.4379 Y-12.5187
G01 X94.4466 Y-12.5377
G01 X94.4523 Y-12.5564
G01 X94.4552 Y-12.5734
G01 X94.4562 Y-12.5905
G01 X94.4562 Y-14.1905
G01 X94.4542 Y-14.2149
G01 X94.4494 Y-14.2352
G01 X94.4413 Y-14.2557
G01 X94.4316 Y-14.2728
G01 X94.4190 Y-14.2894
G01 X94.4032 Y-14.3049
G01 X94.3875 Y-14.3166
G01 X94.3692 Y-14.3266
G01 X94.3486 Y-14.3344
G01 X94.3294 Y-14.3387
G01 X94.3087 Y-14.3405
G01 X94.0228 Y-14.3405
G01 X94.0228 Y-14.4405
G01 X94.3525 Y-14.4405
G01 X94.3721 Y-14.4418
G01 X94.3865 Y-14.4444
G01 X94.4007 Y-14.4485
G01 X94.4144 Y-14.4539
G01 X94.4275 Y-14.4606
G01 X94.4398 Y-14.4686
G01 X94.4495 Y-14.4761
G01 X94.4603 Y-14.4862
G01 X94.4700 Y-14.4973
G01 X94.4836 Y-14.5176
G01 X94.4933 Y-14.5388
G01 X94.4974 Y-14.5517
G01 X94.5000 Y-14.5636
G01 X94.5024 Y-14.5880
G01 X94.5025 Y-14.8906
G01 X94.5029 Y-14.9071
G01 X94.5056 Y-14.9380
G01 X94.5058 Y-14.9525
G01 X94.5036 Y-14.9729
G01 X94.4990 Y-14.9917
G01 X94.4915 Y-15.0108
G01 X94.4821 Y-15.0277
G01 X94.4714 Y-15.0424
G01 X94.4572 Y-15.0573
G01 X94.4431 Y-15.0687
G01 X94.4278 Y-15.0783
G01 X94.4102 Y-15.0865
G01 X94.3930 Y-15.0920
G01 X94.3752 Y-15.0954
G01 X94.3559 Y-15.0967
G01 X74.4160 Y-15.0917
G01 X73.9731 Y-15.1029
G01 X73.5607 Y-15.1333
G01 X73.1320 Y-15.1857
G01 X72.6883 Y-15.2627
G01 X72.2669 Y-15.3578
G01 X71.8508 Y-15.4734
G01 X71.4581 Y-15.6031
G01 X71.0379 Y-15.7652
G01 X70.6599 Y-15.9328
G01 X70.2739 Y-16.1266
G01 X69.8978 Y-16.3391
G01 X69.5174 Y-16.5800
G01 X69.1645 Y-16.8291
G01 X68.8385 Y-17.0835
G01 X68.5111 Y-17.3653
G01 X68.1980 Y-17.6628
G01 X67.8998 Y-17.9753
G01 X67.6174 Y-18.3021
G01 X67.3513 Y-18.6423
G01 X67.1022 Y-18.9952
G01 X66.8707 Y-19.3599
G01 X66.6575 Y-19.7354
G01 X66.4629 Y-20.1211
G01 X66.2874 Y-20.5157
G01 X66.1315 Y-20.9186
G01 X65.9956 Y-21.3286
G01 X65.8755 Y-21.7626
G01 X65.7813 Y-22.1841
G01 X65.7079 Y-22.6098
G01 X65.6555 Y-23.0385
G01 X65.6242 Y-23.4693
G01 X65.6140 Y-23.8827
G01 X65.6147 Y-23.9140
G01 X65.6199 Y-23.9543
G01 X65.6208 Y-23.9702
G01 X65.6208 Y-34.3179
G01 X65.6199 Y-34.3320
G01 X65.6176 Y-34.3465
G01 X65.6139 Y-34.3608
G01 X65.6098 Y-34.3723
G01 X65.6036 Y-34.3857
G01 X65.5968 Y-34.3974
G01 X65.5898 Y-34.4074
G01 X65.5802 Y-34.4186
G01 X65.5706 Y-34.4280
G01 X65.5591 Y-34.4373
G01 X65.5468 Y-34.4454
G01 X65.5338 Y-34.4522
G01 X65.5201 Y-34.4577
G01 X65.5084 Y-34.4613
G01 X65.4940 Y-34.4643
G01 X65.4806 Y-34.4657
G01 X31.2943 Y-34.4661
G01 X31.2735 Y-34.4646
G01 X31.2520 Y-34.4600
G01 X31.2291 Y-34.4511
G01 X31.2090 Y-34.4394
G01 X31.1900 Y-34.4239
G01 X31.1746 Y-34.4064
G01 X31.1615 Y-34.3857
G01 X31.1523 Y-34.3643
G01 X31.1463 Y-34.3405
G01 X31.1443 Y-34.3167
G01 X31.1443 Y-23.8937
G01 X31.1340 Y-23.4693
G01 X31.1027 Y-23.0385
G01 X31.0503 Y-22.6098
G01 X30.9769 Y-22.1841
G01 X30.8827 Y-21.7626
G01 X30.7679 Y-21.3462
G01 X30.6329 Y-20.9359
G01 X30.4778 Y-20.5328
G01 X30.3032 Y-20.1377
G01 X30.1094 Y-19.7517
G01 X29.8969 Y-19.3756
G01 X29.6662 Y-19.0105
G01 X29.4179 Y-18.6571
G01 X29.1525 Y-18.3163
G01 X28.8707 Y-17.9889
G01 X28.5732 Y-17.6758
G01 X28.2607 Y-17.3776
G01 X27.9197 Y-17.0835
G01 X27.5789 Y-16.8181
G01 X27.2255 Y-16.5698
G01 X26.8604 Y-16.3391
G01 X26.5006 Y-16.1353
G01 X26.0983 Y-15.9328
G01 X25.7203 Y-15.7652
G01 X25.3174 Y-15.6093
G01 X24.9074 Y-15.4734
G01 X24.4913 Y-15.3578
G01 X24.0519 Y-15.2591
G01 X23.6262 Y-15.1857
G01 X23.1975 Y-15.1333
G01 X22.7851 Y-15.1029
G01 X22.3441 Y-15.0917
G01 X22.3147 Y-15.0932
G01 X22.2817 Y-15.0977
G01 X22.2658 Y-15.0986
G01 X1.2837 Y-15.0986
G01 X1.2605 Y-15.0968
G01 X1.2390 Y-15.0917
G01 X1.2185 Y-15.0836
G01 X1.1994 Y-15.0726
G01 X1.1821 Y-15.0589
G01 X1.1670 Y-15.0428
G01 X1.1544 Y-15.0246
G01 X1.1442 Y-15.0037
G01 X1.1398 Y-14.9909
G01 X1.1364 Y-14.9766
G01 X1.1343 Y-14.9621
G01 X1.1337 Y-14.9486
G01 X1.1337 Y-1.3234
G01 X1.1355 Y-1.3002
G01 X1.1406 Y-1.2787
G01 X1.1487 Y-1.2582
G01 X1.1597 Y-1.2391
G01 X1.1734 Y-1.2218
G01 X1.1895 Y-1.2067
G01 X1.2077 Y-1.1941
G01 X1.2286 Y-1.1839
G01 X1.2414 Y-1.1795
G01 X1.2557 Y-1.1761
G01 X1.2702 Y-1.1740
G01 X1.2837 Y-1.1734
G01 X32.1885 Y-1.1734
G01 X32.2019 Y-1.1740
G01 X32.2165 Y-1.1761
G01 X32.2308 Y-1.1795
G01 X32.2436 Y-1.1839
G01 X32.2548 Y-1.1889
G01 X32.2677 Y-1.1961
G01 X32.2788 Y-1.2037
G01 X32.2901 Y-1.2131
G01 X32.3004 Y-1.2236
G01 X32.3097 Y-1.2351
G01 X32.3177 Y-1.2474
G01 X32.3246 Y-1.2604
G01 X32.3301 Y-1.2741
G01 X32.3343 Y-1.2882
G01 X32.3370 Y-1.3026
G01 X32.3383 Y-1.3173
G01 X32.3382 Y-1.3320
G01 X32.3366 Y-1.3466
G01 X32.3337 Y-1.3611
G01 X32.3293 Y-1.3751
G01 X32.3235 Y-1.3887
G01 X32.3165 Y-1.4016
G01 X32.3082 Y-1.4138
G01 X32.2988 Y-1.4251
G01 X29.9104 Y-3.8135
G00 Z3.0000
G00 X30.5675 Y-4.2884
G01 F80.00
G01 Z-0.0700
G01 F20.00
G01 X32.8683 Y-1.9876
G01 X33.6929 Y-1.9876
G01 X33.6697 Y-1.9990
G01 X33.6456 Y-2.0137
G01 X33.6225 Y-2.0310
G01 X33.6023 Y-2.0494
G01 X31.9976 Y-3.6540
G01 X31.9805 Y-3.6729
G01 X31.9643 Y-3.6944
G01 X31.9528 Y-3.7126
G01 X31.9410 Y-3.7348
G01 X31.9305 Y-3.7597
G01 X31.9237 Y-3.7800
G01 X31.9176 Y-3.8045
G01 X31.9137 Y-3.8291
G01 X31.9173 Y-3.8056
G01 X31.9205 Y-3.7913
G01 X31.9244 Y-3.7771
G01 X31.9291 Y-3.7631
G01 X31.9344 Y-3.7493
G01 X31.9403 Y-3.7359
G01 X31.9470 Y-3.7227
G01 X31.9542 Y-3.7099
G01 X31.9621 Y-3.6974
G01 X31.9706 Y-3.6854
G01 X31.9797 Y-3.6738
G01 X31.9893 Y-3.6626
G01 X32.0007 Y-3.6506
G01 X33.4080 Y-2.2434
G01 X33.4205 Y-2.2291
G01 X33.4314 Y-2.2128
G01 X33.4396 Y-2.1963
G01 X33.4464 Y-2.1766
G01 X33.4495 Y-2.1622
G01 X33.4512 Y-2.1476
G01 X33.4514 Y-2.1329
G01 X33.4502 Y-2.1182
G01 X33.4476 Y-2.1037
G01 X33.4435 Y-2.0896
G01 X33.4381 Y-2.0759
G01 X33.4314 Y-2.0628
G01 X33.4234 Y-2.0504
G01 X33.4143 Y-2.0389
G01 X33.4040 Y-2.0283
G01 X33.3928 Y-2.0188
G01 X33.3807 Y-2.0104
G01 X33.3678 Y-2.0033
G01 X33.3543 Y-1.9974
G01 X33.3403 Y-1.9929
G01 X33.3211 Y-1.9891
G01 X33.3021 Y-1.9878
G01 X32.9244 Y-1.9879
G01 X32.9025 Y-1.9904
G01 X32.8812 Y-1.9961
G01 X32.8609 Y-2.0049
G01 X32.8422 Y-2.0166
G01 X32.8245 Y-2.0317
G01 X30.5675 Y-4.2884
G00 Z3.0000
G00 X31.2628 Y-4.8812
G01 F80.00
G01 Z-0.0700
G01 F20.00
G01 X31.2662 Y-4.9281
G01 X31.2722 Y-4.9764
G01 X31.2802 Y-5.0223
G01 X31.2899 Y-5.0654
G01 X31.3030 Y-5.1127
G01 X31.3169 Y-5.1548
G01 X31.3336 Y-5.1982
G01 X31.3534 Y-5.2431
G01 X31.3745 Y-5.2847
G01 X31.3962 Y-5.3231
G01 X31.4225 Y-5.3646
G01 X31.4494 Y-5.4027
G01 X31.4766 Y-5.4375
G01 X31.5070 Y-5.4729
G01 X31.5408 Y-5.5084
G01 X31.5728 Y-5.5389
G01 X31.6081 Y-5.5694
G01 X31.6468 Y-5.5996
G01 X31.6831 Y-5.6251
G01 X31.7223 Y-5.6500
G01 X31.7650 Y-5.6742
G01 X31.8066 Y-5.6951
G01 X31.8470 Y-5.7130
G01 X31.8927 Y-5.7306
G01 X31.9371 Y-5.7452
G01 X31.9797 Y-5.7570
G01 X32.0252 Y-5.7673
G01 X32.0735 Y-5.7757
G01 X32.1174 Y-5.7811
G01 X32.1639 Y-5.7846
G01 X32.2129 Y-5.7858
G01 X32.2577 Y-5.7847
G01 X32.3036 Y-5.7813
G01 X32.3523 Y-5.7753
G01 X32.3982 Y-5.7673
G01 X32.4413 Y-5.7576
G01 X32.4886 Y-5.7445
G01 X32.5307 Y-5.7306
G01 X32.5741 Y-5.7139
G01 X32.6190 Y-5.6941
G01 X32.6606 Y-5.6730
G01 X32.6990 Y-5.6513
G01 X32.7405 Y-5.6250
G01 X32.7786 Y-5.5981
G01 X32.8134 Y-5.5709
G01 X32.8506 Y-5.5389
G01 X32.8843 Y-5.5067
G01 X32.9148 Y-5.4747
G01 X32.9453 Y-5.4394
G01 X32.9755 Y-5.4007
G01 X33.0023 Y-5.3626
G01 X33.0272 Y-5.3231
G01 X33.0489 Y-5.2847
G01 X33.0710 Y-5.2409
G01 X33.0898 Y-5.1982
G01 X33.1065 Y-5.1548
G01 X33.1204 Y-5.1127
G01 X33.1335 Y-5.0654
G01 X33.1432 Y-5.0223
G01 X33.1512 Y-4.9764
G01 X33.1572 Y-4.9277
G01 X33.1606 Y-4.8812
G01 X33.1617 Y-4.8370
G01 X33.1606 Y-4.7904
G01 X33.1572 Y-4.7435
G01 X33.1512 Y-4.6952
G01 X33.1432 Y-4.6493
G01 X33.1335 Y-4.6062
G01 X33.1204 Y-4.5589
G01 X33.1065 Y-4.5168
G01 X33.0898 Y-4.4734
G01 X33.0710 Y-4.4307
G01 X33.0489 Y-4.3869
G01 X33.0259 Y-4.3464
G01 X33.0023 Y-4.3090
G01 X32.9755 Y-4.2709
G01 X32.9453 Y-4.2322
G01 X32.9148 Y-4.1969
G01 X32.8843 Y-4.1649
G01 X32.8488 Y-4.1311
G01 X32.8134 Y-4.1007
G01 X32.7783 Y-4.0733
G01 X32.7405 Y-4.0466
G01 X32.6990 Y-4.0203
G01 X32.6606 Y-3.9986
G01 X32.6190 Y-3.9775
G01 X32.5764 Y-3.9586
G01 X32.5307 Y-3.9410
G01 X32.4886 Y-3.9271
G01 X32.4442 Y-3.9147
G01 X33.8967 Y-2.4623
G01 X44.7244 Y-2.4623
G01 X45.8780 Y-3.6158
G01 X45.8844 Y-4.3042
G01 X45.7551 Y-4.4336
G01 X45.7495 Y-4.4409
G01 X45.7462 Y-4.4473
G01 X45.7431 Y-4.4571
G01 X45.7421 Y-4.4647
G01 X45.7419 Y-5.5673
G01 X45.7435 Y-5.5800
G01 X45.7483 Y-5.5917
G01 X45.7565 Y-5.6026
G01 X45.8582 Y-5.7043
G01 X45.8695 Y-5.7121
G01 X45.8817 Y-5.7163
G01 X45.8919 Y-5.7174
G01 X46.2946 Y-5.7172
G01 X46.3047 Y-5.7157
G01 X46.3120 Y-5.7131
G01 X46.3203 Y-5.7085
G01 X46.3274 Y-5.7026
G01 X46.4304 Y-5.5992
G01 X46.4355 Y-5.5917
G01 X46.4387 Y-5.5849
G01 X46.4408 Y-5.5775
G01 X46.4418 Y-5.5699
G01 X46.4416 Y-4.4623
G01 X46.4403 Y-4.4547
G01 X46.4377 Y-4.4474
G01 X46.4344 Y-4.4410
G01 X46.4288 Y-4.4337
G01 X46.2844 Y-4.2892
G01 X46.2773 Y-3.5291
G01 X46.2761 Y-3.5098
G01 X46.2730 Y-3.4906
G01 X46.2657 Y-3.4650
G01 X46.2583 Y-3.4470
G01 X46.2492 Y-3.4299
G01 X46.2427 Y-3.4197
G01 X46.2310 Y-3.4042
G01 X46.2188 Y-3.3907
G01 X44.9479 Y-2.1199
G01 X44.9333 Y-2.1068
G01 X44.9193 Y-2.0964
G01 X44.9027 Y-2.0863
G01 X44.8850 Y-2.0778
G01 X44.8665 Y-2.0711
G01 X44.8475 Y-2.0662
G01 X44.8354 Y-2.0641
G01 X44.8159 Y-2.0623
G01 X33.8138 Y-2.0621
G01 X33.7930 Y-2.0632
G01 X33.7736 Y-2.0662
G01 X33.7474 Y-2.0735
G01 X33.7361 Y-2.0778
G01 X33.7206 Y-2.0852
G01 X33.7099 Y-2.0912
G01 X33.6956 Y-2.1008
G01 X33.6859 Y-2.1083
G01 X33.6732 Y-2.1199
G01 X32.0694 Y-3.7236
G01 X32.0517 Y-3.7440
G01 X32.0395 Y-3.7624
G01 X32.0303 Y-3.7798
G01 X32.0206 Y-3.8049
G01 X32.0152 Y-3.8264
G01 X32.0125 Y-3.8458
G01 X32.0116 Y-3.8630
G01 X32.0116 Y-3.9073
G01 X31.9797 Y-3.9146
G01 X31.9348 Y-3.9271
G01 X31.8927 Y-3.9410
G01 X31.8493 Y-3.9577
G01 X31.8044 Y-3.9775
G01 X31.7628 Y-3.9986
G01 X31.7244 Y-4.0203
G01 X31.6829 Y-4.0466
G01 X31.6448 Y-4.0735
G01 X31.6100 Y-4.1007
G01 X31.5746 Y-4.1311
G01 X31.5408 Y-4.1632
G01 X31.5070 Y-4.1987
G01 X31.4766 Y-4.2341
G01 X31.4492 Y-4.2692
G01 X31.4224 Y-4.3072
G01 X31.3962 Y-4.3485
G01 X31.3733 Y-4.3891
G01 X31.3524 Y-4.4307
G01 X31.3336 Y-4.4734
G01 X31.3169 Y-4.5168
G01 X31.3030 Y-4.5589
G01 X31.2905 Y-4.6038
G01 X31.2802 Y-4.6493
G01 X31.2722 Y-4.6952
G01 X31.2664 Y-4.7415
G01 X31.2629 Y-4.7880
G01 X31.2617 Y-4.8346
G01 X31.2628 Y-4.8812
G00 Z3.0000
G00 X31.7959 Y-6.4119
G01 F80.00
G01 Z-0.0700
G01 F20.00
G01 X31.7611 Y-6.4274
G01 X31.7140 Y-6.4513
G01 X31.6703 Y-6.4761
G01 X31.6299 Y-6.5017
G01 X31.6135 Y-6.5132
G01 X31.6060 Y-6.4952
G01 X31.5962 Y-6.4785
G01 X31.5836 Y-6.4622
G01 X31.5697 Y-6.4485
G01 X31.5532 Y-6.4361
G01 X31.5363 Y-6.4267
G01 X31.5171 Y-6.4191
G01 X31.4982 Y-6.4144
G01 X31.4850 Y-6.4126
G01 X31.4723 Y-6.4120
G01 X31.1216 Y-6.4120
G01 X31.0990 Y-6.4138
G01 X31.0775 Y-6.4189
G01 X31.0625 Y-6.4244
G01 X31.0472 Y-6.4321
G01 X31.0319 Y-6.4423
G01 X31.0197 Y-6.4526
G01 X30.7217 Y-6.7504
G01 X31.0600 Y-6.4119
G01 X31.7959 Y-6.4119
G00 Z3.0000
G00 X32.5985 Y-5.8117
G01 F80.00
G01 Z-0.0700
G01 F20.00
G01 X32.6163 Y-5.8047
G01 X32.6590 Y-5.7857
G01 X32.7077 Y-5.7612
G01 X32.7541 Y-5.7348
G01 X32.7935 Y-5.7099
G01 X32.8123 Y-5.6967
G01 X32.6973 Y-5.8117
G01 X32.5985 Y-5.8117
G01 X33.0725 Y-5.4366
G01 X33.0859 Y-5.4175
G01 X33.1114 Y-5.3772
G01 X33.1386 Y-5.3291
G01 X33.1624 Y-5.2814
G01 X33.1813 Y-5.2387
G01 X33.1962 Y-5.2003
G01 X33.1962 Y-5.3129
G01 X33.0725 Y-5.4366
G00 Z3.0000
G00 X33.6656 Y-5.7630
G01 F80.00
G01 Z-0.0700
G01 F20.00
G01 X33.6986 Y-5.7300
G01 X33.7002 Y-5.7345
G01 X33.7014 Y-5.7373
G01 X33.7016 Y-5.7378
G01 X33.7021 Y-5.7390
G01 X33.7055 Y-5.7467
G01 X33.7134 Y-5.7617
G01 X33.6821 Y-5.7620
G01 X33.6656 Y-5.7630
G01 X33.8430 Y-5.6369
G01 X33.8383 Y-5.6481
G01 X33.8365 Y-5.6601
G01 X33.8376 Y-5.6721
G01 X33.8416 Y-5.6835
G01 X33.8482 Y-5.6937
G01 X33.8570 Y-5.7020
G01 X33.8676 Y-5.7079
G01 X33.8792 Y-5.7110
G01 X33.8865 Y-5.7116
G01 X34.0255 Y-5.7116
G01 X34.0352 Y-5.7106
G01 X34.0467 Y-5.7069
G01 X34.0531 Y-5.7033
G01 X34.0588 Y-5.6989
G01 X34.0639 Y-5.6936
G01 X34.0681 Y-5.6877
G01 X34.0715 Y-5.6813
G01 X34.0739 Y-5.6744
G01 X34.0755 Y-5.6624
G01 X34.0742 Y-5.6503
G01 X34.0701 Y-5.6389
G01 X34.0633 Y-5.6289
G01 X34.0093 Y-5.5783
G01 X33.9607 Y-5.5266
G01 X33.9548 Y-5.5222
G01 X33.9483 Y-5.5188
G01 X33.9366 Y-5.5152
G01 X33.9244 Y-5.5146
G01 X33.9171 Y-5.5157
G01 X33.9101 Y-5.5178
G01 X33.8993 Y-5.5236
G01 X33.8936 Y-5.5283
G01 X33.8887 Y-5.5337
G01 X33.8846 Y-5.5398
G01 X33.8814 Y-5.5465
G01 X33.8731 Y-5.5720
G01 X33.8660 Y-5.5904
G01 X33.8581 Y-5.6083
G01 X33.8430 Y-5.6369
G01 X33.7964 Y-5.2708
G01 X33.8040 Y-5.2875
G01 X33.8273 Y-5.3335
G01 X33.8518 Y-5.3767
G01 X33.8808 Y-5.4221
G01 X33.8585 Y-5.4316
G01 X33.8378 Y-5.4447
G01 X33.8283 Y-5.4525
G01 X33.8238 Y-5.4567
G01 X33.8212 Y-5.4593
G01 X33.8203 Y-5.4602
G01 X33.8048 Y-5.4791
G01 X33.7970 Y-5.4916
G01 X33.7905 Y-5.5048
G01 X33.7789 Y-5.5383
G01 X33.7736 Y-5.5521
G01 X33.7677 Y-5.5656
G01 X33.7610 Y-5.5787
G01 X33.7504 Y-5.5984
G01 X33.7424 Y-5.6200
G01 X33.7379 Y-5.6413
G01 X33.7365 Y-5.6619
G01 X33.7378 Y-5.6812
G01 X33.7419 Y-5.7014
G01 X33.7432 Y-5.7061
G01 X33.7440 Y-5.7084
G01 X33.7444 Y-5.7095
G01 X33.7452 Y-5.7118
G01 X33.7482 Y-5.7197
G01 X33.7575 Y-5.7381
G01 X33.7700 Y-5.7560
G01 X33.7831 Y-5.7703
G01 X33.8020 Y-5.7855
G01 X33.8209 Y-5.7964
G01 X33.8423 Y-5.8049
G01 X33.8635 Y-5.8098
G01 X33.8859 Y-5.8116
G01 X34.0255 Y-5.8116
G01 X34.0497 Y-5.8096
G01 X34.0698 Y-5.8049
G01 X34.0902 Y-5.7969
G01 X34.1071 Y-5.7874
G01 X34.1236 Y-5.7751
G01 X34.1374 Y-5.7614
G01 X34.1501 Y-5.7451
G01 X34.1598 Y-5.7283
G01 X34.1680 Y-5.7085
G01 X34.2131 Y-5.7370
G01 X34.2585 Y-5.7627
G01 X34.3045 Y-5.7858
G01 X34.3472 Y-5.8047
G01 X34.3650 Y-5.8117
G01 X33.6910 Y-5.8118
G01 X33.6677 Y-5.8130
G01 X33.6458 Y-5.8158
G01 X33.6211 Y-5.8209
G01 X33.5945 Y-5.8290
G01 X33.5643 Y-5.8416
G01 X33.5356 Y-5.8575
G01 X33.5102 Y-5.8752
G01 X33.4860 Y-5.8963
G01 X32.8601 Y-6.5503
G01 X32.8359 Y-6.5315
G01 X32.7976 Y-6.5045
G01 X32.7504 Y-6.4746
G01 X32.7034 Y-6.4481
G01 X32.6617 Y-6.4271
G01 X32.6275 Y-6.4119
G01 X32.8326 Y-6.4116
G01 X32.8547 Y-6.4100
G01 X32.8831 Y-6.4055
G01 X32.9058 Y-6.3998
G01 X32.9244 Y-6.3937
G01 X32.9465 Y-6.3846
G01 X32.9641 Y-6.3759
G01 X32.9852 Y-6.3633
G01 X32.9993 Y-6.3536
G01 X33.0148 Y-6.3414
G01 X33.0329 Y-6.3249
G01 X33.7087 Y-5.6492
G01 X33.7259 Y-5.6304
G01 X33.7384 Y-5.6145
G01 X33.7478 Y-5.6008
G01 X33.7592 Y-5.5819
G01 X33.7730 Y-5.5532
G01 X33.7843 Y-5.5214
G01 X33.7882 Y-5.5065
G01 X33.7925 Y-5.4849
G01 X33.7952 Y-5.4636
G01 X33.7963 Y-5.4400
G01 X33.7964 Y-5.2708
G00 Z3.0000
G00 X33.8029 Y-4.8812
G01 F80.00
G01 Z-0.0700
G01 F20.00
G01 X33.8065 Y-4.9301
G01 X33.8120 Y-4.9743
G01 X33.8203 Y-5.0223
G01 X33.8306 Y-5.0678
G01 X33.8431 Y-5.1127
G01 X33.8570 Y-5.1548
G01 X33.8737 Y-5.1982
G01 X33.8935 Y-5.2431
G01 X33.9146 Y-5.2847
G01 X33.9376 Y-5.3252
G01 X33.9626 Y-5.3646
G01 X33.9880 Y-5.4007
G01 X34.0167 Y-5.4375
G01 X34.0471 Y-5.4729
G01 X34.0809 Y-5.5084
G01 X34.1147 Y-5.5405
G01 X34.1501 Y-5.5709
G01 X34.1869 Y-5.5996
G01 X34.2232 Y-5.6251
G01 X34.2624 Y-5.6500
G01 X34.3029 Y-5.6730
G01 X34.3467 Y-5.6951
G01 X34.3894 Y-5.7139
G01 X34.4329 Y-5.7307
G01 X34.4772 Y-5.7452
G01 X34.5198 Y-5.7570
G01 X34.5653 Y-5.7673
G01 X34.6112 Y-5.7753
G01 X34.6575 Y-5.7811
G01 X34.7040 Y-5.7846
G01 X34.7530 Y-5.7858
G01 X34.7978 Y-5.7847
G01 X34.8441 Y-5.7813
G01 X34.8903 Y-5.7756
G01 X34.9359 Y-5.7678
G01 X34.9838 Y-5.7570
G01 X35.0287 Y-5.7445
G01 X35.0730 Y-5.7298
G01 X35.1165 Y-5.7130
G01 X35.1569 Y-5.6951
G01 X35.1985 Y-5.6742
G01 X35.2391 Y-5.6513
G01 X35.2806 Y-5.6250
G01 X35.3187 Y-5.5981
G01 X35.3554 Y-5.5694
G01 X35.3907 Y-5.5389
G01 X35.4227 Y-5.5084
G01 X35.4549 Y-5.4747
G01 X35.4854 Y-5.4394
G01 X35.5156 Y-5.4007
G01 X35.5424 Y-5.3626
G01 X35.5673 Y-5.3231
G01 X35.5890 Y-5.2847
G01 X35.6101 Y-5.2431
G01 X35.6290 Y-5.2005
G01 X35.6347 Y-5.1858
G01 X35.7416 Y-5.1858
G01 X35.7219 Y-5.2376
G01 X35.7010 Y-5.2847
G01 X35.6778 Y-5.3308
G01 X35.6524 Y-5.3756
G01 X35.6248 Y-5.4191
G01 X35.5952 Y-5.4613
G01 X35.5634 Y-5.5019
G01 X35.5298 Y-5.5409
G01 X35.4943 Y-5.5783
G01 X35.4569 Y-5.6138
G01 X35.4419 Y-5.6271
G01 X35.4373 Y-5.6327
G01 X35.4335 Y-5.6389
G01 X35.4294 Y-5.6503
G01 X35.4281 Y-5.6599
G01 X35.4292 Y-5.6720
G01 X35.4321 Y-5.6813
G01 X35.4368 Y-5.6898
G01 X35.4448 Y-5.6989
G01 X35.4526 Y-5.7046
G01 X35.4614 Y-5.7087
G01 X35.4708 Y-5.7110
G01 X35.4781 Y-5.7116
G01 X43.4255 Y-5.7116
G01 X43.4653 Y-5.7135
G01 X43.5042 Y-5.7193
G01 X43.5234 Y-5.7236
G01 X43.5423 Y-5.7288
G01 X43.5793 Y-5.7421
G01 X43.6148 Y-5.7589
G01 X43.6319 Y-5.7685
G01 X43.6645 Y-5.7904
G01 X43.6949 Y-5.8153
G01 X43.7096 Y-5.8293
G01 X43.9829 Y-6.1027
G01 X43.9885 Y-6.1075
G01 X43.9947 Y-6.1114
G01 X44.0037 Y-6.1151
G01 X44.0158 Y-6.1172
G01 X44.2913 Y-6.1173
G01 X44.3139 Y-6.1189
G01 X44.3355 Y-6.1238
G01 X44.3493 Y-6.1287
G01 X44.3626 Y-6.1350
G01 X44.3753 Y-6.1426
G01 X44.3871 Y-6.1514
