(G-CODE GENERATED BY FLATCAM v8.993 - www.flatcam.org - Version Date: 2020/06/05)

(Name: ThermoSensor_контур.gbr_iso_combined_cnc)
(Type: G-code from Geometry)
(Units: MM)

(Created on Wednesday, 07 October 2020 at 04:54)

(This preprocessor is the default preprocessor used by FlatCAM.)
(It is made to work with MACH3 compatible motion controllers.)

(TOOL DIAMETER: 0.8 mm)
(Feedrate_XY: 60.0 mm/min)
(Feedrate_Z: 70.0 mm/min)
(Feedrate rapids 1500.0 mm/min)

(Z_Cut: -1.6 mm)
(DepthPerCut: 0.1 mm <=>16 passes)
(Z_Move: 2.0 mm)
(Z Start: None mm)
(Z End: 25.0 mm)
(Steps per circle: 128)
(Preprocessor Geometry: default)

(X range:   -0.1325 ...   16.0075  mm)
(Y range:   -8.3875 ...    0.1325  mm)

(Spindle Speed: None RPM)
G21
G90
G94



G01 F60.00
G00 Z2.0000

M03
G00 X-0.1325 Y-0.3175
G01 F70.00
G01 Z-0.1000
G01 F60.00
G01 X-0.1322 Y-7.9547
G01 X-0.1298 Y-7.9865
G01 X-0.1257 Y-8.0156
G01 X-0.1190 Y-8.0468
G01 X-0.1117 Y-8.0728
G01 X-0.1019 Y-8.1006
G01 X-0.0893 Y-8.1299
G01 X-0.0747 Y-8.1582
G01 X-0.0594 Y-8.1834
G01 X-0.0440 Y-8.2056
G01 X-0.0241 Y-8.2305
G01 X-0.0042 Y-8.2522
G01 X0.0189 Y-8.2742
G01 X0.0416 Y-8.2930
G01 X0.0675 Y-8.3117
G01 X0.0946 Y-8.3284
G01 X0.1207 Y-8.3422
G01 X0.1453 Y-8.3533
G01 X0.1659 Y-8.3612
G01 X0.1916 Y-8.3695
G01 X0.2177 Y-8.3763
G01 X0.2418 Y-8.3811
G01 X0.2685 Y-8.3848
G01 X0.2954 Y-8.3870
G01 X0.3175 Y-8.3875
G01 X15.5624 Y-8.3875
G01 X15.5918 Y-8.3862
G01 X15.6235 Y-8.3827
G01 X15.6549 Y-8.3768
G01 X15.6834 Y-8.3695
G01 X15.7137 Y-8.3595
G01 X15.7410 Y-8.3484
G01 X15.7696 Y-8.3344
G01 X15.7972 Y-8.3183
G01 X15.8216 Y-8.3019
G01 X15.8468 Y-8.2822
G01 X15.8687 Y-8.2626
G01 X15.8909 Y-8.2397
G01 X15.9130 Y-8.2134
G01 X15.9317 Y-8.1875
G01 X15.9484 Y-8.1604
G01 X15.9622 Y-8.1343
G01 X15.9733 Y-8.1097
G01 X15.9812 Y-8.0891
G01 X15.9895 Y-8.0634
G01 X15.9963 Y-8.0373
G01 X16.0011 Y-8.0132
G01 X16.0048 Y-7.9865
G01 X16.0070 Y-7.9596
G01 X16.0075 Y-7.9375
G01 X16.0073 Y-0.3052
G01 X16.0054 Y-0.2734
G01 X16.0011 Y-0.2418
G01 X15.9952 Y-0.2129
G01 X15.9867 Y-0.1822
G01 X15.9769 Y-0.1544
G01 X15.9643 Y-0.1251
G01 X15.9497 Y-0.0968
G01 X15.9344 Y-0.0716
G01 X15.9160 Y-0.0455
G01 X15.8974 Y-0.0226
G01 X15.8757 Y0.0007
G01 X15.8561 Y0.0192
G01 X15.8334 Y0.0380
G01 X15.8075 Y0.0567
G01 X15.7804 Y0.0734
G01 X15.7543 Y0.0872
G01 X15.7297 Y0.0983
G01 X15.7091 Y0.1062
G01 X15.6834 Y0.1145
G01 X15.6573 Y0.1213
G01 X15.6332 Y0.1261
G01 X15.6065 Y0.1298
G01 X15.5796 Y0.1320
G01 X15.5575 Y0.1325
G01 X0.3052 Y0.1323
G01 X0.2832 Y0.1312
G01 X0.2612 Y0.1290
G01 X0.2394 Y0.1257
G01 X0.2188 Y0.1216
G01 X0.1987 Y0.1165
G01 X0.1775 Y0.1102
G01 X0.1567 Y0.1028
G01 X0.1363 Y0.0944
G01 X0.1010 Y0.0770
G01 X0.0819 Y0.0659
G01 X0.0634 Y0.0539
G01 X0.0455 Y0.0410
G01 X0.0282 Y0.0272
G01 X0.0117 Y0.0126
G01 X-0.0042 Y-0.0028
G01 X-0.0304 Y-0.0320
G01 X-0.0440 Y-0.0494
G01 X-0.0567 Y-0.0675
G01 X-0.0685 Y-0.0861
G01 X-0.0794 Y-0.1054
G01 X-0.0893 Y-0.1251
G01 X-0.0983 Y-0.1453
G01 X-0.1062 Y-0.1659
G01 X-0.1131 Y-0.1869
G01 X-0.1190 Y-0.2082
G01 X-0.1239 Y-0.2297
G01 X-0.1277 Y-0.2515
G01 X-0.1304 Y-0.2734
G01 X-0.1320 Y-0.2954
G01 X-0.1325 Y-0.3175
G00 X-0.1325 Y-0.3175
G01 F70.00
G01 Z-0.2000
G01 F60.00
G01 X-0.1322 Y-7.9547
G01 X-0.1298 Y-7.9865
G01 X-0.1257 Y-8.0156
G01 X-0.1190 Y-8.0468
G01 X-0.1117 Y-8.0728
G01 X-0.1019 Y-8.1006
G01 X-0.0893 Y-8.1299
G01 X-0.0747 Y-8.1582
G01 X-0.0594 Y-8.1834
G01 X-0.0440 Y-8.2056
G01 X-0.0241 Y-8.2305
G01 X-0.0042 Y-8.2522
G01 X0.0189 Y-8.2742
G01 X0.0416 Y-8.2930
G01 X0.0675 Y-8.3117
G01 X0.0946 Y-8.3284
G01 X0.1207 Y-8.3422
G01 X0.1453 Y-8.3533
G01 X0.1659 Y-8.3612
G01 X0.1916 Y-8.3695
G01 X0.2177 Y-8.3763
G01 X0.2418 Y-8.3811
G01 X0.2685 Y-8.3848
G01 X0.2954 Y-8.3870
G01 X0.3175 Y-8.3875
G01 X15.5624 Y-8.3875
G01 X15.5918 Y-8.3862
G01 X15.6235 Y-8.3827
G01 X15.6549 Y-8.3768
G01 X15.6834 Y-8.3695
G01 X15.7137 Y-8.3595
G01 X15.7410 Y-8.3484
G01 X15.7696 Y-8.3344
G01 X15.7972 Y-8.3183
G01 X15.8216 Y-8.3019
G01 X15.8468 Y-8.2822
G01 X15.8687 Y-8.2626
G01 X15.8909 Y-8.2397
G01 X15.9130 Y-8.2134
G01 X15.9317 Y-8.1875
G01 X15.9484 Y-8.1604
G01 X15.9622 Y-8.1343
G01 X15.9733 Y-8.1097
G01 X15.9812 Y-8.0891
G01 X15.9895 Y-8.0634
G01 X15.9963 Y-8.0373
G01 X16.0011 Y-8.0132
G01 X16.0048 Y-7.9865
G01 X16.0070 Y-7.9596
G01 X16.0075 Y-7.9375
G01 X16.0073 Y-0.3052
G01 X16.0054 Y-0.2734
G01 X16.0011 Y-0.2418
G01 X15.9952 Y-0.2129
G01 X15.9867 Y-0.1822
G01 X15.9769 Y-0.1544
G01 X15.9643 Y-0.1251
G01 X15.9497 Y-0.0968
G01 X15.9344 Y-0.0716
G01 X15.9160 Y-0.0455
G01 X15.8974 Y-0.0226
G01 X15.8757 Y0.0007
G01 X15.8561 Y0.0192
G01 X15.8334 Y0.0380
G01 X15.8075 Y0.0567
G01 X15.7804 Y0.0734
G01 X15.7543 Y0.0872
G01 X15.7297 Y0.0983
G01 X15.7091 Y0.1062
G01 X15.6834 Y0.1145
G01 X15.6573 Y0.1213
G01 X15.6332 Y0.1261
G01 X15.6065 Y0.1298
G01 X15.5796 Y0.1320
G01 X15.5575 Y0.1325
G01 X0.3052 Y0.1323
G01 X0.2832 Y0.1312
G01 X0.2612 Y0.1290
G01 X0.2394 Y0.1257
G01 X0.2188 Y0.1216
G01 X0.1987 Y0.1165
G01 X0.1775 Y0.1102
G01 X0.1567 Y0.1028
G01 X0.1363 Y0.0944
G01 X0.1010 Y0.0770
G01 X0.0819 Y0.0659
G01 X0.0634 Y0.0539
G01 X0.0455 Y0.0410
G01 X0.0282 Y0.0272
G01 X0.0117 Y0.0126
G01 X-0.0042 Y-0.0028
G01 X-0.0304 Y-0.0320
G01 X-0.0440 Y-0.0494
G01 X-0.0567 Y-0.0675
G01 X-0.0685 Y-0.0861
G01 X-0.0794 Y-0.1054
G01 X-0.0893 Y-0.1251
G01 X-0.0983 Y-0.1453
G01 X-0.1062 Y-0.1659
G01 X-0.1131 Y-0.1869
G01 X-0.1190 Y-0.2082
G01 X-0.1239 Y-0.2297
G01 X-0.1277 Y-0.2515
G01 X-0.1304 Y-0.2734
G01 X-0.1320 Y-0.2954
G01 X-0.1325 Y-0.3175
G00 X-0.1325 Y-0.3175
G01 F70.00
G01 Z-0.3000
G01 F60.00
G01 X-0.1322 Y-7.9547
G01 X-0.1298 Y-7.9865
G01 X-0.1257 Y-8.0156
G01 X-0.1190 Y-8.0468
G01 X-0.1117 Y-8.0728
G01 X-0.1019 Y-8.1006
G01 X-0.0893 Y-8.1299
G01 X-0.0747 Y-8.1582
G01 X-0.0594 Y-8.1834
G01 X-0.0440 Y-8.2056
G01 X-0.0241 Y-8.2305
G01 X-0.0042 Y-8.2522
G01 X0.0189 Y-8.2742
G01 X0.0416 Y-8.2930
G01 X0.0675 Y-8.3117
G01 X0.0946 Y-8.3284
G01 X0.1207 Y-8.3422
G01 X0.1453 Y-8.3533
G01 X0.1659 Y-8.3612
G01 X0.1916 Y-8.3695
G01 X0.2177 Y-8.3763
G01 X0.2418 Y-8.3811
G01 X0.2685 Y-8.3848
G01 X0.2954 Y-8.3870
G01 X0.3175 Y-8.3875
G01 X15.5624 Y-8.3875
G01 X15.5918 Y-8.3862
G01 X15.6235 Y-8.3827
G01 X15.6549 Y-8.3768
G01 X15.6834 Y-8.3695
G01 X15.7137 Y-8.3595
G01 X15.7410 Y-8.3484
G01 X15.7696 Y-8.3344
G01 X15.7972 Y-8.3183
G01 X15.8216 Y-8.3019
G01 X15.8468 Y-8.2822
G01 X15.8687 Y-8.2626
G01 X15.8909 Y-8.2397
G01 X15.9130 Y-8.2134
G01 X15.9317 Y-8.1875
G01 X15.9484 Y-8.1604
G01 X15.9622 Y-8.1343
G01 X15.9733 Y-8.1097
G01 X15.9812 Y-8.0891
G01 X15.9895 Y-8.0634
G01 X15.9963 Y-8.0373
G01 X16.0011 Y-8.0132
G01 X16.0048 Y-7.9865
G01 X16.0070 Y-7.9596
G01 X16.0075 Y-7.9375
G01 X16.0073 Y-0.3052
G01 X16.0054 Y-0.2734
G01 X16.0011 Y-0.2418
G01 X15.9952 Y-0.2129
G01 X15.9867 Y-0.1822
G01 X15.9769 Y-0.1544
G01 X15.9643 Y-0.1251
G01 X15.9497 Y-0.0968
G01 X15.9344 Y-0.0716
G01 X15.9160 Y-0.0455
G01 X15.8974 Y-0.0226
G01 X15.8757 Y0.0007
G01 X15.8561 Y0.0192
G01 X15.8334 Y0.0380
G01 X15.8075 Y0.0567
G01 X15.7804 Y0.0734
G01 X15.7543 Y0.0872
G01 X15.7297 Y0.0983
G01 X15.7091 Y0.1062
G01 X15.6834 Y0.1145
G01 X15.6573 Y0.1213
G01 X15.6332 Y0.1261
G01 X15.6065 Y0.1298
G01 X15.5796 Y0.1320
G01 X15.5575 Y0.1325
G01 X0.3052 Y0.1323
G01 X0.2832 Y0.1312
G01 X0.2612 Y0.1290
G01 X0.2394 Y0.1257
G01 X0.2188 Y0.1216
G01 X0.1987 Y0.1165
G01 X0.1775 Y0.1102
G01 X0.1567 Y0.1028
G01 X0.1363 Y0.0944
G01 X0.1010 Y0.0770
G01 X0.0819 Y0.0659
G01 X0.0634 Y0.0539
G01 X0.0455 Y0.0410
G01 X0.0282 Y0.0272
G01 X0.0117 Y0.0126
G01 X-0.0042 Y-0.0028
G01 X-0.0304 Y-0.0320
G01 X-0.0440 Y-0.0494
G01 X-0.0567 Y-0.0675
G01 X-0.0685 Y-0.0861
G01 X-0.0794 Y-0.1054
G01 X-0.0893 Y-0.1251
G01 X-0.0983 Y-0.1453
G01 X-0.1062 Y-0.1659
G01 X-0.1131 Y-0.1869
G01 X-0.1190 Y-0.2082
G01 X-0.1239 Y-0.2297
G01 X-0.1277 Y-0.2515
G01 X-0.1304 Y-0.2734
G01 X-0.1320 Y-0.2954
G01 X-0.1325 Y-0.3175
G00 X-0.1325 Y-0.3175
G01 F70.00
G01 Z-0.4000
G01 F60.00
G01 X-0.1322 Y-7.9547
G01 X-0.1298 Y-7.9865
G01 X-0.1257 Y-8.0156
G01 X-0.1190 Y-8.0468
G01 X-0.1117 Y-8.0728
G01 X-0.1019 Y-8.1006
G01 X-0.0893 Y-8.1299
G01 X-0.0747 Y-8.1582
G01 X-0.0594 Y-8.1834
G01 X-0.0440 Y-8.2056
G01 X-0.0241 Y-8.2305
G01 X-0.0042 Y-8.2522
G01 X0.0189 Y-8.2742
G01 X0.0416 Y-8.2930
G01 X0.0675 Y-8.3117
G01 X0.0946 Y-8.3284
G01 X0.1207 Y-8.3422
G01 X0.1453 Y-8.3533
G01 X0.1659 Y-8.3612
G01 X0.1916 Y-8.3695
G01 X0.2177 Y-8.3763
G01 X0.2418 Y-8.3811
G01 X0.2685 Y-8.3848
G01 X0.2954 Y-8.3870
G01 X0.3175 Y-8.3875
G01 X15.5624 Y-8.3875
G01 X15.5918 Y-8.3862
G01 X15.6235 Y-8.3827
G01 X15.6549 Y-8.3768
G01 X15.6834 Y-8.3695
G01 X15.7137 Y-8.3595
G01 X15.7410 Y-8.3484
G01 X15.7696 Y-8.3344
G01 X15.7972 Y-8.3183
G01 X15.8216 Y-8.3019
G01 X15.8468 Y-8.2822
G01 X15.8687 Y-8.2626
G01 X15.8909 Y-8.2397
G01 X15.9130 Y-8.2134
G01 X15.9317 Y-8.1875
G01 X15.9484 Y-8.1604
G01 X15.9622 Y-8.1343
G01 X15.9733 Y-8.1097
G01 X15.9812 Y-8.0891
G01 X15.9895 Y-8.0634
G01 X15.9963 Y-8.0373
G01 X16.0011 Y-8.0132
G01 X16.0048 Y-7.9865
G01 X16.0070 Y-7.9596
G01 X16.0075 Y-7.9375
G01 X16.0073 Y-0.3052
G01 X16.0054 Y-0.2734
G01 X16.0011 Y-0.2418
G01 X15.9952 Y-0.2129
G01 X15.9867 Y-0.1822
G01 X15.9769 Y-0.1544
G01 X15.9643 Y-0.1251
G01 X15.9497 Y-0.0968
G01 X15.9344 Y-0.0716
G01 X15.9160 Y-0.0455
G01 X15.8974 Y-0.0226
G01 X15.8757 Y0.0007
G01 X15.8561 Y0.0192
G01 X15.8334 Y0.0380
G01 X15.8075 Y0.0567
G01 X15.7804 Y0.0734
G01 X15.7543 Y0.0872
G01 X15.7297 Y0.0983
G01 X15.7091 Y0.1062
G01 X15.6834 Y0.1145
G01 X15.6573 Y0.1213
G01 X15.6332 Y0.1261
G01 X15.6065 Y0.1298
G01 X15.5796 Y0.1320
G01 X15.5575 Y0.1325
G01 X0.3052 Y0.1323
G01 X0.2832 Y0.1312
G01 X0.2612 Y0.1290
G01 X0.2394 Y0.1257
G01 X0.2188 Y0.1216
G01 X0.1987 Y0.1165
G01 X0.1775 Y0.1102
G01 X0.1567 Y0.1028
G01 X0.1363 Y0.0944
G01 X0.1010 Y0.0770
G01 X0.0819 Y0.0659
G01 X0.0634 Y0.0539
G01 X0.0455 Y0.0410
G01 X0.0282 Y0.0272
G01 X0.0117 Y0.0126
G01 X-0.0042 Y-0.0028
G01 X-0.0304 Y-0.0320
G01 X-0.0440 Y-0.0494
G01 X-0.0567 Y-0.0675
G01 X-0.0685 Y-0.0861
G01 X-0.0794 Y-0.1054
G01 X-0.0893 Y-0.1251
G01 X-0.0983 Y-0.1453
G01 X-0.1062 Y-0.1659
G01 X-0.1131 Y-0.1869
G01 X-0.1190 Y-0.2082
G01 X-0.1239 Y-0.2297
G01 X-0.1277 Y-0.2515
G01 X-0.1304 Y-0.2734
G01 X-0.1320 Y-0.2954
G01 X-0.1325 Y-0.3175
G00 X-0.1325 Y-0.3175
G01 F70.00
G01 Z-0.5000
G01 F60.00
G01 X-0.1322 Y-7.9547
G01 X-0.1298 Y-7.9865
G01 X-0.1257 Y-8.0156
G01 X-0.1190 Y-8.0468
G01 X-0.1117 Y-8.0728
G01 X-0.1019 Y-8.1006
G01 X-0.0893 Y-8.1299
G01 X-0.0747 Y-8.1582
G01 X-0.0594 Y-8.1834
G01 X-0.0440 Y-8.2056
G01 X-0.0241 Y-8.2305
G01 X-0.0042 Y-8.2522
G01 X0.0189 Y-8.2742
G01 X0.0416 Y-8.2930
G01 X0.0675 Y-8.3117
G01 X0.0946 Y-8.3284
G01 X0.1207 Y-8.3422
G01 X0.1453 Y-8.3533
G01 X0.1659 Y-8.3612
G01 X0.1916 Y-8.3695
G01 X0.2177 Y-8.3763
G01 X0.2418 Y-8.3811
G01 X0.2685 Y-8.3848
G01 X0.2954 Y-8.3870
G01 X0.3175 Y-8.3875
G01 X15.5624 Y-8.3875
G01 X15.5918 Y-8.3862
G01 X15.6235 Y-8.3827
G01 X15.6549 Y-8.3768
G01 X15.6834 Y-8.3695
G01 X15.7137 Y-8.3595
G01 X15.7410 Y-8.3484
G01 X15.7696 Y-8.3344
G01 X15.7972 Y-8.3183
G01 X15.8216 Y-8.3019
G01 X15.8468 Y-8.2822
G01 X15.8687 Y-8.2626
G01 X15.8909 Y-8.2397
G01 X15.9130 Y-8.2134
G01 X15.9317 Y-8.1875
G01 X15.9484 Y-8.1604
G01 X15.9622 Y-8.1343
G01 X15.9733 Y-8.1097
G01 X15.9812 Y-8.0891
G01 X15.9895 Y-8.0634
G01 X15.9963 Y-8.0373
G01 X16.0011 Y-8.0132
G01 X16.0048 Y-7.9865
G01 X16.0070 Y-7.9596
G01 X16.0075 Y-7.9375
G01 X16.0073 Y-0.3052
G01 X16.0054 Y-0.2734
G01 X16.0011 Y-0.2418
G01 X15.9952 Y-0.2129
G01 X15.9867 Y-0.1822
G01 X15.9769 Y-0.1544
G01 X15.9643 Y-0.1251
G01 X15.9497 Y-0.0968
G01 X15.9344 Y-0.0716
G01 X15.9160 Y-0.0455
G01 X15.8974 Y-0.0226
G01 X15.8757 Y0.0007
G01 X15.8561 Y0.0192
G01 X15.8334 Y0.0380
G01 X15.8075 Y0.0567
G01 X15.7804 Y0.0734
G01 X15.7543 Y0.0872
G01 X15.7297 Y0.0983
G01 X15.7091 Y0.1062
G01 X15.6834 Y0.1145
G01 X15.6573 Y0.1213
G01 X15.6332 Y0.1261
G01 X15.6065 Y0.1298
G01 X15.5796 Y0.1320
G01 X15.5575 Y0.1325
G01 X0.3052 Y0.1323
G01 X0.2832 Y0.1312
G01 X0.2612 Y0.1290
G01 X0.2394 Y0.1257
G01 X0.2188 Y0.1216
G01 X0.1987 Y0.1165
G01 X0.1775 Y0.1102
G01 X0.1567 Y0.1028
G01 X0.1363 Y0.0944
G01 X0.1010 Y0.0770
G01 X0.0819 Y0.0659
G01 X0.0634 Y0.0539
G01 X0.0455 Y0.0410
G01 X0.0282 Y0.0272
G01 X0.0117 Y0.0126
G01 X-0.0042 Y-0.0028
G01 X-0.0304 Y-0.0320
G01 X-0.0440 Y-0.0494
G01 X-0.0567 Y-0.0675
G01 X-0.0685 Y-0.0861
G01 X-0.0794 Y-0.1054
G01 X-0.0893 Y-0.1251
G01 X-0.0983 Y-0.1453
G01 X-0.1062 Y-0.1659
G01 X-0.1131 Y-0.1869
G01 X-0.1190 Y-0.2082
G01 X-0.1239 Y-0.2297
G01 X-0.1277 Y-0.2515
G01 X-0.1304 Y-0.2734
G01 X-0.1320 Y-0.2954
G01 X-0.1325 Y-0.3175
G00 X-0.1325 Y-0.3175
G01 F70.00
G01 Z-0.6000
G01 F60.00
G01 X-0.1322 Y-7.9547
G01 X-0.1298 Y-7.9865
G01 X-0.1257 Y-8.0156
G01 X-0.1190 Y-8.0468
G01 X-0.1117 Y-8.0728
G01 X-0.1019 Y-8.1006
G01 X-0.0893 Y-8.1299
G01 X-0.0747 Y-8.1582
G01 X-0.0594 Y-8.1834
G01 X-0.0440 Y-8.2056
G01 X-0.0241 Y-8.2305
G01 X-0.0042 Y-8.2522
G01 X0.0189 Y-8.2742
G01 X0.0416 Y-8.2930
G01 X0.0675 Y-8.3117
G01 X0.0946 Y-8.3284
G01 X0.1207 Y-8.3422
G01 X0.1453 Y-8.3533
G01 X0.1659 Y-8.3612
G01 X0.1916 Y-8.3695
G01 X0.2177 Y-8.3763
G01 X0.2418 Y-8.3811
G01 X0.2685 Y-8.3848
G01 X0.2954 Y-8.3870
G01 X0.3175 Y-8.3875
G01 X15.5624 Y-8.3875
G01 X15.5918 Y-8.3862
G01 X15.6235 Y-8.3827
G01 X15.6549 Y-8.3768
G01 X15.6834 Y-8.3695
G01 X15.7137 Y-8.3595
G01 X15.7410 Y-8.3484
G01 X15.7696 Y-8.3344
G01 X15.7972 Y-8.3183
G01 X15.8216 Y-8.3019
G01 X15.8468 Y-8.2822
G01 X15.8687 Y-8.2626
G01 X15.8909 Y-8.2397
G01 X15.9130 Y-8.2134
G01 X15.9317 Y-8.1875
G01 X15.9484 Y-8.1604
G01 X15.9622 Y-8.1343
G01 X15.9733 Y-8.1097
G01 X15.9812 Y-8.0891
G01 X15.9895 Y-8.0634
G01 X15.9963 Y-8.0373
G01 X16.0011 Y-8.0132
G01 X16.0048 Y-7.9865
G01 X16.0070 Y-7.9596
G01 X16.0075 Y-7.9375
G01 X16.0073 Y-0.3052
G01 X16.0054 Y-0.2734
G01 X16.0011 Y-0.2418
G01 X15.9952 Y-0.2129
G01 X15.9867 Y-0.1822
G01 X15.9769 Y-0.1544
G01 X15.9643 Y-0.1251
G01 X15.9497 Y-0.0968
G01 X15.9344 Y-0.0716
G01 X15.9160 Y-0.0455
G01 X15.8974 Y-0.0226
G01 X15.8757 Y0.0007
G01 X15.8561 Y0.0192
G01 X15.8334 Y0.0380
G01 X15.8075 Y0.0567
G01 X15.7804 Y0.0734
G01 X15.7543 Y0.0872
G01 X15.7297 Y0.0983
G01 X15.7091 Y0.1062
G01 X15.6834 Y0.1145
G01 X15.6573 Y0.1213
G01 X15.6332 Y0.1261
G01 X15.6065 Y0.1298
G01 X15.5796 Y0.1320
G01 X15.5575 Y0.1325
G01 X0.3052 Y0.1323
G01 X0.2832 Y0.1312
G01 X0.2612 Y0.1290
G01 X0.2394 Y0.1257
G01 X0.2188 Y0.1216
G01 X0.1987 Y0.1165
G01 X0.1775 Y0.1102
G01 X0.1567 Y0.1028
G01 X0.1363 Y0.0944
G01 X0.1010 Y0.0770
G01 X0.0819 Y0.0659
G01 X0.0634 Y0.0539
G01 X0.0455 Y0.0410
G01 X0.0282 Y0.0272
G01 X0.0117 Y0.0126
G01 X-0.0042 Y-0.0028
G01 X-0.0304 Y-0.0320
G01 X-0.0440 Y-0.0494
G01 X-0.0567 Y-0.0675
G01 X-0.0685 Y-0.0861
G01 X-0.0794 Y-0.1054
G01 X-0.0893 Y-0.1251
G01 X-0.0983 Y-0.1453
G01 X-0.1062 Y-0.1659
G01 X-0.1131 Y-0.1869
G01 X-0.1190 Y-0.2082
G01 X-0.1239 Y-0.2297
G01 X-0.1277 Y-0.2515
G01 X-0.1304 Y-0.2734
G01 X-0.1320 Y-0.2954
G01 X-0.1325 Y-0.3175
G00 X-0.1325 Y-0.3175
G01 F70.00
G01 Z-0.7000
G01 F60.00
G01 X-0.1322 Y-7.9547
G01 X-0.1298 Y-7.9865
G01 X-0.1257 Y-8.0156
G01 X-0.1190 Y-8.0468
G01 X-0.1117 Y-8.0728
G01 X-0.1019 Y-8.1006
G01 X-0.0893 Y-8.1299
G01 X-0.0747 Y-8.1582
G01 X-0.0594 Y-8.1834
G01 X-0.0440 Y-8.2056
G01 X-0.0241 Y-8.2305
G01 X-0.0042 Y-8.2522
G01 X0.0189 Y-8.2742
G01 X0.0416 Y-8.2930
G01 X0.0675 Y-8.3117
G01 X0.0946 Y-8.3284
G01 X0.1207 Y-8.3422
G01 X0.1453 Y-8.3533
G01 X0.1659 Y-8.3612
G01 X0.1916 Y-8.3695
G01 X0.2177 Y-8.3763
G01 X0.2418 Y-8.3811
G01 X0.2685 Y-8.3848
G01 X0.2954 Y-8.3870
G01 X0.3175 Y-8.3875
G01 X15.5624 Y-8.3875
G01 X15.5918 Y-8.3862
G01 X15.6235 Y-8.3827
G01 X15.6549 Y-8.3768
G01 X15.6834 Y-8.3695
G01 X15.7137 Y-8.3595
G01 X15.7410 Y-8.3484
G01 X15.7696 Y-8.3344
G01 X15.7972 Y-8.3183
G01 X15.8216 Y-8.3019
G01 X15.8468 Y-8.2822
G01 X15.8687 Y-8.2626
G01 X15.8909 Y-8.2397
G01 X15.9130 Y-8.2134
G01 X15.9317 Y-8.1875
G01 X15.9484 Y-8.1604
G01 X15.9622 Y-8.1343
G01 X15.9733 Y-8.1097
G01 X15.9812 Y-8.0891
G01 X15.9895 Y-8.0634
G01 X15.9963 Y-8.0373
G01 X16.0011 Y-8.0132
G01 X16.0048 Y-7.9865
G01 X16.0070 Y-7.9596
G01 X16.0075 Y-7.9375
G01 X16.0073 Y-0.3052
G01 X16.0054 Y-0.2734
G01 X16.0011 Y-0.2418
G01 X15.9952 Y-0.2129
G01 X15.9867 Y-0.1822
G01 X15.9769 Y-0.1544
G01 X15.9643 Y-0.1251
G01 X15.9497 Y-0.0968
G01 X15.9344 Y-0.0716
G01 X15.9160 Y-0.0455
G01 X15.8974 Y-0.0226
G01 X15.8757 Y0.0007
G01 X15.8561 Y0.0192
G01 X15.8334 Y0.0380
G01 X15.8075 Y0.0567
G01 X15.7804 Y0.0734
G01 X15.7543 Y0.0872
G01 X15.7297 Y0.0983
G01 X15.7091 Y0.1062
G01 X15.6834 Y0.1145
G01 X15.6573 Y0.1213
G01 X15.6332 Y0.1261
G01 X15.6065 Y0.1298
G01 X15.5796 Y0.1320
G01 X15.5575 Y0.1325
G01 X0.3052 Y0.1323
G01 X0.2832 Y0.1312
G01 X0.2612 Y0.1290
G01 X0.2394 Y0.1257
G01 X0.2188 Y0.1216
G01 X0.1987 Y0.1165
G01 X0.1775 Y0.1102
G01 X0.1567 Y0.1028
G01 X0.1363 Y0.0944
G01 X0.1010 Y0.0770
G01 X0.0819 Y0.0659
G01 X0.0634 Y0.0539
G01 X0.0455 Y0.0410
G01 X0.0282 Y0.0272
G01 X0.0117 Y0.0126
G01 X-0.0042 Y-0.0028
G01 X-0.0304 Y-0.0320
G01 X-0.0440 Y-0.0494
G01 X-0.0567 Y-0.0675
G01 X-0.0685 Y-0.0861
G01 X-0.0794 Y-0.1054
G01 X-0.0893 Y-0.1251
G01 X-0.0983 Y-0.1453
G01 X-0.1062 Y-0.1659
G01 X-0.1131 Y-0.1869
G01 X-0.1190 Y-0.2082
G01 X-0.1239 Y-0.2297
G01 X-0.1277 Y-0.2515
G01 X-0.1304 Y-0.2734
G01 X-0.1320 Y-0.2954
G01 X-0.1325 Y-0.3175
G00 X-0.1325 Y-0.3175
G01 F70.00
G01 Z-0.8000
G01 F60.00
G01 X-0.1322 Y-7.9547
G01 X-0.1298 Y-7.9865
G01 X-0.1257 Y-8.0156
G01 X-0.1190 Y-8.0468
G01 X-0.1117 Y-8.0728
G01 X-0.1019 Y-8.1006
G01 X-0.0893 Y-8.1299
G01 X-0.0747 Y-8.1582
G01 X-0.0594 Y-8.1834
G01 X-0.0440 Y-8.2056
G01 X-0.0241 Y-8.2305
G01 X-0.0042 Y-8.2522
G01 X0.0189 Y-8.2742
G01 X0.0416 Y-8.2930
G01 X0.0675 Y-8.3117
G01 X0.0946 Y-8.3284
G01 X0.1207 Y-8.3422
G01 X0.1453 Y-8.3533
G01 X0.1659 Y-8.3612
G01 X0.1916 Y-8.3695
G01 X0.2177 Y-8.3763
G01 X0.2418 Y-8.3811
G01 X0.2685 Y-8.3848
G01 X0.2954 Y-8.3870
G01 X0.3175 Y-8.3875
G01 X15.5624 Y-8.3875
G01 X15.5918 Y-8.3862
G01 X15.6235 Y-8.3827
G01 X15.6549 Y-8.3768
G01 X15.6834 Y-8.3695
G01 X15.7137 Y-8.3595
G01 X15.7410 Y-8.3484
G01 X15.7696 Y-8.3344
G01 X15.7972 Y-8.3183
G01 X15.8216 Y-8.3019
G01 X15.8468 Y-8.2822
G01 X15.8687 Y-8.2626
G01 X15.8909 Y-8.2397
G01 X15.9130 Y-8.2134
G01 X15.9317 Y-8.1875
G01 X15.9484 Y-8.1604
G01 X15.9622 Y-8.1343
G01 X15.9733 Y-8.1097
G01 X15.9812 Y-8.0891
G01 X15.9895 Y-8.0634
G01 X15.9963 Y-8.0373
G01 X16.0011 Y-8.0132
G01 X16.0048 Y-7.9865
G01 X16.0070 Y-7.9596
G01 X16.0075 Y-7.9375
G01 X16.0073 Y-0.3052
G01 X16.0054 Y-0.2734
G01 X16.0011 Y-0.2418
G01 X15.9952 Y-0.2129
G01 X15.9867 Y-0.1822
G01 X15.9769 Y-0.1544
G01 X15.9643 Y-0.1251
G01 X15.9497 Y-0.0968
G01 X15.9344 Y-0.0716
G01 X15.9160 Y-0.0455
G01 X15.8974 Y-0.0226
G01 X15.8757 Y0.0007
G01 X15.8561 Y0.0192
G01 X15.8334 Y0.0380
G01 X15.8075 Y0.0567
G01 X15.7804 Y0.0734
G01 X15.7543 Y0.0872
G01 X15.7297 Y0.0983
G01 X15.7091 Y0.1062
G01 X15.6834 Y0.1145
G01 X15.6573 Y0.1213
G01 X15.6332 Y0.1261
G01 X15.6065 Y0.1298
G01 X15.5796 Y0.1320
G01 X15.5575 Y0.1325
G01 X0.3052 Y0.1323
G01 X0.2832 Y0.1312
G01 X0.2612 Y0.1290
G01 X0.2394 Y0.1257
G01 X0.2188 Y0.1216
G01 X0.1987 Y0.1165
G01 X0.1775 Y0.1102
G01 X0.1567 Y0.1028
G01 X0.1363 Y0.0944
G01 X0.1010 Y0.0770
G01 X0.0819 Y0.0659
G01 X0.0634 Y0.0539
G01 X0.0455 Y0.0410
G01 X0.0282 Y0.0272
G01 X0.0117 Y0.0126
G01 X-0.0042 Y-0.0028
G01 X-0.0304 Y-0.0320
G01 X-0.0440 Y-0.0494
G01 X-0.0567 Y-0.0675
G01 X-0.0685 Y-0.0861
G01 X-0.0794 Y-0.1054
G01 X-0.0893 Y-0.1251
G01 X-0.0983 Y-0.1453
G01 X-0.1062 Y-0.1659
G01 X-0.1131 Y-0.1869
G01 X-0.1190 Y-0.2082
G01 X-0.1239 Y-0.2297
G01 X-0.1277 Y-0.2515
G01 X-0.1304 Y-0.2734
G01 X-0.1320 Y-0.2954
G01 X-0.1325 Y-0.3175
G00 X-0.1325 Y-0.3175
G01 F70.00
G01 Z-0.9000
G01 F60.00
G01 X-0.1322 Y-7.9547
G01 X-0.1298 Y-7.9865
G01 X-0.1257 Y-8.0156
G01 X-0.1190 Y-8.0468
G01 X-0.1117 Y-8.0728
G01 X-0.1019 Y-8.1006
G01 X-0.0893 Y-8.1299
G01 X-0.0747 Y-8.1582
G01 X-0.0594 Y-8.1834
G01 X-0.0440 Y-8.2056
G01 X-0.0241 Y-8.2305
G01 X-0.0042 Y-8.2522
G01 X0.0189 Y-8.2742
G01 X0.0416 Y-8.2930
G01 X0.0675 Y-8.3117
G01 X0.0946 Y-8.3284
G01 X0.1207 Y-8.3422
G01 X0.1453 Y-8.3533
G01 X0.1659 Y-8.3612
G01 X0.1916 Y-8.3695
G01 X0.2177 Y-8.3763
G01 X0.2418 Y-8.3811
G01 X0.2685 Y-8.3848
G01 X0.2954 Y-8.3870
G01 X0.3175 Y-8.3875
G01 X15.5624 Y-8.3875
G01 X15.5918 Y-8.3862
G01 X15.6235 Y-8.3827
G01 X15.6549 Y-8.3768
G01 X15.6834 Y-8.3695
G01 X15.7137 Y-8.3595
G01 X15.7410 Y-8.3484
G01 X15.7696 Y-8.3344
G01 X15.7972 Y-8.3183
G01 X15.8216 Y-8.3019
G01 X15.8468 Y-8.2822
G01 X15.8687 Y-8.2626
G01 X15.8909 Y-8.2397
G01 X15.9130 Y-8.2134
G01 X15.9317 Y-8.1875
G01 X15.9484 Y-8.1604
G01 X15.9622 Y-8.1343
G01 X15.9733 Y-8.1097
G01 X15.9812 Y-8.0891
G01 X15.9895 Y-8.0634
G01 X15.9963 Y-8.0373
G01 X16.0011 Y-8.0132
G01 X16.0048 Y-7.9865
G01 X16.0070 Y-7.9596
G01 X16.0075 Y-7.9375
G01 X16.0073 Y-0.3052
G01 X16.0054 Y-0.2734
G01 X16.0011 Y-0.2418
G01 X15.9952 Y-0.2129
G01 X15.9867 Y-0.1822
G01 X15.9769 Y-0.1544
G01 X15.9643 Y-0.1251
G01 X15.9497 Y-0.0968
G01 X15.9344 Y-0.0716
G01 X15.9160 Y-0.0455
G01 X15.8974 Y-0.0226
G01 X15.8757 Y0.0007
G01 X15.8561 Y0.0192
G01 X15.8334 Y0.0380
G01 X15.8075 Y0.0567
G01 X15.7804 Y0.0734
G01 X15.7543 Y0.0872
G01 X15.7297 Y0.0983
G01 X15.7091 Y0.1062
G01 X15.6834 Y0.1145
G01 X15.6573 Y0.1213
G01 X15.6332 Y0.1261
G01 X15.6065 Y0.1298
G01 X15.5796 Y0.1320
G01 X15.5575 Y0.1325
G01 X0.3052 Y0.1323
G01 X0.2832 Y0.1312
G01 X0.2612 Y0.1290
G01 X0.2394 Y0.1257
G01 X0.2188 Y0.1216
G01 X0.1987 Y0.1165
G01 X0.1775 Y0.1102
G01 X0.1567 Y0.1028
G01 X0.1363 Y0.0944
G01 X0.1010 Y0.0770
G01 X0.0819 Y0.0659
G01 X0.0634 Y0.0539
G01 X0.0455 Y0.0410
G01 X0.0282 Y0.0272
G01 X0.0117 Y0.0126
G01 X-0.0042 Y-0.0028
G01 X-0.0304 Y-0.0320
G01 X-0.0440 Y-0.0494
G01 X-0.0567 Y-0.0675
G01 X-0.0685 Y-0.0861
G01 X-0.0794 Y-0.1054
G01 X-0.0893 Y-0.1251
G01 X-0.0983 Y-0.1453
G01 X-0.1062 Y-0.1659
G01 X-0.1131 Y-0.1869
G01 X-0.1190 Y-0.2082
G01 X-0.1239 Y-0.2297
G01 X-0.1277 Y-0.2515
G01 X-0.1304 Y-0.2734
G01 X-0.1320 Y-0.2954
G01 X-0.1325 Y-0.3175
G00 X-0.1325 Y-0.3175
G01 F70.00
G01 Z-1.0000
G01 F60.00
G01 X-0.1322 Y-7.9547
G01 X-0.1298 Y-7.9865
G01 X-0.1257 Y-8.0156
G01 X-0.1190 Y-8.0468
G01 X-0.1117 Y-8.0728
G01 X-0.1019 Y-8.1006
G01 X-0.0893 Y-8.1299
G01 X-0.0747 Y-8.1582
G01 X-0.0594 Y-8.1834
G01 X-0.0440 Y-8.2056
G01 X-0.0241 Y-8.2305
G01 X-0.0042 Y-8.2522
G01 X0.0189 Y-8.2742
G01 X0.0416 Y-8.2930
G01 X0.0675 Y-8.3117
G01 X0.0946 Y-8.3284
G01 X0.1207 Y-8.3422
G01 X0.1453 Y-8.3533
G01 X0.1659 Y-8.3612
G01 X0.1916 Y-8.3695
G01 X0.2177 Y-8.3763
G01 X0.2418 Y-8.3811
G01 X0.2685 Y-8.3848
G01 X0.2954 Y-8.3870
G01 X0.3175 Y-8.3875
G01 X15.5624 Y-8.3875
G01 X15.5918 Y-8.3862
G01 X15.6235 Y-8.3827
G01 X15.6549 Y-8.3768
G01 X15.6834 Y-8.3695
G01 X15.7137 Y-8.3595
G01 X15.7410 Y-8.3484
G01 X15.7696 Y-8.3344
G01 X15.7972 Y-8.3183
G01 X15.8216 Y-8.3019
G01 X15.8468 Y-8.2822
G01 X15.8687 Y-8.2626
G01 X15.8909 Y-8.2397
G01 X15.9130 Y-8.2134
G01 X15.9317 Y-8.1875
G01 X15.9484 Y-8.1604
G01 X15.9622 Y-8.1343
G01 X15.9733 Y-8.1097
G01 X15.9812 Y-8.0891
G01 X15.9895 Y-8.0634
G01 X15.9963 Y-8.0373
G01 X16.0011 Y-8.0132
G01 X16.0048 Y-7.9865
G01 X16.0070 Y-7.9596
G01 X16.0075 Y-7.9375
G01 X16.0073 Y-0.3052
G01 X16.0054 Y-0.2734
G01 X16.0011 Y-0.2418
G01 X15.9952 Y-0.2129
G01 X15.9867 Y-0.1822
G01 X15.9769 Y-0.1544
G01 X15.9643 Y-0.1251
G01 X15.9497 Y-0.0968
G01 X15.9344 Y-0.0716
G01 X15.9160 Y-0.0455
G01 X15.8974 Y-0.0226
G01 X15.8757 Y0.0007
G01 X15.8561 Y0.0192
G01 X15.8334 Y0.0380
G01 X15.8075 Y0.0567
G01 X15.7804 Y0.0734
G01 X15.7543 Y0.0872
G01 X15.7297 Y0.0983
G01 X15.7091 Y0.1062
G01 X15.6834 Y0.1145
G01 X15.6573 Y0.1213
G01 X15.6332 Y0.1261
G01 X15.6065 Y0.1298
G01 X15.5796 Y0.1320
G01 X15.5575 Y0.1325
G01 X0.3052 Y0.1323
G01 X0.2832 Y0.1312
G01 X0.2612 Y0.1290
G01 X0.2394 Y0.1257
G01 X0.2188 Y0.1216
G01 X0.1987 Y0.1165
G01 X0.1775 Y0.1102
G01 X0.1567 Y0.1028
G01 X0.1363 Y0.0944
G01 X0.1010 Y0.0770
G01 X0.0819 Y0.0659
G01 X0.0634 Y0.0539
G01 X0.0455 Y0.0410
G01 X0.0282 Y0.0272
G01 X0.0117 Y0.0126
G01 X-0.0042 Y-0.0028
G01 X-0.0304 Y-0.0320
G01 X-0.0440 Y-0.0494
G01 X-0.0567 Y-0.0675
G01 X-0.0685 Y-0.0861
G01 X-0.0794 Y-0.1054
G01 X-0.0893 Y-0.1251
G01 X-0.0983 Y-0.1453
G01 X-0.1062 Y-0.1659
G01 X-0.1131 Y-0.1869
G01 X-0.1190 Y-0.2082
G01 X-0.1239 Y-0.2297
G01 X-0.1277 Y-0.2515
G01 X-0.1304 Y-0.2734
G01 X-0.1320 Y-0.2954
G01 X-0.1325 Y-0.3175
G00 X-0.1325 Y-0.3175
G01 F70.00
G01 Z-1.1000
G01 F60.00
G01 X-0.1322 Y-7.9547
G01 X-0.1298 Y-7.9865
G01 X-0.1257 Y-8.0156
G01 X-0.1190 Y-8.0468
G01 X-0.1117 Y-8.0728
G01 X-0.1019 Y-8.1006
G01 X-0.0893 Y-8.1299
G01 X-0.0747 Y-8.1582
G01 X-0.0594 Y-8.1834
G01 X-0.0440 Y-8.2056
G01 X-0.0241 Y-8.2305
G01 X-0.0042 Y-8.2522
G01 X0.0189 Y-8.2742
G01 X0.0416 Y-8.2930
G01 X0.0675 Y-8.3117
G01 X0.0946 Y-8.3284
G01 X0.1207 Y-8.3422
G01 X0.1453 Y-8.3533
G01 X0.1659 Y-8.3612
G01 X0.1916 Y-8.3695
G01 X0.2177 Y-8.3763
G01 X0.2418 Y-8.3811
G01 X0.2685 Y-8.3848
G01 X0.2954 Y-8.3870
G01 X0.3175 Y-8.3875
G01 X15.5624 Y-8.3875
G01 X15.5918 Y-8.3862
G01 X15.6235 Y-8.3827
G01 X15.6549 Y-8.3768
G01 X15.6834 Y-8.3695
G01 X15.7137 Y-8.3595
G01 X15.7410 Y-8.3484
G01 X15.7696 Y-8.3344
G01 X15.7972 Y-8.3183
G01 X15.8216 Y-8.3019
G01 X15.8468 Y-8.2822
G01 X15.8687 Y-8.2626
G01 X15.8909 Y-8.2397
G01 X15.9130 Y-8.2134
G01 X15.9317 Y-8.1875
G01 X15.9484 Y-8.1604
G01 X15.9622 Y-8.1343
G01 X15.9733 Y-8.1097
G01 X15.9812 Y-8.0891
G01 X15.9895 Y-8.0634
G01 X15.9963 Y-8.0373
G01 X16.0011 Y-8.0132
G01 X16.0048 Y-7.9865
G01 X16.0070 Y-7.9596
G01 X16.0075 Y-7.9375
G01 X16.0073 Y-0.3052
G01 X16.0054 Y-0.2734
G01 X16.0011 Y-0.2418
G01 X15.9952 Y-0.2129
G01 X15.9867 Y-0.1822
G01 X15.9769 Y-0.1544
G01 X15.9643 Y-0.1251
G01 X15.9497 Y-0.0968
G01 X15.9344 Y-0.0716
G01 X15.9160 Y-0.0455
G01 X15.8974 Y-0.0226
G01 X15.8757 Y0.0007
G01 X15.8561 Y0.0192
G01 X15.8334 Y0.0380
G01 X15.8075 Y0.0567
G01 X15.7804 Y0.0734
G01 X15.7543 Y0.0872
G01 X15.7297 Y0.0983
G01 X15.7091 Y0.1062
G01 X15.6834 Y0.1145
G01 X15.6573 Y0.1213
G01 X15.6332 Y0.1261
G01 X15.6065 Y0.1298
G01 X15.5796 Y0.1320
G01 X15.5575 Y0.1325
G01 X0.3052 Y0.1323
G01 X0.2832 Y0.1312
G01 X0.2612 Y0.1290
G01 X0.2394 Y0.1257
G01 X0.2188 Y0.1216
G01 X0.1987 Y0.1165
G01 X0.1775 Y0.1102
G01 X0.1567 Y0.1028
G01 X0.1363 Y0.0944
G01 X0.1010 Y0.0770
G01 X0.0819 Y0.0659
G01 X0.0634 Y0.0539
G01 X0.0455 Y0.0410
G01 X0.0282 Y0.0272
G01 X0.0117 Y0.0126
G01 X-0.0042 Y-0.0028
G01 X-0.0304 Y-0.0320
G01 X-0.0440 Y-0.0494
G01 X-0.0567 Y-0.0675
G01 X-0.0685 Y-0.0861
G01 X-0.0794 Y-0.1054
G01 X-0.0893 Y-0.1251
G01 X-0.0983 Y-0.1453
G01 X-0.1062 Y-0.1659
G01 X-0.1131 Y-0.1869
G01 X-0.1190 Y-0.2082
G01 X-0.1239 Y-0.2297
G01 X-0.1277 Y-0.2515
G01 X-0.1304 Y-0.2734
G01 X-0.1320 Y-0.2954
G01 X-0.1325 Y-0.3175
G00 X-0.1325 Y-0.3175
G01 F70.00
G01 Z-1.2000
G01 F60.00
G01 X-0.1322 Y-7.9547
G01 X-0.1298 Y-7.9865
G01 X-0.1257 Y-8.0156
G01 X-0.1190 Y-8.0468
G01 X-0.1117 Y-8.0728
G01 X-0.1019 Y-8.1006
G01 X-0.0893 Y-8.1299
G01 X-0.0747 Y-8.1582
G01 X-0.0594 Y-8.1834
G01 X-0.0440 Y-8.2056
G01 X-0.0241 Y-8.2305
G01 X-0.0042 Y-8.2522
G01 X0.0189 Y-8.2742
G01 X0.0416 Y-8.2930
G01 X0.0675 Y-8.3117
G01 X0.0946 Y-8.3284
G01 X0.1207 Y-8.3422
G01 X0.1453 Y-8.3533
G01 X0.1659 Y-8.3612
G01 X0.1916 Y-8.3695
G01 X0.2177 Y-8.3763
G01 X0.2418 Y-8.3811
G01 X0.2685 Y-8.3848
G01 X0.2954 Y-8.3870
G01 X0.3175 Y-8.3875
G01 X15.5624 Y-8.3875
G01 X15.5918 Y-8.3862
G01 X15.6235 Y-8.3827
G01 X15.6549 Y-8.3768
G01 X15.6834 Y-8.3695
G01 X15.7137 Y-8.3595
G01 X15.7410 Y-8.3484
G01 X15.7696 Y-8.3344
G01 X15.7972 Y-8.3183
G01 X15.8216 Y-8.3019
G01 X15.8468 Y-8.2822
G01 X15.8687 Y-8.2626
G01 X15.8909 Y-8.2397
G01 X15.9130 Y-8.2134
G01 X15.9317 Y-8.1875
G01 X15.9484 Y-8.1604
G01 X15.9622 Y-8.1343
G01 X15.9733 Y-8.1097
G01 X15.9812 Y-8.0891
G01 X15.9895 Y-8.0634
G01 X15.9963 Y-8.0373
G01 X16.0011 Y-8.0132
G01 X16.0048 Y-7.9865
G01 X16.0070 Y-7.9596
G01 X16.0075 Y-7.9375
G01 X16.0073 Y-0.3052
G01 X16.0054 Y-0.2734
G01 X16.0011 Y-0.2418
G01 X15.9952 Y-0.2129
G01 X15.9867 Y-0.1822
G01 X15.9769 Y-0.1544
G01 X15.9643 Y-0.1251
G01 X15.9497 Y-0.0968
G01 X15.9344 Y-0.0716
G01 X15.9160 Y-0.0455
G01 X15.8974 Y-0.0226
G01 X15.8757 Y0.0007
G01 X15.8561 Y0.0192
G01 X15.8334 Y0.0380
G01 X15.8075 Y0.0567
G01 X15.7804 Y0.0734
G01 X15.7543 Y0.0872
G01 X15.7297 Y0.0983
G01 X15.7091 Y0.1062
G01 X15.6834 Y0.1145
G01 X15.6573 Y0.1213
G01 X15.6332 Y0.1261
G01 X15.6065 Y0.1298
G01 X15.5796 Y0.1320
G01 X15.5575 Y0.1325
G01 X0.3052 Y0.1323
G01 X0.2832 Y0.1312
G01 X0.2612 Y0.1290
G01 X0.2394 Y0.1257
G01 X0.2188 Y0.1216
G01 X0.1987 Y0.1165
G01 X0.1775 Y0.1102
G01 X0.1567 Y0.1028
G01 X0.1363 Y0.0944
G01 X0.1010 Y0.0770
G01 X0.0819 Y0.0659
G01 X0.0634 Y0.0539
G01 X0.0455 Y0.0410
G01 X0.0282 Y0.0272
G01 X0.0117 Y0.0126
G01 X-0.0042 Y-0.0028
G01 X-0.0304 Y-0.0320
G01 X-0.0440 Y-0.0494
G01 X-0.0567 Y-0.0675
G01 X-0.0685 Y-0.0861
G01 X-0.0794 Y-0.1054
G01 X-0.0893 Y-0.1251
G01 X-0.0983 Y-0.1453
G01 X-0.1062 Y-0.1659
G01 X-0.1131 Y-0.1869
G01 X-0.1190 Y-0.2082
G01 X-0.1239 Y-0.2297
G01 X-0.1277 Y-0.2515
G01 X-0.1304 Y-0.2734
G01 X-0.1320 Y-0.2954
G01 X-0.1325 Y-0.3175
G00 X-0.1325 Y-0.3175
G01 F70.00
G01 Z-1.3000
G01 F60.00
G01 X-0.1322 Y-7.9547
G01 X-0.1298 Y-7.9865
G01 X-0.1257 Y-8.0156
G01 X-0.1190 Y-8.0468
G01 X-0.1117 Y-8.0728
G01 X-0.1019 Y-8.1006
G01 X-0.0893 Y-8.1299
G01 X-0.0747 Y-8.1582
G01 X-0.0594 Y-8.1834
G01 X-0.0440 Y-8.2056
G01 X-0.0241 Y-8.2305
G01 X-0.0042 Y-8.2522
G01 X0.0189 Y-8.2742
G01 X0.0416 Y-8.2930
G01 X0.0675 Y-8.3117
G01 X0.0946 Y-8.3284
G01 X0.1207 Y-8.3422
G01 X0.1453 Y-8.3533
G01 X0.1659 Y-8.3612
G01 X0.1916 Y-8.3695
G01 X0.2177 Y-8.3763
G01 X0.2418 Y-8.3811
G01 X0.2685 Y-8.3848
G01 X0.2954 Y-8.3870
G01 X0.3175 Y-8.3875
G01 X15.5624 Y-8.3875
G01 X15.5918 Y-8.3862
G01 X15.6235 Y-8.3827
G01 X15.6549 Y-8.3768
G01 X15.6834 Y-8.3695
G01 X15.7137 Y-8.3595
G01 X15.7410 Y-8.3484
G01 X15.7696 Y-8.3344
G01 X15.7972 Y-8.3183
G01 X15.8216 Y-8.3019
G01 X15.8468 Y-8.2822
G01 X15.8687 Y-8.2626
G01 X15.8909 Y-8.2397
G01 X15.9130 Y-8.2134
G01 X15.9317 Y-8.1875
G01 X15.9484 Y-8.1604
G01 X15.9622 Y-8.1343
G01 X15.9733 Y-8.1097
G01 X15.9812 Y-8.0891
G01 X15.9895 Y-8.0634
G01 X15.9963 Y-8.0373
G01 X16.0011 Y-8.0132
G01 X16.0048 Y-7.9865
G01 X16.0070 Y-7.9596
G01 X16.0075 Y-7.9375
G01 X16.0073 Y-0.3052
G01 X16.0054 Y-0.2734
G01 X16.0011 Y-0.2418
G01 X15.9952 Y-0.2129
G01 X15.9867 Y-0.1822
G01 X15.9769 Y-0.1544
G01 X15.9643 Y-0.1251
G01 X15.9497 Y-0.0968
G01 X15.9344 Y-0.0716
G01 X15.9160 Y-0.0455
G01 X15.8974 Y-0.0226
G01 X15.8757 Y0.0007
G01 X15.8561 Y0.0192
G01 X15.8334 Y0.0380
G01 X15.8075 Y0.0567
G01 X15.7804 Y0.0734
G01 X15.7543 Y0.0872
G01 X15.7297 Y0.0983
G01 X15.7091 Y0.1062
G01 X15.6834 Y0.1145
G01 X15.6573 Y0.1213
G01 X15.6332 Y0.1261
G01 X15.6065 Y0.1298
G01 X15.5796 Y0.1320
G01 X15.5575 Y0.1325
G01 X0.3052 Y0.1323
G01 X0.2832 Y0.1312
G01 X0.2612 Y0.1290
G01 X0.2394 Y0.1257
G01 X0.2188 Y0.1216
G01 X0.1987 Y0.1165
G01 X0.1775 Y0.1102
G01 X0.1567 Y0.1028
G01 X0.1363 Y0.0944
G01 X0.1010 Y0.0770
G01 X0.0819 Y0.0659
G01 X0.0634 Y0.0539
G01 X0.0455 Y0.0410
G01 X0.0282 Y0.0272
G01 X0.0117 Y0.0126
G01 X-0.0042 Y-0.0028
G01 X-0.0304 Y-0.0320
G01 X-0.0440 Y-0.0494
G01 X-0.0567 Y-0.0675
G01 X-0.0685 Y-0.0861
G01 X-0.0794 Y-0.1054
G01 X-0.0893 Y-0.1251
G01 X-0.0983 Y-0.1453
G01 X-0.1062 Y-0.1659
G01 X-0.1131 Y-0.1869
G01 X-0.1190 Y-0.2082
G01 X-0.1239 Y-0.2297
G01 X-0.1277 Y-0.2515
G01 X-0.1304 Y-0.2734
G01 X-0.1320 Y-0.2954
G01 X-0.1325 Y-0.3175
G00 X-0.1325 Y-0.3175
G01 F70.00
G01 Z-1.4000
G01 F60.00
G01 X-0.1322 Y-7.9547
G01 X-0.1298 Y-7.9865
G01 X-0.1257 Y-8.0156
G01 X-0.1190 Y-8.0468
G01 X-0.1117 Y-8.0728
G01 X-0.1019 Y-8.1006
G01 X-0.0893 Y-8.1299
G01 X-0.0747 Y-8.1582
G01 X-0.0594 Y-8.1834
G01 X-0.0440 Y-8.2056
G01 X-0.0241 Y-8.2305
G01 X-0.0042 Y-8.2522
G01 X0.0189 Y-8.2742
G01 X0.0416 Y-8.2930
G01 X0.0675 Y-8.3117
G01 X0.0946 Y-8.3284
G01 X0.1207 Y-8.3422
G01 X0.1453 Y-8.3533
G01 X0.1659 Y-8.3612
G01 X0.1916 Y-8.3695
G01 X0.2177 Y-8.3763
G01 X0.2418 Y-8.3811
G01 X0.2685 Y-8.3848
G01 X0.2954 Y-8.3870
G01 X0.3175 Y-8.3875
G01 X15.5624 Y-8.3875
G01 X15.5918 Y-8.3862
G01 X15.6235 Y-8.3827
G01 X15.6549 Y-8.3768
G01 X15.6834 Y-8.3695
G01 X15.7137 Y-8.3595
G01 X15.7410 Y-8.3484
G01 X15.7696 Y-8.3344
G01 X15.7972 Y-8.3183
G01 X15.8216 Y-8.3019
G01 X15.8468 Y-8.2822
G01 X15.8687 Y-8.2626
G01 X15.8909 Y-8.2397
G01 X15.9130 Y-8.2134
G01 X15.9317 Y-8.1875
G01 X15.9484 Y-8.1604
G01 X15.9622 Y-8.1343
G01 X15.9733 Y-8.1097
G01 X15.9812 Y-8.0891
G01 X15.9895 Y-8.0634
G01 X15.9963 Y-8.0373
G01 X16.0011 Y-8.0132
G01 X16.0048 Y-7.9865
G01 X16.0070 Y-7.9596
G01 X16.0075 Y-7.9375
G01 X16.0073 Y-0.3052
G01 X16.0054 Y-0.2734
G01 X16.0011 Y-0.2418
G01 X15.9952 Y-0.2129
G01 X15.9867 Y-0.1822
G01 X15.9769 Y-0.1544
G01 X15.9643 Y-0.1251
G01 X15.9497 Y-0.0968
G01 X15.9344 Y-0.0716
G01 X15.9160 Y-0.0455
G01 X15.8974 Y-0.0226
G01 X15.8757 Y0.0007
G01 X15.8561 Y0.0192
G01 X15.8334 Y0.0380
G01 X15.8075 Y0.0567
G01 X15.7804 Y0.0734
G01 X15.7543 Y0.0872
G01 X15.7297 Y0.0983
G01 X15.7091 Y0.1062
G01 X15.6834 Y0.1145
G01 X15.6573 Y0.1213
G01 X15.6332 Y0.1261
G01 X15.6065 Y0.1298
G01 X15.5796 Y0.1320
G01 X15.5575 Y0.1325
G01 X0.3052 Y0.1323
G01 X0.2832 Y0.1312
G01 X0.2612 Y0.1290
G01 X0.2394 Y0.1257
G01 X0.2188 Y0.1216
G01 X0.1987 Y0.1165
G01 X0.1775 Y0.1102
G01 X0.1567 Y0.1028
G01 X0.1363 Y0.0944
G01 X0.1010 Y0.0770
G01 X0.0819 Y0.0659
G01 X0.0634 Y0.0539
G01 X0.0455 Y0.0410
G01 X0.0282 Y0.0272
G01 X0.0117 Y0.0126
G01 X-0.0042 Y-0.0028
G01 X-0.0304 Y-0.0320
G01 X-0.0440 Y-0.0494
G01 X-0.0567 Y-0.0675
G01 X-0.0685 Y-0.0861
G01 X-0.0794 Y-0.1054
G01 X-0.0893 Y-0.1251
G01 X-0.0983 Y-0.1453
G01 X-0.1062 Y-0.1659
G01 X-0.1131 Y-0.1869
G01 X-0.1190 Y-0.2082
G01 X-0.1239 Y-0.2297
G01 X-0.1277 Y-0.2515
G01 X-0.1304 Y-0.2734
G01 X-0.1320 Y-0.2954
G01 X-0.1325 Y-0.3175
G00 X-0.1325 Y-0.3175
G01 F70.00
G01 Z-1.5000
G01 F60.00
G01 X-0.1322 Y-7.9547
G01 X-0.1298 Y-7.9865
G01 X-0.1257 Y-8.0156
G01 X-0.1190 Y-8.0468
G01 X-0.1117 Y-8.0728
G01 X-0.1019 Y-8.1006
G01 X-0.0893 Y-8.1299
G01 X-0.0747 Y-8.1582
G01 X-0.0594 Y-8.1834
G01 X-0.0440 Y-8.2056
G01 X-0.0241 Y-8.2305
G01 X-0.0042 Y-8.2522
G01 X0.0189 Y-8.2742
G01 X0.0416 Y-8.2930
G01 X0.0675 Y-8.3117
G01 X0.0946 Y-8.3284
G01 X0.1207 Y-8.3422
G01 X0.1453 Y-8.3533
G01 X0.1659 Y-8.3612
G01 X0.1916 Y-8.3695
G01 X0.2177 Y-8.3763
G01 X0.2418 Y-8.3811
G01 X0.2685 Y-8.3848
G01 X0.2954 Y-8.3870
G01 X0.3175 Y-8.3875
G01 X15.5624 Y-8.3875
G01 X15.5918 Y-8.3862
G01 X15.6235 Y-8.3827
G01 X15.6549 Y-8.3768
G01 X15.6834 Y-8.3695
G01 X15.7137 Y-8.3595
G01 X15.7410 Y-8.3484
G01 X15.7696 Y-8.3344
G01 X15.7972 Y-8.3183
G01 X15.8216 Y-8.3019
G01 X15.8468 Y-8.2822
G01 X15.8687 Y-8.2626
G01 X15.8909 Y-8.2397
G01 X15.9130 Y-8.2134
G01 X15.9317 Y-8.1875
G01 X15.9484 Y-8.1604
G01 X15.9622 Y-8.1343
G01 X15.9733 Y-8.1097
G01 X15.9812 Y-8.0891
G01 X15.9895 Y-8.0634
G01 X15.9963 Y-8.0373
G01 X16.0011 Y-8.0132
G01 X16.0048 Y-7.9865
G01 X16.0070 Y-7.9596
G01 X16.0075 Y-7.9375
G01 X16.0073 Y-0.3052
G01 X16.0054 Y-0.2734
G01 X16.0011 Y-0.2418
G01 X15.9952 Y-0.2129
G01 X15.9867 Y-0.1822
G01 X15.9769 Y-0.1544
G01 X15.9643 Y-0.1251
G01 X15.9497 Y-0.0968
G01 X15.9344 Y-0.0716
G01 X15.9160 Y-0.0455
G01 X15.8974 Y-0.0226
G01 X15.8757 Y0.0007
G01 X15.8561 Y0.0192
G01 X15.8334 Y0.0380
G01 X15.8075 Y0.0567
G01 X15.7804 Y0.0734
G01 X15.7543 Y0.0872
G01 X15.7297 Y0.0983
G01 X15.7091 Y0.1062
G01 X15.6834 Y0.1145
G01 X15.6573 Y0.1213
G01 X15.6332 Y0.1261
G01 X15.6065 Y0.1298
G01 X15.5796 Y0.1320
G01 X15.5575 Y0.1325
G01 X0.3052 Y0.1323
G01 X0.2832 Y0.1312
G01 X0.2612 Y0.1290
G01 X0.2394 Y0.1257
G01 X0.2188 Y0.1216
G01 X0.1987 Y0.1165
G01 X0.1775 Y0.1102
G01 X0.1567 Y0.1028
G01 X0.1363 Y0.0944
G01 X0.1010 Y0.0770
G01 X0.0819 Y0.0659
G01 X0.0634 Y0.0539
G01 X0.0455 Y0.0410
G01 X0.0282 Y0.0272
G01 X0.0117 Y0.0126
G01 X-0.0042 Y-0.0028
G01 X-0.0304 Y-0.0320
G01 X-0.0440 Y-0.0494
G01 X-0.0567 Y-0.0675
G01 X-0.0685 Y-0.0861
G01 X-0.0794 Y-0.1054
G01 X-0.0893 Y-0.1251
G01 X-0.0983 Y-0.1453
G01 X-0.1062 Y-0.1659
G01 X-0.1131 Y-0.1869
G01 X-0.1190 Y-0.2082
G01 X-0.1239 Y-0.2297
G01 X-0.1277 Y-0.2515
G01 X-0.1304 Y-0.2734
G01 X-0.1320 Y-0.2954
G01 X-0.1325 Y-0.3175
G00 X-0.1325 Y-0.3175
G01 F70.00
G01 Z-1.6000
G01 F60.00
G01 X-0.1322 Y-7.9547
G01 X-0.1298 Y-7.9865
G01 X-0.1257 Y-8.0156
G01 X-0.1190 Y-8.0468
G01 X-0.1117 Y-8.0728
G01 X-0.1019 Y-8.1006
G01 X-0.0893 Y-8.1299
G01 X-0.0747 Y-8.1582
G01 X-0.0594 Y-8.1834
G01 X-0.0440 Y-8.2056
G01 X-0.0241 Y-8.2305
G01 X-0.0042 Y-8.2522
G01 X0.0189 Y-8.2742
G01 X0.0416 Y-8.2930
G01 X0.0675 Y-8.3117
G01 X0.0946 Y-8.3284
G01 X0.1207 Y-8.3422
G01 X0.1453 Y-8.3533
G01 X0.1659 Y-8.3612
G01 X0.1916 Y-8.3695
G01 X0.2177 Y-8.3763
G01 X0.2418 Y-8.3811
G01 X0.2685 Y-8.3848
G01 X0.2954 Y-8.3870
G01 X0.3175 Y-8.3875
G01 X15.5624 Y-8.3875
G01 X15.5918 Y-8.3862
G01 X15.6235 Y-8.3827
G01 X15.6549 Y-8.3768
G01 X15.6834 Y-8.3695
G01 X15.7137 Y-8.3595
G01 X15.7410 Y-8.3484
G01 X15.7696 Y-8.3344
G01 X15.7972 Y-8.3183
G01 X15.8216 Y-8.3019
G01 X15.8468 Y-8.2822
G01 X15.8687 Y-8.2626
G01 X15.8909 Y-8.2397
G01 X15.9130 Y-8.2134
G01 X15.9317 Y-8.1875
G01 X15.9484 Y-8.1604
G01 X15.9622 Y-8.1343
G01 X15.9733 Y-8.1097
G01 X15.9812 Y-8.0891
G01 X15.9895 Y-8.0634
G01 X15.9963 Y-8.0373
G01 X16.0011 Y-8.0132
G01 X16.0048 Y-7.9865
G01 X16.0070 Y-7.9596
G01 X16.0075 Y-7.9375
G01 X16.0073 Y-0.3052
G01 X16.0054 Y-0.2734
G01 X16.0011 Y-0.2418
G01 X15.9952 Y-0.2129
G01 X15.9867 Y-0.1822
G01 X15.9769 Y-0.1544
G01 X15.9643 Y-0.1251
G01 X15.9497 Y-0.0968
G01 X15.9344 Y-0.0716
G01 X15.9160 Y-0.0455
G01 X15.8974 Y-0.0226
G01 X15.8757 Y0.0007
G01 X15.8561 Y0.0192
G01 X15.8334 Y0.0380
G01 X15.8075 Y0.0567
G01 X15.7804 Y0.0734
G01 X15.7543 Y0.0872
G01 X15.7297 Y0.0983
G01 X15.7091 Y0.1062
G01 X15.6834 Y0.1145
G01 X15.6573 Y0.1213
G01 X15.6332 Y0.1261
G01 X15.6065 Y0.1298
G01 X15.5796 Y0.1320
G01 X15.5575 Y0.1325
G01 X0.3052 Y0.1323
G01 X0.2832 Y0.1312
G01 X0.2612 Y0.1290
G01 X0.2394 Y0.1257
G01 X0.2188 Y0.1216
G01 X0.1987 Y0.1165
G01 X0.1775 Y0.1102
G01 X0.1567 Y0.1028
G01 X0.1363 Y0.0944
G01 X0.1010 Y0.0770
G01 X0.0819 Y0.0659
G01 X0.0634 Y0.0539
G01 X0.0455 Y0.0410
G01 X0.0282 Y0.0272
G01 X0.0117 Y0.0126
G01 X-0.0042 Y-0.0028
G01 X-0.0304 Y-0.0320
G01 X-0.0440 Y-0.0494
G01 X-0.0567 Y-0.0675
G01 X-0.0685 Y-0.0861
G01 X-0.0794 Y-0.1054
G01 X-0.0893 Y-0.1251
G01 X-0.0983 Y-0.1453
G01 X-0.1062 Y-0.1659
G01 X-0.1131 Y-0.1869
G01 X-0.1190 Y-0.2082
G01 X-0.1239 Y-0.2297
G01 X-0.1277 Y-0.2515
G01 X-0.1304 Y-0.2734
G01 X-0.1320 Y-0.2954
G01 X-0.1325 Y-0.3175
G00 Z2.0000
M05
G00 Z2.0000
G00 Z25.00

