(G-CODE GENERATED BY FLATCAM v8.993 - www.flatcam.org - Version Date: 2020/06/05)

(Name: ThermoSensor_контур.gbr_iso_cutoff_cnc)
(Type: G-code from Geometry)
(Units: MM)

(Created on Friday, 30 October 2020 at 19:58)

(This preprocessor is the default preprocessor used by FlatCAM.)
(It is made to work with MACH3 compatible motion controllers.)

(TOOL DIAMETER: 0.8 mm)
(Feedrate_XY: 120.0 mm/min)
(Feedrate_Z: 70.0 mm/min)
(Feedrate rapids 1500.0 mm/min)

(Z_Cut: -1.7 mm)
(DepthPerCut: 0.1 mm <=>17 passes)
(Z_Move: 2.0 mm)
(Z Start: None mm)
(Z End: 25.0 mm)
(Steps per circle: 128)
(Preprocessor Geometry: default)

(X range:    0.5025 ...   19.6588  mm)
(Y range:  -19.1825 ...   -0.9788  mm)

(Spindle Speed: 10000 RPM)
G21
G90
G94



G01 F120.00
G00 Z2.0000

M03 S10000
G00 X0.7398 Y-9.4466
G01 F70.00
G01 Z-0.1000
G01 F120.00
G01 X16.4850 Y-9.3922
G01 X16.4842 Y-9.3930
G00 X16.4842 Y-9.3930
G01 F70.00
G01 Z-0.2000
G01 F120.00
G01 X16.4850 Y-9.3922
G01 X0.7398 Y-9.4466
G00 X0.7398 Y-9.4466
G01 F70.00
G01 Z-0.3000
G01 F120.00
G01 X16.4850 Y-9.3922
G01 X16.4842 Y-9.3930
G00 X16.4842 Y-9.3930
G01 F70.00
G01 Z-0.4000
G01 F120.00
G01 X16.4850 Y-9.3922
G01 X0.7398 Y-9.4466
G00 X0.7398 Y-9.4466
G01 F70.00
G01 Z-0.5000
G01 F120.00
G01 X16.4850 Y-9.3922
G01 X16.4842 Y-9.3930
G00 X16.4842 Y-9.3930
G01 F70.00
G01 Z-0.6000
G01 F120.00
G01 X16.4850 Y-9.3922
G01 X0.7398 Y-9.4466
G00 X0.7398 Y-9.4466
G01 F70.00
G01 Z-0.7000
G01 F120.00
G01 X16.4850 Y-9.3922
G01 X16.4842 Y-9.3930
G00 X16.4842 Y-9.3930
G01 F70.00
G01 Z-0.8000
G01 F120.00
G01 X16.4850 Y-9.3922
G01 X0.7398 Y-9.4466
G00 X0.7398 Y-9.4466
G01 F70.00
G01 Z-0.9000
G01 F120.00
G01 X16.4850 Y-9.3922
G01 X16.4842 Y-9.3930
G00 X16.4842 Y-9.3930
G01 F70.00
G01 Z-1.0000
G01 F120.00
G01 X16.4850 Y-9.3922
G01 X0.7398 Y-9.4466
G00 X0.7398 Y-9.4466
G01 F70.00
G01 Z-1.1000
G01 F120.00
G01 X16.4850 Y-9.3922
G01 X16.4842 Y-9.3930
G00 X16.4842 Y-9.3930
G01 F70.00
G01 Z-1.2000
G01 F120.00
G01 X16.4850 Y-9.3922
G01 X0.7398 Y-9.4466
G00 X0.7398 Y-9.4466
G01 F70.00
G01 Z-1.3000
G01 F120.00
G01 X16.4850 Y-9.3922
G01 X16.4842 Y-9.3930
G00 X16.4842 Y-9.3930
G01 F70.00
G01 Z-1.4000
G01 F120.00
G01 X16.4850 Y-9.3922
G01 X0.7398 Y-9.4466
G00 X0.7398 Y-9.4466
G01 F70.00
G01 Z-1.5000
G01 F120.00
G01 X16.4850 Y-9.3922
G01 X16.4842 Y-9.3930
G00 X16.4842 Y-9.3930
G01 F70.00
G01 Z-1.6000
G01 F120.00
G01 X16.4850 Y-9.3922
G01 X0.7398 Y-9.4466
G00 X0.7398 Y-9.4466
G01 F70.00
G01 Z-1.7000
G01 F120.00
G01 X16.4850 Y-9.3922
G01 X16.4842 Y-9.3930
G00 Z2.0000
G00 X17.2411 Y-14.2360
G01 F70.00
G01 Z-0.1000
G01 F120.00
G01 X17.2423 Y-14.2875
G01 X17.2411 Y-14.3390
G01 X17.2373 Y-14.3904
G01 X17.2310 Y-14.4415
G01 X17.2222 Y-14.4923
G01 X17.2109 Y-14.5426
G01 X17.1971 Y-14.5923
G01 X17.1810 Y-14.6412
G01 X17.1624 Y-14.6893
G01 X17.1415 Y-14.7364
G01 X17.1184 Y-14.7824
G01 X17.0930 Y-14.8272
G01 X17.0654 Y-14.8708
G01 X17.0357 Y-14.9129
G01 X17.0040 Y-14.9535
G01 X16.9704 Y-14.9925
G01 X16.9348 Y-15.0298
G01 X16.8975 Y-15.0654
G01 X16.8585 Y-15.0990
G01 X16.8179 Y-15.1307
G01 X16.7758 Y-15.1604
G01 X16.7322 Y-15.1880
G01 X16.6874 Y-15.2134
G01 X16.6414 Y-15.2365
G01 X16.5943 Y-15.2574
G01 X16.5462 Y-15.2760
G01 X16.4973 Y-15.2921
G01 X16.4476 Y-15.3059
G01 X16.3973 Y-15.3172
G01 X16.3465 Y-15.3260
G01 X16.2954 Y-15.3323
G01 X16.2440 Y-15.3361
G01 X16.1925 Y-15.3373
G01 X16.1410 Y-15.3361
G01 X16.0896 Y-15.3323
G01 X16.0385 Y-15.3260
G01 X15.9877 Y-15.3172
G01 X15.9374 Y-15.3059
G01 X15.8877 Y-15.2921
G01 X15.8388 Y-15.2760
G01 X15.7907 Y-15.2574
G01 X15.7436 Y-15.2365
G01 X15.6976 Y-15.2134
G01 X15.6528 Y-15.1880
G01 X15.6092 Y-15.1604
G01 X15.5671 Y-15.1307
G01 X15.5265 Y-15.0990
G01 X15.4875 Y-15.0654
G01 X15.4502 Y-15.0298
G01 X15.4146 Y-14.9925
G01 X15.3810 Y-14.9535
G01 X15.3493 Y-14.9129
G01 X15.3196 Y-14.8708
G01 X15.2920 Y-14.8272
G01 X15.2666 Y-14.7824
G01 X15.2435 Y-14.7364
G01 X15.2226 Y-14.6893
G01 X15.2040 Y-14.6412
G01 X15.1879 Y-14.5923
G01 X15.1741 Y-14.5426
G01 X15.1628 Y-14.4923
G01 X15.1540 Y-14.4415
G01 X15.1477 Y-14.3904
G01 X15.1439 Y-14.3390
G01 X15.1427 Y-14.2875
G01 X15.1439 Y-14.2360
G01 X15.1477 Y-14.1846
G01 X15.1540 Y-14.1335
G01 X15.1628 Y-14.0827
G01 X15.1741 Y-14.0324
G01 X15.1879 Y-13.9827
G01 X15.2040 Y-13.9338
G01 X15.2226 Y-13.8857
G01 X15.2435 Y-13.8386
G01 X15.2666 Y-13.7926
G01 X15.2920 Y-13.7478
G01 X15.3196 Y-13.7042
G01 X15.3493 Y-13.6621
G01 X15.3810 Y-13.6215
G01 X15.4146 Y-13.5825
G01 X15.4502 Y-13.5452
G01 X15.4875 Y-13.5096
G01 X15.5265 Y-13.4760
G01 X15.5671 Y-13.4443
G01 X15.6092 Y-13.4146
G01 X15.6528 Y-13.3870
G01 X15.6976 Y-13.3616
G01 X15.7436 Y-13.3385
G01 X15.7907 Y-13.3176
G01 X15.8388 Y-13.2990
G01 X15.8877 Y-13.2829
G01 X15.9374 Y-13.2691
G01 X15.9877 Y-13.2578
G01 X16.0385 Y-13.2490
G01 X16.0896 Y-13.2427
G01 X16.1410 Y-13.2389
G01 X16.1925 Y-13.2377
G01 X16.2440 Y-13.2389
G01 X16.2954 Y-13.2427
G01 X16.3465 Y-13.2490
G01 X16.3973 Y-13.2578
G01 X16.4476 Y-13.2691
G01 X16.4973 Y-13.2829
G01 X16.5462 Y-13.2990
G01 X16.5943 Y-13.3176
G01 X16.6414 Y-13.3385
G01 X16.6874 Y-13.3616
G01 X16.7322 Y-13.3870
G01 X16.7758 Y-13.4146
G01 X16.8179 Y-13.4443
G01 X16.8585 Y-13.4760
G01 X16.8975 Y-13.5096
G01 X16.9348 Y-13.5452
G01 X16.9704 Y-13.5825
G01 X17.0040 Y-13.6215
G01 X17.0357 Y-13.6621
G01 X17.0654 Y-13.7042
G01 X17.0930 Y-13.7478
G01 X17.1184 Y-13.7926
G01 X17.1415 Y-13.8386
G01 X17.1624 Y-13.8857
G01 X17.1810 Y-13.9338
G01 X17.1971 Y-13.9827
G01 X17.2109 Y-14.0324
G01 X17.2222 Y-14.0827
G01 X17.2310 Y-14.1335
G01 X17.2373 Y-14.1846
G01 X17.2411 Y-14.2360
G00 X17.2411 Y-14.2360
G01 F70.00
G01 Z-0.2000
G01 F120.00
G01 X17.2423 Y-14.2875
G01 X17.2411 Y-14.3390
G01 X17.2373 Y-14.3904
G01 X17.2310 Y-14.4415
G01 X17.2222 Y-14.4923
G01 X17.2109 Y-14.5426
G01 X17.1971 Y-14.5923
G01 X17.1810 Y-14.6412
G01 X17.1624 Y-14.6893
G01 X17.1415 Y-14.7364
G01 X17.1184 Y-14.7824
G01 X17.0930 Y-14.8272
G01 X17.0654 Y-14.8708
G01 X17.0357 Y-14.9129
G01 X17.0040 Y-14.9535
G01 X16.9704 Y-14.9925
G01 X16.9348 Y-15.0298
G01 X16.8975 Y-15.0654
G01 X16.8585 Y-15.0990
G01 X16.8179 Y-15.1307
G01 X16.7758 Y-15.1604
G01 X16.7322 Y-15.1880
G01 X16.6874 Y-15.2134
G01 X16.6414 Y-15.2365
G01 X16.5943 Y-15.2574
G01 X16.5462 Y-15.2760
G01 X16.4973 Y-15.2921
G01 X16.4476 Y-15.3059
G01 X16.3973 Y-15.3172
G01 X16.3465 Y-15.3260
G01 X16.2954 Y-15.3323
G01 X16.2440 Y-15.3361
G01 X16.1925 Y-15.3373
G01 X16.1410 Y-15.3361
G01 X16.0896 Y-15.3323
G01 X16.0385 Y-15.3260
G01 X15.9877 Y-15.3172
G01 X15.9374 Y-15.3059
G01 X15.8877 Y-15.2921
G01 X15.8388 Y-15.2760
G01 X15.7907 Y-15.2574
G01 X15.7436 Y-15.2365
G01 X15.6976 Y-15.2134
G01 X15.6528 Y-15.1880
G01 X15.6092 Y-15.1604
G01 X15.5671 Y-15.1307
G01 X15.5265 Y-15.0990
G01 X15.4875 Y-15.0654
G01 X15.4502 Y-15.0298
G01 X15.4146 Y-14.9925
G01 X15.3810 Y-14.9535
G01 X15.3493 Y-14.9129
G01 X15.3196 Y-14.8708
G01 X15.2920 Y-14.8272
G01 X15.2666 Y-14.7824
G01 X15.2435 Y-14.7364
G01 X15.2226 Y-14.6893
G01 X15.2040 Y-14.6412
G01 X15.1879 Y-14.5923
G01 X15.1741 Y-14.5426
G01 X15.1628 Y-14.4923
G01 X15.1540 Y-14.4415
G01 X15.1477 Y-14.3904
G01 X15.1439 Y-14.3390
G01 X15.1427 Y-14.2875
G01 X15.1439 Y-14.2360
G01 X15.1477 Y-14.1846
G01 X15.1540 Y-14.1335
G01 X15.1628 Y-14.0827
G01 X15.1741 Y-14.0324
G01 X15.1879 Y-13.9827
G01 X15.2040 Y-13.9338
G01 X15.2226 Y-13.8857
G01 X15.2435 Y-13.8386
G01 X15.2666 Y-13.7926
G01 X15.2920 Y-13.7478
G01 X15.3196 Y-13.7042
G01 X15.3493 Y-13.6621
G01 X15.3810 Y-13.6215
G01 X15.4146 Y-13.5825
G01 X15.4502 Y-13.5452
G01 X15.4875 Y-13.5096
G01 X15.5265 Y-13.4760
G01 X15.5671 Y-13.4443
G01 X15.6092 Y-13.4146
G01 X15.6528 Y-13.3870
G01 X15.6976 Y-13.3616
G01 X15.7436 Y-13.3385
G01 X15.7907 Y-13.3176
G01 X15.8388 Y-13.2990
G01 X15.8877 Y-13.2829
G01 X15.9374 Y-13.2691
G01 X15.9877 Y-13.2578
G01 X16.0385 Y-13.2490
G01 X16.0896 Y-13.2427
G01 X16.1410 Y-13.2389
G01 X16.1925 Y-13.2377
G01 X16.2440 Y-13.2389
G01 X16.2954 Y-13.2427
G01 X16.3465 Y-13.2490
G01 X16.3973 Y-13.2578
G01 X16.4476 Y-13.2691
G01 X16.4973 Y-13.2829
G01 X16.5462 Y-13.2990
G01 X16.5943 Y-13.3176
G01 X16.6414 Y-13.3385
G01 X16.6874 Y-13.3616
G01 X16.7322 Y-13.3870
G01 X16.7758 Y-13.4146
G01 X16.8179 Y-13.4443
G01 X16.8585 Y-13.4760
G01 X16.8975 Y-13.5096
G01 X16.9348 Y-13.5452
G01 X16.9704 Y-13.5825
G01 X17.0040 Y-13.6215
G01 X17.0357 Y-13.6621
G01 X17.0654 Y-13.7042
G01 X17.0930 Y-13.7478
G01 X17.1184 Y-13.7926
G01 X17.1415 Y-13.8386
G01 X17.1624 Y-13.8857
G01 X17.1810 Y-13.9338
G01 X17.1971 Y-13.9827
G01 X17.2109 Y-14.0324
G01 X17.2222 Y-14.0827
G01 X17.2310 Y-14.1335
G01 X17.2373 Y-14.1846
G01 X17.2411 Y-14.2360
G00 X17.2411 Y-14.2360
G01 F70.00
G01 Z-0.3000
G01 F120.00
G01 X17.2423 Y-14.2875
G01 X17.2411 Y-14.3390
G01 X17.2373 Y-14.3904
G01 X17.2310 Y-14.4415
G01 X17.2222 Y-14.4923
G01 X17.2109 Y-14.5426
G01 X17.1971 Y-14.5923
G01 X17.1810 Y-14.6412
G01 X17.1624 Y-14.6893
G01 X17.1415 Y-14.7364
G01 X17.1184 Y-14.7824
G01 X17.0930 Y-14.8272
G01 X17.0654 Y-14.8708
G01 X17.0357 Y-14.9129
G01 X17.0040 Y-14.9535
G01 X16.9704 Y-14.9925
G01 X16.9348 Y-15.0298
G01 X16.8975 Y-15.0654
G01 X16.8585 Y-15.0990
G01 X16.8179 Y-15.1307
G01 X16.7758 Y-15.1604
G01 X16.7322 Y-15.1880
G01 X16.6874 Y-15.2134
G01 X16.6414 Y-15.2365
G01 X16.5943 Y-15.2574
G01 X16.5462 Y-15.2760
G01 X16.4973 Y-15.2921
G01 X16.4476 Y-15.3059
G01 X16.3973 Y-15.3172
G01 X16.3465 Y-15.3260
G01 X16.2954 Y-15.3323
G01 X16.2440 Y-15.3361
G01 X16.1925 Y-15.3373
G01 X16.1410 Y-15.3361
G01 X16.0896 Y-15.3323
G01 X16.0385 Y-15.3260
G01 X15.9877 Y-15.3172
G01 X15.9374 Y-15.3059
G01 X15.8877 Y-15.2921
G01 X15.8388 Y-15.2760
G01 X15.7907 Y-15.2574
G01 X15.7436 Y-15.2365
G01 X15.6976 Y-15.2134
G01 X15.6528 Y-15.1880
G01 X15.6092 Y-15.1604
G01 X15.5671 Y-15.1307
G01 X15.5265 Y-15.0990
G01 X15.4875 Y-15.0654
G01 X15.4502 Y-15.0298
G01 X15.4146 Y-14.9925
G01 X15.3810 Y-14.9535
G01 X15.3493 Y-14.9129
G01 X15.3196 Y-14.8708
G01 X15.2920 Y-14.8272
G01 X15.2666 Y-14.7824
G01 X15.2435 Y-14.7364
G01 X15.2226 Y-14.6893
G01 X15.2040 Y-14.6412
G01 X15.1879 Y-14.5923
G01 X15.1741 Y-14.5426
G01 X15.1628 Y-14.4923
G01 X15.1540 Y-14.4415
G01 X15.1477 Y-14.3904
G01 X15.1439 Y-14.3390
G01 X15.1427 Y-14.2875
G01 X15.1439 Y-14.2360
G01 X15.1477 Y-14.1846
G01 X15.1540 Y-14.1335
G01 X15.1628 Y-14.0827
G01 X15.1741 Y-14.0324
G01 X15.1879 Y-13.9827
G01 X15.2040 Y-13.9338
G01 X15.2226 Y-13.8857
G01 X15.2435 Y-13.8386
G01 X15.2666 Y-13.7926
G01 X15.2920 Y-13.7478
G01 X15.3196 Y-13.7042
G01 X15.3493 Y-13.6621
G01 X15.3810 Y-13.6215
G01 X15.4146 Y-13.5825
G01 X15.4502 Y-13.5452
G01 X15.4875 Y-13.5096
G01 X15.5265 Y-13.4760
G01 X15.5671 Y-13.4443
G01 X15.6092 Y-13.4146
G01 X15.6528 Y-13.3870
G01 X15.6976 Y-13.3616
G01 X15.7436 Y-13.3385
G01 X15.7907 Y-13.3176
G01 X15.8388 Y-13.2990
G01 X15.8877 Y-13.2829
G01 X15.9374 Y-13.2691
G01 X15.9877 Y-13.2578
G01 X16.0385 Y-13.2490
G01 X16.0896 Y-13.2427
G01 X16.1410 Y-13.2389
G01 X16.1925 Y-13.2377
G01 X16.2440 Y-13.2389
G01 X16.2954 Y-13.2427
G01 X16.3465 Y-13.2490
G01 X16.3973 Y-13.2578
G01 X16.4476 Y-13.2691
G01 X16.4973 Y-13.2829
G01 X16.5462 Y-13.2990
G01 X16.5943 Y-13.3176
G01 X16.6414 Y-13.3385
G01 X16.6874 Y-13.3616
G01 X16.7322 Y-13.3870
G01 X16.7758 Y-13.4146
G01 X16.8179 Y-13.4443
G01 X16.8585 Y-13.4760
G01 X16.8975 Y-13.5096
G01 X16.9348 Y-13.5452
G01 X16.9704 Y-13.5825
G01 X17.0040 Y-13.6215
G01 X17.0357 Y-13.6621
G01 X17.0654 Y-13.7042
G01 X17.0930 Y-13.7478
G01 X17.1184 Y-13.7926
G01 X17.1415 Y-13.8386
G01 X17.1624 Y-13.8857
G01 X17.1810 Y-13.9338
G01 X17.1971 Y-13.9827
G01 X17.2109 Y-14.0324
G01 X17.2222 Y-14.0827
G01 X17.2310 Y-14.1335
G01 X17.2373 Y-14.1846
G01 X17.2411 Y-14.2360
G00 X17.2411 Y-14.2360
G01 F70.00
G01 Z-0.4000
G01 F120.00
G01 X17.2423 Y-14.2875
G01 X17.2411 Y-14.3390
G01 X17.2373 Y-14.3904
G01 X17.2310 Y-14.4415
G01 X17.2222 Y-14.4923
G01 X17.2109 Y-14.5426
G01 X17.1971 Y-14.5923
G01 X17.1810 Y-14.6412
G01 X17.1624 Y-14.6893
G01 X17.1415 Y-14.7364
G01 X17.1184 Y-14.7824
G01 X17.0930 Y-14.8272
G01 X17.0654 Y-14.8708
G01 X17.0357 Y-14.9129
G01 X17.0040 Y-14.9535
G01 X16.9704 Y-14.9925
G01 X16.9348 Y-15.0298
G01 X16.8975 Y-15.0654
G01 X16.8585 Y-15.0990
G01 X16.8179 Y-15.1307
G01 X16.7758 Y-15.1604
G01 X16.7322 Y-15.1880
G01 X16.6874 Y-15.2134
G01 X16.6414 Y-15.2365
G01 X16.5943 Y-15.2574
G01 X16.5462 Y-15.2760
G01 X16.4973 Y-15.2921
G01 X16.4476 Y-15.3059
G01 X16.3973 Y-15.3172
G01 X16.3465 Y-15.3260
G01 X16.2954 Y-15.3323
G01 X16.2440 Y-15.3361
G01 X16.1925 Y-15.3373
G01 X16.1410 Y-15.3361
G01 X16.0896 Y-15.3323
G01 X16.0385 Y-15.3260
G01 X15.9877 Y-15.3172
G01 X15.9374 Y-15.3059
G01 X15.8877 Y-15.2921
G01 X15.8388 Y-15.2760
G01 X15.7907 Y-15.2574
G01 X15.7436 Y-15.2365
G01 X15.6976 Y-15.2134
G01 X15.6528 Y-15.1880
G01 X15.6092 Y-15.1604
G01 X15.5671 Y-15.1307
G01 X15.5265 Y-15.0990
G01 X15.4875 Y-15.0654
G01 X15.4502 Y-15.0298
G01 X15.4146 Y-14.9925
G01 X15.3810 Y-14.9535
G01 X15.3493 Y-14.9129
G01 X15.3196 Y-14.8708
G01 X15.2920 Y-14.8272
G01 X15.2666 Y-14.7824
G01 X15.2435 Y-14.7364
G01 X15.2226 Y-14.6893
G01 X15.2040 Y-14.6412
G01 X15.1879 Y-14.5923
G01 X15.1741 Y-14.5426
G01 X15.1628 Y-14.4923
G01 X15.1540 Y-14.4415
G01 X15.1477 Y-14.3904
G01 X15.1439 Y-14.3390
G01 X15.1427 Y-14.2875
G01 X15.1439 Y-14.2360
G01 X15.1477 Y-14.1846
G01 X15.1540 Y-14.1335
G01 X15.1628 Y-14.0827
G01 X15.1741 Y-14.0324
G01 X15.1879 Y-13.9827
G01 X15.2040 Y-13.9338
G01 X15.2226 Y-13.8857
G01 X15.2435 Y-13.8386
G01 X15.2666 Y-13.7926
G01 X15.2920 Y-13.7478
G01 X15.3196 Y-13.7042
G01 X15.3493 Y-13.6621
G01 X15.3810 Y-13.6215
G01 X15.4146 Y-13.5825
G01 X15.4502 Y-13.5452
G01 X15.4875 Y-13.5096
G01 X15.5265 Y-13.4760
G01 X15.5671 Y-13.4443
G01 X15.6092 Y-13.4146
G01 X15.6528 Y-13.3870
G01 X15.6976 Y-13.3616
G01 X15.7436 Y-13.3385
G01 X15.7907 Y-13.3176
G01 X15.8388 Y-13.2990
G01 X15.8877 Y-13.2829
G01 X15.9374 Y-13.2691
G01 X15.9877 Y-13.2578
G01 X16.0385 Y-13.2490
G01 X16.0896 Y-13.2427
G01 X16.1410 Y-13.2389
G01 X16.1925 Y-13.2377
G01 X16.2440 Y-13.2389
G01 X16.2954 Y-13.2427
G01 X16.3465 Y-13.2490
G01 X16.3973 Y-13.2578
G01 X16.4476 Y-13.2691
G01 X16.4973 Y-13.2829
G01 X16.5462 Y-13.2990
G01 X16.5943 Y-13.3176
G01 X16.6414 Y-13.3385
G01 X16.6874 Y-13.3616
G01 X16.7322 Y-13.3870
G01 X16.7758 Y-13.4146
G01 X16.8179 Y-13.4443
G01 X16.8585 Y-13.4760
G01 X16.8975 Y-13.5096
G01 X16.9348 Y-13.5452
G01 X16.9704 Y-13.5825
G01 X17.0040 Y-13.6215
G01 X17.0357 Y-13.6621
G01 X17.0654 Y-13.7042
G01 X17.0930 Y-13.7478
G01 X17.1184 Y-13.7926
G01 X17.1415 Y-13.8386
G01 X17.1624 Y-13.8857
G01 X17.1810 Y-13.9338
G01 X17.1971 Y-13.9827
G01 X17.2109 Y-14.0324
G01 X17.2222 Y-14.0827
G01 X17.2310 Y-14.1335
G01 X17.2373 Y-14.1846
G01 X17.2411 Y-14.2360
G00 X17.2411 Y-14.2360
G01 F70.00
G01 Z-0.5000
G01 F120.00
G01 X17.2423 Y-14.2875
G01 X17.2411 Y-14.3390
G01 X17.2373 Y-14.3904
G01 X17.2310 Y-14.4415
G01 X17.2222 Y-14.4923
G01 X17.2109 Y-14.5426
G01 X17.1971 Y-14.5923
G01 X17.1810 Y-14.6412
G01 X17.1624 Y-14.6893
G01 X17.1415 Y-14.7364
G01 X17.1184 Y-14.7824
G01 X17.0930 Y-14.8272
G01 X17.0654 Y-14.8708
G01 X17.0357 Y-14.9129
G01 X17.0040 Y-14.9535
G01 X16.9704 Y-14.9925
G01 X16.9348 Y-15.0298
G01 X16.8975 Y-15.0654
G01 X16.8585 Y-15.0990
G01 X16.8179 Y-15.1307
G01 X16.7758 Y-15.1604
G01 X16.7322 Y-15.1880
G01 X16.6874 Y-15.2134
G01 X16.6414 Y-15.2365
G01 X16.5943 Y-15.2574
G01 X16.5462 Y-15.2760
G01 X16.4973 Y-15.2921
G01 X16.4476 Y-15.3059
G01 X16.3973 Y-15.3172
G01 X16.3465 Y-15.3260
G01 X16.2954 Y-15.3323
G01 X16.2440 Y-15.3361
G01 X16.1925 Y-15.3373
G01 X16.1410 Y-15.3361
G01 X16.0896 Y-15.3323
G01 X16.0385 Y-15.3260
G01 X15.9877 Y-15.3172
G01 X15.9374 Y-15.3059
G01 X15.8877 Y-15.2921
G01 X15.8388 Y-15.2760
G01 X15.7907 Y-15.2574
G01 X15.7436 Y-15.2365
G01 X15.6976 Y-15.2134
G01 X15.6528 Y-15.1880
G01 X15.6092 Y-15.1604
G01 X15.5671 Y-15.1307
G01 X15.5265 Y-15.0990
G01 X15.4875 Y-15.0654
G01 X15.4502 Y-15.0298
G01 X15.4146 Y-14.9925
G01 X15.3810 Y-14.9535
G01 X15.3493 Y-14.9129
G01 X15.3196 Y-14.8708
G01 X15.2920 Y-14.8272
G01 X15.2666 Y-14.7824
G01 X15.2435 Y-14.7364
G01 X15.2226 Y-14.6893
G01 X15.2040 Y-14.6412
G01 X15.1879 Y-14.5923
G01 X15.1741 Y-14.5426
G01 X15.1628 Y-14.4923
G01 X15.1540 Y-14.4415
G01 X15.1477 Y-14.3904
G01 X15.1439 Y-14.3390
G01 X15.1427 Y-14.2875
G01 X15.1439 Y-14.2360
G01 X15.1477 Y-14.1846
G01 X15.1540 Y-14.1335
G01 X15.1628 Y-14.0827
G01 X15.1741 Y-14.0324
G01 X15.1879 Y-13.9827
G01 X15.2040 Y-13.9338
G01 X15.2226 Y-13.8857
G01 X15.2435 Y-13.8386
G01 X15.2666 Y-13.7926
G01 X15.2920 Y-13.7478
G01 X15.3196 Y-13.7042
G01 X15.3493 Y-13.6621
G01 X15.3810 Y-13.6215
G01 X15.4146 Y-13.5825
G01 X15.4502 Y-13.5452
G01 X15.4875 Y-13.5096
G01 X15.5265 Y-13.4760
G01 X15.5671 Y-13.4443
G01 X15.6092 Y-13.4146
G01 X15.6528 Y-13.3870
G01 X15.6976 Y-13.3616
G01 X15.7436 Y-13.3385
G01 X15.7907 Y-13.3176
G01 X15.8388 Y-13.2990
G01 X15.8877 Y-13.2829
G01 X15.9374 Y-13.2691
G01 X15.9877 Y-13.2578
G01 X16.0385 Y-13.2490
G01 X16.0896 Y-13.2427
G01 X16.1410 Y-13.2389
G01 X16.1925 Y-13.2377
G01 X16.2440 Y-13.2389
G01 X16.2954 Y-13.2427
G01 X16.3465 Y-13.2490
G01 X16.3973 Y-13.2578
G01 X16.4476 Y-13.2691
G01 X16.4973 Y-13.2829
G01 X16.5462 Y-13.2990
G01 X16.5943 Y-13.3176
G01 X16.6414 Y-13.3385
G01 X16.6874 Y-13.3616
G01 X16.7322 Y-13.3870
G01 X16.7758 Y-13.4146
G01 X16.8179 Y-13.4443
G01 X16.8585 Y-13.4760
G01 X16.8975 Y-13.5096
G01 X16.9348 Y-13.5452
G01 X16.9704 Y-13.5825
G01 X17.0040 Y-13.6215
G01 X17.0357 Y-13.6621
G01 X17.0654 Y-13.7042
G01 X17.0930 Y-13.7478
G01 X17.1184 Y-13.7926
G01 X17.1415 Y-13.8386
G01 X17.1624 Y-13.8857
G01 X17.1810 Y-13.9338
G01 X17.1971 Y-13.9827
G01 X17.2109 Y-14.0324
G01 X17.2222 Y-14.0827
G01 X17.2310 Y-14.1335
G01 X17.2373 Y-14.1846
G01 X17.2411 Y-14.2360
G00 X17.2411 Y-14.2360
G01 F70.00
G01 Z-0.6000
G01 F120.00
G01 X17.2423 Y-14.2875
G01 X17.2411 Y-14.3390
G01 X17.2373 Y-14.3904
G01 X17.2310 Y-14.4415
G01 X17.2222 Y-14.4923
G01 X17.2109 Y-14.5426
G01 X17.1971 Y-14.5923
G01 X17.1810 Y-14.6412
G01 X17.1624 Y-14.6893
G01 X17.1415 Y-14.7364
G01 X17.1184 Y-14.7824
G01 X17.0930 Y-14.8272
G01 X17.0654 Y-14.8708
G01 X17.0357 Y-14.9129
G01 X17.0040 Y-14.9535
G01 X16.9704 Y-14.9925
G01 X16.9348 Y-15.0298
G01 X16.8975 Y-15.0654
G01 X16.8585 Y-15.0990
G01 X16.8179 Y-15.1307
G01 X16.7758 Y-15.1604
G01 X16.7322 Y-15.1880
G01 X16.6874 Y-15.2134
G01 X16.6414 Y-15.2365
G01 X16.5943 Y-15.2574
G01 X16.5462 Y-15.2760
G01 X16.4973 Y-15.2921
G01 X16.4476 Y-15.3059
G01 X16.3973 Y-15.3172
G01 X16.3465 Y-15.3260
G01 X16.2954 Y-15.3323
G01 X16.2440 Y-15.3361
G01 X16.1925 Y-15.3373
G01 X16.1410 Y-15.3361
G01 X16.0896 Y-15.3323
G01 X16.0385 Y-15.3260
G01 X15.9877 Y-15.3172
G01 X15.9374 Y-15.3059
G01 X15.8877 Y-15.2921
G01 X15.8388 Y-15.2760
G01 X15.7907 Y-15.2574
G01 X15.7436 Y-15.2365
G01 X15.6976 Y-15.2134
G01 X15.6528 Y-15.1880
G01 X15.6092 Y-15.1604
G01 X15.5671 Y-15.1307
G01 X15.5265 Y-15.0990
G01 X15.4875 Y-15.0654
G01 X15.4502 Y-15.0298
G01 X15.4146 Y-14.9925
G01 X15.3810 Y-14.9535
G01 X15.3493 Y-14.9129
G01 X15.3196 Y-14.8708
G01 X15.2920 Y-14.8272
G01 X15.2666 Y-14.7824
G01 X15.2435 Y-14.7364
G01 X15.2226 Y-14.6893
G01 X15.2040 Y-14.6412
G01 X15.1879 Y-14.5923
G01 X15.1741 Y-14.5426
G01 X15.1628 Y-14.4923
G01 X15.1540 Y-14.4415
G01 X15.1477 Y-14.3904
G01 X15.1439 Y-14.3390
G01 X15.1427 Y-14.2875
G01 X15.1439 Y-14.2360
G01 X15.1477 Y-14.1846
G01 X15.1540 Y-14.1335
G01 X15.1628 Y-14.0827
G01 X15.1741 Y-14.0324
G01 X15.1879 Y-13.9827
G01 X15.2040 Y-13.9338
G01 X15.2226 Y-13.8857
G01 X15.2435 Y-13.8386
G01 X15.2666 Y-13.7926
G01 X15.2920 Y-13.7478
G01 X15.3196 Y-13.7042
G01 X15.3493 Y-13.6621
G01 X15.3810 Y-13.6215
G01 X15.4146 Y-13.5825
G01 X15.4502 Y-13.5452
G01 X15.4875 Y-13.5096
G01 X15.5265 Y-13.4760
G01 X15.5671 Y-13.4443
G01 X15.6092 Y-13.4146
G01 X15.6528 Y-13.3870
G01 X15.6976 Y-13.3616
G01 X15.7436 Y-13.3385
G01 X15.7907 Y-13.3176
G01 X15.8388 Y-13.2990
G01 X15.8877 Y-13.2829
G01 X15.9374 Y-13.2691
G01 X15.9877 Y-13.2578
G01 X16.0385 Y-13.2490
G01 X16.0896 Y-13.2427
G01 X16.1410 Y-13.2389
G01 X16.1925 Y-13.2377
G01 X16.2440 Y-13.2389
G01 X16.2954 Y-13.2427
G01 X16.3465 Y-13.2490
G01 X16.3973 Y-13.2578
G01 X16.4476 Y-13.2691
G01 X16.4973 Y-13.2829
G01 X16.5462 Y-13.2990
G01 X16.5943 Y-13.3176
G01 X16.6414 Y-13.3385
G01 X16.6874 Y-13.3616
G01 X16.7322 Y-13.3870
G01 X16.7758 Y-13.4146
G01 X16.8179 Y-13.4443
G01 X16.8585 Y-13.4760
G01 X16.8975 Y-13.5096
G01 X16.9348 Y-13.5452
G01 X16.9704 Y-13.5825
G01 X17.0040 Y-13.6215
G01 X17.0357 Y-13.6621
G01 X17.0654 Y-13.7042
G01 X17.0930 Y-13.7478
G01 X17.1184 Y-13.7926
G01 X17.1415 Y-13.8386
G01 X17.1624 Y-13.8857
G01 X17.1810 Y-13.9338
G01 X17.1971 Y-13.9827
G01 X17.2109 Y-14.0324
G01 X17.2222 Y-14.0827
G01 X17.2310 Y-14.1335
G01 X17.2373 Y-14.1846
G01 X17.2411 Y-14.2360
G00 X17.2411 Y-14.2360
G01 F70.00
G01 Z-0.7000
G01 F120.00
G01 X17.2423 Y-14.2875
G01 X17.2411 Y-14.3390
G01 X17.2373 Y-14.3904
G01 X17.2310 Y-14.4415
G01 X17.2222 Y-14.4923
G01 X17.2109 Y-14.5426
G01 X17.1971 Y-14.5923
G01 X17.1810 Y-14.6412
G01 X17.1624 Y-14.6893
G01 X17.1415 Y-14.7364
G01 X17.1184 Y-14.7824
G01 X17.0930 Y-14.8272
G01 X17.0654 Y-14.8708
G01 X17.0357 Y-14.9129
G01 X17.0040 Y-14.9535
G01 X16.9704 Y-14.9925
G01 X16.9348 Y-15.0298
G01 X16.8975 Y-15.0654
G01 X16.8585 Y-15.0990
G01 X16.8179 Y-15.1307
G01 X16.7758 Y-15.1604
G01 X16.7322 Y-15.1880
G01 X16.6874 Y-15.2134
G01 X16.6414 Y-15.2365
G01 X16.5943 Y-15.2574
G01 X16.5462 Y-15.2760
G01 X16.4973 Y-15.2921
G01 X16.4476 Y-15.3059
G01 X16.3973 Y-15.3172
G01 X16.3465 Y-15.3260
G01 X16.2954 Y-15.3323
G01 X16.2440 Y-15.3361
G01 X16.1925 Y-15.3373
G01 X16.1410 Y-15.3361
G01 X16.0896 Y-15.3323
G01 X16.0385 Y-15.3260
G01 X15.9877 Y-15.3172
G01 X15.9374 Y-15.3059
G01 X15.8877 Y-15.2921
G01 X15.8388 Y-15.2760
G01 X15.7907 Y-15.2574
G01 X15.7436 Y-15.2365
G01 X15.6976 Y-15.2134
G01 X15.6528 Y-15.1880
G01 X15.6092 Y-15.1604
G01 X15.5671 Y-15.1307
G01 X15.5265 Y-15.0990
G01 X15.4875 Y-15.0654
G01 X15.4502 Y-15.0298
G01 X15.4146 Y-14.9925
G01 X15.3810 Y-14.9535
G01 X15.3493 Y-14.9129
G01 X15.3196 Y-14.8708
G01 X15.2920 Y-14.8272
G01 X15.2666 Y-14.7824
G01 X15.2435 Y-14.7364
G01 X15.2226 Y-14.6893
G01 X15.2040 Y-14.6412
G01 X15.1879 Y-14.5923
G01 X15.1741 Y-14.5426
G01 X15.1628 Y-14.4923
G01 X15.1540 Y-14.4415
G01 X15.1477 Y-14.3904
G01 X15.1439 Y-14.3390
G01 X15.1427 Y-14.2875
G01 X15.1439 Y-14.2360
G01 X15.1477 Y-14.1846
G01 X15.1540 Y-14.1335
G01 X15.1628 Y-14.0827
G01 X15.1741 Y-14.0324
G01 X15.1879 Y-13.9827
G01 X15.2040 Y-13.9338
G01 X15.2226 Y-13.8857
G01 X15.2435 Y-13.8386
G01 X15.2666 Y-13.7926
G01 X15.2920 Y-13.7478
G01 X15.3196 Y-13.7042
G01 X15.3493 Y-13.6621
G01 X15.3810 Y-13.6215
G01 X15.4146 Y-13.5825
G01 X15.4502 Y-13.5452
G01 X15.4875 Y-13.5096
G01 X15.5265 Y-13.4760
G01 X15.5671 Y-13.4443
G01 X15.6092 Y-13.4146
G01 X15.6528 Y-13.3870
G01 X15.6976 Y-13.3616
G01 X15.7436 Y-13.3385
G01 X15.7907 Y-13.3176
G01 X15.8388 Y-13.2990
G01 X15.8877 Y-13.2829
G01 X15.9374 Y-13.2691
G01 X15.9877 Y-13.2578
G01 X16.0385 Y-13.2490
G01 X16.0896 Y-13.2427
G01 X16.1410 Y-13.2389
G01 X16.1925 Y-13.2377
G01 X16.2440 Y-13.2389
G01 X16.2954 Y-13.2427
G01 X16.3465 Y-13.2490
G01 X16.3973 Y-13.2578
G01 X16.4476 Y-13.2691
G01 X16.4973 Y-13.2829
G01 X16.5462 Y-13.2990
G01 X16.5943 Y-13.3176
G01 X16.6414 Y-13.3385
G01 X16.6874 Y-13.3616
G01 X16.7322 Y-13.3870
G01 X16.7758 Y-13.4146
G01 X16.8179 Y-13.4443
G01 X16.8585 Y-13.4760
G01 X16.8975 Y-13.5096
G01 X16.9348 Y-13.5452
G01 X16.9704 Y-13.5825
G01 X17.0040 Y-13.6215
G01 X17.0357 Y-13.6621
G01 X17.0654 Y-13.7042
G01 X17.0930 Y-13.7478
G01 X17.1184 Y-13.7926
G01 X17.1415 Y-13.8386
G01 X17.1624 Y-13.8857
G01 X17.1810 Y-13.9338
G01 X17.1971 Y-13.9827
G01 X17.2109 Y-14.0324
G01 X17.2222 Y-14.0827
G01 X17.2310 Y-14.1335
G01 X17.2373 Y-14.1846
G01 X17.2411 Y-14.2360
G00 X17.2411 Y-14.2360
G01 F70.00
G01 Z-0.8000
G01 F120.00
G01 X17.2423 Y-14.2875
G01 X17.2411 Y-14.3390
G01 X17.2373 Y-14.3904
G01 X17.2310 Y-14.4415
G01 X17.2222 Y-14.4923
G01 X17.2109 Y-14.5426
G01 X17.1971 Y-14.5923
G01 X17.1810 Y-14.6412
G01 X17.1624 Y-14.6893
G01 X17.1415 Y-14.7364
G01 X17.1184 Y-14.7824
G01 X17.0930 Y-14.8272
G01 X17.0654 Y-14.8708
G01 X17.0357 Y-14.9129
G01 X17.0040 Y-14.9535
G01 X16.9704 Y-14.9925
G01 X16.9348 Y-15.0298
G01 X16.8975 Y-15.0654
G01 X16.8585 Y-15.0990
G01 X16.8179 Y-15.1307
G01 X16.7758 Y-15.1604
G01 X16.7322 Y-15.1880
G01 X16.6874 Y-15.2134
G01 X16.6414 Y-15.2365
G01 X16.5943 Y-15.2574
G01 X16.5462 Y-15.2760
G01 X16.4973 Y-15.2921
G01 X16.4476 Y-15.3059
G01 X16.3973 Y-15.3172
G01 X16.3465 Y-15.3260
G01 X16.2954 Y-15.3323
G01 X16.2440 Y-15.3361
G01 X16.1925 Y-15.3373
G01 X16.1410 Y-15.3361
G01 X16.0896 Y-15.3323
G01 X16.0385 Y-15.3260
G01 X15.9877 Y-15.3172
G01 X15.9374 Y-15.3059
G01 X15.8877 Y-15.2921
G01 X15.8388 Y-15.2760
G01 X15.7907 Y-15.2574
G01 X15.7436 Y-15.2365
G01 X15.6976 Y-15.2134
G01 X15.6528 Y-15.1880
G01 X15.6092 Y-15.1604
G01 X15.5671 Y-15.1307
G01 X15.5265 Y-15.0990
G01 X15.4875 Y-15.0654
G01 X15.4502 Y-15.0298
G01 X15.4146 Y-14.9925
G01 X15.3810 Y-14.9535
G01 X15.3493 Y-14.9129
G01 X15.3196 Y-14.8708
G01 X15.2920 Y-14.8272
G01 X15.2666 Y-14.7824
G01 X15.2435 Y-14.7364
G01 X15.2226 Y-14.6893
G01 X15.2040 Y-14.6412
G01 X15.1879 Y-14.5923
G01 X15.1741 Y-14.5426
G01 X15.1628 Y-14.4923
G01 X15.1540 Y-14.4415
G01 X15.1477 Y-14.3904
G01 X15.1439 Y-14.3390
G01 X15.1427 Y-14.2875
G01 X15.1439 Y-14.2360
G01 X15.1477 Y-14.1846
G01 X15.1540 Y-14.1335
G01 X15.1628 Y-14.0827
G01 X15.1741 Y-14.0324
G01 X15.1879 Y-13.9827
G01 X15.2040 Y-13.9338
G01 X15.2226 Y-13.8857
G01 X15.2435 Y-13.8386
G01 X15.2666 Y-13.7926
G01 X15.2920 Y-13.7478
G01 X15.3196 Y-13.7042
G01 X15.3493 Y-13.6621
G01 X15.3810 Y-13.6215
G01 X15.4146 Y-13.5825
G01 X15.4502 Y-13.5452
G01 X15.4875 Y-13.5096
G01 X15.5265 Y-13.4760
G01 X15.5671 Y-13.4443
G01 X15.6092 Y-13.4146
G01 X15.6528 Y-13.3870
G01 X15.6976 Y-13.3616
G01 X15.7436 Y-13.3385
G01 X15.7907 Y-13.3176
G01 X15.8388 Y-13.2990
G01 X15.8877 Y-13.2829
G01 X15.9374 Y-13.2691
G01 X15.9877 Y-13.2578
G01 X16.0385 Y-13.2490
G01 X16.0896 Y-13.2427
G01 X16.1410 Y-13.2389
G01 X16.1925 Y-13.2377
G01 X16.2440 Y-13.2389
G01 X16.2954 Y-13.2427
G01 X16.3465 Y-13.2490
G01 X16.3973 Y-13.2578
G01 X16.4476 Y-13.2691
G01 X16.4973 Y-13.2829
G01 X16.5462 Y-13.2990
G01 X16.5943 Y-13.3176
G01 X16.6414 Y-13.3385
G01 X16.6874 Y-13.3616
G01 X16.7322 Y-13.3870
G01 X16.7758 Y-13.4146
G01 X16.8179 Y-13.4443
G01 X16.8585 Y-13.4760
G01 X16.8975 Y-13.5096
G01 X16.9348 Y-13.5452
G01 X16.9704 Y-13.5825
G01 X17.0040 Y-13.6215
G01 X17.0357 Y-13.6621
G01 X17.0654 Y-13.7042
G01 X17.0930 Y-13.7478
G01 X17.1184 Y-13.7926
G01 X17.1415 Y-13.8386
G01 X17.1624 Y-13.8857
G01 X17.1810 Y-13.9338
G01 X17.1971 Y-13.9827
G01 X17.2109 Y-14.0324
G01 X17.2222 Y-14.0827
G01 X17.2310 Y-14.1335
G01 X17.2373 Y-14.1846
G01 X17.2411 Y-14.2360
G00 X17.2411 Y-14.2360
G01 F70.00
G01 Z-0.9000
G01 F120.00
G01 X17.2423 Y-14.2875
G01 X17.2411 Y-14.3390
G01 X17.2373 Y-14.3904
G01 X17.2310 Y-14.4415
G01 X17.2222 Y-14.4923
G01 X17.2109 Y-14.5426
G01 X17.1971 Y-14.5923
G01 X17.1810 Y-14.6412
G01 X17.1624 Y-14.6893
G01 X17.1415 Y-14.7364
G01 X17.1184 Y-14.7824
G01 X17.0930 Y-14.8272
G01 X17.0654 Y-14.8708
G01 X17.0357 Y-14.9129
G01 X17.0040 Y-14.9535
G01 X16.9704 Y-14.9925
G01 X16.9348 Y-15.0298
G01 X16.8975 Y-15.0654
G01 X16.8585 Y-15.0990
G01 X16.8179 Y-15.1307
G01 X16.7758 Y-15.1604
G01 X16.7322 Y-15.1880
G01 X16.6874 Y-15.2134
G01 X16.6414 Y-15.2365
G01 X16.5943 Y-15.2574
G01 X16.5462 Y-15.2760
G01 X16.4973 Y-15.2921
G01 X16.4476 Y-15.3059
G01 X16.3973 Y-15.3172
G01 X16.3465 Y-15.3260
G01 X16.2954 Y-15.3323
G01 X16.2440 Y-15.3361
G01 X16.1925 Y-15.3373
G01 X16.1410 Y-15.3361
G01 X16.0896 Y-15.3323
G01 X16.0385 Y-15.3260
G01 X15.9877 Y-15.3172
G01 X15.9374 Y-15.3059
G01 X15.8877 Y-15.2921
G01 X15.8388 Y-15.2760
G01 X15.7907 Y-15.2574
G01 X15.7436 Y-15.2365
G01 X15.6976 Y-15.2134
G01 X15.6528 Y-15.1880
G01 X15.6092 Y-15.1604
G01 X15.5671 Y-15.1307
G01 X15.5265 Y-15.0990
G01 X15.4875 Y-15.0654
G01 X15.4502 Y-15.0298
G01 X15.4146 Y-14.9925
G01 X15.3810 Y-14.9535
G01 X15.3493 Y-14.9129
G01 X15.3196 Y-14.8708
G01 X15.2920 Y-14.8272
G01 X15.2666 Y-14.7824
G01 X15.2435 Y-14.7364
G01 X15.2226 Y-14.6893
G01 X15.2040 Y-14.6412
G01 X15.1879 Y-14.5923
G01 X15.1741 Y-14.5426
G01 X15.1628 Y-14.4923
G01 X15.1540 Y-14.4415
G01 X15.1477 Y-14.3904
G01 X15.1439 Y-14.3390
G01 X15.1427 Y-14.2875
G01 X15.1439 Y-14.2360
G01 X15.1477 Y-14.1846
G01 X15.1540 Y-14.1335
G01 X15.1628 Y-14.0827
G01 X15.1741 Y-14.0324
G01 X15.1879 Y-13.9827
G01 X15.2040 Y-13.9338
G01 X15.2226 Y-13.8857
G01 X15.2435 Y-13.8386
G01 X15.2666 Y-13.7926
G01 X15.2920 Y-13.7478
G01 X15.3196 Y-13.7042
G01 X15.3493 Y-13.6621
G01 X15.3810 Y-13.6215
G01 X15.4146 Y-13.5825
G01 X15.4502 Y-13.5452
G01 X15.4875 Y-13.5096
G01 X15.5265 Y-13.4760
G01 X15.5671 Y-13.4443
G01 X15.6092 Y-13.4146
G01 X15.6528 Y-13.3870
G01 X15.6976 Y-13.3616
G01 X15.7436 Y-13.3385
G01 X15.7907 Y-13.3176
G01 X15.8388 Y-13.2990
G01 X15.8877 Y-13.2829
G01 X15.9374 Y-13.2691
G01 X15.9877 Y-13.2578
G01 X16.0385 Y-13.2490
G01 X16.0896 Y-13.2427
G01 X16.1410 Y-13.2389
G01 X16.1925 Y-13.2377
G01 X16.2440 Y-13.2389
G01 X16.2954 Y-13.2427
G01 X16.3465 Y-13.2490
G01 X16.3973 Y-13.2578
G01 X16.4476 Y-13.2691
G01 X16.4973 Y-13.2829
G01 X16.5462 Y-13.2990
G01 X16.5943 Y-13.3176
G01 X16.6414 Y-13.3385
G01 X16.6874 Y-13.3616
G01 X16.7322 Y-13.3870
G01 X16.7758 Y-13.4146
G01 X16.8179 Y-13.4443
G01 X16.8585 Y-13.4760
G01 X16.8975 Y-13.5096
G01 X16.9348 Y-13.5452
G01 X16.9704 Y-13.5825
G01 X17.0040 Y-13.6215
G01 X17.0357 Y-13.6621
G01 X17.0654 Y-13.7042
G01 X17.0930 Y-13.7478
G01 X17.1184 Y-13.7926
G01 X17.1415 Y-13.8386
G01 X17.1624 Y-13.8857
G01 X17.1810 Y-13.9338
G01 X17.1971 Y-13.9827
G01 X17.2109 Y-14.0324
G01 X17.2222 Y-14.0827
G01 X17.2310 Y-14.1335
G01 X17.2373 Y-14.1846
G01 X17.2411 Y-14.2360
G00 X17.2411 Y-14.2360
G01 F70.00
G01 Z-1.0000
G01 F120.00
G01 X17.2423 Y-14.2875
G01 X17.2411 Y-14.3390
G01 X17.2373 Y-14.3904
G01 X17.2310 Y-14.4415
G01 X17.2222 Y-14.4923
G01 X17.2109 Y-14.5426
G01 X17.1971 Y-14.5923
G01 X17.1810 Y-14.6412
G01 X17.1624 Y-14.6893
G01 X17.1415 Y-14.7364
G01 X17.1184 Y-14.7824
G01 X17.0930 Y-14.8272
G01 X17.0654 Y-14.8708
G01 X17.0357 Y-14.9129
G01 X17.0040 Y-14.9535
G01 X16.9704 Y-14.9925
G01 X16.9348 Y-15.0298
G01 X16.8975 Y-15.0654
G01 X16.8585 Y-15.0990
G01 X16.8179 Y-15.1307
G01 X16.7758 Y-15.1604
G01 X16.7322 Y-15.1880
G01 X16.6874 Y-15.2134
G01 X16.6414 Y-15.2365
G01 X16.5943 Y-15.2574
G01 X16.5462 Y-15.2760
G01 X16.4973 Y-15.2921
G01 X16.4476 Y-15.3059
G01 X16.3973 Y-15.3172
G01 X16.3465 Y-15.3260
G01 X16.2954 Y-15.3323
G01 X16.2440 Y-15.3361
G01 X16.1925 Y-15.3373
G01 X16.1410 Y-15.3361
G01 X16.0896 Y-15.3323
G01 X16.0385 Y-15.3260
G01 X15.9877 Y-15.3172
G01 X15.9374 Y-15.3059
G01 X15.8877 Y-15.2921
G01 X15.8388 Y-15.2760
G01 X15.7907 Y-15.2574
G01 X15.7436 Y-15.2365
G01 X15.6976 Y-15.2134
G01 X15.6528 Y-15.1880
G01 X15.6092 Y-15.1604
G01 X15.5671 Y-15.1307
G01 X15.5265 Y-15.0990
G01 X15.4875 Y-15.0654
G01 X15.4502 Y-15.0298
G01 X15.4146 Y-14.9925
G01 X15.3810 Y-14.9535
G01 X15.3493 Y-14.9129
G01 X15.3196 Y-14.8708
G01 X15.2920 Y-14.8272
G01 X15.2666 Y-14.7824
G01 X15.2435 Y-14.7364
G01 X15.2226 Y-14.6893
G01 X15.2040 Y-14.6412
G01 X15.1879 Y-14.5923
G01 X15.1741 Y-14.5426
G01 X15.1628 Y-14.4923
G01 X15.1540 Y-14.4415
G01 X15.1477 Y-14.3904
G01 X15.1439 Y-14.3390
G01 X15.1427 Y-14.2875
G01 X15.1439 Y-14.2360
G01 X15.1477 Y-14.1846
G01 X15.1540 Y-14.1335
G01 X15.1628 Y-14.0827
G01 X15.1741 Y-14.0324
G01 X15.1879 Y-13.9827
G01 X15.2040 Y-13.9338
G01 X15.2226 Y-13.8857
G01 X15.2435 Y-13.8386
G01 X15.2666 Y-13.7926
G01 X15.2920 Y-13.7478
G01 X15.3196 Y-13.7042
G01 X15.3493 Y-13.6621
G01 X15.3810 Y-13.6215
G01 X15.4146 Y-13.5825
G01 X15.4502 Y-13.5452
G01 X15.4875 Y-13.5096
G01 X15.5265 Y-13.4760
G01 X15.5671 Y-13.4443
G01 X15.6092 Y-13.4146
G01 X15.6528 Y-13.3870
G01 X15.6976 Y-13.3616
G01 X15.7436 Y-13.3385
G01 X15.7907 Y-13.3176
G01 X15.8388 Y-13.2990
G01 X15.8877 Y-13.2829
G01 X15.9374 Y-13.2691
G01 X15.9877 Y-13.2578
G01 X16.0385 Y-13.2490
G01 X16.0896 Y-13.2427
G01 X16.1410 Y-13.2389
G01 X16.1925 Y-13.2377
G01 X16.2440 Y-13.2389
G01 X16.2954 Y-13.2427
G01 X16.3465 Y-13.2490
G01 X16.3973 Y-13.2578
G01 X16.4476 Y-13.2691
G01 X16.4973 Y-13.2829
G01 X16.5462 Y-13.2990
G01 X16.5943 Y-13.3176
G01 X16.6414 Y-13.3385
G01 X16.6874 Y-13.3616
G01 X16.7322 Y-13.3870
G01 X16.7758 Y-13.4146
G01 X16.8179 Y-13.4443
G01 X16.8585 Y-13.4760
G01 X16.8975 Y-13.5096
G01 X16.9348 Y-13.5452
G01 X16.9704 Y-13.5825
G01 X17.0040 Y-13.6215
G01 X17.0357 Y-13.6621
G01 X17.0654 Y-13.7042
G01 X17.0930 Y-13.7478
G01 X17.1184 Y-13.7926
G01 X17.1415 Y-13.8386
G01 X17.1624 Y-13.8857
G01 X17.1810 Y-13.9338
G01 X17.1971 Y-13.9827
G01 X17.2109 Y-14.0324
G01 X17.2222 Y-14.0827
G01 X17.2310 Y-14.1335
G01 X17.2373 Y-14.1846
G01 X17.2411 Y-14.2360
G00 X17.2411 Y-14.2360
G01 F70.00
G01 Z-1.1000
G01 F120.00
G01 X17.2423 Y-14.2875
G01 X17.2411 Y-14.3390
G01 X17.2373 Y-14.3904
G01 X17.2310 Y-14.4415
G01 X17.2222 Y-14.4923
G01 X17.2109 Y-14.5426
G01 X17.1971 Y-14.5923
G01 X17.1810 Y-14.6412
G01 X17.1624 Y-14.6893
G01 X17.1415 Y-14.7364
G01 X17.1184 Y-14.7824
G01 X17.0930 Y-14.8272
G01 X17.0654 Y-14.8708
G01 X17.0357 Y-14.9129
G01 X17.0040 Y-14.9535
G01 X16.9704 Y-14.9925
G01 X16.9348 Y-15.0298
G01 X16.8975 Y-15.0654
G01 X16.8585 Y-15.0990
G01 X16.8179 Y-15.1307
G01 X16.7758 Y-15.1604
G01 X16.7322 Y-15.1880
G01 X16.6874 Y-15.2134
G01 X16.6414 Y-15.2365
G01 X16.5943 Y-15.2574
G01 X16.5462 Y-15.2760
G01 X16.4973 Y-15.2921
G01 X16.4476 Y-15.3059
G01 X16.3973 Y-15.3172
G01 X16.3465 Y-15.3260
G01 X16.2954 Y-15.3323
G01 X16.2440 Y-15.3361
G01 X16.1925 Y-15.3373
G01 X16.1410 Y-15.3361
G01 X16.0896 Y-15.3323
G01 X16.0385 Y-15.3260
G01 X15.9877 Y-15.3172
G01 X15.9374 Y-15.3059
G01 X15.8877 Y-15.2921
G01 X15.8388 Y-15.2760
G01 X15.7907 Y-15.2574
G01 X15.7436 Y-15.2365
G01 X15.6976 Y-15.2134
G01 X15.6528 Y-15.1880
G01 X15.6092 Y-15.1604
G01 X15.5671 Y-15.1307
G01 X15.5265 Y-15.0990
G01 X15.4875 Y-15.0654
G01 X15.4502 Y-15.0298
G01 X15.4146 Y-14.9925
G01 X15.3810 Y-14.9535
G01 X15.3493 Y-14.9129
G01 X15.3196 Y-14.8708
G01 X15.2920 Y-14.8272
G01 X15.2666 Y-14.7824
G01 X15.2435 Y-14.7364
G01 X15.2226 Y-14.6893
G01 X15.2040 Y-14.6412
G01 X15.1879 Y-14.5923
G01 X15.1741 Y-14.5426
G01 X15.1628 Y-14.4923
G01 X15.1540 Y-14.4415
G01 X15.1477 Y-14.3904
G01 X15.1439 Y-14.3390
G01 X15.1427 Y-14.2875
G01 X15.1439 Y-14.2360
G01 X15.1477 Y-14.1846
G01 X15.1540 Y-14.1335
G01 X15.1628 Y-14.0827
G01 X15.1741 Y-14.0324
G01 X15.1879 Y-13.9827
G01 X15.2040 Y-13.9338
G01 X15.2226 Y-13.8857
G01 X15.2435 Y-13.8386
G01 X15.2666 Y-13.7926
G01 X15.2920 Y-13.7478
G01 X15.3196 Y-13.7042
G01 X15.3493 Y-13.6621
G01 X15.3810 Y-13.6215
G01 X15.4146 Y-13.5825
G01 X15.4502 Y-13.5452
G01 X15.4875 Y-13.5096
G01 X15.5265 Y-13.4760
G01 X15.5671 Y-13.4443
G01 X15.6092 Y-13.4146
G01 X15.6528 Y-13.3870
G01 X15.6976 Y-13.3616
G01 X15.7436 Y-13.3385
G01 X15.7907 Y-13.3176
G01 X15.8388 Y-13.2990
G01 X15.8877 Y-13.2829
G01 X15.9374 Y-13.2691
G01 X15.9877 Y-13.2578
G01 X16.0385 Y-13.2490
G01 X16.0896 Y-13.2427
G01 X16.1410 Y-13.2389
G01 X16.1925 Y-13.2377
G01 X16.2440 Y-13.2389
G01 X16.2954 Y-13.2427
G01 X16.3465 Y-13.2490
G01 X16.3973 Y-13.2578
G01 X16.4476 Y-13.2691
G01 X16.4973 Y-13.2829
G01 X16.5462 Y-13.2990
G01 X16.5943 Y-13.3176
G01 X16.6414 Y-13.3385
G01 X16.6874 Y-13.3616
G01 X16.7322 Y-13.3870
G01 X16.7758 Y-13.4146
G01 X16.8179 Y-13.4443
G01 X16.8585 Y-13.4760
G01 X16.8975 Y-13.5096
G01 X16.9348 Y-13.5452
G01 X16.9704 Y-13.5825
G01 X17.0040 Y-13.6215
G01 X17.0357 Y-13.6621
G01 X17.0654 Y-13.7042
G01 X17.0930 Y-13.7478
G01 X17.1184 Y-13.7926
G01 X17.1415 Y-13.8386
G01 X17.1624 Y-13.8857
G01 X17.1810 Y-13.9338
G01 X17.1971 Y-13.9827
G01 X17.2109 Y-14.0324
G01 X17.2222 Y-14.0827
G01 X17.2310 Y-14.1335
G01 X17.2373 Y-14.1846
G01 X17.2411 Y-14.2360
G00 X17.2411 Y-14.2360
G01 F70.00
G01 Z-1.2000
G01 F120.00
G01 X17.2423 Y-14.2875
G01 X17.2411 Y-14.3390
G01 X17.2373 Y-14.3904
G01 X17.2310 Y-14.4415
G01 X17.2222 Y-14.4923
G01 X17.2109 Y-14.5426
G01 X17.1971 Y-14.5923
G01 X17.1810 Y-14.6412
G01 X17.1624 Y-14.6893
G01 X17.1415 Y-14.7364
G01 X17.1184 Y-14.7824
G01 X17.0930 Y-14.8272
G01 X17.0654 Y-14.8708
G01 X17.0357 Y-14.9129
G01 X17.0040 Y-14.9535
G01 X16.9704 Y-14.9925
G01 X16.9348 Y-15.0298
G01 X16.8975 Y-15.0654
G01 X16.8585 Y-15.0990
G01 X16.8179 Y-15.1307
G01 X16.7758 Y-15.1604
G01 X16.7322 Y-15.1880
G01 X16.6874 Y-15.2134
G01 X16.6414 Y-15.2365
G01 X16.5943 Y-15.2574
G01 X16.5462 Y-15.2760
G01 X16.4973 Y-15.2921
G01 X16.4476 Y-15.3059
G01 X16.3973 Y-15.3172
G01 X16.3465 Y-15.3260
G01 X16.2954 Y-15.3323
G01 X16.2440 Y-15.3361
G01 X16.1925 Y-15.3373
G01 X16.1410 Y-15.3361
G01 X16.0896 Y-15.3323
G01 X16.0385 Y-15.3260
G01 X15.9877 Y-15.3172
G01 X15.9374 Y-15.3059
G01 X15.8877 Y-15.2921
G01 X15.8388 Y-15.2760
G01 X15.7907 Y-15.2574
G01 X15.7436 Y-15.2365
G01 X15.6976 Y-15.2134
G01 X15.6528 Y-15.1880
G01 X15.6092 Y-15.1604
G01 X15.5671 Y-15.1307
G01 X15.5265 Y-15.0990
G01 X15.4875 Y-15.0654
G01 X15.4502 Y-15.0298
G01 X15.4146 Y-14.9925
G01 X15.3810 Y-14.9535
G01 X15.3493 Y-14.9129
G01 X15.3196 Y-14.8708
G01 X15.2920 Y-14.8272
G01 X15.2666 Y-14.7824
G01 X15.2435 Y-14.7364
G01 X15.2226 Y-14.6893
G01 X15.2040 Y-14.6412
G01 X15.1879 Y-14.5923
G01 X15.1741 Y-14.5426
G01 X15.1628 Y-14.4923
G01 X15.1540 Y-14.4415
G01 X15.1477 Y-14.3904
G01 X15.1439 Y-14.3390
G01 X15.1427 Y-14.2875
G01 X15.1439 Y-14.2360
G01 X15.1477 Y-14.1846
G01 X15.1540 Y-14.1335
G01 X15.1628 Y-14.0827
G01 X15.1741 Y-14.0324
G01 X15.1879 Y-13.9827
G01 X15.2040 Y-13.9338
G01 X15.2226 Y-13.8857
G01 X15.2435 Y-13.8386
G01 X15.2666 Y-13.7926
G01 X15.2920 Y-13.7478
G01 X15.3196 Y-13.7042
G01 X15.3493 Y-13.6621
G01 X15.3810 Y-13.6215
G01 X15.4146 Y-13.5825
G01 X15.4502 Y-13.5452
G01 X15.4875 Y-13.5096
G01 X15.5265 Y-13.4760
G01 X15.5671 Y-13.4443
G01 X15.6092 Y-13.4146
G01 X15.6528 Y-13.3870
G01 X15.6976 Y-13.3616
G01 X15.7436 Y-13.3385
G01 X15.7907 Y-13.3176
G01 X15.8388 Y-13.2990
G01 X15.8877 Y-13.2829
G01 X15.9374 Y-13.2691
G01 X15.9877 Y-13.2578
G01 X16.0385 Y-13.2490
G01 X16.0896 Y-13.2427
G01 X16.1410 Y-13.2389
G01 X16.1925 Y-13.2377
G01 X16.2440 Y-13.2389
G01 X16.2954 Y-13.2427
G01 X16.3465 Y-13.2490
G01 X16.3973 Y-13.2578
G01 X16.4476 Y-13.2691
G01 X16.4973 Y-13.2829
G01 X16.5462 Y-13.2990
G01 X16.5943 Y-13.3176
G01 X16.6414 Y-13.3385
G01 X16.6874 Y-13.3616
G01 X16.7322 Y-13.3870
G01 X16.7758 Y-13.4146
G01 X16.8179 Y-13.4443
G01 X16.8585 Y-13.4760
G01 X16.8975 Y-13.5096
G01 X16.9348 Y-13.5452
G01 X16.9704 Y-13.5825
G01 X17.0040 Y-13.6215
G01 X17.0357 Y-13.6621
G01 X17.0654 Y-13.7042
G01 X17.0930 Y-13.7478
G01 X17.1184 Y-13.7926
G01 X17.1415 Y-13.8386
G01 X17.1624 Y-13.8857
G01 X17.1810 Y-13.9338
G01 X17.1971 Y-13.9827
G01 X17.2109 Y-14.0324
G01 X17.2222 Y-14.0827
G01 X17.2310 Y-14.1335
G01 X17.2373 Y-14.1846
G01 X17.2411 Y-14.2360
G00 X17.2411 Y-14.2360
G01 F70.00
G01 Z-1.3000
G01 F120.00
G01 X17.2423 Y-14.2875
G01 X17.2411 Y-14.3390
G01 X17.2373 Y-14.3904
G01 X17.2310 Y-14.4415
G01 X17.2222 Y-14.4923
G01 X17.2109 Y-14.5426
G01 X17.1971 Y-14.5923
G01 X17.1810 Y-14.6412
G01 X17.1624 Y-14.6893
G01 X17.1415 Y-14.7364
G01 X17.1184 Y-14.7824
G01 X17.0930 Y-14.8272
G01 X17.0654 Y-14.8708
G01 X17.0357 Y-14.9129
G01 X17.0040 Y-14.9535
G01 X16.9704 Y-14.9925
G01 X16.9348 Y-15.0298
G01 X16.8975 Y-15.0654
G01 X16.8585 Y-15.0990
G01 X16.8179 Y-15.1307
G01 X16.7758 Y-15.1604
G01 X16.7322 Y-15.1880
G01 X16.6874 Y-15.2134
G01 X16.6414 Y-15.2365
G01 X16.5943 Y-15.2574
G01 X16.5462 Y-15.2760
G01 X16.4973 Y-15.2921
G01 X16.4476 Y-15.3059
G01 X16.3973 Y-15.3172
G01 X16.3465 Y-15.3260
G01 X16.2954 Y-15.3323
G01 X16.2440 Y-15.3361
G01 X16.1925 Y-15.3373
G01 X16.1410 Y-15.3361
G01 X16.0896 Y-15.3323
G01 X16.0385 Y-15.3260
G01 X15.9877 Y-15.3172
G01 X15.9374 Y-15.3059
G01 X15.8877 Y-15.2921
G01 X15.8388 Y-15.2760
G01 X15.7907 Y-15.2574
G01 X15.7436 Y-15.2365
G01 X15.6976 Y-15.2134
G01 X15.6528 Y-15.1880
G01 X15.6092 Y-15.1604
G01 X15.5671 Y-15.1307
G01 X15.5265 Y-15.0990
G01 X15.4875 Y-15.0654
G01 X15.4502 Y-15.0298
G01 X15.4146 Y-14.9925
G01 X15.3810 Y-14.9535
G01 X15.3493 Y-14.9129
G01 X15.3196 Y-14.8708
G01 X15.2920 Y-14.8272
G01 X15.2666 Y-14.7824
G01 X15.2435 Y-14.7364
G01 X15.2226 Y-14.6893
G01 X15.2040 Y-14.6412
G01 X15.1879 Y-14.5923
G01 X15.1741 Y-14.5426
G01 X15.1628 Y-14.4923
G01 X15.1540 Y-14.4415
G01 X15.1477 Y-14.3904
G01 X15.1439 Y-14.3390
G01 X15.1427 Y-14.2875
G01 X15.1439 Y-14.2360
G01 X15.1477 Y-14.1846
G01 X15.1540 Y-14.1335
G01 X15.1628 Y-14.0827
G01 X15.1741 Y-14.0324
G01 X15.1879 Y-13.9827
G01 X15.2040 Y-13.9338
G01 X15.2226 Y-13.8857
G01 X15.2435 Y-13.8386
G01 X15.2666 Y-13.7926
G01 X15.2920 Y-13.7478
G01 X15.3196 Y-13.7042
G01 X15.3493 Y-13.6621
G01 X15.3810 Y-13.6215
G01 X15.4146 Y-13.5825
G01 X15.4502 Y-13.5452
G01 X15.4875 Y-13.5096
G01 X15.5265 Y-13.4760
G01 X15.5671 Y-13.4443
G01 X15.6092 Y-13.4146
G01 X15.6528 Y-13.3870
G01 X15.6976 Y-13.3616
G01 X15.7436 Y-13.3385
G01 X15.7907 Y-13.3176
G01 X15.8388 Y-13.2990
G01 X15.8877 Y-13.2829
G01 X15.9374 Y-13.2691
G01 X15.9877 Y-13.2578
G01 X16.0385 Y-13.2490
G01 X16.0896 Y-13.2427
G01 X16.1410 Y-13.2389
G01 X16.1925 Y-13.2377
G01 X16.2440 Y-13.2389
G01 X16.2954 Y-13.2427
G01 X16.3465 Y-13.2490
G01 X16.3973 Y-13.2578
G01 X16.4476 Y-13.2691
G01 X16.4973 Y-13.2829
G01 X16.5462 Y-13.2990
G01 X16.5943 Y-13.3176
G01 X16.6414 Y-13.3385
G01 X16.6874 Y-13.3616
G01 X16.7322 Y-13.3870
G01 X16.7758 Y-13.4146
G01 X16.8179 Y-13.4443
G01 X16.8585 Y-13.4760
G01 X16.8975 Y-13.5096
G01 X16.9348 Y-13.5452
G01 X16.9704 Y-13.5825
G01 X17.0040 Y-13.6215
G01 X17.0357 Y-13.6621
G01 X17.0654 Y-13.7042
G01 X17.0930 Y-13.7478
G01 X17.1184 Y-13.7926
G01 X17.1415 Y-13.8386
G01 X17.1624 Y-13.8857
G01 X17.1810 Y-13.9338
G01 X17.1971 Y-13.9827
G01 X17.2109 Y-14.0324
G01 X17.2222 Y-14.0827
G01 X17.2310 Y-14.1335
G01 X17.2373 Y-14.1846
G01 X17.2411 Y-14.2360
G00 X17.2411 Y-14.2360
G01 F70.00
G01 Z-1.4000
G01 F120.00
G01 X17.2423 Y-14.2875
G01 X17.2411 Y-14.3390
G01 X17.2373 Y-14.3904
G01 X17.2310 Y-14.4415
G01 X17.2222 Y-14.4923
G01 X17.2109 Y-14.5426
G01 X17.1971 Y-14.5923
G01 X17.1810 Y-14.6412
G01 X17.1624 Y-14.6893
G01 X17.1415 Y-14.7364
G01 X17.1184 Y-14.7824
G01 X17.0930 Y-14.8272
G01 X17.0654 Y-14.8708
G01 X17.0357 Y-14.9129
G01 X17.0040 Y-14.9535
G01 X16.9704 Y-14.9925
G01 X16.9348 Y-15.0298
G01 X16.8975 Y-15.0654
G01 X16.8585 Y-15.0990
G01 X16.8179 Y-15.1307
G01 X16.7758 Y-15.1604
G01 X16.7322 Y-15.1880
G01 X16.6874 Y-15.2134
G01 X16.6414 Y-15.2365
G01 X16.5943 Y-15.2574
G01 X16.5462 Y-15.2760
G01 X16.4973 Y-15.2921
G01 X16.4476 Y-15.3059
G01 X16.3973 Y-15.3172
G01 X16.3465 Y-15.3260
G01 X16.2954 Y-15.3323
G01 X16.2440 Y-15.3361
G01 X16.1925 Y-15.3373
G01 X16.1410 Y-15.3361
G01 X16.0896 Y-15.3323
G01 X16.0385 Y-15.3260
G01 X15.9877 Y-15.3172
G01 X15.9374 Y-15.3059
G01 X15.8877 Y-15.2921
G01 X15.8388 Y-15.2760
G01 X15.7907 Y-15.2574
G01 X15.7436 Y-15.2365
G01 X15.6976 Y-15.2134
G01 X15.6528 Y-15.1880
G01 X15.6092 Y-15.1604
G01 X15.5671 Y-15.1307
G01 X15.5265 Y-15.0990
G01 X15.4875 Y-15.0654
G01 X15.4502 Y-15.0298
G01 X15.4146 Y-14.9925
G01 X15.3810 Y-14.9535
G01 X15.3493 Y-14.9129
G01 X15.3196 Y-14.8708
G01 X15.2920 Y-14.8272
G01 X15.2666 Y-14.7824
G01 X15.2435 Y-14.7364
G01 X15.2226 Y-14.6893
G01 X15.2040 Y-14.6412
G01 X15.1879 Y-14.5923
G01 X15.1741 Y-14.5426
G01 X15.1628 Y-14.4923
G01 X15.1540 Y-14.4415
G01 X15.1477 Y-14.3904
G01 X15.1439 Y-14.3390
G01 X15.1427 Y-14.2875
G01 X15.1439 Y-14.2360
G01 X15.1477 Y-14.1846
G01 X15.1540 Y-14.1335
G01 X15.1628 Y-14.0827
G01 X15.1741 Y-14.0324
G01 X15.1879 Y-13.9827
G01 X15.2040 Y-13.9338
G01 X15.2226 Y-13.8857
G01 X15.2435 Y-13.8386
G01 X15.2666 Y-13.7926
G01 X15.2920 Y-13.7478
G01 X15.3196 Y-13.7042
G01 X15.3493 Y-13.6621
G01 X15.3810 Y-13.6215
G01 X15.4146 Y-13.5825
G01 X15.4502 Y-13.5452
G01 X15.4875 Y-13.5096
G01 X15.5265 Y-13.4760
G01 X15.5671 Y-13.4443
G01 X15.6092 Y-13.4146
G01 X15.6528 Y-13.3870
G01 X15.6976 Y-13.3616
G01 X15.7436 Y-13.3385
G01 X15.7907 Y-13.3176
G01 X15.8388 Y-13.2990
G01 X15.8877 Y-13.2829
G01 X15.9374 Y-13.2691
G01 X15.9877 Y-13.2578
G01 X16.0385 Y-13.2490
G01 X16.0896 Y-13.2427
G01 X16.1410 Y-13.2389
G01 X16.1925 Y-13.2377
G01 X16.2440 Y-13.2389
G01 X16.2954 Y-13.2427
G01 X16.3465 Y-13.2490
G01 X16.3973 Y-13.2578
G01 X16.4476 Y-13.2691
G01 X16.4973 Y-13.2829
G01 X16.5462 Y-13.2990
G01 X16.5943 Y-13.3176
G01 X16.6414 Y-13.3385
G01 X16.6874 Y-13.3616
G01 X16.7322 Y-13.3870
G01 X16.7758 Y-13.4146
G01 X16.8179 Y-13.4443
G01 X16.8585 Y-13.4760
G01 X16.8975 Y-13.5096
G01 X16.9348 Y-13.5452
G01 X16.9704 Y-13.5825
G01 X17.0040 Y-13.6215
G01 X17.0357 Y-13.6621
G01 X17.0654 Y-13.7042
G01 X17.0930 Y-13.7478
G01 X17.1184 Y-13.7926
G01 X17.1415 Y-13.8386
G01 X17.1624 Y-13.8857
G01 X17.1810 Y-13.9338
G01 X17.1971 Y-13.9827
G01 X17.2109 Y-14.0324
G01 X17.2222 Y-14.0827
G01 X17.2310 Y-14.1335
G01 X17.2373 Y-14.1846
G01 X17.2411 Y-14.2360
G00 X17.2411 Y-14.2360
G01 F70.00
G01 Z-1.5000
G01 F120.00
G01 X17.2423 Y-14.2875
G01 X17.2411 Y-14.3390
G01 X17.2373 Y-14.3904
G01 X17.2310 Y-14.4415
G01 X17.2222 Y-14.4923
G01 X17.2109 Y-14.5426
G01 X17.1971 Y-14.5923
G01 X17.1810 Y-14.6412
G01 X17.1624 Y-14.6893
G01 X17.1415 Y-14.7364
G01 X17.1184 Y-14.7824
G01 X17.0930 Y-14.8272
G01 X17.0654 Y-14.8708
G01 X17.0357 Y-14.9129
G01 X17.0040 Y-14.9535
G01 X16.9704 Y-14.9925
G01 X16.9348 Y-15.0298
G01 X16.8975 Y-15.0654
G01 X16.8585 Y-15.0990
G01 X16.8179 Y-15.1307
G01 X16.7758 Y-15.1604
G01 X16.7322 Y-15.1880
G01 X16.6874 Y-15.2134
G01 X16.6414 Y-15.2365
G01 X16.5943 Y-15.2574
G01 X16.5462 Y-15.2760
G01 X16.4973 Y-15.2921
G01 X16.4476 Y-15.3059
G01 X16.3973 Y-15.3172
G01 X16.3465 Y-15.3260
G01 X16.2954 Y-15.3323
G01 X16.2440 Y-15.3361
G01 X16.1925 Y-15.3373
G01 X16.1410 Y-15.3361
G01 X16.0896 Y-15.3323
G01 X16.0385 Y-15.3260
G01 X15.9877 Y-15.3172
G01 X15.9374 Y-15.3059
G01 X15.8877 Y-15.2921
G01 X15.8388 Y-15.2760
G01 X15.7907 Y-15.2574
G01 X15.7436 Y-15.2365
G01 X15.6976 Y-15.2134
G01 X15.6528 Y-15.1880
G01 X15.6092 Y-15.1604
G01 X15.5671 Y-15.1307
G01 X15.5265 Y-15.0990
G01 X15.4875 Y-15.0654
G01 X15.4502 Y-15.0298
G01 X15.4146 Y-14.9925
G01 X15.3810 Y-14.9535
G01 X15.3493 Y-14.9129
G01 X15.3196 Y-14.8708
G01 X15.2920 Y-14.8272
G01 X15.2666 Y-14.7824
G01 X15.2435 Y-14.7364
G01 X15.2226 Y-14.6893
G01 X15.2040 Y-14.6412
G01 X15.1879 Y-14.5923
G01 X15.1741 Y-14.5426
G01 X15.1628 Y-14.4923
G01 X15.1540 Y-14.4415
G01 X15.1477 Y-14.3904
G01 X15.1439 Y-14.3390
G01 X15.1427 Y-14.2875
G01 X15.1439 Y-14.2360
G01 X15.1477 Y-14.1846
G01 X15.1540 Y-14.1335
G01 X15.1628 Y-14.0827
G01 X15.1741 Y-14.0324
G01 X15.1879 Y-13.9827
G01 X15.2040 Y-13.9338
G01 X15.2226 Y-13.8857
G01 X15.2435 Y-13.8386
G01 X15.2666 Y-13.7926
G01 X15.2920 Y-13.7478
G01 X15.3196 Y-13.7042
G01 X15.3493 Y-13.6621
G01 X15.3810 Y-13.6215
G01 X15.4146 Y-13.5825
G01 X15.4502 Y-13.5452
G01 X15.4875 Y-13.5096
G01 X15.5265 Y-13.4760
G01 X15.5671 Y-13.4443
G01 X15.6092 Y-13.4146
G01 X15.6528 Y-13.3870
G01 X15.6976 Y-13.3616
G01 X15.7436 Y-13.3385
G01 X15.7907 Y-13.3176
G01 X15.8388 Y-13.2990
G01 X15.8877 Y-13.2829
G01 X15.9374 Y-13.2691
G01 X15.9877 Y-13.2578
G01 X16.0385 Y-13.2490
G01 X16.0896 Y-13.2427
G01 X16.1410 Y-13.2389
G01 X16.1925 Y-13.2377
G01 X16.2440 Y-13.2389
G01 X16.2954 Y-13.2427
G01 X16.3465 Y-13.2490
G01 X16.3973 Y-13.2578
G01 X16.4476 Y-13.2691
G01 X16.4973 Y-13.2829
G01 X16.5462 Y-13.2990
G01 X16.5943 Y-13.3176
G01 X16.6414 Y-13.3385
G01 X16.6874 Y-13.3616
G01 X16.7322 Y-13.3870
G01 X16.7758 Y-13.4146
G01 X16.8179 Y-13.4443
G01 X16.8585 Y-13.4760
G01 X16.8975 Y-13.5096
G01 X16.9348 Y-13.5452
G01 X16.9704 Y-13.5825
G01 X17.0040 Y-13.6215
G01 X17.0357 Y-13.6621
G01 X17.0654 Y-13.7042
G01 X17.0930 Y-13.7478
G01 X17.1184 Y-13.7926
G01 X17.1415 Y-13.8386
G01 X17.1624 Y-13.8857
G01 X17.1810 Y-13.9338
G01 X17.1971 Y-13.9827
G01 X17.2109 Y-14.0324
G01 X17.2222 Y-14.0827
G01 X17.2310 Y-14.1335
G01 X17.2373 Y-14.1846
G01 X17.2411 Y-14.2360
G00 X17.2411 Y-14.2360
G01 F70.00
G01 Z-1.6000
G01 F120.00
G01 X17.2423 Y-14.2875
G01 X17.2411 Y-14.3390
G01 X17.2373 Y-14.3904
G01 X17.2310 Y-14.4415
G01 X17.2222 Y-14.4923
G01 X17.2109 Y-14.5426
G01 X17.1971 Y-14.5923
G01 X17.1810 Y-14.6412
G01 X17.1624 Y-14.6893
G01 X17.1415 Y-14.7364
G01 X17.1184 Y-14.7824
G01 X17.0930 Y-14.8272
G01 X17.0654 Y-14.8708
G01 X17.0357 Y-14.9129
G01 X17.0040 Y-14.9535
G01 X16.9704 Y-14.9925
G01 X16.9348 Y-15.0298
G01 X16.8975 Y-15.0654
G01 X16.8585 Y-15.0990
G01 X16.8179 Y-15.1307
G01 X16.7758 Y-15.1604
G01 X16.7322 Y-15.1880
G01 X16.6874 Y-15.2134
G01 X16.6414 Y-15.2365
G01 X16.5943 Y-15.2574
G01 X16.5462 Y-15.2760
G01 X16.4973 Y-15.2921
G01 X16.4476 Y-15.3059
G01 X16.3973 Y-15.3172
G01 X16.3465 Y-15.3260
G01 X16.2954 Y-15.3323
G01 X16.2440 Y-15.3361
G01 X16.1925 Y-15.3373
G01 X16.1410 Y-15.3361
G01 X16.0896 Y-15.3323
G01 X16.0385 Y-15.3260
G01 X15.9877 Y-15.3172
G01 X15.9374 Y-15.3059
G01 X15.8877 Y-15.2921
G01 X15.8388 Y-15.2760
G01 X15.7907 Y-15.2574
G01 X15.7436 Y-15.2365
G01 X15.6976 Y-15.2134
G01 X15.6528 Y-15.1880
G01 X15.6092 Y-15.1604
G01 X15.5671 Y-15.1307
G01 X15.5265 Y-15.0990
G01 X15.4875 Y-15.0654
G01 X15.4502 Y-15.0298
G01 X15.4146 Y-14.9925
G01 X15.3810 Y-14.9535
G01 X15.3493 Y-14.9129
G01 X15.3196 Y-14.8708
G01 X15.2920 Y-14.8272
G01 X15.2666 Y-14.7824
G01 X15.2435 Y-14.7364
G01 X15.2226 Y-14.6893
G01 X15.2040 Y-14.6412
G01 X15.1879 Y-14.5923
G01 X15.1741 Y-14.5426
G01 X15.1628 Y-14.4923
G01 X15.1540 Y-14.4415
G01 X15.1477 Y-14.3904
G01 X15.1439 Y-14.3390
G01 X15.1427 Y-14.2875
G01 X15.1439 Y-14.2360
G01 X15.1477 Y-14.1846
G01 X15.1540 Y-14.1335
G01 X15.1628 Y-14.0827
G01 X15.1741 Y-14.0324
G01 X15.1879 Y-13.9827
G01 X15.2040 Y-13.9338
G01 X15.2226 Y-13.8857
G01 X15.2435 Y-13.8386
G01 X15.2666 Y-13.7926
G01 X15.2920 Y-13.7478
G01 X15.3196 Y-13.7042
G01 X15.3493 Y-13.6621
G01 X15.3810 Y-13.6215
G01 X15.4146 Y-13.5825
G01 X15.4502 Y-13.5452
G01 X15.4875 Y-13.5096
G01 X15.5265 Y-13.4760
G01 X15.5671 Y-13.4443
G01 X15.6092 Y-13.4146
G01 X15.6528 Y-13.3870
G01 X15.6976 Y-13.3616
G01 X15.7436 Y-13.3385
G01 X15.7907 Y-13.3176
G01 X15.8388 Y-13.2990
G01 X15.8877 Y-13.2829
G01 X15.9374 Y-13.2691
G01 X15.9877 Y-13.2578
G01 X16.0385 Y-13.2490
G01 X16.0896 Y-13.2427
G01 X16.1410 Y-13.2389
G01 X16.1925 Y-13.2377
G01 X16.2440 Y-13.2389
G01 X16.2954 Y-13.2427
G01 X16.3465 Y-13.2490
G01 X16.3973 Y-13.2578
G01 X16.4476 Y-13.2691
G01 X16.4973 Y-13.2829
G01 X16.5462 Y-13.2990
G01 X16.5943 Y-13.3176
G01 X16.6414 Y-13.3385
G01 X16.6874 Y-13.3616
G01 X16.7322 Y-13.3870
G01 X16.7758 Y-13.4146
G01 X16.8179 Y-13.4443
G01 X16.8585 Y-13.4760
G01 X16.8975 Y-13.5096
G01 X16.9348 Y-13.5452
G01 X16.9704 Y-13.5825
G01 X17.0040 Y-13.6215
G01 X17.0357 Y-13.6621
G01 X17.0654 Y-13.7042
G01 X17.0930 Y-13.7478
G01 X17.1184 Y-13.7926
G01 X17.1415 Y-13.8386
G01 X17.1624 Y-13.8857
G01 X17.1810 Y-13.9338
G01 X17.1971 Y-13.9827
G01 X17.2109 Y-14.0324
G01 X17.2222 Y-14.0827
G01 X17.2310 Y-14.1335
G01 X17.2373 Y-14.1846
G01 X17.2411 Y-14.2360
G00 X17.2411 Y-14.2360
G01 F70.00
G01 Z-1.7000
G01 F120.00
G01 X17.2423 Y-14.2875
G01 X17.2411 Y-14.3390
G01 X17.2373 Y-14.3904
G01 X17.2310 Y-14.4415
G01 X17.2222 Y-14.4923
G01 X17.2109 Y-14.5426
G01 X17.1971 Y-14.5923
G01 X17.1810 Y-14.6412
G01 X17.1624 Y-14.6893
G01 X17.1415 Y-14.7364
G01 X17.1184 Y-14.7824
G01 X17.0930 Y-14.8272
G01 X17.0654 Y-14.8708
G01 X17.0357 Y-14.9129
G01 X17.0040 Y-14.9535
G01 X16.9704 Y-14.9925
G01 X16.9348 Y-15.0298
G01 X16.8975 Y-15.0654
G01 X16.8585 Y-15.0990
G01 X16.8179 Y-15.1307
G01 X16.7758 Y-15.1604
G01 X16.7322 Y-15.1880
G01 X16.6874 Y-15.2134
G01 X16.6414 Y-15.2365
G01 X16.5943 Y-15.2574
G01 X16.5462 Y-15.2760
G01 X16.4973 Y-15.2921
G01 X16.4476 Y-15.3059
G01 X16.3973 Y-15.3172
G01 X16.3465 Y-15.3260
G01 X16.2954 Y-15.3323
G01 X16.2440 Y-15.3361
G01 X16.1925 Y-15.3373
G01 X16.1410 Y-15.3361
G01 X16.0896 Y-15.3323
G01 X16.0385 Y-15.3260
G01 X15.9877 Y-15.3172
G01 X15.9374 Y-15.3059
G01 X15.8877 Y-15.2921
G01 X15.8388 Y-15.2760
G01 X15.7907 Y-15.2574
G01 X15.7436 Y-15.2365
G01 X15.6976 Y-15.2134
G01 X15.6528 Y-15.1880
G01 X15.6092 Y-15.1604
G01 X15.5671 Y-15.1307
G01 X15.5265 Y-15.0990
G01 X15.4875 Y-15.0654
G01 X15.4502 Y-15.0298
G01 X15.4146 Y-14.9925
G01 X15.3810 Y-14.9535
G01 X15.3493 Y-14.9129
G01 X15.3196 Y-14.8708
G01 X15.2920 Y-14.8272
G01 X15.2666 Y-14.7824
G01 X15.2435 Y-14.7364
G01 X15.2226 Y-14.6893
G01 X15.2040 Y-14.6412
G01 X15.1879 Y-14.5923
G01 X15.1741 Y-14.5426
G01 X15.1628 Y-14.4923
G01 X15.1540 Y-14.4415
G01 X15.1477 Y-14.3904
G01 X15.1439 Y-14.3390
G01 X15.1427 Y-14.2875
G01 X15.1439 Y-14.2360
G01 X15.1477 Y-14.1846
G01 X15.1540 Y-14.1335
G01 X15.1628 Y-14.0827
G01 X15.1741 Y-14.0324
G01 X15.1879 Y-13.9827
G01 X15.2040 Y-13.9338
G01 X15.2226 Y-13.8857
G01 X15.2435 Y-13.8386
G01 X15.2666 Y-13.7926
G01 X15.2920 Y-13.7478
G01 X15.3196 Y-13.7042
G01 X15.3493 Y-13.6621
G01 X15.3810 Y-13.6215
G01 X15.4146 Y-13.5825
G01 X15.4502 Y-13.5452
G01 X15.4875 Y-13.5096
G01 X15.5265 Y-13.4760
G01 X15.5671 Y-13.4443
G01 X15.6092 Y-13.4146
G01 X15.6528 Y-13.3870
G01 X15.6976 Y-13.3616
G01 X15.7436 Y-13.3385
G01 X15.7907 Y-13.3176
G01 X15.8388 Y-13.2990
G01 X15.8877 Y-13.2829
G01 X15.9374 Y-13.2691
G01 X15.9877 Y-13.2578
G01 X16.0385 Y-13.2490
G01 X16.0896 Y-13.2427
G01 X16.1410 Y-13.2389
G01 X16.1925 Y-13.2377
G01 X16.2440 Y-13.2389
G01 X16.2954 Y-13.2427
G01 X16.3465 Y-13.2490
G01 X16.3973 Y-13.2578
G01 X16.4476 Y-13.2691
G01 X16.4973 Y-13.2829
G01 X16.5462 Y-13.2990
G01 X16.5943 Y-13.3176
G01 X16.6414 Y-13.3385
G01 X16.6874 Y-13.3616
G01 X16.7322 Y-13.3870
G01 X16.7758 Y-13.4146
G01 X16.8179 Y-13.4443
G01 X16.8585 Y-13.4760
G01 X16.8975 Y-13.5096
G01 X16.9348 Y-13.5452
G01 X16.9704 Y-13.5825
G01 X17.0040 Y-13.6215
G01 X17.0357 Y-13.6621
G01 X17.0654 Y-13.7042
G01 X17.0930 Y-13.7478
G01 X17.1184 Y-13.7926
G01 X17.1415 Y-13.8386
G01 X17.1624 Y-13.8857
G01 X17.1810 Y-13.9338
G01 X17.1971 Y-13.9827
G01 X17.2109 Y-14.0324
G01 X17.2222 Y-14.0827
G01 X17.2310 Y-14.1335
G01 X17.2373 Y-14.1846
G01 X17.2411 Y-14.2360
G00 Z2.0000
G00 X13.4311 Y-5.1872
G01 F70.00
G01 Z-0.1000
G01 F120.00
G01 X13.4323 Y-5.2387
G01 X13.4311 Y-5.2902
G01 X13.4273 Y-5.3416
G01 X13.4210 Y-5.3927
G01 X13.4122 Y-5.4435
G01 X13.4009 Y-5.4938
G01 X13.3871 Y-5.5435
G01 X13.3710 Y-5.5924
G01 X13.3524 Y-5.6405
G01 X13.3315 Y-5.6876
G01 X13.3084 Y-5.7336
G01 X13.2830 Y-5.7784
G01 X13.2554 Y-5.8220
G01 X13.2257 Y-5.8641
G01 X13.1940 Y-5.9047
G01 X13.1604 Y-5.9437
G01 X13.1248 Y-5.9810
G01 X13.0875 Y-6.0166
G01 X13.0485 Y-6.0502
G01 X13.0079 Y-6.0819
G01 X12.9658 Y-6.1116
G01 X12.9222 Y-6.1392
G01 X12.8774 Y-6.1646
G01 X12.8314 Y-6.1877
G01 X12.7843 Y-6.2086
G01 X12.7362 Y-6.2272
G01 X12.6873 Y-6.2433
G01 X12.6376 Y-6.2571
G01 X12.5873 Y-6.2684
G01 X12.5365 Y-6.2772
G01 X12.4854 Y-6.2835
G01 X12.4340 Y-6.2873
G01 X12.3825 Y-6.2885
G01 X12.3310 Y-6.2873
G01 X12.2796 Y-6.2835
G01 X12.2285 Y-6.2772
G01 X12.1777 Y-6.2684
G01 X12.1274 Y-6.2571
G01 X12.0777 Y-6.2433
G01 X12.0288 Y-6.2272
G01 X11.9807 Y-6.2086
G01 X11.9336 Y-6.1877
G01 X11.8876 Y-6.1646
G01 X11.8428 Y-6.1392
G01 X11.7992 Y-6.1116
G01 X11.7571 Y-6.0819
G01 X11.7165 Y-6.0502
G01 X11.6775 Y-6.0166
G01 X11.6402 Y-5.9810
G01 X11.6046 Y-5.9437
G01 X11.5710 Y-5.9047
G01 X11.5393 Y-5.8641
G01 X11.5096 Y-5.8220
G01 X11.4820 Y-5.7784
G01 X11.4566 Y-5.7336
G01 X11.4335 Y-5.6876
G01 X11.4126 Y-5.6405
G01 X11.3940 Y-5.5924
G01 X11.3779 Y-5.5435
G01 X11.3641 Y-5.4938
G01 X11.3528 Y-5.4435
G01 X11.3440 Y-5.3927
G01 X11.3377 Y-5.3416
G01 X11.3339 Y-5.2902
G01 X11.3327 Y-5.2387
G01 X11.3339 Y-5.1872
G01 X11.3377 Y-5.1358
G01 X11.3440 Y-5.0847
G01 X11.3528 Y-5.0339
G01 X11.3641 Y-4.9836
G01 X11.3779 Y-4.9339
G01 X11.3940 Y-4.8850
G01 X11.4126 Y-4.8369
G01 X11.4335 Y-4.7898
G01 X11.4566 Y-4.7438
G01 X11.4820 Y-4.6990
G01 X11.5096 Y-4.6554
G01 X11.5393 Y-4.6133
G01 X11.5710 Y-4.5727
G01 X11.6046 Y-4.5337
G01 X11.6402 Y-4.4964
G01 X11.6775 Y-4.4608
G01 X11.7165 Y-4.4272
G01 X11.7571 Y-4.3955
G01 X11.7992 Y-4.3658
G01 X11.8428 Y-4.3382
G01 X11.8876 Y-4.3128
G01 X11.9336 Y-4.2897
G01 X11.9807 Y-4.2688
G01 X12.0288 Y-4.2502
G01 X12.0777 Y-4.2341
G01 X12.1274 Y-4.2203
G01 X12.1777 Y-4.2090
G01 X12.2285 Y-4.2002
G01 X12.2796 Y-4.1939
G01 X12.3310 Y-4.1901
G01 X12.3825 Y-4.1889
G01 X12.4340 Y-4.1901
G01 X12.4854 Y-4.1939
G01 X12.5365 Y-4.2002
G01 X12.5873 Y-4.2090
G01 X12.6376 Y-4.2203
G01 X12.6873 Y-4.2341
G01 X12.7362 Y-4.2502
G01 X12.7843 Y-4.2688
G01 X12.8314 Y-4.2897
G01 X12.8774 Y-4.3128
G01 X12.9222 Y-4.3382
G01 X12.9658 Y-4.3658
G01 X13.0079 Y-4.3955
G01 X13.0485 Y-4.4272
G01 X13.0875 Y-4.4608
G01 X13.1248 Y-4.4964
G01 X13.1604 Y-4.5337
G01 X13.1940 Y-4.5727
G01 X13.2257 Y-4.6133
G01 X13.2554 Y-4.6554
G01 X13.2830 Y-4.6990
G01 X13.3084 Y-4.7438
G01 X13.3315 Y-4.7898
G01 X13.3524 Y-4.8369
G01 X13.3710 Y-4.8850
G01 X13.3871 Y-4.9339
G01 X13.4009 Y-4.9836
G01 X13.4122 Y-5.0339
G01 X13.4210 Y-5.0847
G01 X13.4273 Y-5.1358
G01 X13.4311 Y-5.1872
G00 X13.4311 Y-5.1872
G01 F70.00
G01 Z-0.2000
G01 F120.00
G01 X13.4323 Y-5.2387
G01 X13.4311 Y-5.2902
G01 X13.4273 Y-5.3416
G01 X13.4210 Y-5.3927
G01 X13.4122 Y-5.4435
G01 X13.4009 Y-5.4938
G01 X13.3871 Y-5.5435
G01 X13.3710 Y-5.5924
G01 X13.3524 Y-5.6405
G01 X13.3315 Y-5.6876
G01 X13.3084 Y-5.7336
G01 X13.2830 Y-5.7784
G01 X13.2554 Y-5.8220
G01 X13.2257 Y-5.8641
G01 X13.1940 Y-5.9047
G01 X13.1604 Y-5.9437
G01 X13.1248 Y-5.9810
G01 X13.0875 Y-6.0166
G01 X13.0485 Y-6.0502
G01 X13.0079 Y-6.0819
G01 X12.9658 Y-6.1116
G01 X12.9222 Y-6.1392
G01 X12.8774 Y-6.1646
G01 X12.8314 Y-6.1877
G01 X12.7843 Y-6.2086
G01 X12.7362 Y-6.2272
G01 X12.6873 Y-6.2433
G01 X12.6376 Y-6.2571
G01 X12.5873 Y-6.2684
G01 X12.5365 Y-6.2772
G01 X12.4854 Y-6.2835
G01 X12.4340 Y-6.2873
G01 X12.3825 Y-6.2885
G01 X12.3310 Y-6.2873
G01 X12.2796 Y-6.2835
G01 X12.2285 Y-6.2772
G01 X12.1777 Y-6.2684
G01 X12.1274 Y-6.2571
G01 X12.0777 Y-6.2433
G01 X12.0288 Y-6.2272
G01 X11.9807 Y-6.2086
G01 X11.9336 Y-6.1877
G01 X11.8876 Y-6.1646
G01 X11.8428 Y-6.1392
G01 X11.7992 Y-6.1116
G01 X11.7571 Y-6.0819
G01 X11.7165 Y-6.0502
G01 X11.6775 Y-6.0166
G01 X11.6402 Y-5.9810
G01 X11.6046 Y-5.9437
G01 X11.5710 Y-5.9047
G01 X11.5393 Y-5.8641
G01 X11.5096 Y-5.8220
G01 X11.4820 Y-5.7784
G01 X11.4566 Y-5.7336
G01 X11.4335 Y-5.6876
G01 X11.4126 Y-5.6405
G01 X11.3940 Y-5.5924
G01 X11.3779 Y-5.5435
G01 X11.3641 Y-5.4938
G01 X11.3528 Y-5.4435
G01 X11.3440 Y-5.3927
G01 X11.3377 Y-5.3416
G01 X11.3339 Y-5.2902
G01 X11.3327 Y-5.2387
G01 X11.3339 Y-5.1872
G01 X11.3377 Y-5.1358
G01 X11.3440 Y-5.0847
G01 X11.3528 Y-5.0339
G01 X11.3641 Y-4.9836
G01 X11.3779 Y-4.9339
G01 X11.3940 Y-4.8850
G01 X11.4126 Y-4.8369
G01 X11.4335 Y-4.7898
G01 X11.4566 Y-4.7438
G01 X11.4820 Y-4.6990
G01 X11.5096 Y-4.6554
G01 X11.5393 Y-4.6133
G01 X11.5710 Y-4.5727
G01 X11.6046 Y-4.5337
G01 X11.6402 Y-4.4964
G01 X11.6775 Y-4.4608
G01 X11.7165 Y-4.4272
G01 X11.7571 Y-4.3955
G01 X11.7992 Y-4.3658
G01 X11.8428 Y-4.3382
G01 X11.8876 Y-4.3128
G01 X11.9336 Y-4.2897
G01 X11.9807 Y-4.2688
G01 X12.0288 Y-4.2502
G01 X12.0777 Y-4.2341
G01 X12.1274 Y-4.2203
G01 X12.1777 Y-4.2090
G01 X12.2285 Y-4.2002
G01 X12.2796 Y-4.1939
G01 X12.3310 Y-4.1901
G01 X12.3825 Y-4.1889
G01 X12.4340 Y-4.1901
G01 X12.4854 Y-4.1939
G01 X12.5365 Y-4.2002
G01 X12.5873 Y-4.2090
G01 X12.6376 Y-4.2203
G01 X12.6873 Y-4.2341
G01 X12.7362 Y-4.2502
G01 X12.7843 Y-4.2688
G01 X12.8314 Y-4.2897
G01 X12.8774 Y-4.3128
G01 X12.9222 Y-4.3382
G01 X12.9658 Y-4.3658
G01 X13.0079 Y-4.3955
G01 X13.0485 Y-4.4272
G01 X13.0875 Y-4.4608
G01 X13.1248 Y-4.4964
G01 X13.1604 Y-4.5337
G01 X13.1940 Y-4.5727
G01 X13.2257 Y-4.6133
G01 X13.2554 Y-4.6554
G01 X13.2830 Y-4.6990
G01 X13.3084 Y-4.7438
G01 X13.3315 Y-4.7898
G01 X13.3524 Y-4.8369
G01 X13.3710 Y-4.8850
G01 X13.3871 Y-4.9339
G01 X13.4009 Y-4.9836
G01 X13.4122 Y-5.0339
G01 X13.4210 Y-5.0847
G01 X13.4273 Y-5.1358
G01 X13.4311 Y-5.1872
G00 X13.4311 Y-5.1872
G01 F70.00
G01 Z-0.3000
G01 F120.00
G01 X13.4323 Y-5.2387
G01 X13.4311 Y-5.2902
G01 X13.4273 Y-5.3416
G01 X13.4210 Y-5.3927
G01 X13.4122 Y-5.4435
G01 X13.4009 Y-5.4938
G01 X13.3871 Y-5.5435
G01 X13.3710 Y-5.5924
G01 X13.3524 Y-5.6405
G01 X13.3315 Y-5.6876
G01 X13.3084 Y-5.7336
G01 X13.2830 Y-5.7784
G01 X13.2554 Y-5.8220
G01 X13.2257 Y-5.8641
G01 X13.1940 Y-5.9047
G01 X13.1604 Y-5.9437
G01 X13.1248 Y-5.9810
G01 X13.0875 Y-6.0166
G01 X13.0485 Y-6.0502
G01 X13.0079 Y-6.0819
G01 X12.9658 Y-6.1116
G01 X12.9222 Y-6.1392
G01 X12.8774 Y-6.1646
G01 X12.8314 Y-6.1877
G01 X12.7843 Y-6.2086
G01 X12.7362 Y-6.2272
G01 X12.6873 Y-6.2433
G01 X12.6376 Y-6.2571
G01 X12.5873 Y-6.2684
G01 X12.5365 Y-6.2772
G01 X12.4854 Y-6.2835
G01 X12.4340 Y-6.2873
G01 X12.3825 Y-6.2885
G01 X12.3310 Y-6.2873
G01 X12.2796 Y-6.2835
G01 X12.2285 Y-6.2772
G01 X12.1777 Y-6.2684
G01 X12.1274 Y-6.2571
G01 X12.0777 Y-6.2433
G01 X12.0288 Y-6.2272
G01 X11.9807 Y-6.2086
G01 X11.9336 Y-6.1877
G01 X11.8876 Y-6.1646
G01 X11.8428 Y-6.1392
G01 X11.7992 Y-6.1116
G01 X11.7571 Y-6.0819
G01 X11.7165 Y-6.0502
G01 X11.6775 Y-6.0166
G01 X11.6402 Y-5.9810
G01 X11.6046 Y-5.9437
G01 X11.5710 Y-5.9047
G01 X11.5393 Y-5.8641
G01 X11.5096 Y-5.8220
G01 X11.4820 Y-5.7784
G01 X11.4566 Y-5.7336
G01 X11.4335 Y-5.6876
G01 X11.4126 Y-5.6405
G01 X11.3940 Y-5.5924
G01 X11.3779 Y-5.5435
G01 X11.3641 Y-5.4938
G01 X11.3528 Y-5.4435
G01 X11.3440 Y-5.3927
G01 X11.3377 Y-5.3416
G01 X11.3339 Y-5.2902
G01 X11.3327 Y-5.2387
G01 X11.3339 Y-5.1872
G01 X11.3377 Y-5.1358
G01 X11.3440 Y-5.0847
G01 X11.3528 Y-5.0339
G01 X11.3641 Y-4.9836
G01 X11.3779 Y-4.9339
G01 X11.3940 Y-4.8850
G01 X11.4126 Y-4.8369
G01 X11.4335 Y-4.7898
G01 X11.4566 Y-4.7438
G01 X11.4820 Y-4.6990
G01 X11.5096 Y-4.6554
G01 X11.5393 Y-4.6133
G01 X11.5710 Y-4.5727
G01 X11.6046 Y-4.5337
G01 X11.6402 Y-4.4964
G01 X11.6775 Y-4.4608
G01 X11.7165 Y-4.4272
G01 X11.7571 Y-4.3955
G01 X11.7992 Y-4.3658
G01 X11.8428 Y-4.3382
G01 X11.8876 Y-4.3128
G01 X11.9336 Y-4.2897
G01 X11.9807 Y-4.2688
G01 X12.0288 Y-4.2502
G01 X12.0777 Y-4.2341
G01 X12.1274 Y-4.2203
G01 X12.1777 Y-4.2090
G01 X12.2285 Y-4.2002
G01 X12.2796 Y-4.1939
G01 X12.3310 Y-4.1901
G01 X12.3825 Y-4.1889
G01 X12.4340 Y-4.1901
G01 X12.4854 Y-4.1939
G01 X12.5365 Y-4.2002
G01 X12.5873 Y-4.2090
G01 X12.6376 Y-4.2203
G01 X12.6873 Y-4.2341
G01 X12.7362 Y-4.2502
G01 X12.7843 Y-4.2688
G01 X12.8314 Y-4.2897
G01 X12.8774 Y-4.3128
G01 X12.9222 Y-4.3382
G01 X12.9658 Y-4.3658
G01 X13.0079 Y-4.3955
G01 X13.0485 Y-4.4272
G01 X13.0875 Y-4.4608
G01 X13.1248 Y-4.4964
G01 X13.1604 Y-4.5337
G01 X13.1940 Y-4.5727
G01 X13.2257 Y-4.6133
G01 X13.2554 Y-4.6554
G01 X13.2830 Y-4.6990
G01 X13.3084 Y-4.7438
G01 X13.3315 Y-4.7898
G01 X13.3524 Y-4.8369
G01 X13.3710 Y-4.8850
G01 X13.3871 Y-4.9339
G01 X13.4009 Y-4.9836
G01 X13.4122 Y-5.0339
G01 X13.4210 Y-5.0847
G01 X13.4273 Y-5.1358
G01 X13.4311 Y-5.1872
G00 X13.4311 Y-5.1872
G01 F70.00
G01 Z-0.4000
G01 F120.00
G01 X13.4323 Y-5.2387
G01 X13.4311 Y-5.2902
G01 X13.4273 Y-5.3416
G01 X13.4210 Y-5.3927
G01 X13.4122 Y-5.4435
G01 X13.4009 Y-5.4938
G01 X13.3871 Y-5.5435
G01 X13.3710 Y-5.5924
G01 X13.3524 Y-5.6405
G01 X13.3315 Y-5.6876
G01 X13.3084 Y-5.7336
G01 X13.2830 Y-5.7784
G01 X13.2554 Y-5.8220
G01 X13.2257 Y-5.8641
G01 X13.1940 Y-5.9047
G01 X13.1604 Y-5.9437
G01 X13.1248 Y-5.9810
G01 X13.0875 Y-6.0166
G01 X13.0485 Y-6.0502
G01 X13.0079 Y-6.0819
G01 X12.9658 Y-6.1116
G01 X12.9222 Y-6.1392
G01 X12.8774 Y-6.1646
G01 X12.8314 Y-6.1877
G01 X12.7843 Y-6.2086
G01 X12.7362 Y-6.2272
G01 X12.6873 Y-6.2433
G01 X12.6376 Y-6.2571
G01 X12.5873 Y-6.2684
G01 X12.5365 Y-6.2772
G01 X12.4854 Y-6.2835
G01 X12.4340 Y-6.2873
G01 X12.3825 Y-6.2885
G01 X12.3310 Y-6.2873
G01 X12.2796 Y-6.2835
G01 X12.2285 Y-6.2772
G01 X12.1777 Y-6.2684
G01 X12.1274 Y-6.2571
G01 X12.0777 Y-6.2433
G01 X12.0288 Y-6.2272
G01 X11.9807 Y-6.2086
G01 X11.9336 Y-6.1877
G01 X11.8876 Y-6.1646
G01 X11.8428 Y-6.1392
G01 X11.7992 Y-6.1116
G01 X11.7571 Y-6.0819
G01 X11.7165 Y-6.0502
G01 X11.6775 Y-6.0166
G01 X11.6402 Y-5.9810
G01 X11.6046 Y-5.9437
G01 X11.5710 Y-5.9047
G01 X11.5393 Y-5.8641
G01 X11.5096 Y-5.8220
G01 X11.4820 Y-5.7784
G01 X11.4566 Y-5.7336
G01 X11.4335 Y-5.6876
G01 X11.4126 Y-5.6405
G01 X11.3940 Y-5.5924
G01 X11.3779 Y-5.5435
G01 X11.3641 Y-5.4938
G01 X11.3528 Y-5.4435
G01 X11.3440 Y-5.3927
G01 X11.3377 Y-5.3416
G01 X11.3339 Y-5.2902
G01 X11.3327 Y-5.2387
G01 X11.3339 Y-5.1872
G01 X11.3377 Y-5.1358
G01 X11.3440 Y-5.0847
G01 X11.3528 Y-5.0339
G01 X11.3641 Y-4.9836
G01 X11.3779 Y-4.9339
G01 X11.3940 Y-4.8850
G01 X11.4126 Y-4.8369
G01 X11.4335 Y-4.7898
G01 X11.4566 Y-4.7438
G01 X11.4820 Y-4.6990
G01 X11.5096 Y-4.6554
G01 X11.5393 Y-4.6133
G01 X11.5710 Y-4.5727
G01 X11.6046 Y-4.5337
G01 X11.6402 Y-4.4964
G01 X11.6775 Y-4.4608
G01 X11.7165 Y-4.4272
G01 X11.7571 Y-4.3955
G01 X11.7992 Y-4.3658
G01 X11.8428 Y-4.3382
G01 X11.8876 Y-4.3128
G01 X11.9336 Y-4.2897
G01 X11.9807 Y-4.2688
G01 X12.0288 Y-4.2502
G01 X12.0777 Y-4.2341
G01 X12.1274 Y-4.2203
G01 X12.1777 Y-4.2090
G01 X12.2285 Y-4.2002
G01 X12.2796 Y-4.1939
G01 X12.3310 Y-4.1901
G01 X12.3825 Y-4.1889
G01 X12.4340 Y-4.1901
G01 X12.4854 Y-4.1939
G01 X12.5365 Y-4.2002
G01 X12.5873 Y-4.2090
G01 X12.6376 Y-4.2203
G01 X12.6873 Y-4.2341
G01 X12.7362 Y-4.2502
G01 X12.7843 Y-4.2688
G01 X12.8314 Y-4.2897
G01 X12.8774 Y-4.3128
G01 X12.9222 Y-4.3382
G01 X12.9658 Y-4.3658
G01 X13.0079 Y-4.3955
G01 X13.0485 Y-4.4272
G01 X13.0875 Y-4.4608
G01 X13.1248 Y-4.4964
G01 X13.1604 Y-4.5337
G01 X13.1940 Y-4.5727
G01 X13.2257 Y-4.6133
G01 X13.2554 Y-4.6554
G01 X13.2830 Y-4.6990
G01 X13.3084 Y-4.7438
G01 X13.3315 Y-4.7898
G01 X13.3524 Y-4.8369
G01 X13.3710 Y-4.8850
G01 X13.3871 Y-4.9339
G01 X13.4009 Y-4.9836
G01 X13.4122 Y-5.0339
G01 X13.4210 Y-5.0847
G01 X13.4273 Y-5.1358
G01 X13.4311 Y-5.1872
G00 X13.4311 Y-5.1872
G01 F70.00
G01 Z-0.5000
G01 F120.00
G01 X13.4323 Y-5.2387
G01 X13.4311 Y-5.2902
G01 X13.4273 Y-5.3416
G01 X13.4210 Y-5.3927
G01 X13.4122 Y-5.4435
G01 X13.4009 Y-5.4938
G01 X13.3871 Y-5.5435
G01 X13.3710 Y-5.5924
G01 X13.3524 Y-5.6405
G01 X13.3315 Y-5.6876
G01 X13.3084 Y-5.7336
G01 X13.2830 Y-5.7784
G01 X13.2554 Y-5.8220
G01 X13.2257 Y-5.8641
G01 X13.1940 Y-5.9047
G01 X13.1604 Y-5.9437
G01 X13.1248 Y-5.9810
G01 X13.0875 Y-6.0166
G01 X13.0485 Y-6.0502
G01 X13.0079 Y-6.0819
G01 X12.9658 Y-6.1116
G01 X12.9222 Y-6.1392
G01 X12.8774 Y-6.1646
G01 X12.8314 Y-6.1877
G01 X12.7843 Y-6.2086
G01 X12.7362 Y-6.2272
G01 X12.6873 Y-6.2433
G01 X12.6376 Y-6.2571
G01 X12.5873 Y-6.2684
G01 X12.5365 Y-6.2772
G01 X12.4854 Y-6.2835
G01 X12.4340 Y-6.2873
G01 X12.3825 Y-6.2885
G01 X12.3310 Y-6.2873
G01 X12.2796 Y-6.2835
G01 X12.2285 Y-6.2772
G01 X12.1777 Y-6.2684
G01 X12.1274 Y-6.2571
G01 X12.0777 Y-6.2433
G01 X12.0288 Y-6.2272
G01 X11.9807 Y-6.2086
G01 X11.9336 Y-6.1877
G01 X11.8876 Y-6.1646
G01 X11.8428 Y-6.1392
G01 X11.7992 Y-6.1116
G01 X11.7571 Y-6.0819
G01 X11.7165 Y-6.0502
G01 X11.6775 Y-6.0166
G01 X11.6402 Y-5.9810
G01 X11.6046 Y-5.9437
G01 X11.5710 Y-5.9047
G01 X11.5393 Y-5.8641
G01 X11.5096 Y-5.8220
G01 X11.4820 Y-5.7784
G01 X11.4566 Y-5.7336
G01 X11.4335 Y-5.6876
G01 X11.4126 Y-5.6405
G01 X11.3940 Y-5.5924
G01 X11.3779 Y-5.5435
G01 X11.3641 Y-5.4938
G01 X11.3528 Y-5.4435
G01 X11.3440 Y-5.3927
G01 X11.3377 Y-5.3416
G01 X11.3339 Y-5.2902
G01 X11.3327 Y-5.2387
G01 X11.3339 Y-5.1872
G01 X11.3377 Y-5.1358
G01 X11.3440 Y-5.0847
G01 X11.3528 Y-5.0339
G01 X11.3641 Y-4.9836
G01 X11.3779 Y-4.9339
G01 X11.3940 Y-4.8850
G01 X11.4126 Y-4.8369
G01 X11.4335 Y-4.7898
G01 X11.4566 Y-4.7438
G01 X11.4820 Y-4.6990
G01 X11.5096 Y-4.6554
G01 X11.5393 Y-4.6133
G01 X11.5710 Y-4.5727
G01 X11.6046 Y-4.5337
G01 X11.6402 Y-4.4964
G01 X11.6775 Y-4.4608
G01 X11.7165 Y-4.4272
G01 X11.7571 Y-4.3955
G01 X11.7992 Y-4.3658
G01 X11.8428 Y-4.3382
G01 X11.8876 Y-4.3128
G01 X11.9336 Y-4.2897
G01 X11.9807 Y-4.2688
G01 X12.0288 Y-4.2502
G01 X12.0777 Y-4.2341
G01 X12.1274 Y-4.2203
G01 X12.1777 Y-4.2090
G01 X12.2285 Y-4.2002
G01 X12.2796 Y-4.1939
G01 X12.3310 Y-4.1901
G01 X12.3825 Y-4.1889
G01 X12.4340 Y-4.1901
G01 X12.4854 Y-4.1939
G01 X12.5365 Y-4.2002
G01 X12.5873 Y-4.2090
G01 X12.6376 Y-4.2203
G01 X12.6873 Y-4.2341
G01 X12.7362 Y-4.2502
G01 X12.7843 Y-4.2688
G01 X12.8314 Y-4.2897
G01 X12.8774 Y-4.3128
G01 X12.9222 Y-4.3382
G01 X12.9658 Y-4.3658
G01 X13.0079 Y-4.3955
G01 X13.0485 Y-4.4272
G01 X13.0875 Y-4.4608
G01 X13.1248 Y-4.4964
G01 X13.1604 Y-4.5337
G01 X13.1940 Y-4.5727
G01 X13.2257 Y-4.6133
G01 X13.2554 Y-4.6554
G01 X13.2830 Y-4.6990
G01 X13.3084 Y-4.7438
G01 X13.3315 Y-4.7898
G01 X13.3524 Y-4.8369
G01 X13.3710 Y-4.8850
G01 X13.3871 Y-4.9339
G01 X13.4009 Y-4.9836
G01 X13.4122 Y-5.0339
G01 X13.4210 Y-5.0847
G01 X13.4273 Y-5.1358
G01 X13.4311 Y-5.1872
G00 X13.4311 Y-5.1872
G01 F70.00
G01 Z-0.6000
G01 F120.00
G01 X13.4323 Y-5.2387
G01 X13.4311 Y-5.2902
G01 X13.4273 Y-5.3416
G01 X13.4210 Y-5.3927
G01 X13.4122 Y-5.4435
G01 X13.4009 Y-5.4938
G01 X13.3871 Y-5.5435
G01 X13.3710 Y-5.5924
G01 X13.3524 Y-5.6405
G01 X13.3315 Y-5.6876
G01 X13.3084 Y-5.7336
G01 X13.2830 Y-5.7784
G01 X13.2554 Y-5.8220
G01 X13.2257 Y-5.8641
G01 X13.1940 Y-5.9047
G01 X13.1604 Y-5.9437
G01 X13.1248 Y-5.9810
G01 X13.0875 Y-6.0166
G01 X13.0485 Y-6.0502
G01 X13.0079 Y-6.0819
G01 X12.9658 Y-6.1116
G01 X12.9222 Y-6.1392
G01 X12.8774 Y-6.1646
G01 X12.8314 Y-6.1877
G01 X12.7843 Y-6.2086
G01 X12.7362 Y-6.2272
G01 X12.6873 Y-6.2433
G01 X12.6376 Y-6.2571
G01 X12.5873 Y-6.2684
G01 X12.5365 Y-6.2772
G01 X12.4854 Y-6.2835
G01 X12.4340 Y-6.2873
G01 X12.3825 Y-6.2885
G01 X12.3310 Y-6.2873
G01 X12.2796 Y-6.2835
G01 X12.2285 Y-6.2772
G01 X12.1777 Y-6.2684
G01 X12.1274 Y-6.2571
G01 X12.0777 Y-6.2433
G01 X12.0288 Y-6.2272
G01 X11.9807 Y-6.2086
G01 X11.9336 Y-6.1877
G01 X11.8876 Y-6.1646
G01 X11.8428 Y-6.1392
G01 X11.7992 Y-6.1116
G01 X11.7571 Y-6.0819
G01 X11.7165 Y-6.0502
G01 X11.6775 Y-6.0166
G01 X11.6402 Y-5.9810
G01 X11.6046 Y-5.9437
G01 X11.5710 Y-5.9047
G01 X11.5393 Y-5.8641
G01 X11.5096 Y-5.8220
G01 X11.4820 Y-5.7784
G01 X11.4566 Y-5.7336
G01 X11.4335 Y-5.6876
G01 X11.4126 Y-5.6405
G01 X11.3940 Y-5.5924
G01 X11.3779 Y-5.5435
G01 X11.3641 Y-5.4938
G01 X11.3528 Y-5.4435
G01 X11.3440 Y-5.3927
G01 X11.3377 Y-5.3416
G01 X11.3339 Y-5.2902
G01 X11.3327 Y-5.2387
G01 X11.3339 Y-5.1872
G01 X11.3377 Y-5.1358
G01 X11.3440 Y-5.0847
G01 X11.3528 Y-5.0339
G01 X11.3641 Y-4.9836
G01 X11.3779 Y-4.9339
G01 X11.3940 Y-4.8850
G01 X11.4126 Y-4.8369
G01 X11.4335 Y-4.7898
G01 X11.4566 Y-4.7438
G01 X11.4820 Y-4.6990
G01 X11.5096 Y-4.6554
G01 X11.5393 Y-4.6133
G01 X11.5710 Y-4.5727
G01 X11.6046 Y-4.5337
G01 X11.6402 Y-4.4964
G01 X11.6775 Y-4.4608
G01 X11.7165 Y-4.4272
G01 X11.7571 Y-4.3955
G01 X11.7992 Y-4.3658
G01 X11.8428 Y-4.3382
G01 X11.8876 Y-4.3128
G01 X11.9336 Y-4.2897
G01 X11.9807 Y-4.2688
G01 X12.0288 Y-4.2502
G01 X12.0777 Y-4.2341
G01 X12.1274 Y-4.2203
G01 X12.1777 Y-4.2090
G01 X12.2285 Y-4.2002
G01 X12.2796 Y-4.1939
G01 X12.3310 Y-4.1901
G01 X12.3825 Y-4.1889
G01 X12.4340 Y-4.1901
G01 X12.4854 Y-4.1939
G01 X12.5365 Y-4.2002
G01 X12.5873 Y-4.2090
G01 X12.6376 Y-4.2203
G01 X12.6873 Y-4.2341
G01 X12.7362 Y-4.2502
G01 X12.7843 Y-4.2688
G01 X12.8314 Y-4.2897
G01 X12.8774 Y-4.3128
G01 X12.9222 Y-4.3382
G01 X12.9658 Y-4.3658
G01 X13.0079 Y-4.3955
G01 X13.0485 Y-4.4272
G01 X13.0875 Y-4.4608
G01 X13.1248 Y-4.4964
G01 X13.1604 Y-4.5337
G01 X13.1940 Y-4.5727
G01 X13.2257 Y-4.6133
G01 X13.2554 Y-4.6554
G01 X13.2830 Y-4.6990
G01 X13.3084 Y-4.7438
G01 X13.3315 Y-4.7898
G01 X13.3524 Y-4.8369
G01 X13.3710 Y-4.8850
G01 X13.3871 Y-4.9339
G01 X13.4009 Y-4.9836
G01 X13.4122 Y-5.0339
G01 X13.4210 Y-5.0847
G01 X13.4273 Y-5.1358
G01 X13.4311 Y-5.1872
G00 X13.4311 Y-5.1872
G01 F70.00
G01 Z-0.7000
G01 F120.00
G01 X13.4323 Y-5.2387
G01 X13.4311 Y-5.2902
G01 X13.4273 Y-5.3416
G01 X13.4210 Y-5.3927
G01 X13.4122 Y-5.4435
G01 X13.4009 Y-5.4938
G01 X13.3871 Y-5.5435
G01 X13.3710 Y-5.5924
G01 X13.3524 Y-5.6405
G01 X13.3315 Y-5.6876
G01 X13.3084 Y-5.7336
G01 X13.2830 Y-5.7784
G01 X13.2554 Y-5.8220
G01 X13.2257 Y-5.8641
G01 X13.1940 Y-5.9047
G01 X13.1604 Y-5.9437
G01 X13.1248 Y-5.9810
G01 X13.0875 Y-6.0166
G01 X13.0485 Y-6.0502
G01 X13.0079 Y-6.0819
G01 X12.9658 Y-6.1116
G01 X12.9222 Y-6.1392
G01 X12.8774 Y-6.1646
G01 X12.8314 Y-6.1877
G01 X12.7843 Y-6.2086
G01 X12.7362 Y-6.2272
G01 X12.6873 Y-6.2433
G01 X12.6376 Y-6.2571
G01 X12.5873 Y-6.2684
G01 X12.5365 Y-6.2772
G01 X12.4854 Y-6.2835
G01 X12.4340 Y-6.2873
G01 X12.3825 Y-6.2885
G01 X12.3310 Y-6.2873
G01 X12.2796 Y-6.2835
G01 X12.2285 Y-6.2772
G01 X12.1777 Y-6.2684
G01 X12.1274 Y-6.2571
G01 X12.0777 Y-6.2433
G01 X12.0288 Y-6.2272
G01 X11.9807 Y-6.2086
G01 X11.9336 Y-6.1877
G01 X11.8876 Y-6.1646
G01 X11.8428 Y-6.1392
G01 X11.7992 Y-6.1116
G01 X11.7571 Y-6.0819
G01 X11.7165 Y-6.0502
G01 X11.6775 Y-6.0166
G01 X11.6402 Y-5.9810
G01 X11.6046 Y-5.9437
G01 X11.5710 Y-5.9047
G01 X11.5393 Y-5.8641
G01 X11.5096 Y-5.8220
G01 X11.4820 Y-5.7784
G01 X11.4566 Y-5.7336
G01 X11.4335 Y-5.6876
G01 X11.4126 Y-5.6405
G01 X11.3940 Y-5.5924
G01 X11.3779 Y-5.5435
G01 X11.3641 Y-5.4938
G01 X11.3528 Y-5.4435
G01 X11.3440 Y-5.3927
G01 X11.3377 Y-5.3416
G01 X11.3339 Y-5.2902
G01 X11.3327 Y-5.2387
G01 X11.3339 Y-5.1872
G01 X11.3377 Y-5.1358
G01 X11.3440 Y-5.0847
G01 X11.3528 Y-5.0339
G01 X11.3641 Y-4.9836
G01 X11.3779 Y-4.9339
G01 X11.3940 Y-4.8850
G01 X11.4126 Y-4.8369
G01 X11.4335 Y-4.7898
G01 X11.4566 Y-4.7438
G01 X11.4820 Y-4.6990
G01 X11.5096 Y-4.6554
G01 X11.5393 Y-4.6133
G01 X11.5710 Y-4.5727
G01 X11.6046 Y-4.5337
G01 X11.6402 Y-4.4964
G01 X11.6775 Y-4.4608
G01 X11.7165 Y-4.4272
G01 X11.7571 Y-4.3955
G01 X11.7992 Y-4.3658
G01 X11.8428 Y-4.3382
G01 X11.8876 Y-4.3128
G01 X11.9336 Y-4.2897
G01 X11.9807 Y-4.2688
G01 X12.0288 Y-4.2502
G01 X12.0777 Y-4.2341
G01 X12.1274 Y-4.2203
G01 X12.1777 Y-4.2090
G01 X12.2285 Y-4.2002
G01 X12.2796 Y-4.1939
G01 X12.3310 Y-4.1901
G01 X12.3825 Y-4.1889
G01 X12.4340 Y-4.1901
G01 X12.4854 Y-4.1939
G01 X12.5365 Y-4.2002
G01 X12.5873 Y-4.2090
G01 X12.6376 Y-4.2203
G01 X12.6873 Y-4.2341
G01 X12.7362 Y-4.2502
G01 X12.7843 Y-4.2688
G01 X12.8314 Y-4.2897
G01 X12.8774 Y-4.3128
G01 X12.9222 Y-4.3382
G01 X12.9658 Y-4.3658
G01 X13.0079 Y-4.3955
G01 X13.0485 Y-4.4272
G01 X13.0875 Y-4.4608
G01 X13.1248 Y-4.4964
G01 X13.1604 Y-4.5337
G01 X13.1940 Y-4.5727
G01 X13.2257 Y-4.6133
G01 X13.2554 Y-4.6554
G01 X13.2830 Y-4.6990
G01 X13.3084 Y-4.7438
G01 X13.3315 Y-4.7898
G01 X13.3524 Y-4.8369
G01 X13.3710 Y-4.8850
G01 X13.3871 Y-4.9339
G01 X13.4009 Y-4.9836
G01 X13.4122 Y-5.0339
G01 X13.4210 Y-5.0847
G01 X13.4273 Y-5.1358
G01 X13.4311 Y-5.1872
G00 X13.4311 Y-5.1872
G01 F70.00
G01 Z-0.8000
G01 F120.00
G01 X13.4323 Y-5.2387
G01 X13.4311 Y-5.2902
G01 X13.4273 Y-5.3416
G01 X13.4210 Y-5.3927
G01 X13.4122 Y-5.4435
G01 X13.4009 Y-5.4938
G01 X13.3871 Y-5.5435
G01 X13.3710 Y-5.5924
G01 X13.3524 Y-5.6405
G01 X13.3315 Y-5.6876
G01 X13.3084 Y-5.7336
G01 X13.2830 Y-5.7784
G01 X13.2554 Y-5.8220
G01 X13.2257 Y-5.8641
G01 X13.1940 Y-5.9047
G01 X13.1604 Y-5.9437
G01 X13.1248 Y-5.9810
G01 X13.0875 Y-6.0166
G01 X13.0485 Y-6.0502
G01 X13.0079 Y-6.0819
G01 X12.9658 Y-6.1116
G01 X12.9222 Y-6.1392
G01 X12.8774 Y-6.1646
G01 X12.8314 Y-6.1877
G01 X12.7843 Y-6.2086
G01 X12.7362 Y-6.2272
G01 X12.6873 Y-6.2433
G01 X12.6376 Y-6.2571
G01 X12.5873 Y-6.2684
G01 X12.5365 Y-6.2772
G01 X12.4854 Y-6.2835
G01 X12.4340 Y-6.2873
G01 X12.3825 Y-6.2885
G01 X12.3310 Y-6.2873
G01 X12.2796 Y-6.2835
G01 X12.2285 Y-6.2772
G01 X12.1777 Y-6.2684
G01 X12.1274 Y-6.2571
G01 X12.0777 Y-6.2433
G01 X12.0288 Y-6.2272
G01 X11.9807 Y-6.2086
G01 X11.9336 Y-6.1877
G01 X11.8876 Y-6.1646
G01 X11.8428 Y-6.1392
G01 X11.7992 Y-6.1116
G01 X11.7571 Y-6.0819
G01 X11.7165 Y-6.0502
G01 X11.6775 Y-6.0166
G01 X11.6402 Y-5.9810
G01 X11.6046 Y-5.9437
G01 X11.5710 Y-5.9047
G01 X11.5393 Y-5.8641
G01 X11.5096 Y-5.8220
G01 X11.4820 Y-5.7784
G01 X11.4566 Y-5.7336
G01 X11.4335 Y-5.6876
G01 X11.4126 Y-5.6405
G01 X11.3940 Y-5.5924
G01 X11.3779 Y-5.5435
G01 X11.3641 Y-5.4938
G01 X11.3528 Y-5.4435
G01 X11.3440 Y-5.3927
G01 X11.3377 Y-5.3416
G01 X11.3339 Y-5.2902
G01 X11.3327 Y-5.2387
G01 X11.3339 Y-5.1872
G01 X11.3377 Y-5.1358
G01 X11.3440 Y-5.0847
G01 X11.3528 Y-5.0339
G01 X11.3641 Y-4.9836
G01 X11.3779 Y-4.9339
G01 X11.3940 Y-4.8850
G01 X11.4126 Y-4.8369
G01 X11.4335 Y-4.7898
G01 X11.4566 Y-4.7438
G01 X11.4820 Y-4.6990
G01 X11.5096 Y-4.6554
G01 X11.5393 Y-4.6133
G01 X11.5710 Y-4.5727
G01 X11.6046 Y-4.5337
G01 X11.6402 Y-4.4964
G01 X11.6775 Y-4.4608
G01 X11.7165 Y-4.4272
G01 X11.7571 Y-4.3955
G01 X11.7992 Y-4.3658
G01 X11.8428 Y-4.3382
G01 X11.8876 Y-4.3128
G01 X11.9336 Y-4.2897
G01 X11.9807 Y-4.2688
G01 X12.0288 Y-4.2502
G01 X12.0777 Y-4.2341
G01 X12.1274 Y-4.2203
G01 X12.1777 Y-4.2090
G01 X12.2285 Y-4.2002
G01 X12.2796 Y-4.1939
G01 X12.3310 Y-4.1901
G01 X12.3825 Y-4.1889
G01 X12.4340 Y-4.1901
G01 X12.4854 Y-4.1939
G01 X12.5365 Y-4.2002
G01 X12.5873 Y-4.2090
G01 X12.6376 Y-4.2203
G01 X12.6873 Y-4.2341
G01 X12.7362 Y-4.2502
G01 X12.7843 Y-4.2688
G01 X12.8314 Y-4.2897
G01 X12.8774 Y-4.3128
G01 X12.9222 Y-4.3382
G01 X12.9658 Y-4.3658
G01 X13.0079 Y-4.3955
G01 X13.0485 Y-4.4272
G01 X13.0875 Y-4.4608
G01 X13.1248 Y-4.4964
G01 X13.1604 Y-4.5337
G01 X13.1940 Y-4.5727
G01 X13.2257 Y-4.6133
G01 X13.2554 Y-4.6554
G01 X13.2830 Y-4.6990
G01 X13.3084 Y-4.7438
G01 X13.3315 Y-4.7898
G01 X13.3524 Y-4.8369
G01 X13.3710 Y-4.8850
G01 X13.3871 Y-4.9339
G01 X13.4009 Y-4.9836
G01 X13.4122 Y-5.0339
G01 X13.4210 Y-5.0847
G01 X13.4273 Y-5.1358
G01 X13.4311 Y-5.1872
G00 X13.4311 Y-5.1872
G01 F70.00
G01 Z-0.9000
G01 F120.00
G01 X13.4323 Y-5.2387
G01 X13.4311 Y-5.2902
G01 X13.4273 Y-5.3416
G01 X13.4210 Y-5.3927
G01 X13.4122 Y-5.4435
G01 X13.4009 Y-5.4938
G01 X13.3871 Y-5.5435
G01 X13.3710 Y-5.5924
G01 X13.3524 Y-5.6405
G01 X13.3315 Y-5.6876
G01 X13.3084 Y-5.7336
G01 X13.2830 Y-5.7784
G01 X13.2554 Y-5.8220
G01 X13.2257 Y-5.8641
G01 X13.1940 Y-5.9047
G01 X13.1604 Y-5.9437
G01 X13.1248 Y-5.9810
G01 X13.0875 Y-6.0166
G01 X13.0485 Y-6.0502
G01 X13.0079 Y-6.0819
G01 X12.9658 Y-6.1116
G01 X12.9222 Y-6.1392
G01 X12.8774 Y-6.1646
G01 X12.8314 Y-6.1877
G01 X12.7843 Y-6.2086
G01 X12.7362 Y-6.2272
G01 X12.6873 Y-6.2433
G01 X12.6376 Y-6.2571
G01 X12.5873 Y-6.2684
G01 X12.5365 Y-6.2772
G01 X12.4854 Y-6.2835
G01 X12.4340 Y-6.2873
G01 X12.3825 Y-6.2885
G01 X12.3310 Y-6.2873
G01 X12.2796 Y-6.2835
G01 X12.2285 Y-6.2772
G01 X12.1777 Y-6.2684
G01 X12.1274 Y-6.2571
G01 X12.0777 Y-6.2433
G01 X12.0288 Y-6.2272
G01 X11.9807 Y-6.2086
G01 X11.9336 Y-6.1877
G01 X11.8876 Y-6.1646
G01 X11.8428 Y-6.1392
G01 X11.7992 Y-6.1116
G01 X11.7571 Y-6.0819
G01 X11.7165 Y-6.0502
G01 X11.6775 Y-6.0166
G01 X11.6402 Y-5.9810
G01 X11.6046 Y-5.9437
G01 X11.5710 Y-5.9047
G01 X11.5393 Y-5.8641
G01 X11.5096 Y-5.8220
G01 X11.4820 Y-5.7784
G01 X11.4566 Y-5.7336
G01 X11.4335 Y-5.6876
G01 X11.4126 Y-5.6405
G01 X11.3940 Y-5.5924
G01 X11.3779 Y-5.5435
G01 X11.3641 Y-5.4938
G01 X11.3528 Y-5.4435
G01 X11.3440 Y-5.3927
G01 X11.3377 Y-5.3416
G01 X11.3339 Y-5.2902
G01 X11.3327 Y-5.2387
G01 X11.3339 Y-5.1872
G01 X11.3377 Y-5.1358
G01 X11.3440 Y-5.0847
G01 X11.3528 Y-5.0339
G01 X11.3641 Y-4.9836
G01 X11.3779 Y-4.9339
G01 X11.3940 Y-4.8850
G01 X11.4126 Y-4.8369
G01 X11.4335 Y-4.7898
G01 X11.4566 Y-4.7438
G01 X11.4820 Y-4.6990
G01 X11.5096 Y-4.6554
G01 X11.5393 Y-4.6133
G01 X11.5710 Y-4.5727
G01 X11.6046 Y-4.5337
G01 X11.6402 Y-4.4964
G01 X11.6775 Y-4.4608
G01 X11.7165 Y-4.4272
G01 X11.7571 Y-4.3955
G01 X11.7992 Y-4.3658
G01 X11.8428 Y-4.3382
G01 X11.8876 Y-4.3128
G01 X11.9336 Y-4.2897
G01 X11.9807 Y-4.2688
G01 X12.0288 Y-4.2502
G01 X12.0777 Y-4.2341
G01 X12.1274 Y-4.2203
G01 X12.1777 Y-4.2090
G01 X12.2285 Y-4.2002
G01 X12.2796 Y-4.1939
G01 X12.3310 Y-4.1901
G01 X12.3825 Y-4.1889
G01 X12.4340 Y-4.1901
G01 X12.4854 Y-4.1939
G01 X12.5365 Y-4.2002
G01 X12.5873 Y-4.2090
G01 X12.6376 Y-4.2203
G01 X12.6873 Y-4.2341
G01 X12.7362 Y-4.2502
G01 X12.7843 Y-4.2688
G01 X12.8314 Y-4.2897
G01 X12.8774 Y-4.3128
G01 X12.9222 Y-4.3382
G01 X12.9658 Y-4.3658
G01 X13.0079 Y-4.3955
G01 X13.0485 Y-4.4272
G01 X13.0875 Y-4.4608
G01 X13.1248 Y-4.4964
G01 X13.1604 Y-4.5337
G01 X13.1940 Y-4.5727
G01 X13.2257 Y-4.6133
G01 X13.2554 Y-4.6554
G01 X13.2830 Y-4.6990
G01 X13.3084 Y-4.7438
G01 X13.3315 Y-4.7898
G01 X13.3524 Y-4.8369
G01 X13.3710 Y-4.8850
G01 X13.3871 Y-4.9339
G01 X13.4009 Y-4.9836
G01 X13.4122 Y-5.0339
G01 X13.4210 Y-5.0847
G01 X13.4273 Y-5.1358
G01 X13.4311 Y-5.1872
G00 X13.4311 Y-5.1872
G01 F70.00
G01 Z-1.0000
G01 F120.00
G01 X13.4323 Y-5.2387
G01 X13.4311 Y-5.2902
G01 X13.4273 Y-5.3416
G01 X13.4210 Y-5.3927
G01 X13.4122 Y-5.4435
G01 X13.4009 Y-5.4938
G01 X13.3871 Y-5.5435
G01 X13.3710 Y-5.5924
G01 X13.3524 Y-5.6405
G01 X13.3315 Y-5.6876
G01 X13.3084 Y-5.7336
G01 X13.2830 Y-5.7784
G01 X13.2554 Y-5.8220
G01 X13.2257 Y-5.8641
G01 X13.1940 Y-5.9047
G01 X13.1604 Y-5.9437
G01 X13.1248 Y-5.9810
G01 X13.0875 Y-6.0166
G01 X13.0485 Y-6.0502
G01 X13.0079 Y-6.0819
G01 X12.9658 Y-6.1116
G01 X12.9222 Y-6.1392
G01 X12.8774 Y-6.1646
G01 X12.8314 Y-6.1877
G01 X12.7843 Y-6.2086
G01 X12.7362 Y-6.2272
G01 X12.6873 Y-6.2433
G01 X12.6376 Y-6.2571
G01 X12.5873 Y-6.2684
G01 X12.5365 Y-6.2772
G01 X12.4854 Y-6.2835
G01 X12.4340 Y-6.2873
G01 X12.3825 Y-6.2885
G01 X12.3310 Y-6.2873
G01 X12.2796 Y-6.2835
G01 X12.2285 Y-6.2772
G01 X12.1777 Y-6.2684
G01 X12.1274 Y-6.2571
G01 X12.0777 Y-6.2433
G01 X12.0288 Y-6.2272
G01 X11.9807 Y-6.2086
G01 X11.9336 Y-6.1877
G01 X11.8876 Y-6.1646
G01 X11.8428 Y-6.1392
G01 X11.7992 Y-6.1116
G01 X11.7571 Y-6.0819
G01 X11.7165 Y-6.0502
G01 X11.6775 Y-6.0166
G01 X11.6402 Y-5.9810
G01 X11.6046 Y-5.9437
G01 X11.5710 Y-5.9047
G01 X11.5393 Y-5.8641
G01 X11.5096 Y-5.8220
G01 X11.4820 Y-5.7784
G01 X11.4566 Y-5.7336
G01 X11.4335 Y-5.6876
G01 X11.4126 Y-5.6405
G01 X11.3940 Y-5.5924
G01 X11.3779 Y-5.5435
G01 X11.3641 Y-5.4938
G01 X11.3528 Y-5.4435
G01 X11.3440 Y-5.3927
G01 X11.3377 Y-5.3416
G01 X11.3339 Y-5.2902
G01 X11.3327 Y-5.2387
G01 X11.3339 Y-5.1872
G01 X11.3377 Y-5.1358
G01 X11.3440 Y-5.0847
G01 X11.3528 Y-5.0339
G01 X11.3641 Y-4.9836
G01 X11.3779 Y-4.9339
G01 X11.3940 Y-4.8850
G01 X11.4126 Y-4.8369
G01 X11.4335 Y-4.7898
G01 X11.4566 Y-4.7438
G01 X11.4820 Y-4.6990
G01 X11.5096 Y-4.6554
G01 X11.5393 Y-4.6133
G01 X11.5710 Y-4.5727
G01 X11.6046 Y-4.5337
G01 X11.6402 Y-4.4964
G01 X11.6775 Y-4.4608
G01 X11.7165 Y-4.4272
G01 X11.7571 Y-4.3955
G01 X11.7992 Y-4.3658
G01 X11.8428 Y-4.3382
G01 X11.8876 Y-4.3128
G01 X11.9336 Y-4.2897
G01 X11.9807 Y-4.2688
G01 X12.0288 Y-4.2502
G01 X12.0777 Y-4.2341
G01 X12.1274 Y-4.2203
G01 X12.1777 Y-4.2090
G01 X12.2285 Y-4.2002
G01 X12.2796 Y-4.1939
G01 X12.3310 Y-4.1901
G01 X12.3825 Y-4.1889
G01 X12.4340 Y-4.1901
G01 X12.4854 Y-4.1939
G01 X12.5365 Y-4.2002
G01 X12.5873 Y-4.2090
G01 X12.6376 Y-4.2203
G01 X12.6873 Y-4.2341
G01 X12.7362 Y-4.2502
G01 X12.7843 Y-4.2688
G01 X12.8314 Y-4.2897
G01 X12.8774 Y-4.3128
G01 X12.9222 Y-4.3382
G01 X12.9658 Y-4.3658
G01 X13.0079 Y-4.3955
G01 X13.0485 Y-4.4272
G01 X13.0875 Y-4.4608
G01 X13.1248 Y-4.4964
G01 X13.1604 Y-4.5337
G01 X13.1940 Y-4.5727
G01 X13.2257 Y-4.6133
G01 X13.2554 Y-4.6554
G01 X13.2830 Y-4.6990
G01 X13.3084 Y-4.7438
G01 X13.3315 Y-4.7898
G01 X13.3524 Y-4.8369
G01 X13.3710 Y-4.8850
G01 X13.3871 Y-4.9339
G01 X13.4009 Y-4.9836
G01 X13.4122 Y-5.0339
G01 X13.4210 Y-5.0847
G01 X13.4273 Y-5.1358
G01 X13.4311 Y-5.1872
G00 X13.4311 Y-5.1872
G01 F70.00
G01 Z-1.1000
G01 F120.00
G01 X13.4323 Y-5.2387
G01 X13.4311 Y-5.2902
G01 X13.4273 Y-5.3416
G01 X13.4210 Y-5.3927
G01 X13.4122 Y-5.4435
G01 X13.4009 Y-5.4938
G01 X13.3871 Y-5.5435
G01 X13.3710 Y-5.5924
G01 X13.3524 Y-5.6405
G01 X13.3315 Y-5.6876
G01 X13.3084 Y-5.7336
G01 X13.2830 Y-5.7784
G01 X13.2554 Y-5.8220
G01 X13.2257 Y-5.8641
G01 X13.1940 Y-5.9047
G01 X13.1604 Y-5.9437
G01 X13.1248 Y-5.9810
G01 X13.0875 Y-6.0166
G01 X13.0485 Y-6.0502
G01 X13.0079 Y-6.0819
G01 X12.9658 Y-6.1116
G01 X12.9222 Y-6.1392
G01 X12.8774 Y-6.1646
G01 X12.8314 Y-6.1877
G01 X12.7843 Y-6.2086
G01 X12.7362 Y-6.2272
G01 X12.6873 Y-6.2433
G01 X12.6376 Y-6.2571
G01 X12.5873 Y-6.2684
G01 X12.5365 Y-6.2772
G01 X12.4854 Y-6.2835
G01 X12.4340 Y-6.2873
G01 X12.3825 Y-6.2885
G01 X12.3310 Y-6.2873
G01 X12.2796 Y-6.2835
G01 X12.2285 Y-6.2772
G01 X12.1777 Y-6.2684
G01 X12.1274 Y-6.2571
G01 X12.0777 Y-6.2433
G01 X12.0288 Y-6.2272
G01 X11.9807 Y-6.2086
G01 X11.9336 Y-6.1877
G01 X11.8876 Y-6.1646
G01 X11.8428 Y-6.1392
G01 X11.7992 Y-6.1116
G01 X11.7571 Y-6.0819
G01 X11.7165 Y-6.0502
G01 X11.6775 Y-6.0166
G01 X11.6402 Y-5.9810
G01 X11.6046 Y-5.9437
G01 X11.5710 Y-5.9047
G01 X11.5393 Y-5.8641
G01 X11.5096 Y-5.8220
G01 X11.4820 Y-5.7784
G01 X11.4566 Y-5.7336
G01 X11.4335 Y-5.6876
G01 X11.4126 Y-5.6405
G01 X11.3940 Y-5.5924
G01 X11.3779 Y-5.5435
G01 X11.3641 Y-5.4938
G01 X11.3528 Y-5.4435
G01 X11.3440 Y-5.3927
G01 X11.3377 Y-5.3416
G01 X11.3339 Y-5.2902
G01 X11.3327 Y-5.2387
G01 X11.3339 Y-5.1872
G01 X11.3377 Y-5.1358
G01 X11.3440 Y-5.0847
G01 X11.3528 Y-5.0339
G01 X11.3641 Y-4.9836
G01 X11.3779 Y-4.9339
G01 X11.3940 Y-4.8850
G01 X11.4126 Y-4.8369
G01 X11.4335 Y-4.7898
G01 X11.4566 Y-4.7438
G01 X11.4820 Y-4.6990
G01 X11.5096 Y-4.6554
G01 X11.5393 Y-4.6133
G01 X11.5710 Y-4.5727
G01 X11.6046 Y-4.5337
G01 X11.6402 Y-4.4964
G01 X11.6775 Y-4.4608
G01 X11.7165 Y-4.4272
G01 X11.7571 Y-4.3955
G01 X11.7992 Y-4.3658
G01 X11.8428 Y-4.3382
G01 X11.8876 Y-4.3128
G01 X11.9336 Y-4.2897
G01 X11.9807 Y-4.2688
G01 X12.0288 Y-4.2502
G01 X12.0777 Y-4.2341
G01 X12.1274 Y-4.2203
G01 X12.1777 Y-4.2090
G01 X12.2285 Y-4.2002
G01 X12.2796 Y-4.1939
G01 X12.3310 Y-4.1901
G01 X12.3825 Y-4.1889
G01 X12.4340 Y-4.1901
G01 X12.4854 Y-4.1939
G01 X12.5365 Y-4.2002
G01 X12.5873 Y-4.2090
G01 X12.6376 Y-4.2203
G01 X12.6873 Y-4.2341
G01 X12.7362 Y-4.2502
G01 X12.7843 Y-4.2688
G01 X12.8314 Y-4.2897
G01 X12.8774 Y-4.3128
G01 X12.9222 Y-4.3382
G01 X12.9658 Y-4.3658
G01 X13.0079 Y-4.3955
G01 X13.0485 Y-4.4272
G01 X13.0875 Y-4.4608
G01 X13.1248 Y-4.4964
G01 X13.1604 Y-4.5337
G01 X13.1940 Y-4.5727
G01 X13.2257 Y-4.6133
G01 X13.2554 Y-4.6554
G01 X13.2830 Y-4.6990
G01 X13.3084 Y-4.7438
G01 X13.3315 Y-4.7898
G01 X13.3524 Y-4.8369
G01 X13.3710 Y-4.8850
G01 X13.3871 Y-4.9339
G01 X13.4009 Y-4.9836
G01 X13.4122 Y-5.0339
G01 X13.4210 Y-5.0847
G01 X13.4273 Y-5.1358
G01 X13.4311 Y-5.1872
G00 X13.4311 Y-5.1872
G01 F70.00
G01 Z-1.2000
G01 F120.00
G01 X13.4323 Y-5.2387
G01 X13.4311 Y-5.2902
G01 X13.4273 Y-5.3416
G01 X13.4210 Y-5.3927
G01 X13.4122 Y-5.4435
G01 X13.4009 Y-5.4938
G01 X13.3871 Y-5.5435
G01 X13.3710 Y-5.5924
G01 X13.3524 Y-5.6405
G01 X13.3315 Y-5.6876
G01 X13.3084 Y-5.7336
G01 X13.2830 Y-5.7784
G01 X13.2554 Y-5.8220
G01 X13.2257 Y-5.8641
G01 X13.1940 Y-5.9047
G01 X13.1604 Y-5.9437
G01 X13.1248 Y-5.9810
G01 X13.0875 Y-6.0166
G01 X13.0485 Y-6.0502
G01 X13.0079 Y-6.0819
G01 X12.9658 Y-6.1116
G01 X12.9222 Y-6.1392
G01 X12.8774 Y-6.1646
G01 X12.8314 Y-6.1877
G01 X12.7843 Y-6.2086
G01 X12.7362 Y-6.2272
G01 X12.6873 Y-6.2433
G01 X12.6376 Y-6.2571
G01 X12.5873 Y-6.2684
G01 X12.5365 Y-6.2772
G01 X12.4854 Y-6.2835
G01 X12.4340 Y-6.2873
G01 X12.3825 Y-6.2885
G01 X12.3310 Y-6.2873
G01 X12.2796 Y-6.2835
G01 X12.2285 Y-6.2772
G01 X12.1777 Y-6.2684
G01 X12.1274 Y-6.2571
G01 X12.0777 Y-6.2433
G01 X12.0288 Y-6.2272
G01 X11.9807 Y-6.2086
G01 X11.9336 Y-6.1877
G01 X11.8876 Y-6.1646
G01 X11.8428 Y-6.1392
G01 X11.7992 Y-6.1116
G01 X11.7571 Y-6.0819
G01 X11.7165 Y-6.0502
G01 X11.6775 Y-6.0166
G01 X11.6402 Y-5.9810
G01 X11.6046 Y-5.9437
G01 X11.5710 Y-5.9047
G01 X11.5393 Y-5.8641
G01 X11.5096 Y-5.8220
G01 X11.4820 Y-5.7784
G01 X11.4566 Y-5.7336
G01 X11.4335 Y-5.6876
G01 X11.4126 Y-5.6405
G01 X11.3940 Y-5.5924
G01 X11.3779 Y-5.5435
G01 X11.3641 Y-5.4938
G01 X11.3528 Y-5.4435
G01 X11.3440 Y-5.3927
G01 X11.3377 Y-5.3416
G01 X11.3339 Y-5.2902
G01 X11.3327 Y-5.2387
G01 X11.3339 Y-5.1872
G01 X11.3377 Y-5.1358
G01 X11.3440 Y-5.0847
G01 X11.3528 Y-5.0339
G01 X11.3641 Y-4.9836
G01 X11.3779 Y-4.9339
G01 X11.3940 Y-4.8850
G01 X11.4126 Y-4.8369
G01 X11.4335 Y-4.7898
G01 X11.4566 Y-4.7438
G01 X11.4820 Y-4.6990
G01 X11.5096 Y-4.6554
G01 X11.5393 Y-4.6133
G01 X11.5710 Y-4.5727
G01 X11.6046 Y-4.5337
G01 X11.6402 Y-4.4964
G01 X11.6775 Y-4.4608
G01 X11.7165 Y-4.4272
G01 X11.7571 Y-4.3955
G01 X11.7992 Y-4.3658
G01 X11.8428 Y-4.3382
G01 X11.8876 Y-4.3128
G01 X11.9336 Y-4.2897
G01 X11.9807 Y-4.2688
G01 X12.0288 Y-4.2502
G01 X12.0777 Y-4.2341
G01 X12.1274 Y-4.2203
G01 X12.1777 Y-4.2090
G01 X12.2285 Y-4.2002
G01 X12.2796 Y-4.1939
G01 X12.3310 Y-4.1901
G01 X12.3825 Y-4.1889
G01 X12.4340 Y-4.1901
G01 X12.4854 Y-4.1939
G01 X12.5365 Y-4.2002
G01 X12.5873 Y-4.2090
G01 X12.6376 Y-4.2203
G01 X12.6873 Y-4.2341
G01 X12.7362 Y-4.2502
G01 X12.7843 Y-4.2688
G01 X12.8314 Y-4.2897
G01 X12.8774 Y-4.3128
G01 X12.9222 Y-4.3382
G01 X12.9658 Y-4.3658
G01 X13.0079 Y-4.3955
G01 X13.0485 Y-4.4272
G01 X13.0875 Y-4.4608
G01 X13.1248 Y-4.4964
G01 X13.1604 Y-4.5337
G01 X13.1940 Y-4.5727
G01 X13.2257 Y-4.6133
G01 X13.2554 Y-4.6554
G01 X13.2830 Y-4.6990
G01 X13.3084 Y-4.7438
G01 X13.3315 Y-4.7898
G01 X13.3524 Y-4.8369
G01 X13.3710 Y-4.8850
G01 X13.3871 Y-4.9339
G01 X13.4009 Y-4.9836
G01 X13.4122 Y-5.0339
G01 X13.4210 Y-5.0847
G01 X13.4273 Y-5.1358
G01 X13.4311 Y-5.1872
G00 X13.4311 Y-5.1872
G01 F70.00
G01 Z-1.3000
G01 F120.00
G01 X13.4323 Y-5.2387
G01 X13.4311 Y-5.2902
G01 X13.4273 Y-5.3416
G01 X13.4210 Y-5.3927
G01 X13.4122 Y-5.4435
G01 X13.4009 Y-5.4938
G01 X13.3871 Y-5.5435
G01 X13.3710 Y-5.5924
G01 X13.3524 Y-5.6405
G01 X13.3315 Y-5.6876
G01 X13.3084 Y-5.7336
G01 X13.2830 Y-5.7784
G01 X13.2554 Y-5.8220
G01 X13.2257 Y-5.8641
G01 X13.1940 Y-5.9047
G01 X13.1604 Y-5.9437
G01 X13.1248 Y-5.9810
G01 X13.0875 Y-6.0166
G01 X13.0485 Y-6.0502
G01 X13.0079 Y-6.0819
G01 X12.9658 Y-6.1116
G01 X12.9222 Y-6.1392
G01 X12.8774 Y-6.1646
G01 X12.8314 Y-6.1877
G01 X12.7843 Y-6.2086
G01 X12.7362 Y-6.2272
G01 X12.6873 Y-6.2433
G01 X12.6376 Y-6.2571
G01 X12.5873 Y-6.2684
G01 X12.5365 Y-6.2772
G01 X12.4854 Y-6.2835
G01 X12.4340 Y-6.2873
G01 X12.3825 Y-6.2885
G01 X12.3310 Y-6.2873
G01 X12.2796 Y-6.2835
G01 X12.2285 Y-6.2772
G01 X12.1777 Y-6.2684
G01 X12.1274 Y-6.2571
G01 X12.0777 Y-6.2433
G01 X12.0288 Y-6.2272
G01 X11.9807 Y-6.2086
G01 X11.9336 Y-6.1877
G01 X11.8876 Y-6.1646
G01 X11.8428 Y-6.1392
G01 X11.7992 Y-6.1116
G01 X11.7571 Y-6.0819
G01 X11.7165 Y-6.0502
G01 X11.6775 Y-6.0166
G01 X11.6402 Y-5.9810
G01 X11.6046 Y-5.9437
G01 X11.5710 Y-5.9047
G01 X11.5393 Y-5.8641
G01 X11.5096 Y-5.8220
G01 X11.4820 Y-5.7784
G01 X11.4566 Y-5.7336
G01 X11.4335 Y-5.6876
G01 X11.4126 Y-5.6405
G01 X11.3940 Y-5.5924
G01 X11.3779 Y-5.5435
G01 X11.3641 Y-5.4938
G01 X11.3528 Y-5.4435
G01 X11.3440 Y-5.3927
G01 X11.3377 Y-5.3416
G01 X11.3339 Y-5.2902
G01 X11.3327 Y-5.2387
G01 X11.3339 Y-5.1872
G01 X11.3377 Y-5.1358
G01 X11.3440 Y-5.0847
G01 X11.3528 Y-5.0339
G01 X11.3641 Y-4.9836
G01 X11.3779 Y-4.9339
G01 X11.3940 Y-4.8850
G01 X11.4126 Y-4.8369
G01 X11.4335 Y-4.7898
G01 X11.4566 Y-4.7438
G01 X11.4820 Y-4.6990
G01 X11.5096 Y-4.6554
G01 X11.5393 Y-4.6133
G01 X11.5710 Y-4.5727
G01 X11.6046 Y-4.5337
G01 X11.6402 Y-4.4964
G01 X11.6775 Y-4.4608
G01 X11.7165 Y-4.4272
G01 X11.7571 Y-4.3955
G01 X11.7992 Y-4.3658
G01 X11.8428 Y-4.3382
G01 X11.8876 Y-4.3128
G01 X11.9336 Y-4.2897
G01 X11.9807 Y-4.2688
G01 X12.0288 Y-4.2502
G01 X12.0777 Y-4.2341
G01 X12.1274 Y-4.2203
G01 X12.1777 Y-4.2090
G01 X12.2285 Y-4.2002
G01 X12.2796 Y-4.1939
G01 X12.3310 Y-4.1901
G01 X12.3825 Y-4.1889
G01 X12.4340 Y-4.1901
G01 X12.4854 Y-4.1939
G01 X12.5365 Y-4.2002
G01 X12.5873 Y-4.2090
G01 X12.6376 Y-4.2203
G01 X12.6873 Y-4.2341
G01 X12.7362 Y-4.2502
G01 X12.7843 Y-4.2688
G01 X12.8314 Y-4.2897
G01 X12.8774 Y-4.3128
G01 X12.9222 Y-4.3382
G01 X12.9658 Y-4.3658
G01 X13.0079 Y-4.3955
G01 X13.0485 Y-4.4272
G01 X13.0875 Y-4.4608
G01 X13.1248 Y-4.4964
G01 X13.1604 Y-4.5337
G01 X13.1940 Y-4.5727
G01 X13.2257 Y-4.6133
G01 X13.2554 Y-4.6554
G01 X13.2830 Y-4.6990
G01 X13.3084 Y-4.7438
G01 X13.3315 Y-4.7898
G01 X13.3524 Y-4.8369
G01 X13.3710 Y-4.8850
G01 X13.3871 Y-4.9339
G01 X13.4009 Y-4.9836
G01 X13.4122 Y-5.0339
G01 X13.4210 Y-5.0847
G01 X13.4273 Y-5.1358
G01 X13.4311 Y-5.1872
G00 X13.4311 Y-5.1872
G01 F70.00
G01 Z-1.4000
G01 F120.00
G01 X13.4323 Y-5.2387
G01 X13.4311 Y-5.2902
G01 X13.4273 Y-5.3416
G01 X13.4210 Y-5.3927
G01 X13.4122 Y-5.4435
G01 X13.4009 Y-5.4938
G01 X13.3871 Y-5.5435
G01 X13.3710 Y-5.5924
G01 X13.3524 Y-5.6405
G01 X13.3315 Y-5.6876
G01 X13.3084 Y-5.7336
G01 X13.2830 Y-5.7784
G01 X13.2554 Y-5.8220
G01 X13.2257 Y-5.8641
G01 X13.1940 Y-5.9047
G01 X13.1604 Y-5.9437
G01 X13.1248 Y-5.9810
G01 X13.0875 Y-6.0166
G01 X13.0485 Y-6.0502
G01 X13.0079 Y-6.0819
G01 X12.9658 Y-6.1116
G01 X12.9222 Y-6.1392
G01 X12.8774 Y-6.1646
G01 X12.8314 Y-6.1877
G01 X12.7843 Y-6.2086
G01 X12.7362 Y-6.2272
G01 X12.6873 Y-6.2433
G01 X12.6376 Y-6.2571
G01 X12.5873 Y-6.2684
G01 X12.5365 Y-6.2772
G01 X12.4854 Y-6.2835
G01 X12.4340 Y-6.2873
G01 X12.3825 Y-6.2885
G01 X12.3310 Y-6.2873
G01 X12.2796 Y-6.2835
G01 X12.2285 Y-6.2772
G01 X12.1777 Y-6.2684
G01 X12.1274 Y-6.2571
G01 X12.0777 Y-6.2433
G01 X12.0288 Y-6.2272
G01 X11.9807 Y-6.2086
G01 X11.9336 Y-6.1877
G01 X11.8876 Y-6.1646
G01 X11.8428 Y-6.1392
G01 X11.7992 Y-6.1116
G01 X11.7571 Y-6.0819
G01 X11.7165 Y-6.0502
G01 X11.6775 Y-6.0166
G01 X11.6402 Y-5.9810
G01 X11.6046 Y-5.9437
G01 X11.5710 Y-5.9047
G01 X11.5393 Y-5.8641
G01 X11.5096 Y-5.8220
G01 X11.4820 Y-5.7784
G01 X11.4566 Y-5.7336
G01 X11.4335 Y-5.6876
G01 X11.4126 Y-5.6405
G01 X11.3940 Y-5.5924
G01 X11.3779 Y-5.5435
G01 X11.3641 Y-5.4938
G01 X11.3528 Y-5.4435
G01 X11.3440 Y-5.3927
G01 X11.3377 Y-5.3416
G01 X11.3339 Y-5.2902
G01 X11.3327 Y-5.2387
G01 X11.3339 Y-5.1872
G01 X11.3377 Y-5.1358
G01 X11.3440 Y-5.0847
G01 X11.3528 Y-5.0339
G01 X11.3641 Y-4.9836
G01 X11.3779 Y-4.9339
G01 X11.3940 Y-4.8850
G01 X11.4126 Y-4.8369
G01 X11.4335 Y-4.7898
G01 X11.4566 Y-4.7438
G01 X11.4820 Y-4.6990
G01 X11.5096 Y-4.6554
G01 X11.5393 Y-4.6133
G01 X11.5710 Y-4.5727
G01 X11.6046 Y-4.5337
G01 X11.6402 Y-4.4964
G01 X11.6775 Y-4.4608
G01 X11.7165 Y-4.4272
G01 X11.7571 Y-4.3955
G01 X11.7992 Y-4.3658
G01 X11.8428 Y-4.3382
G01 X11.8876 Y-4.3128
G01 X11.9336 Y-4.2897
G01 X11.9807 Y-4.2688
G01 X12.0288 Y-4.2502
G01 X12.0777 Y-4.2341
G01 X12.1274 Y-4.2203
G01 X12.1777 Y-4.2090
G01 X12.2285 Y-4.2002
G01 X12.2796 Y-4.1939
G01 X12.3310 Y-4.1901
G01 X12.3825 Y-4.1889
G01 X12.4340 Y-4.1901
G01 X12.4854 Y-4.1939
G01 X12.5365 Y-4.2002
G01 X12.5873 Y-4.2090
G01 X12.6376 Y-4.2203
G01 X12.6873 Y-4.2341
G01 X12.7362 Y-4.2502
G01 X12.7843 Y-4.2688
G01 X12.8314 Y-4.2897
G01 X12.8774 Y-4.3128
G01 X12.9222 Y-4.3382
G01 X12.9658 Y-4.3658
G01 X13.0079 Y-4.3955
G01 X13.0485 Y-4.4272
G01 X13.0875 Y-4.4608
G01 X13.1248 Y-4.4964
G01 X13.1604 Y-4.5337
G01 X13.1940 Y-4.5727
G01 X13.2257 Y-4.6133
G01 X13.2554 Y-4.6554
G01 X13.2830 Y-4.6990
G01 X13.3084 Y-4.7438
G01 X13.3315 Y-4.7898
G01 X13.3524 Y-4.8369
G01 X13.3710 Y-4.8850
G01 X13.3871 Y-4.9339
G01 X13.4009 Y-4.9836
G01 X13.4122 Y-5.0339
G01 X13.4210 Y-5.0847
G01 X13.4273 Y-5.1358
G01 X13.4311 Y-5.1872
G00 X13.4311 Y-5.1872
G01 F70.00
G01 Z-1.5000
G01 F120.00
G01 X13.4323 Y-5.2387
G01 X13.4311 Y-5.2902
G01 X13.4273 Y-5.3416
G01 X13.4210 Y-5.3927
G01 X13.4122 Y-5.4435
G01 X13.4009 Y-5.4938
G01 X13.3871 Y-5.5435
G01 X13.3710 Y-5.5924
G01 X13.3524 Y-5.6405
G01 X13.3315 Y-5.6876
G01 X13.3084 Y-5.7336
G01 X13.2830 Y-5.7784
G01 X13.2554 Y-5.8220
G01 X13.2257 Y-5.8641
G01 X13.1940 Y-5.9047
G01 X13.1604 Y-5.9437
G01 X13.1248 Y-5.9810
G01 X13.0875 Y-6.0166
G01 X13.0485 Y-6.0502
G01 X13.0079 Y-6.0819
G01 X12.9658 Y-6.1116
G01 X12.9222 Y-6.1392
G01 X12.8774 Y-6.1646
G01 X12.8314 Y-6.1877
G01 X12.7843 Y-6.2086
G01 X12.7362 Y-6.2272
G01 X12.6873 Y-6.2433
G01 X12.6376 Y-6.2571
G01 X12.5873 Y-6.2684
G01 X12.5365 Y-6.2772
G01 X12.4854 Y-6.2835
G01 X12.4340 Y-6.2873
G01 X12.3825 Y-6.2885
G01 X12.3310 Y-6.2873
G01 X12.2796 Y-6.2835
G01 X12.2285 Y-6.2772
G01 X12.1777 Y-6.2684
G01 X12.1274 Y-6.2571
G01 X12.0777 Y-6.2433
G01 X12.0288 Y-6.2272
G01 X11.9807 Y-6.2086
G01 X11.9336 Y-6.1877
G01 X11.8876 Y-6.1646
G01 X11.8428 Y-6.1392
G01 X11.7992 Y-6.1116
G01 X11.7571 Y-6.0819
G01 X11.7165 Y-6.0502
G01 X11.6775 Y-6.0166
G01 X11.6402 Y-5.9810
G01 X11.6046 Y-5.9437
G01 X11.5710 Y-5.9047
G01 X11.5393 Y-5.8641
G01 X11.5096 Y-5.8220
G01 X11.4820 Y-5.7784
G01 X11.4566 Y-5.7336
G01 X11.4335 Y-5.6876
G01 X11.4126 Y-5.6405
G01 X11.3940 Y-5.5924
G01 X11.3779 Y-5.5435
G01 X11.3641 Y-5.4938
G01 X11.3528 Y-5.4435
G01 X11.3440 Y-5.3927
G01 X11.3377 Y-5.3416
G01 X11.3339 Y-5.2902
G01 X11.3327 Y-5.2387
G01 X11.3339 Y-5.1872
G01 X11.3377 Y-5.1358
G01 X11.3440 Y-5.0847
G01 X11.3528 Y-5.0339
G01 X11.3641 Y-4.9836
G01 X11.3779 Y-4.9339
G01 X11.3940 Y-4.8850
G01 X11.4126 Y-4.8369
G01 X11.4335 Y-4.7898
G01 X11.4566 Y-4.7438
G01 X11.4820 Y-4.6990
G01 X11.5096 Y-4.6554
G01 X11.5393 Y-4.6133
G01 X11.5710 Y-4.5727
G01 X11.6046 Y-4.5337
G01 X11.6402 Y-4.4964
G01 X11.6775 Y-4.4608
G01 X11.7165 Y-4.4272
G01 X11.7571 Y-4.3955
G01 X11.7992 Y-4.3658
G01 X11.8428 Y-4.3382
G01 X11.8876 Y-4.3128
G01 X11.9336 Y-4.2897
G01 X11.9807 Y-4.2688
G01 X12.0288 Y-4.2502
G01 X12.0777 Y-4.2341
G01 X12.1274 Y-4.2203
G01 X12.1777 Y-4.2090
G01 X12.2285 Y-4.2002
G01 X12.2796 Y-4.1939
G01 X12.3310 Y-4.1901
G01 X12.3825 Y-4.1889
G01 X12.4340 Y-4.1901
G01 X12.4854 Y-4.1939
G01 X12.5365 Y-4.2002
G01 X12.5873 Y-4.2090
G01 X12.6376 Y-4.2203
G01 X12.6873 Y-4.2341
G01 X12.7362 Y-4.2502
G01 X12.7843 Y-4.2688
G01 X12.8314 Y-4.2897
G01 X12.8774 Y-4.3128
G01 X12.9222 Y-4.3382
G01 X12.9658 Y-4.3658
G01 X13.0079 Y-4.3955
G01 X13.0485 Y-4.4272
G01 X13.0875 Y-4.4608
G01 X13.1248 Y-4.4964
G01 X13.1604 Y-4.5337
G01 X13.1940 Y-4.5727
G01 X13.2257 Y-4.6133
G01 X13.2554 Y-4.6554
G01 X13.2830 Y-4.6990
G01 X13.3084 Y-4.7438
G01 X13.3315 Y-4.7898
G01 X13.3524 Y-4.8369
G01 X13.3710 Y-4.8850
G01 X13.3871 Y-4.9339
G01 X13.4009 Y-4.9836
G01 X13.4122 Y-5.0339
G01 X13.4210 Y-5.0847
G01 X13.4273 Y-5.1358
G01 X13.4311 Y-5.1872
G00 X13.4311 Y-5.1872
G01 F70.00
G01 Z-1.6000
G01 F120.00
G01 X13.4323 Y-5.2387
G01 X13.4311 Y-5.2902
G01 X13.4273 Y-5.3416
G01 X13.4210 Y-5.3927
G01 X13.4122 Y-5.4435
G01 X13.4009 Y-5.4938
G01 X13.3871 Y-5.5435
G01 X13.3710 Y-5.5924
G01 X13.3524 Y-5.6405
G01 X13.3315 Y-5.6876
G01 X13.3084 Y-5.7336
G01 X13.2830 Y-5.7784
G01 X13.2554 Y-5.8220
G01 X13.2257 Y-5.8641
G01 X13.1940 Y-5.9047
G01 X13.1604 Y-5.9437
G01 X13.1248 Y-5.9810
G01 X13.0875 Y-6.0166
G01 X13.0485 Y-6.0502
G01 X13.0079 Y-6.0819
G01 X12.9658 Y-6.1116
G01 X12.9222 Y-6.1392
G01 X12.8774 Y-6.1646
G01 X12.8314 Y-6.1877
G01 X12.7843 Y-6.2086
G01 X12.7362 Y-6.2272
G01 X12.6873 Y-6.2433
G01 X12.6376 Y-6.2571
G01 X12.5873 Y-6.2684
G01 X12.5365 Y-6.2772
G01 X12.4854 Y-6.2835
G01 X12.4340 Y-6.2873
G01 X12.3825 Y-6.2885
G01 X12.3310 Y-6.2873
G01 X12.2796 Y-6.2835
G01 X12.2285 Y-6.2772
G01 X12.1777 Y-6.2684
G01 X12.1274 Y-6.2571
G01 X12.0777 Y-6.2433
G01 X12.0288 Y-6.2272
G01 X11.9807 Y-6.2086
G01 X11.9336 Y-6.1877
G01 X11.8876 Y-6.1646
G01 X11.8428 Y-6.1392
G01 X11.7992 Y-6.1116
G01 X11.7571 Y-6.0819
G01 X11.7165 Y-6.0502
G01 X11.6775 Y-6.0166
G01 X11.6402 Y-5.9810
G01 X11.6046 Y-5.9437
G01 X11.5710 Y-5.9047
G01 X11.5393 Y-5.8641
G01 X11.5096 Y-5.8220
G01 X11.4820 Y-5.7784
G01 X11.4566 Y-5.7336
G01 X11.4335 Y-5.6876
G01 X11.4126 Y-5.6405
G01 X11.3940 Y-5.5924
G01 X11.3779 Y-5.5435
G01 X11.3641 Y-5.4938
G01 X11.3528 Y-5.4435
G01 X11.3440 Y-5.3927
G01 X11.3377 Y-5.3416
G01 X11.3339 Y-5.2902
G01 X11.3327 Y-5.2387
G01 X11.3339 Y-5.1872
G01 X11.3377 Y-5.1358
G01 X11.3440 Y-5.0847
G01 X11.3528 Y-5.0339
G01 X11.3641 Y-4.9836
G01 X11.3779 Y-4.9339
G01 X11.3940 Y-4.8850
G01 X11.4126 Y-4.8369
G01 X11.4335 Y-4.7898
G01 X11.4566 Y-4.7438
G01 X11.4820 Y-4.6990
G01 X11.5096 Y-4.6554
G01 X11.5393 Y-4.6133
G01 X11.5710 Y-4.5727
G01 X11.6046 Y-4.5337
G01 X11.6402 Y-4.4964
G01 X11.6775 Y-4.4608
G01 X11.7165 Y-4.4272
G01 X11.7571 Y-4.3955
G01 X11.7992 Y-4.3658
G01 X11.8428 Y-4.3382
G01 X11.8876 Y-4.3128
G01 X11.9336 Y-4.2897
G01 X11.9807 Y-4.2688
G01 X12.0288 Y-4.2502
G01 X12.0777 Y-4.2341
G01 X12.1274 Y-4.2203
G01 X12.1777 Y-4.2090
G01 X12.2285 Y-4.2002
G01 X12.2796 Y-4.1939
G01 X12.3310 Y-4.1901
G01 X12.3825 Y-4.1889
G01 X12.4340 Y-4.1901
G01 X12.4854 Y-4.1939
G01 X12.5365 Y-4.2002
G01 X12.5873 Y-4.2090
G01 X12.6376 Y-4.2203
G01 X12.6873 Y-4.2341
G01 X12.7362 Y-4.2502
G01 X12.7843 Y-4.2688
G01 X12.8314 Y-4.2897
G01 X12.8774 Y-4.3128
G01 X12.9222 Y-4.3382
G01 X12.9658 Y-4.3658
G01 X13.0079 Y-4.3955
G01 X13.0485 Y-4.4272
G01 X13.0875 Y-4.4608
G01 X13.1248 Y-4.4964
G01 X13.1604 Y-4.5337
G01 X13.1940 Y-4.5727
G01 X13.2257 Y-4.6133
G01 X13.2554 Y-4.6554
G01 X13.2830 Y-4.6990
G01 X13.3084 Y-4.7438
G01 X13.3315 Y-4.7898
G01 X13.3524 Y-4.8369
G01 X13.3710 Y-4.8850
G01 X13.3871 Y-4.9339
G01 X13.4009 Y-4.9836
G01 X13.4122 Y-5.0339
G01 X13.4210 Y-5.0847
G01 X13.4273 Y-5.1358
G01 X13.4311 Y-5.1872
G00 X13.4311 Y-5.1872
G01 F70.00
G01 Z-1.7000
G01 F120.00
G01 X13.4323 Y-5.2387
G01 X13.4311 Y-5.2902
G01 X13.4273 Y-5.3416
G01 X13.4210 Y-5.3927
G01 X13.4122 Y-5.4435
G01 X13.4009 Y-5.4938
G01 X13.3871 Y-5.5435
G01 X13.3710 Y-5.5924
G01 X13.3524 Y-5.6405
G01 X13.3315 Y-5.6876
G01 X13.3084 Y-5.7336
G01 X13.2830 Y-5.7784
G01 X13.2554 Y-5.8220
G01 X13.2257 Y-5.8641
G01 X13.1940 Y-5.9047
G01 X13.1604 Y-5.9437
G01 X13.1248 Y-5.9810
