(G-CODE GENERATED BY FLATCAM v8.993 - www.flatcam.org - Version Date: 2020/06/05)

(Name: ThermoSensor_Ф1_верх.gbr_iso_combined_cnc)
(Type: G-code from Geometry)
(Units: MM)

(Created on Friday, 30 October 2020 at 19:21)

(This preprocessor is the default preprocessor used by FlatCAM.)
(It is made to work with MACH3 compatible motion controllers.)

(TOOL DIAMETER: 0.15 mm)
(Feedrate_XY: 120.0 mm/min)
(Feedrate_Z: 70.0 mm/min)
(Feedrate rapids 1500.0 mm/min)

(Z_Cut: -0.07 mm)
(Z_Move: 2.0 mm)
(Z Start: None mm)
(Z End: 25.0 mm)
(Steps per circle: 128)
(Preprocessor Geometry: default)

(X range:   -0.3000 ...   20.3000  mm)
(Y range:  -20.3000 ...    0.3000  mm)

(Spindle Speed: 10000 RPM)
G21
G90
G94



G01 F120.00
G00 Z2.0000

M03 S10000
G00 X-0.0750 Y0.0000
G01 F70.00
G01 Z-0.0700
G01 F120.00
G01 X-0.0750 Y-20.0000
G01 X-0.0736 Y-20.0146
G01 X-0.0693 Y-20.0287
G01 X-0.0624 Y-20.0417
G01 X-0.0530 Y-20.0530
G01 X-0.0417 Y-20.0624
G01 X-0.0287 Y-20.0693
G01 X-0.0146 Y-20.0736
G01 X0.0000 Y-20.0750
G01 X20.0000 Y-20.0750
G01 X20.0146 Y-20.0736
G01 X20.0287 Y-20.0693
G01 X20.0417 Y-20.0624
G01 X20.0530 Y-20.0530
G01 X20.0624 Y-20.0417
G01 X20.0693 Y-20.0287
G01 X20.0736 Y-20.0146
G01 X20.0750 Y-20.0000
G01 X20.0750 Y0.0000
G01 X20.0736 Y0.0146
G01 X20.0693 Y0.0287
G01 X20.0624 Y0.0417
G01 X20.0530 Y0.0530
G01 X20.0417 Y0.0624
G01 X20.0287 Y0.0693
G01 X20.0146 Y0.0736
G01 X20.0000 Y0.0750
G01 X-0.0000 Y0.0750
G01 X-0.0146 Y0.0736
G01 X-0.0287 Y0.0693
G01 X-0.0417 Y0.0624
G01 X-0.0530 Y0.0530
G01 X-0.0624 Y0.0417
G01 X-0.0693 Y0.0287
G01 X-0.0736 Y0.0146
G01 X-0.0750 Y0.0000
G00 Z2.0000
G00 X-0.1500 Y0.0000
G01 F70.00
G01 Z-0.0700
G01 F120.00
G01 X-0.1500 Y-20.0000
G01 X-0.1493 Y-20.0147
G01 X-0.1471 Y-20.0293
G01 X-0.1435 Y-20.0435
G01 X-0.1386 Y-20.0574
G01 X-0.1323 Y-20.0707
G01 X-0.1247 Y-20.0833
G01 X-0.1160 Y-20.0952
G01 X-0.1061 Y-20.1061
G01 X-0.0952 Y-20.1160
G01 X-0.0833 Y-20.1247
G01 X-0.0707 Y-20.1323
G01 X-0.0574 Y-20.1386
G01 X-0.0435 Y-20.1435
G01 X-0.0293 Y-20.1471
G01 X-0.0147 Y-20.1493
G01 X0.0000 Y-20.1500
G01 X20.0000 Y-20.1500
G01 X20.0147 Y-20.1493
G01 X20.0293 Y-20.1471
G01 X20.0435 Y-20.1435
G01 X20.0574 Y-20.1386
G01 X20.0707 Y-20.1323
G01 X20.0833 Y-20.1247
G01 X20.0952 Y-20.1160
G01 X20.1061 Y-20.1061
G01 X20.1160 Y-20.0952
G01 X20.1247 Y-20.0833
G01 X20.1323 Y-20.0707
G01 X20.1386 Y-20.0574
G01 X20.1435 Y-20.0435
G01 X20.1471 Y-20.0293
G01 X20.1493 Y-20.0147
G01 X20.1500 Y-20.0000
G01 X20.1500 Y0.0000
G01 X20.1493 Y0.0147
G01 X20.1471 Y0.0293
G01 X20.1435 Y0.0435
G01 X20.1386 Y0.0574
G01 X20.1323 Y0.0707
G01 X20.1247 Y0.0833
G01 X20.1160 Y0.0952
G01 X20.1061 Y0.1061
G01 X20.0952 Y0.1160
G01 X20.0833 Y0.1247
G01 X20.0707 Y0.1323
G01 X20.0574 Y0.1386
G01 X20.0435 Y0.1435
G01 X20.0293 Y0.1471
G01 X20.0147 Y0.1493
G01 X20.0000 Y0.1500
G01 X-0.0000 Y0.1500
G01 X-0.0147 Y0.1493
G01 X-0.0293 Y0.1471
G01 X-0.0435 Y0.1435
G01 X-0.0574 Y0.1386
G01 X-0.0707 Y0.1323
G01 X-0.0833 Y0.1247
G01 X-0.0952 Y0.1160
G01 X-0.1061 Y0.1061
G01 X-0.1160 Y0.0952
G01 X-0.1247 Y0.0833
G01 X-0.1323 Y0.0707
G01 X-0.1386 Y0.0574
G01 X-0.1435 Y0.0435
G01 X-0.1471 Y0.0293
G01 X-0.1493 Y0.0147
G01 X-0.1500 Y0.0000
G00 Z2.0000
G00 X-0.2250 Y0.0000
G01 F70.00
G01 Z-0.0700
G01 F120.00
G01 X-0.2250 Y-20.0000
G01 X-0.2239 Y-20.0221
G01 X-0.2207 Y-20.0439
G01 X-0.2153 Y-20.0653
G01 X-0.2079 Y-20.0861
G01 X-0.1984 Y-20.1061
G01 X-0.1871 Y-20.1250
G01 X-0.1739 Y-20.1427
G01 X-0.1591 Y-20.1591
G01 X-0.1427 Y-20.1739
G01 X-0.1250 Y-20.1871
G01 X-0.1061 Y-20.1984
G01 X-0.0861 Y-20.2079
G01 X-0.0653 Y-20.2153
G01 X-0.0439 Y-20.2207
G01 X-0.0221 Y-20.2239
G01 X0.0000 Y-20.2250
G01 X20.0000 Y-20.2250
G01 X20.0221 Y-20.2239
G01 X20.0439 Y-20.2207
G01 X20.0653 Y-20.2153
G01 X20.0861 Y-20.2079
G01 X20.1061 Y-20.1984
G01 X20.1250 Y-20.1871
G01 X20.1427 Y-20.1739
G01 X20.1591 Y-20.1591
G01 X20.1739 Y-20.1427
G01 X20.1871 Y-20.1250
G01 X20.1984 Y-20.1061
G01 X20.2079 Y-20.0861
G01 X20.2153 Y-20.0653
G01 X20.2207 Y-20.0439
G01 X20.2239 Y-20.0221
G01 X20.2250 Y-20.0000
G01 X20.2250 Y0.0000
G01 X20.2239 Y0.0221
G01 X20.2207 Y0.0439
G01 X20.2153 Y0.0653
G01 X20.2079 Y0.0861
G01 X20.1984 Y0.1061
G01 X20.1871 Y0.1250
G01 X20.1739 Y0.1427
G01 X20.1591 Y0.1591
G01 X20.1427 Y0.1739
G01 X20.1250 Y0.1871
G01 X20.1061 Y0.1984
G01 X20.0861 Y0.2079
G01 X20.0653 Y0.2153
G01 X20.0439 Y0.2207
G01 X20.0221 Y0.2239
G01 X20.0000 Y0.2250
G01 X-0.0028 Y0.2250
G01 X-0.0248 Y0.2236
G01 X-0.0466 Y0.2201
G01 X-0.0680 Y0.2145
G01 X-0.0886 Y0.2068
G01 X-0.1085 Y0.1971
G01 X-0.1273 Y0.1855
G01 X-0.1427 Y0.1739
G01 X-0.1591 Y0.1591
G01 X-0.1739 Y0.1427
G01 X-0.1871 Y0.1250
G01 X-0.1984 Y0.1061
G01 X-0.2079 Y0.0861
G01 X-0.2153 Y0.0653
G01 X-0.2207 Y0.0439
G01 X-0.2239 Y0.0221
G01 X-0.2250 Y0.0000
G00 Z2.0000
G00 X-0.3000 Y0.0000
G01 F70.00
G01 Z-0.0700
G01 F120.00
G01 X-0.3000 Y-20.0000
G01 X-0.2986 Y-20.0294
G01 X-0.2942 Y-20.0585
G01 X-0.2860 Y-20.0906
G01 X-0.2757 Y-20.1182
G01 X-0.2628 Y-20.1447
G01 X-0.2474 Y-20.1697
G01 X-0.2296 Y-20.1931
G01 X-0.2095 Y-20.2147
G01 X-0.1903 Y-20.2319
G01 X-0.1667 Y-20.2494
G01 X-0.1414 Y-20.2646
G01 X-0.1148 Y-20.2772
G01 X-0.0871 Y-20.2871
G01 X-0.0585 Y-20.2942
G01 X-0.0294 Y-20.2986
G01 X0.0000 Y-20.3000
G01 X20.0000 Y-20.3000
G01 X20.0294 Y-20.2986
G01 X20.0585 Y-20.2942
G01 X20.0871 Y-20.2871
G01 X20.1148 Y-20.2772
G01 X20.1447 Y-20.2628
G01 X20.1697 Y-20.2474
G01 X20.1931 Y-20.2296
G01 X20.2147 Y-20.2095
G01 X20.2342 Y-20.1875
G01 X20.2515 Y-20.1636
G01 X20.2663 Y-20.1382
G01 X20.2786 Y-20.1114
G01 X20.2881 Y-20.0836
G01 X20.2949 Y-20.0549
G01 X20.2986 Y-20.0294
G01 X20.3000 Y-20.0000
G01 X20.3000 Y0.0000
G01 X20.2986 Y0.0294
G01 X20.2942 Y0.0585
G01 X20.2871 Y0.0871
G01 X20.2772 Y0.1148
G01 X20.2628 Y0.1447
G01 X20.2474 Y0.1697
G01 X20.2296 Y0.1931
G01 X20.2095 Y0.2147
G01 X20.1875 Y0.2342
G01 X20.1636 Y0.2515
G01 X20.1382 Y0.2663
G01 X20.1114 Y0.2786
G01 X20.0836 Y0.2881
G01 X20.0585 Y0.2942
G01 X20.0294 Y0.2986
G01 X20.0000 Y0.3000
G01 X-0.0037 Y0.3000
G01 X-0.0331 Y0.2982
G01 X-0.0621 Y0.2935
G01 X-0.0906 Y0.2860
G01 X-0.1182 Y0.2757
G01 X-0.1447 Y0.2628
G01 X-0.1697 Y0.2474
G01 X-0.1931 Y0.2296
G01 X-0.2121 Y0.2121
G01 X-0.2319 Y0.1903
G01 X-0.2494 Y0.1667
G01 X-0.2646 Y0.1414
G01 X-0.2772 Y0.1148
G01 X-0.2871 Y0.0871
G01 X-0.2942 Y0.0585
G01 X-0.2986 Y0.0294
G01 X-0.3000 Y0.0000
G00 Z2.0000
G00 X0.9526 Y-6.0584
G01 F70.00
G01 Z-0.0700
G01 F120.00
G01 X0.9527 Y-8.9042
G01 X0.9551 Y-8.9262
G01 X0.9607 Y-8.9475
G01 X0.9694 Y-8.9678
G01 X0.9810 Y-8.9866
G01 X0.9952 Y-9.0035
G01 X1.0117 Y-9.0181
G01 X1.0302 Y-9.0301
G01 X1.0486 Y-9.0387
G01 X1.0626 Y-9.0433
G01 X1.0751 Y-9.0462
G01 X1.0897 Y-9.0482
G01 X1.1026 Y-9.0487
G01 X8.4243 Y-9.0487
G01 X8.4481 Y-9.0465
G01 X8.4695 Y-9.0412
G01 X8.4899 Y-9.0327
G01 X8.5088 Y-9.0214
G01 X8.5259 Y-9.0074
G01 X8.5407 Y-8.9910
G01 X8.5529 Y-8.9727
G01 X8.5624 Y-8.9527
G01 X8.5665 Y-8.9405
G01 X8.5695 Y-8.9280
G01 X8.5717 Y-8.9134
G01 X8.5724 Y-8.9006
G01 X8.5721 Y-7.5740
G01 X8.5692 Y-7.5521
G01 X8.5636 Y-7.5326
G01 X8.5546 Y-7.5124
G01 X8.5439 Y-7.4952
G01 X8.5296 Y-7.4783
G01 X8.5145 Y-7.4648
G01 X8.4960 Y-7.4525
G01 X8.4760 Y-7.4431
G01 X8.4530 Y-7.4364
G01 X1.1296 Y-5.9108
G01 X1.1132 Y-5.9087
G01 X1.0966 Y-5.9085
G01 X1.0802 Y-5.9100
G01 X1.0640 Y-5.9134
G01 X1.0483 Y-5.9185
G01 X1.0332 Y-5.9254
G01 X1.0190 Y-5.9338
G01 X1.0072 Y-5.9426
G01 X0.9951 Y-5.9538
G01 X0.9842 Y-5.9662
G01 X0.9748 Y-5.9798
G01 X0.9669 Y-5.9943
G01 X0.9607 Y-6.0096
G01 X0.9562 Y-6.0256
G01 X0.9535 Y-6.0419
G01 X0.9526 Y-6.0584
G00 Z2.0000
G00 X1.0276 Y-6.0584
G01 F70.00
G01 Z-0.0700
G01 F120.00
G01 X1.0276 Y-8.8996
G01 X1.0285 Y-8.9106
G01 X1.0311 Y-8.9214
G01 X1.0352 Y-8.9316
G01 X1.0407 Y-8.9412
G01 X1.0483 Y-8.9504
G01 X1.0564 Y-8.9579
G01 X1.0656 Y-8.9640
G01 X1.0756 Y-8.9687
G01 X1.0888 Y-8.9725
G01 X1.1026 Y-8.9737
G01 X8.4224 Y-8.9737
G01 X8.4334 Y-8.9729
G01 X8.4442 Y-8.9705
G01 X8.4545 Y-8.9665
G01 X8.4649 Y-8.9606
G01 X8.4741 Y-8.9530
G01 X8.4816 Y-8.9449
G01 X8.4877 Y-8.9357
G01 X8.4924 Y-8.9257
G01 X8.4962 Y-8.9125
G01 X8.4974 Y-8.8987
G01 X8.4974 Y-7.5814
G01 X8.4963 Y-7.5704
G01 X8.4936 Y-7.5597
G01 X8.4894 Y-7.5494
G01 X8.4837 Y-7.5400
G01 X8.4766 Y-7.5314
G01 X8.4684 Y-7.5240
G01 X8.4592 Y-7.5179
G01 X8.4492 Y-7.5132
G01 X8.4377 Y-7.5098
G01 X1.1170 Y-5.9848
G01 X1.1005 Y-5.9834
G01 X1.0842 Y-5.9857
G01 X1.0687 Y-5.9914
G01 X1.0549 Y-6.0005
G01 X1.0434 Y-6.0123
G01 X1.0348 Y-6.0263
G01 X1.0294 Y-6.0420
G01 X1.0276 Y-6.0584
G00 Z2.0000
G00 X0.9524 Y-9.0470
G01 F70.00
G01 Z-0.0700
G01 F120.00
G01 X0.9525 Y-9.0488
G01 X0.9543 Y-9.0489
G01 X8.5725 Y-9.0488
G01 X8.5725 Y-1.4288
G01 X0.9525 Y-1.4288
G01 X0.9524 Y-9.0470
G00 Z2.0000
G00 X0.8774 Y-9.0479
G01 F70.00
G01 Z-0.0700
G01 F120.00
G01 X0.8789 Y-9.0634
G01 X0.8832 Y-9.0775
G01 X0.8901 Y-9.0905
G01 X0.8994 Y-9.1019
G01 X0.9108 Y-9.1112
G01 X0.9238 Y-9.1181
G01 X0.9379 Y-9.1224
G01 X0.9534 Y-9.1239
G01 X8.5716 Y-9.1239
G01 X8.5871 Y-9.1224
G01 X8.6012 Y-9.1181
G01 X8.6142 Y-9.1112
G01 X8.6256 Y-9.1019
G01 X8.6349 Y-9.0905
G01 X8.6418 Y-9.0775
G01 X8.6461 Y-9.0634
G01 X8.6476 Y-9.0479
G01 X8.6476 Y-1.4297
G01 X8.6461 Y-1.4142
G01 X8.6418 Y-1.4001
G01 X8.6349 Y-1.3871
G01 X8.6256 Y-1.3757
G01 X8.6142 Y-1.3664
G01 X8.6012 Y-1.3595
G01 X8.5871 Y-1.3552
G01 X8.5716 Y-1.3537
G01 X0.9534 Y-1.3537
G01 X0.9379 Y-1.3552
G01 X0.9238 Y-1.3595
G01 X0.9108 Y-1.3664
G01 X0.8994 Y-1.3757
G01 X0.8901 Y-1.3871
G01 X0.8832 Y-1.4001
G01 X0.8789 Y-1.4142
G01 X0.8774 Y-1.4297
G01 X0.8774 Y-9.0479
G00 Z2.0000
G00 X2.8554 Y-11.0826
G01 F70.00
G01 Z-0.0700
G01 F120.00
G01 X2.8713 Y-11.0649
G01 X2.8890 Y-11.0490
G01 X2.8554 Y-11.0490
G01 X2.8554 Y-11.0826
G00 Z2.0000
G00 X3.7304 Y-10.9740
G01 F70.00
G01 Z-0.0700
G01 F120.00
G01 X2.7804 Y-10.9740
G01 X2.7804 Y-11.3240
G01 X2.8804 Y-11.3240
G01 X2.8808 Y-11.2130
G01 X2.8845 Y-11.1893
G01 X2.8911 Y-11.1683
G01 X2.8981 Y-11.1533
G01 X2.9057 Y-11.1407
G01 X2.9144 Y-11.1288
G01 X2.9256 Y-11.1166
G01 X2.9367 Y-11.1069
G01 X2.9502 Y-11.0973
G01 X2.9630 Y-11.0900
G01 X2.9781 Y-11.0834
G01 X2.9904 Y-11.0794
G01 X3.0029 Y-11.0765
G01 X3.0157 Y-11.0747
G01 X3.0286 Y-11.0740
G01 X3.7304 Y-11.0740
G01 X3.7304 Y-10.9740
G00 Z2.0000
G00 X3.8054 Y-10.8990
G01 F70.00
G01 Z-0.0700
G01 F120.00
G01 X2.7054 Y-10.8990
G01 X2.7054 Y-11.3990
G01 X2.9554 Y-11.3990
G01 X2.9554 Y-11.2231
G01 X2.9574 Y-11.2067
G01 X2.9608 Y-11.1962
G01 X2.9651 Y-11.1870
G01 X2.9707 Y-11.1786
G01 X2.9780 Y-11.1703
G01 X2.9857 Y-11.1638
G01 X2.9942 Y-11.1583
G01 X3.0034 Y-11.1540
G01 X3.0140 Y-11.1508
G01 X3.0304 Y-11.1490
G01 X3.8054 Y-11.1490
G01 X3.8054 Y-10.8990
G00 Z2.0000
G00 X5.3738 Y-11.0506
G01 F70.00
G01 Z-0.0700
G01 F120.00
G01 X5.3738 Y-10.9652
G01 X5.3616 Y-10.9791
G01 X5.3476 Y-10.9926
G01 X5.3326 Y-11.0047
G01 X5.3160 Y-11.0159
G01 X5.3316 Y-11.0230
G01 X5.3461 Y-11.0310
G01 X5.3600 Y-11.0400
G01 X5.3738 Y-11.0506
G00 Z2.0000
G00 X5.3738 Y-12.4828
G01 F70.00
G01 Z-0.0700
G01 F120.00
G01 X5.3738 Y-12.3974
G01 X5.3600 Y-12.4080
G01 X5.3461 Y-12.4170
G01 X5.3316 Y-12.4250
G01 X5.3160 Y-12.4321
G01 X5.3326 Y-12.4433
G01 X5.3476 Y-12.4554
G01 X5.3616 Y-12.4689
G01 X5.3738 Y-12.4828
G00 Z2.0000
G00 X5.3160 Y-13.5559
G01 F70.00
G01 Z-0.0700
G01 F120.00
G01 X5.3311 Y-13.5628
G01 X5.3738 Y-13.5628
G01 X5.3738 Y-13.5052
G01 X5.3616 Y-13.5191
G01 X5.3476 Y-13.5326
G01 X5.3326 Y-13.5447
G01 X5.3160 Y-13.5559
G00 Z2.0000
G00 X5.2851 Y-14.8153
G01 F70.00
G01 Z-0.0700
G01 F120.00
G01 X5.5238 Y-14.8153
G01 X5.5238 Y-18.5115
G01 X5.5246 Y-18.5212
G01 X5.5267 Y-18.5313
G01 X5.5302 Y-18.5409
G01 X5.5346 Y-18.5494
G01 X5.5401 Y-18.5573
G01 X5.5472 Y-18.5650
G01 X5.5546 Y-18.5712
G01 X5.5629 Y-18.5764
G01 X5.5717 Y-18.5805
G01 X5.5806 Y-18.5834
G01 X5.5898 Y-18.5851
G01 X5.5988 Y-18.5856
G01 X12.1473 Y-18.5856
G01 X12.1583 Y-18.5848
G01 X12.1694 Y-18.5823
G01 X12.1798 Y-18.5782
G01 X12.1901 Y-18.5722
G01 X12.1975 Y-18.5663
G01 X12.2036 Y-18.5601
G01 X12.2092 Y-18.5529
G01 X12.2137 Y-18.5455
G01 X12.2176 Y-18.5367
G01 X12.2202 Y-18.5284
G01 X12.2218 Y-18.5195
G01 X12.2223 Y-18.5106
G01 X12.2223 Y-10.0174
G01 X12.2215 Y-10.0062
G01 X12.2190 Y-9.9953
G01 X12.2147 Y-9.9844
G01 X12.2089 Y-9.9746
G01 X12.2030 Y-9.9672
G01 X12.1967 Y-9.9610
G01 X12.1893 Y-9.9553
G01 X12.1819 Y-9.9509
G01 X12.1734 Y-9.9471
G01 X12.1651 Y-9.9445
G01 X12.1567 Y-9.9430
G01 X12.1473 Y-9.9424
G01 X5.5988 Y-9.9424
G01 X5.5870 Y-9.9433
G01 X5.5762 Y-9.9459
G01 X5.5660 Y-9.9499
G01 X5.5560 Y-9.9558
G01 X5.5431 Y-9.9672
G01 X5.5377 Y-9.9739
G01 X5.5327 Y-9.9820
G01 X5.5291 Y-9.9896
G01 X5.5263 Y-9.9983
G01 X5.5244 Y-10.0077
G01 X5.5238 Y-10.0165
G01 X5.5238 Y-13.7128
G01 X5.2852 Y-13.7128
G01 X5.2736 Y-13.7027
G01 X5.2608 Y-13.6954
G01 X5.2459 Y-13.6906
G01 X5.2313 Y-13.6890
G01 X3.0295 Y-13.6890
G01 X3.0149 Y-13.6906
G01 X3.0017 Y-13.6947
G01 X2.9895 Y-13.7011
G01 X2.9787 Y-13.7097
G01 X2.9691 Y-13.7208
G01 X2.9622 Y-13.7328
G01 X2.9576 Y-13.7458
G01 X2.9555 Y-13.7594
G01 X2.9555 Y-14.7668
G01 X2.9567 Y-14.7777
G01 X2.9592 Y-14.7875
G01 X2.9630 Y-14.7969
G01 X2.9680 Y-14.8057
G01 X2.9742 Y-14.8137
G01 X2.9821 Y-14.8214
G01 X2.9903 Y-14.8274
G01 X2.9992 Y-14.8322
G01 X3.0149 Y-14.8374
G01 X3.0304 Y-14.8390
G01 X5.2313 Y-14.8390
G01 X5.2459 Y-14.8374
G01 X5.2608 Y-14.8326
G01 X5.2736 Y-14.8253
G01 X5.2851 Y-14.8153
G00 Z2.0000
G00 X5.3113 Y-14.8903
G01 F70.00
G01 Z-0.0700
G01 F120.00
G01 X5.4488 Y-14.8903
G01 X5.4488 Y-18.5142
G01 X5.4506 Y-18.5337
G01 X5.4546 Y-18.5521
G01 X5.4616 Y-18.5713
G01 X5.4704 Y-18.5881
G01 X5.4814 Y-18.6040
G01 X5.4955 Y-18.6194
G01 X5.5105 Y-18.6319
G01 X5.5269 Y-18.6423
G01 X5.5447 Y-18.6505
G01 X5.5625 Y-18.6561
G01 X5.5808 Y-18.6595
G01 X5.5988 Y-18.6606
G01 X12.1473 Y-18.6606
G01 X12.1701 Y-18.6589
G01 X12.1932 Y-18.6534
G01 X12.2144 Y-18.6448
G01 X12.2342 Y-18.6328
G01 X12.2491 Y-18.6208
G01 X12.2612 Y-18.6082
G01 X12.2721 Y-18.5938
G01 X12.2810 Y-18.5787
G01 X12.2879 Y-18.5629
G01 X12.2930 Y-18.5462
G01 X12.2962 Y-18.5284
G01 X12.2973 Y-18.5106
G01 X12.2973 Y-10.0174
G01 X12.2956 Y-9.9950
G01 X12.2902 Y-9.9716
G01 X12.2812 Y-9.9498
G01 X12.2695 Y-9.9305
G01 X12.2588 Y-9.9171
G01 X12.2462 Y-9.9046
G01 X12.2314 Y-9.8932
G01 X12.2165 Y-9.8843
G01 X12.1995 Y-9.8768
G01 X12.1829 Y-9.8717
G01 X12.1661 Y-9.8686
G01 X12.1473 Y-9.8674
G01 X5.5988 Y-9.8674
G01 X5.5752 Y-9.8693
G01 X5.5537 Y-9.8743
G01 X5.5317 Y-9.8833
G01 X5.5118 Y-9.8952
G01 X5.4983 Y-9.9060
G01 X5.4861 Y-9.9185
G01 X5.4755 Y-9.9320
G01 X5.4658 Y-9.9481
G01 X5.4588 Y-9.9636
G01 X5.4533 Y-9.9810
G01 X5.4501 Y-9.9980
G01 X5.4488 Y-10.0156
G01 X5.4488 Y-13.6378
G01 X5.3115 Y-13.6378
G01 X5.2929 Y-13.6276
G01 X5.2739 Y-13.6205
G01 X5.2524 Y-13.6156
G01 X5.2322 Y-13.6140
G01 X3.0230 Y-13.6142
G01 X3.0084 Y-13.6156
G01 X2.9957 Y-13.6181
G01 X2.9816 Y-13.6222
G01 X2.9696 Y-13.6269
G01 X2.9565 Y-13.6335
G01 X2.9440 Y-13.6414
G01 X2.9324 Y-13.6504
G01 X2.9230 Y-13.6592
G01 X2.9144 Y-13.6688
G01 X2.9057 Y-13.6807
G01 X2.8981 Y-13.6933
G01 X2.8925 Y-13.7049
G01 X2.8874 Y-13.7187
G01 X2.8840 Y-13.7311
G01 X2.8815 Y-13.7456
G01 X2.8805 Y-13.7585
G01 X2.8808 Y-14.7750
G01 X2.8837 Y-14.7951
G01 X2.8892 Y-14.8145
G01 X2.8964 Y-14.8314
G01 X2.9067 Y-14.8489
G01 X2.9193 Y-14.8647
G01 X2.9338 Y-14.8788
G01 X2.9486 Y-14.8897
G01 X2.9663 Y-14.8996
G01 X2.9816 Y-14.9058
G01 X2.9957 Y-14.9099
G01 X3.0120 Y-14.9129
G01 X3.0286 Y-14.9140
G01 X5.2304 Y-14.9140
G01 X5.2524 Y-14.9124
G01 X5.2722 Y-14.9081
G01 X5.2929 Y-14.9004
G01 X5.3113 Y-14.8903
G00 Z2.0000
G00 X5.3309 Y-14.9653
G01 F70.00
G01 Z-0.0700
G01 F120.00
G01 X5.3160 Y-14.9721
G01 X5.3326 Y-14.9833
G01 X5.3476 Y-14.9954
G01 X5.3616 Y-15.0089
G01 X5.3738 Y-15.0228
G01 X5.3738 Y-14.9653
G01 X5.3309 Y-14.9653
G00 Z2.0000
G00 X5.3160 Y-16.0959
G01 F70.00
G01 Z-0.0700
G01 F120.00
G01 X5.3316 Y-16.1030
G01 X5.3461 Y-16.1110
G01 X5.3600 Y-16.1200
G01 X5.3738 Y-16.1306
G01 X5.3738 Y-16.0452
G01 X5.3616 Y-16.0591
G01 X5.3476 Y-16.0726
G01 X5.3326 Y-16.0847
G01 X5.3160 Y-16.0959
G00 Z2.0000
G00 X5.3054 Y-17.3040
G01 F70.00
G01 Z-0.0700
G01 F120.00
G01 X5.3053 Y-16.3012
G01 X5.3043 Y-16.2912
G01 X5.3019 Y-16.2813
G01 X5.2978 Y-16.2711
G01 X5.2928 Y-16.2623
G01 X5.2866 Y-16.2543
G01 X5.2787 Y-16.2466
G01 X5.2705 Y-16.2406
G01 X5.2608 Y-16.2354
G01 X5.2459 Y-16.2306
G01 X5.2304 Y-16.2290
G01 X3.0295 Y-16.2290
G01 X3.0185 Y-16.2300
G01 X3.0086 Y-16.2322
G01 X2.9992 Y-16.2358
G01 X2.9895 Y-16.2411
G01 X2.9807 Y-16.2478
G01 X2.9730 Y-16.2557
G01 X2.9670 Y-16.2639
G01 X2.9618 Y-16.2736
G01 X2.9570 Y-16.2885
G01 X2.9554 Y-16.3031
G01 X2.9555 Y-17.3068
G01 X2.9567 Y-17.3177
G01 X2.9592 Y-17.3275
G01 X2.9630 Y-17.3369
G01 X2.9680 Y-17.3457
G01 X2.9742 Y-17.3537
G01 X2.9821 Y-17.3614
G01 X2.9903 Y-17.3674
G01 X3.0000 Y-17.3726
G01 X3.0149 Y-17.3774
G01 X3.0304 Y-17.3790
G01 X5.2322 Y-17.3790
G01 X5.2468 Y-17.3772
G01 X5.2608 Y-17.3726
G01 X5.2728 Y-17.3658
G01 X5.2841 Y-17.3564
G01 X5.2928 Y-17.3457
G01 X5.2997 Y-17.3327
G01 X5.3040 Y-17.3186
G01 X5.3054 Y-17.3040
G00 Z2.0000
G00 X5.3804 Y-17.3040
G01 F70.00
G01 Z-0.0700
G01 F120.00
G01 X5.3800 Y-16.2930
G01 X5.3771 Y-16.2729
G01 X5.3716 Y-16.2535
G01 X5.3627 Y-16.2333
G01 X5.3520 Y-16.2161
G01 X5.3390 Y-16.2006
G01 X5.3241 Y-16.1869
G01 X5.3075 Y-16.1753
G01 X5.2895 Y-16.1661
G01 X5.2739 Y-16.1605
G01 X5.2597 Y-16.1569
G01 X5.2451 Y-16.1547
G01 X5.2304 Y-16.1540
G01 X3.0249 Y-16.1541
G01 X3.0029 Y-16.1565
G01 X2.9833 Y-16.1616
G01 X2.9630 Y-16.1700
G01 X2.9455 Y-16.1803
G01 X2.9283 Y-16.1941
G01 X2.9144 Y-16.2088
G01 X2.9027 Y-16.2253
G01 X2.8925 Y-16.2449
G01 X2.8874 Y-16.2587
G01 X2.8837 Y-16.2729
G01 X2.8813 Y-16.2875
G01 X2.8804 Y-16.3022
G01 X2.8807 Y-17.3132
G01 X2.8833 Y-17.3333
G01 X2.8886 Y-17.3528
G01 X2.8973 Y-17.3731
G01 X2.9078 Y-17.3904
G01 X2.9205 Y-17.4061
G01 X2.9352 Y-17.4200
G01 X2.9533 Y-17.4327
G01 X2.9713 Y-17.4419
G01 X2.9869 Y-17.4475
G01 X3.0011 Y-17.4511
G01 X3.0157 Y-17.4533
G01 X3.0304 Y-17.4540
G01 X5.2396 Y-17.4537
G01 X5.2524 Y-17.4524
G01 X5.2668 Y-17.4495
G01 X5.2809 Y-17.4452
G01 X5.2945 Y-17.4396
G01 X5.3059 Y-17.4336
G01 X5.3183 Y-17.4256
G01 X5.3298 Y-17.4164
G01 X5.3403 Y-17.4061
G01 X5.3498 Y-17.3948
G01 X5.3581 Y-17.3827
G01 X5.3652 Y-17.3698
G01 X5.3703 Y-17.3580
G01 X5.3745 Y-17.3458
G01 X5.3779 Y-17.3315
G01 X5.3798 Y-17.3169
G01 X5.3804 Y-17.3040
G00 Z2.0000
G00 X5.3738 Y-17.4774
G01 F70.00
G01 Z-0.0700
G01 F120.00
G01 X5.3600 Y-17.4880
G01 X5.3461 Y-17.4970
G01 X5.3316 Y-17.5050
G01 X5.3160 Y-17.5121
G01 X5.3326 Y-17.5233
G01 X5.3476 Y-17.5354
G01 X5.3616 Y-17.5489
G01 X5.3738 Y-17.5628
G01 X5.3738 Y-17.4774
G00 Z2.0000
G00 X5.1986 Y-17.5540
G01 F70.00
G01 Z-0.0700
G01 F120.00
G01 X5.2115 Y-17.5546
G01 X5.2261 Y-17.5565
G01 X5.2386 Y-17.5594
G01 X5.2509 Y-17.5634
G01 X5.2627 Y-17.5684
G01 X5.2741 Y-17.5744
G01 X5.2865 Y-17.5824
G01 X5.2966 Y-17.5904
G01 X5.3060 Y-17.5992
G01 X5.3157 Y-17.6103
G01 X5.3233 Y-17.6207
G01 X5.3300 Y-17.6317
G01 X5.3357 Y-17.6432
G01 X5.3404 Y-17.6552
G01 X5.3441 Y-17.6676
G01 X5.3467 Y-17.6802
G01 X5.3486 Y-17.7040
G01 X5.3486 Y-18.5088
G01 X5.3489 Y-18.5229
G01 X5.3514 Y-18.5473
G01 X5.3561 Y-18.5714
G01 X5.3594 Y-18.5832
G01 X5.3677 Y-18.6063
G01 X5.3727 Y-18.6176
G01 X5.3842 Y-18.6392
G01 X5.3908 Y-18.6496
G01 X5.3979 Y-18.6596
G01 X5.4134 Y-18.6786
G01 X5.4219 Y-18.6875
G01 X5.4401 Y-18.7040
G01 X5.4598 Y-18.7186
G01 X5.4702 Y-18.7252
G01 X5.4918 Y-18.7367
G01 X5.5031 Y-18.7417
G01 X5.5262 Y-18.7500
G01 X5.5500 Y-18.7559
G01 X5.5621 Y-18.7580
G01 X5.5865 Y-18.7605
G01 X5.6006 Y-18.7608
G01 X12.1455 Y-18.7608
G01 X12.1718 Y-18.7596
G01 X12.1961 Y-18.7559
G01 X12.2199 Y-18.7500
G01 X12.2430 Y-18.7417
G01 X12.2543 Y-18.7367
G01 X12.2759 Y-18.7252
G01 X12.2963 Y-18.7115
G01 X12.3153 Y-18.6960
G01 X12.3327 Y-18.6786
G01 X12.3482 Y-18.6596
G01 X12.3619 Y-18.6392
G01 X12.3734 Y-18.6176
G01 X12.3828 Y-18.5949
G01 X12.3900 Y-18.5714
G01 X12.3947 Y-18.5473
G01 X12.3972 Y-18.5229
G01 X12.3975 Y-18.5088
G01 X12.3975 Y-10.0192
G01 X12.3963 Y-9.9929
G01 X12.3926 Y-9.9686
G01 X12.3867 Y-9.9448
G01 X12.3784 Y-9.9217
G01 X12.3679 Y-9.8995
G01 X12.3619 Y-9.8888
G01 X12.3482 Y-9.8684
G01 X12.3327 Y-9.8494
G01 X12.3153 Y-9.8320
G01 X12.2963 Y-9.8165
G01 X12.2759 Y-9.8028
G01 X12.2543 Y-9.7913
G01 X12.2316 Y-9.7819
G01 X12.2081 Y-9.7747
G01 X12.1840 Y-9.7700
G01 X12.1596 Y-9.7675
G01 X12.1455 Y-9.7672
G01 X5.6006 Y-9.7672
G01 X5.5743 Y-9.7684
G01 X5.5500 Y-9.7721
G01 X5.5262 Y-9.7780
G01 X5.5031 Y-9.7863
G01 X5.4918 Y-9.7913
G01 X5.4702 Y-9.8028
G01 X5.4498 Y-9.8165
G01 X5.4308 Y-9.8320
G01 X5.4134 Y-9.8494
G01 X5.4054 Y-9.8587
G01 X5.3908 Y-9.8784
G01 X5.3782 Y-9.8995
G01 X5.3677 Y-9.9217
G01 X5.3594 Y-9.9448
G01 X5.3561 Y-9.9566
G01 X5.3535 Y-9.9686
G01 X5.3498 Y-9.9929
G01 X5.3486 Y-10.0192
G01 X5.3485 Y-10.8295
G01 X5.3457 Y-10.8533
G01 X5.3392 Y-10.8763
G01 X5.3291 Y-10.8979
G01 X5.3169 Y-10.9163
G01 X5.3060 Y-10.9288
G01 X5.2952 Y-10.9388
G01 X5.2819 Y-10.9487
G01 X5.2693 Y-10.9563
G01 X5.2543 Y-10.9633
G01 X5.2404 Y-10.9681
G01 X5.2242 Y-10.9718
G01 X5.2096 Y-10.9736
G01 X4.5304 Y-10.9740
G01 X4.5304 Y-11.0740
G01 X5.2304 Y-11.0740
G01 X5.2488 Y-11.0751
G01 X5.2704 Y-11.0794
G01 X5.2895 Y-11.0861
G01 X5.3075 Y-11.0953
G01 X5.3256 Y-11.1080
G01 X5.3415 Y-11.1233
G01 X5.3551 Y-11.1407
G01 X5.3652 Y-11.1582
G01 X5.3734 Y-11.1787
G01 X5.3785 Y-11.2002
G01 X5.3804 Y-11.2222
G01 X5.3804 Y-12.2258
G01 X5.3782 Y-12.2496
G01 X5.3728 Y-12.2711
G01 X5.3644 Y-12.2914
G01 X5.3530 Y-12.3104
G01 X5.3428 Y-12.3234
G01 X5.3311 Y-12.3351
G01 X5.3183 Y-12.3456
G01 X5.3043 Y-12.3545
G01 X5.2895 Y-12.3619
G01 X5.2739 Y-12.3675
G01 X5.2579 Y-12.3715
G01 X5.2414 Y-12.3736
G01 X4.5304 Y-12.3740
G01 X4.5304 Y-12.4740
G01 X5.2096 Y-12.4744
G01 X5.2242 Y-12.4762
G01 X5.2404 Y-12.4799
G01 X5.2560 Y-12.4854
G01 X5.2709 Y-12.4926
G01 X5.2835 Y-12.5003
G01 X5.2966 Y-12.5104
G01 X5.3085 Y-12.5219
G01 X5.3191 Y-12.5346
G01 X5.3317 Y-12.5549
G01 X5.3410 Y-12.5769
G01 X5.3467 Y-12.6002
G01 X5.3486 Y-12.6240
G01 X5.3485 Y-13.3695
G01 X5.3461 Y-13.3915
G01 X5.3404 Y-13.4128
G01 X5.3317 Y-13.4331
G01 X5.3202 Y-13.4519
G01 X5.3085 Y-13.4661
G01 X5.2966 Y-13.4776
G01 X5.2835 Y-13.4877
G01 X5.2693 Y-13.4963
G01 X5.2526 Y-13.5039
G01 X5.2368 Y-13.5090
G01 X5.2206 Y-13.5124
G01 X5.2023 Y-13.5140
G01 X2.7804 Y-13.5140
G01 X2.7804 Y-15.0140
G01 X5.2078 Y-15.0143
G01 X5.2206 Y-15.0156
G01 X5.2350 Y-15.0185
G01 X5.2491 Y-15.0228
G01 X5.2627 Y-15.0284
G01 X5.2757 Y-15.0353
G01 X5.2865 Y-15.0424
G01 X5.2966 Y-15.0504
G01 X5.3072 Y-15.0606
G01 X5.3169 Y-15.0717
G01 X5.3243 Y-15.0822
G01 X5.3317 Y-15.0949
G01 X5.3379 Y-15.1083
G01 X5.3421 Y-15.1205
G01 X5.3457 Y-15.1347
G01 X5.3479 Y-15.1493
G01 X5.3486 Y-15.1640
G01 X5.3486 Y-15.9040
G01 X5.3477 Y-15.9205
G01 X5.3441 Y-15.9404
G01 X5.3372 Y-15.9614
G01 X5.3282 Y-15.9795
G01 X5.3157 Y-15.9977
G01 X5.3007 Y-16.0139
G01 X5.2850 Y-16.0266
G01 X5.2677 Y-16.0371
G01 X5.2474 Y-16.0458
G01 X5.2350 Y-16.0495
G01 X5.2224 Y-16.0521
G01 X5.1986 Y-16.0540
G01 X2.7804 Y-16.0540
G01 X2.7804 Y-17.5540
G01 X5.1986 Y-17.5540
G00 Z2.0000
G00 X5.1986 Y-17.6290
G01 F70.00
G01 Z-0.0700
G01 F120.00
G01 X5.2123 Y-17.6303
G01 X5.2256 Y-17.6340
G01 X5.2379 Y-17.6401
G01 X5.2490 Y-17.6484
G01 X5.2583 Y-17.6586
G01 X5.2656 Y-17.6703
G01 X5.2706 Y-17.6831
G01 X5.2733 Y-17.6976
G01 X5.2736 Y-18.5097
G01 X5.2740 Y-18.5266
G01 X5.2771 Y-18.5583
G01 X5.2834 Y-18.5896
G01 X5.2876 Y-18.6050
G01 X5.2926 Y-18.6201
G01 X5.3048 Y-18.6496
G01 X5.3120 Y-18.6639
G01 X5.3284 Y-18.6913
G01 X5.3474 Y-18.7169
G01 X5.3579 Y-18.7290
G01 X5.3804 Y-18.7515
G01 X5.3925 Y-18.7620
G01 X5.4181 Y-18.7810
G01 X5.4316 Y-18.7895
G01 X5.4598 Y-18.8046
G01 X5.4744 Y-18.8110
G01 X5.5044 Y-18.8218
G01 X5.5198 Y-18.8260
G01 X5.5511 Y-18.8323
G01 X5.5828 Y-18.8354
G01 X5.5997 Y-18.8358
G01 X12.1464 Y-18.8358
G01 X12.1792 Y-18.8342
G01 X12.2107 Y-18.8295
G01 X12.2417 Y-18.8218
G01 X12.2717 Y-18.8110
G01 X12.3006 Y-18.7974
G01 X12.3145 Y-18.7895
G01 X12.3410 Y-18.7718
G01 X12.3657 Y-18.7515
G01 X12.3882 Y-18.7290
G01 X12.4085 Y-18.7043
G01 X12.4262 Y-18.6778
G01 X12.4413 Y-18.6496
G01 X12.4535 Y-18.6201
G01 X12.4627 Y-18.5896
G01 X12.4690 Y-18.5583
G01 X12.4721 Y-18.5266
G01 X12.4725 Y-18.5097
G01 X12.4725 Y-10.0183
G01 X12.4709 Y-9.9855
G01 X12.4662 Y-9.9540
G01 X12.4585 Y-9.9230
G01 X12.4477 Y-9.8930
G01 X12.4341 Y-9.8641
G01 X12.4177 Y-9.8367
G01 X12.3987 Y-9.8111
G01 X12.3882 Y-9.7990
G01 X12.3657 Y-9.7765
G01 X12.3410 Y-9.7562
G01 X12.3145 Y-9.7385
G01 X12.2863 Y-9.7234
G01 X12.2568 Y-9.7112
G01 X12.2263 Y-9.7020
G01 X12.1950 Y-9.6957
G01 X12.1633 Y-9.6926
G01 X12.1464 Y-9.6922
G01 X5.5997 Y-9.6922
G01 X5.5669 Y-9.6938
G01 X5.5354 Y-9.6985
G01 X5.5044 Y-9.7062
G01 X5.4744 Y-9.7170
G01 X5.4455 Y-9.7306
G01 X5.4316 Y-9.7385
G01 X5.4051 Y-9.7562
G01 X5.3804 Y-9.7765
G01 X5.3579 Y-9.7990
G01 X5.3474 Y-9.8111
G01 X5.3284 Y-9.8367
G01 X5.3120 Y-9.8641
G01 X5.2984 Y-9.8930
G01 X5.2876 Y-9.9230
G01 X5.2834 Y-9.9384
G01 X5.2799 Y-9.9540
G01 X5.2752 Y-9.9855
G01 X5.2736 Y-10.0183
G01 X5.2736 Y-10.8258
G01 X5.2722 Y-10.8386
G01 X5.2689 Y-10.8501
G01 X5.2634 Y-10.8618
G01 X5.2566 Y-10.8716
G01 X5.2455 Y-10.8826
G01 X5.2323 Y-10.8910
G01 X5.2177 Y-10.8965
G01 X5.2014 Y-10.8989
G01 X4.4554 Y-10.8990
G01 X4.4554 Y-11.1490
G01 X5.2350 Y-11.1491
G01 X5.2459 Y-11.1506
G01 X5.2574 Y-11.1540
G01 X5.2674 Y-11.1587
G01 X5.2765 Y-11.1649
G01 X5.2847 Y-11.1723
G01 X5.2917 Y-11.1808
G01 X5.2978 Y-11.1911
G01 X5.3019 Y-11.2013
G01 X5.3044 Y-11.2121
G01 X5.3054 Y-11.2240
G01 X5.3054 Y-12.2249
G01 X5.3043 Y-12.2368
G01 X5.3013 Y-12.2484
G01 X5.2965 Y-12.2594
G01 X5.2895 Y-12.2701
G01 X5.2787 Y-12.2814
G01 X5.2649 Y-12.2906
G01 X5.2495 Y-12.2965
G01 X5.2332 Y-12.2989
G01 X4.4554 Y-12.2990
G01 X4.4554 Y-12.5490
G01 X5.2014 Y-12.5491
G01 X5.2096 Y-12.5498
G01 X5.2186 Y-12.5517
G01 X5.2340 Y-12.5579
G01 X5.2418 Y-12.5627
G01 X5.2483 Y-12.5678
G01 X5.2594 Y-12.5801
G01 X5.2656 Y-12.5903
G01 X5.2701 Y-12.6013
G01 X5.2726 Y-12.6121
G01 X5.2736 Y-12.6240
G01 X5.2736 Y-13.3649
G01 X5.2726 Y-13.3759
G01 X5.2698 Y-13.3875
G01 X5.2652 Y-13.3985
G01 X5.2594 Y-13.4079
G01 X5.2535 Y-13.4150
G01 X5.2476 Y-13.4208
G01 X5.2410 Y-13.4258
G01 X5.2331 Y-13.4306
G01 X5.2256 Y-13.4340
G01 X5.2168 Y-13.4368
G01 X5.2078 Y-13.4384
G01 X5.1995 Y-13.4390
G01 X2.7054 Y-13.4390
G01 X2.7054 Y-15.0890
G01 X5.2004 Y-15.0890
G01 X5.2141 Y-15.0906
G01 X5.2281 Y-15.0951
G01 X5.2410 Y-15.1022
G01 X5.2523 Y-15.1116
G01 X5.2615 Y-15.1231
G01 X5.2682 Y-15.1362
G01 X5.2722 Y-15.1494
G01 X5.2736 Y-15.1640
G01 X5.2735 Y-15.9086
G01 X5.2720 Y-15.9195
G01 X5.2686 Y-15.9310
G01 X5.2639 Y-15.9410
G01 X5.2577 Y-15.9501
G01 X5.2503 Y-15.9583
G01 X5.2418 Y-15.9653
G01 X5.2323 Y-15.9710
G01 X5.2213 Y-15.9755
G01 X5.2096 Y-15.9782
G01 X5.1986 Y-15.9790
G01 X2.7054 Y-15.9790
G01 X2.7054 Y-17.6290
G01 X5.1986 Y-17.6290
G00 Z2.0000
G00 X2.8890 Y-17.4790
G01 F70.00
G01 Z-0.0700
G01 F120.00
G01 X2.8713 Y-17.4631
G01 X2.8554 Y-17.4454
G01 X2.8554 Y-17.4790
G01 X2.8890 Y-17.4790
G00 Z2.0000
G00 X2.8554 Y-16.1626
G01 F70.00
G01 Z-0.0700
G01 F120.00
G01 X2.8713 Y-16.1449
G01 X2.8890 Y-16.1290
G01 X2.8554 Y-16.1290
G01 X2.8554 Y-16.1626
G00 Z2.0000
G00 X2.8890 Y-14.9390
G01 F70.00
G01 Z-0.0700
G01 F120.00
G01 X2.8713 Y-14.9231
G01 X2.8554 Y-14.9054
G01 X2.8554 Y-14.9390
G01 X2.8890 Y-14.9390
G00 Z2.0000
G00 X2.8554 Y-13.6226
G01 F70.00
G01 Z-0.0700
G01 F120.00
G01 X2.8713 Y-13.6049
G01 X2.8890 Y-13.5890
G01 X2.8554 Y-13.5890
G01 X2.8554 Y-13.6226
G00 Z2.0000
G00 X2.8554 Y-12.3654
G01 F70.00
G01 Z-0.0700
G01 F120.00
G01 X2.8554 Y-12.3990
G01 X2.8890 Y-12.3990
G01 X2.8713 Y-12.3831
G01 X2.8554 Y-12.3654
G00 Z2.0000
G00 X2.7804 Y-12.1240
G01 F70.00
G01 Z-0.0700
G01 F120.00
G01 X2.7804 Y-12.4740
G01 X3.7304 Y-12.4740
G01 X3.7304 Y-12.3740
G01 X3.0286 Y-12.3740
G01 X3.0157 Y-12.3733
G01 X3.0029 Y-12.3715
G01 X2.9904 Y-12.3686
G01 X2.9781 Y-12.3646
G01 X2.9630 Y-12.3580
G01 X2.9502 Y-12.3507
G01 X2.9367 Y-12.3411
G01 X2.9256 Y-12.3314
G01 X2.9144 Y-12.3192
G01 X2.9057 Y-12.3073
G01 X2.8973 Y-12.2931
G01 X2.8911 Y-12.2797
G01 X2.8845 Y-12.2587
G01 X2.8808 Y-12.2350
G01 X2.8804 Y-12.1240
G01 X2.7804 Y-12.1240
G00 Z2.0000
G00 X2.7054 Y-12.0490
G01 F70.00
G01 Z-0.0700
G01 F120.00
G01 X2.7054 Y-12.5490
G01 X3.8054 Y-12.5490
G01 X3.8054 Y-12.2990
G01 X3.0304 Y-12.2990
G01 X3.0140 Y-12.2972
G01 X3.0034 Y-12.2940
G01 X2.9942 Y-12.2897
G01 X2.9857 Y-12.2842
G01 X2.9780 Y-12.2777
G01 X2.9707 Y-12.2694
G01 X2.9651 Y-12.2610
G01 X2.9608 Y-12.2518
G01 X2.9574 Y-12.2413
G01 X2.9554 Y-12.2249
G01 X2.9554 Y-12.0490
G01 X2.7054 Y-12.0490
G00 Z2.0000
G00 X8.4974 Y-7.2766
G01 F70.00
G01 Z-0.0700
G01 F120.00
G01 X8.4974 Y-3.0411
G01 X8.4965 Y-3.0302
G01 X8.4937 Y-3.0186
G01 X8.4890 Y-3.0076
G01 X8.4833 Y-2.9982
G01 X8.4755 Y-2.9891
G01 X8.4672 Y-2.9819
G01 X8.4579 Y-2.9760
G01 X8.4478 Y-2.9715
G01 X8.4381 Y-2.9687
G01 X8.4281 Y-2.9673
G01 X8.4171 Y-2.9673
G01 X8.4071 Y-2.9686
G01 X1.0873 Y-4.4936
G01 X1.0784 Y-4.4960
G01 X1.0699 Y-4.4995
G01 X1.0611 Y-4.5046
G01 X1.0537 Y-4.5101
G01 X1.0471 Y-4.5166
G01 X1.0413 Y-4.5238
G01 X1.0360 Y-4.5324
G01 X1.0323 Y-4.5408
G01 X1.0288 Y-4.5533
G01 X1.0276 Y-4.5670
G01 X1.0276 Y-5.7545
G01 X1.0288 Y-5.7655
G01 X1.0317 Y-5.7762
G01 X1.0360 Y-5.7864
G01 X1.0419 Y-5.7958
G01 X1.0490 Y-5.8042
G01 X1.0573 Y-5.8116
G01 X1.0666 Y-5.8176
G01 X1.0766 Y-5.8221
G01 X1.0873 Y-5.8252
G01 X8.4080 Y-7.3502
G01 X8.4245 Y-7.3516
G01 X8.4408 Y-7.3493
G01 X8.4563 Y-7.3436
G01 X8.4701 Y-7.3345
G01 X8.4816 Y-7.3227
G01 X8.4902 Y-7.3087
G01 X8.4956 Y-7.2930
G01 X8.4974 Y-7.2766
G00 Z2.0000
G00 X8.5724 Y-7.2766
G01 F70.00
G01 Z-0.0700
G01 F120.00
G01 X8.5724 Y-3.0384
G01 X8.5702 Y-3.0165
G01 X8.5643 Y-2.9934
G01 X8.5556 Y-2.9731
G01 X8.5441 Y-2.9543
G01 X8.5286 Y-2.9361
G01 X8.5120 Y-2.9217
G01 X8.4934 Y-2.9099
G01 X8.4733 Y-2.9009
G01 X8.4539 Y-2.8954
G01 X8.4339 Y-2.8925
G01 X8.4137 Y-2.8923
G01 X8.3918 Y-2.8952
G01 X1.0702 Y-4.4206
G01 X1.0507 Y-4.4263
G01 X1.0338 Y-4.4337
G01 X1.0180 Y-4.4431
G01 X1.0034 Y-4.4545
G01 X0.9904 Y-4.4675
G01 X0.9790 Y-4.4820
G01 X0.9695 Y-4.4978
G01 X0.9614 Y-4.5164
G01 X0.9576 Y-4.5287
G01 X0.9548 Y-4.5413
G01 X0.9526 Y-4.5652
G01 X0.9529 Y-5.7610
G01 X0.9558 Y-5.7829
G01 X0.9620 Y-5.8041
G01 X0.9713 Y-5.8243
G01 X0.9822 Y-5.8413
G01 X0.9967 Y-5.8580
G01 X1.0135 Y-5.8724
G01 X1.0306 Y-5.8834
G01 X1.0507 Y-5.8925
G01 X1.0720 Y-5.8986
G01 X8.3954 Y-7.4242
G01 X8.4118 Y-7.4263
G01 X8.4284 Y-7.4265
G01 X8.4448 Y-7.4250
G01 X8.4610 Y-7.4216
G01 X8.4767 Y-7.4165
G01 X8.4901 Y-7.4105
G01 X8.5045 Y-7.4022
G01 X8.5178 Y-7.3924
G01 X8.5299 Y-7.3812
G01 X8.5408 Y-7.3688
G01 X8.5502 Y-7.3552
G01 X8.5581 Y-7.3407
G01 X8.5643 Y-7.3254
G01 X8.5688 Y-7.3094
G01 X8.5715 Y-7.2931
G01 X8.5724 Y-7.2766
G00 Z2.0000
G00 X8.5724 Y-2.7355
G01 F70.00
G01 Z-0.0700
G01 F120.00
G01 X8.5724 Y-1.5789
G01 X8.5717 Y-1.5642
G01 X8.5675 Y-1.5406
G01 X8.5596 Y-1.5181
G01 X8.5538 Y-1.5065
G01 X8.5471 Y-1.4955
G01 X8.5323 Y-1.4768
G01 X8.5232 Y-1.4677
G01 X8.5133 Y-1.4595
G01 X8.4931 Y-1.4466
G01 X8.4712 Y-1.4370
G01 X8.4481 Y-1.4311
G01 X8.4353 Y-1.4294
G01 X8.4224 Y-1.4289
G01 X1.1026 Y-1.4289
G01 X1.0879 Y-1.4296
G01 X1.0733 Y-1.4318
G01 X1.0608 Y-1.4348
G01 X1.0486 Y-1.4389
G01 X1.0270 Y-1.4493
G01 X1.0162 Y-1.4562
G01 X1.0060 Y-1.4641
G01 X0.9965 Y-1.4728
G01 X0.9878 Y-1.4823
G01 X0.9739 Y-1.5018
G01 X0.9678 Y-1.5131
G01 X0.9626 Y-1.5249
G01 X0.9585 Y-1.5371
G01 X0.9555 Y-1.5496
G01 X0.9527 Y-1.5734
G01 X0.9526 Y-4.2604
G01 X0.9533 Y-4.2751
G01 X0.9554 Y-4.2896
G01 X0.9590 Y-4.3039
G01 X0.9640 Y-4.3177
G01 X0.9702 Y-4.3310
G01 X0.9778 Y-4.3436
G01 X0.9865 Y-4.3555
G01 X0.9977 Y-4.3676
G01 X1.0087 Y-4.3774
G01 X1.0205 Y-4.3860
G01 X1.0332 Y-4.3934
G01 X1.0466 Y-4.3996
G01 X1.0605 Y-4.4044
G01 X1.0747 Y-4.4078
G01 X1.0893 Y-4.4098
G01 X1.1040 Y-4.4104
G01 X1.1187 Y-4.4096
G01 X1.1332 Y-4.4073
G01 X8.4548 Y-2.8819
G01 X8.4673 Y-2.8786
G01 X8.4794 Y-2.8742
G01 X8.5008 Y-2.8634
G01 X8.5115 Y-2.8561
G01 X8.5216 Y-2.8480
G01 X8.5309 Y-2.8391
G01 X8.5394 Y-2.8294
G01 X8.5470 Y-2.8190
G01 X8.5537 Y-2.8080
G01 X8.5636 Y-2.7861
G01 X8.5674 Y-2.7738
G01 X8.5702 Y-2.7612
G01 X8.5719 Y-2.7484
G01 X8.5724 Y-2.7355
G00 Z2.0000
G00 X8.4974 Y-2.7355
G01 F70.00
G01 Z-0.0700
G01 F120.00
G01 X8.4973 Y-1.5752
G01 X8.4956 Y-1.5624
G01 X8.4917 Y-1.5502
G01 X8.4858 Y-1.5388
G01 X8.4786 Y-1.5292
G01 X8.4693 Y-1.5203
G01 X8.4586 Y-1.5132
G01 X8.4468 Y-1.5080
G01 X8.4343 Y-1.5048
G01 X8.4224 Y-1.5039
G01 X1.1026 Y-1.5039
G01 X1.0870 Y-1.5055
G01 X1.0747 Y-1.5092
G01 X1.0632 Y-1.5150
G01 X1.0536 Y-1.5221
G01 X1.0446 Y-1.5313
G01 X1.0373 Y-1.5419
G01 X1.0323 Y-1.5527
G01 X1.0288 Y-1.5651
G01 X1.0276 Y-1.5770
G01 X1.0276 Y-4.2604
G01 X1.0292 Y-4.2759
G01 X1.0336 Y-4.2899
G01 X1.0407 Y-4.3028
G01 X1.0501 Y-4.3140
G01 X1.0616 Y-4.3232
G01 X1.0746 Y-4.3300
G01 X1.0887 Y-4.3341
G01 X1.1033 Y-4.3354
G01 X1.1179 Y-4.3339
G01 X8.4386 Y-2.8087
G01 X8.4509 Y-2.8048
G01 X8.4616 Y-2.7994
G01 X8.4720 Y-2.7918
G01 X8.4809 Y-2.7824
G01 X8.4881 Y-2.7717
G01 X8.4933 Y-2.7599
G01 X8.4963 Y-2.7483
G01 X8.4974 Y-2.7355
G00 Z2.0000
G00 X13.5824 Y-5.2388
G01 F70.00
G01 Z-0.0700
G01 F120.00
G01 X13.5810 Y-5.1799
G01 X13.5766 Y-5.1212
G01 X13.5694 Y-5.0627
G01 X13.5594 Y-5.0047
G01 X13.5464 Y-4.9472
G01 X13.5307 Y-4.8905
G01 X13.5123 Y-4.8346
G01 X13.4911 Y-4.7796
G01 X13.4672 Y-4.7258
G01 X13.4407 Y-4.6732
G01 X13.4117 Y-4.6219
G01 X13.3802 Y-4.5722
G01 X13.3463 Y-4.5240
G01 X13.3100 Y-4.4776
G01 X13.2716 Y-4.4330
G01 X13.2310 Y-4.3903
G01 X13.1883 Y-4.3497
G01 X13.1437 Y-4.3113
G01 X13.0973 Y-4.2750
G01 X13.0491 Y-4.2411
G01 X12.9994 Y-4.2096
G01 X12.9481 Y-4.1806
G01 X12.8955 Y-4.1541
G01 X12.8417 Y-4.1302
G01 X12.7867 Y-4.1090
G01 X12.7308 Y-4.0906
G01 X12.6741 Y-4.0749
G01 X12.6166 Y-4.0619
G01 X12.5586 Y-4.0519
G01 X12.5001 Y-4.0447
G01 X12.4414 Y-4.0403
G01 X12.3825 Y-4.0389
G01 X12.3236 Y-4.0403
G01 X12.2649 Y-4.0447
G01 X12.2064 Y-4.0519
G01 X12.1484 Y-4.0619
G01 X12.0909 Y-4.0749
G01 X12.0342 Y-4.0906
G01 X11.9783 Y-4.1090
G01 X11.9233 Y-4.1302
G01 X11.8695 Y-4.1541
G01 X11.8169 Y-4.1806
G01 X11.7656 Y-4.2096
G01 X11.7159 Y-4.2411
G01 X11.6677 Y-4.2750
G01 X11.6213 Y-4.3113
G01 X11.5767 Y-4.3497
G01 X11.5340 Y-4.3903
G01 X11.4934 Y-4.4330
G01 X11.4550 Y-4.4776
G01 X11.4187 Y-4.5240
G01 X11.3848 Y-4.5722
G01 X11.3533 Y-4.6219
G01 X11.3243 Y-4.6732
G01 X11.2978 Y-4.7258
G01 X11.2739 Y-4.7796
G01 X11.2527 Y-4.8346
G01 X11.2343 Y-4.8905
G01 X11.2186 Y-4.9472
G01 X11.2056 Y-5.0047
G01 X11.1956 Y-5.0627
G01 X11.1884 Y-5.1212
G01 X11.1840 Y-5.1799
G01 X11.1826 Y-5.2388
G01 X11.1840 Y-5.2977
G01 X11.1884 Y-5.3564
G01 X11.1956 Y-5.4149
G01 X11.2056 Y-5.4729
G01 X11.2186 Y-5.5304
G01 X11.2343 Y-5.5871
G01 X11.2527 Y-5.6430
G01 X11.2739 Y-5.6980
G01 X11.2978 Y-5.7518
G01 X11.3243 Y-5.8044
G01 X11.3533 Y-5.8557
G01 X11.3848 Y-5.9054
G01 X11.4187 Y-5.9536
G01 X11.4550 Y-6.0000
G01 X11.4934 Y-6.0446
G01 X11.5340 Y-6.0873
G01 X11.5767 Y-6.1279
G01 X11.6213 Y-6.1663
G01 X11.6677 Y-6.2026
G01 X11.7159 Y-6.2365
G01 X11.7656 Y-6.2680
G01 X11.8169 Y-6.2970
G01 X11.8695 Y-6.3235
G01 X11.9233 Y-6.3474
G01 X11.9783 Y-6.3686
G01 X12.0342 Y-6.3870
G01 X12.0909 Y-6.4027
G01 X12.1484 Y-6.4157
G01 X12.2064 Y-6.4257
G01 X12.2649 Y-6.4329
G01 X12.3236 Y-6.4373
G01 X12.3825 Y-6.4387
G01 X12.4414 Y-6.4373
G01 X12.5001 Y-6.4329
G01 X12.5586 Y-6.4257
G01 X12.6166 Y-6.4157
G01 X12.6741 Y-6.4027
G01 X12.7308 Y-6.3870
G01 X12.7867 Y-6.3686
G01 X12.8417 Y-6.3474
G01 X12.8955 Y-6.3235
G01 X12.9481 Y-6.2970
G01 X12.9994 Y-6.2680
G01 X13.0491 Y-6.2365
G01 X13.0973 Y-6.2026
G01 X13.1437 Y-6.1663
G01 X13.1883 Y-6.1279
G01 X13.2310 Y-6.0873
G01 X13.2716 Y-6.0446
G01 X13.3100 Y-6.0000
G01 X13.3463 Y-5.9536
G01 X13.3802 Y-5.9054
G01 X13.4117 Y-5.8557
G01 X13.4407 Y-5.8044
G01 X13.4672 Y-5.7518
G01 X13.4911 Y-5.6980
G01 X13.5123 Y-5.6430
G01 X13.5307 Y-5.5871
G01 X13.5464 Y-5.5304
G01 X13.5594 Y-5.4729
G01 X13.5694 Y-5.4149
G01 X13.5766 Y-5.3564
G01 X13.5810 Y-5.2977
G01 X13.5824 Y-5.2388
G00 Z2.0000
G00 X13.6574 Y-5.2388
G01 F70.00
G01 Z-0.0700
G01 F120.00
G01 X13.6559 Y-5.1762
G01 X13.6513 Y-5.1138
G01 X13.6436 Y-5.0517
G01 X13.6329 Y-4.9901
G01 X13.6192 Y-4.9290
G01 X13.6025 Y-4.8687
G01 X13.5829 Y-4.8093
G01 X13.5604 Y-4.7509
G01 X13.5350 Y-4.6937
G01 X13.5069 Y-4.6378
G01 X13.4760 Y-4.5834
G01 X13.4426 Y-4.5305
G01 X13.4065 Y-4.4793
G01 X13.3680 Y-4.4300
G01 X13.3272 Y-4.3826
G01 X13.2840 Y-4.3373
G01 X13.2387 Y-4.2941
G01 X13.1913 Y-4.2533
G01 X13.1420 Y-4.2148
G01 X13.0908 Y-4.1787
G01 X13.0379 Y-4.1453
G01 X12.9835 Y-4.1144
G01 X12.9276 Y-4.0863
G01 X12.8704 Y-4.0609
G01 X12.8120 Y-4.0384
G01 X12.7526 Y-4.0188
G01 X12.6923 Y-4.0021
G01 X12.6312 Y-3.9884
G01 X12.5696 Y-3.9777
G01 X12.5075 Y-3.9700
G01 X12.4451 Y-3.9654
G01 X12.3825 Y-3.9639
G01 X12.3199 Y-3.9654
G01 X12.2575 Y-3.9700
G01 X12.1954 Y-3.9777
G01 X12.1338 Y-3.9884
G01 X12.0727 Y-4.0021
G01 X12.0124 Y-4.0188
G01 X11.9530 Y-4.0384
G01 X11.8946 Y-4.0609
G01 X11.8374 Y-4.0863
G01 X11.7815 Y-4.1144
G01 X11.7271 Y-4.1453
G01 X11.6742 Y-4.1787
G01 X11.6230 Y-4.2148
G01 X11.5737 Y-4.2533
G01 X11.5263 Y-4.2941
G01 X11.4810 Y-4.3373
G01 X11.4378 Y-4.3826
G01 X11.3970 Y-4.4300
G01 X11.3585 Y-4.4793
G01 X11.3224 Y-4.5305
G01 X11.2890 Y-4.5834
G01 X11.2581 Y-4.6378
G01 X11.2300 Y-4.6937
G01 X11.2046 Y-4.7509
G01 X11.1821 Y-4.8093
G01 X11.1625 Y-4.8687
G01 X11.1458 Y-4.9290
G01 X11.1321 Y-4.9901
G01 X11.1214 Y-5.0517
G01 X11.1137 Y-5.1138
G01 X11.1091 Y-5.1762
G01 X11.1076 Y-5.2388
G01 X11.1091 Y-5.3014
G01 X11.1137 Y-5.3638
G01 X11.1214 Y-5.4259
G01 X11.1321 Y-5.4875
G01 X11.1458 Y-5.5486
G01 X11.1625 Y-5.6089
G01 X11.1821 Y-5.6683
G01 X11.2046 Y-5.7267
G01 X11.2300 Y-5.7839
G01 X11.2581 Y-5.8398
G01 X11.2890 Y-5.8942
G01 X11.3224 Y-5.9471
G01 X11.3585 Y-5.9983
G01 X11.3970 Y-6.0476
G01 X11.4378 Y-6.0950
G01 X11.4810 Y-6.1403
G01 X11.5263 Y-6.1835
G01 X11.5737 Y-6.2243
G01 X11.6230 Y-6.2628
G01 X11.6742 Y-6.2989
G01 X11.7271 Y-6.3323
G01 X11.7815 Y-6.3632
G01 X11.8374 Y-6.3913
G01 X11.8946 Y-6.4167
G01 X11.9530 Y-6.4392
G01 X12.0124 Y-6.4588
G01 X12.0727 Y-6.4755
G01 X12.1338 Y-6.4892
G01 X12.1954 Y-6.4999
G01 X12.2575 Y-6.5076
G01 X12.3199 Y-6.5122
G01 X12.3825 Y-6.5137
G01 X12.4451 Y-6.5122
G01 X12.5075 Y-6.5076
G01 X12.5696 Y-6.4999
G01 X12.6312 Y-6.4892
G01 X12.6923 Y-6.4755
G01 X12.7526 Y-6.4588
G01 X12.8120 Y-6.4392
G01 X12.8704 Y-6.4167
G01 X12.9276 Y-6.3913
G01 X12.9835 Y-6.3632
G01 X13.0379 Y-6.3323
G01 X13.0908 Y-6.2989
G01 X13.1420 Y-6.2628
G01 X13.1913 Y-6.2243
G01 X13.2387 Y-6.1835
G01 X13.2840 Y-6.1403
G01 X13.3272 Y-6.0950
G01 X13.3680 Y-6.0476
G01 X13.4065 Y-5.9983
G01 X13.4426 Y-5.9471
G01 X13.4760 Y-5.8942
G01 X13.5069 Y-5.8398
G01 X13.5350 Y-5.7839
G01 X13.5604 Y-5.7267
G01 X13.5829 Y-5.6683
G01 X13.6025 Y-5.6089
G01 X13.6192 Y-5.5486
G01 X13.6329 Y-5.4875
G01 X13.6436 Y-5.4259
G01 X13.6513 Y-5.3638
G01 X13.6559 Y-5.3014
G01 X13.6574 Y-5.2388
G00 Z2.0000
G00 X13.7325 Y-5.2388
G01 F70.00
G01 Z-0.0700
G01 F120.00
G01 X13.7308 Y-5.1726
G01 X13.7260 Y-5.1065
G01 X13.7178 Y-5.0407
G01 X13.7065 Y-4.9754
G01 X13.6920 Y-4.9108
G01 X13.6743 Y-4.8469
G01 X13.6535 Y-4.7840
G01 X13.6297 Y-4.7222
G01 X13.6028 Y-4.6616
G01 X13.5731 Y-4.6024
G01 X13.5404 Y-4.5448
G01 X13.5049 Y-4.4888
G01 X13.4668 Y-4.4346
G01 X13.4260 Y-4.3824
G01 X13.3828 Y-4.3322
G01 X13.3371 Y-4.2842
G01 X13.2891 Y-4.2385
G01 X13.2389 Y-4.1953
G01 X13.1867 Y-4.1545
G01 X13.1325 Y-4.1164
G01 X13.0765 Y-4.0809
G01 X13.0189 Y-4.0482
G01 X12.9597 Y-4.0185
G01 X12.8991 Y-3.9916
G01 X12.8373 Y-3.9678
G01 X12.7744 Y-3.9470
G01 X12.7105 Y-3.9293
G01 X12.6459 Y-3.9148
G01 X12.5806 Y-3.9035
G01 X12.5148 Y-3.8953
G01 X12.4487 Y-3.8905
G01 X12.3825 Y-3.8888
G01 X12.3163 Y-3.8905
G01 X12.2502 Y-3.8953
G01 X12.1844 Y-3.9035
G01 X12.1191 Y-3.9148
G01 X12.0545 Y-3.9293
G01 X11.9906 Y-3.9470
G01 X11.9277 Y-3.9678
G01 X11.8659 Y-3.9916
G01 X11.8053 Y-4.0185
G01 X11.7461 Y-4.0482
G01 X11.6885 Y-4.0809
G01 X11.6325 Y-4.1164
G01 X11.5783 Y-4.1545
G01 X11.5261 Y-4.1953
G01 X11.4759 Y-4.2385
G01 X11.4279 Y-4.2842
G01 X11.3822 Y-4.3322
G01 X11.3390 Y-4.3824
G01 X11.2982 Y-4.4346
G01 X11.2601 Y-4.4888
G01 X11.2246 Y-4.5448
G01 X11.1919 Y-4.6024
G01 X11.1622 Y-4.6616
G01 X11.1353 Y-4.7222
G01 X11.1115 Y-4.7840
G01 X11.0907 Y-4.8469
G01 X11.0730 Y-4.9108
G01 X11.0585 Y-4.9754
G01 X11.0472 Y-5.0407
G01 X11.0390 Y-5.1065
G01 X11.0342 Y-5.1726
G01 X11.0325 Y-5.2388
G01 X11.0342 Y-5.3050
G01 X11.0390 Y-5.3711
G01 X11.0472 Y-5.4369
G01 X11.0585 Y-5.5022
G01 X11.0730 Y-5.5668
G01 X11.0907 Y-5.6307
G01 X11.1115 Y-5.6936
G01 X11.1353 Y-5.7554
G01 X11.1622 Y-5.8160
G01 X11.1919 Y-5.8752
G01 X11.2246 Y-5.9328
G01 X11.2601 Y-5.9888
G01 X11.2982 Y-6.0430
G01 X11.3390 Y-6.0952
G01 X11.3822 Y-6.1454
G01 X11.4279 Y-6.1934
G01 X11.4759 Y-6.2391
G01 X11.5261 Y-6.2823
G01 X11.5783 Y-6.3231
G01 X11.6325 Y-6.3612
G01 X11.6885 Y-6.3967
G01 X11.7461 Y-6.4294
G01 X11.8053 Y-6.4591
G01 X11.8659 Y-6.4860
G01 X11.9277 Y-6.5098
G01 X11.9906 Y-6.5306
G01 X12.0545 Y-6.5483
G01 X12.1191 Y-6.5628
G01 X12.1844 Y-6.5741
G01 X12.2502 Y-6.5823
G01 X12.3163 Y-6.5871
G01 X12.3825 Y-6.5888
G01 X12.4487 Y-6.5871
G01 X12.5148 Y-6.5823
G01 X12.5806 Y-6.5741
G01 X12.6459 Y-6.5628
G01 X12.7105 Y-6.5483
G01 X12.7744 Y-6.5306
G01 X12.8373 Y-6.5098
G01 X12.8991 Y-6.4860
G01 X12.9597 Y-6.4591
G01 X13.0189 Y-6.4294
G01 X13.0765 Y-6.3967
G01 X13.1325 Y-6.3612
G01 X13.1867 Y-6.3231
G01 X13.2389 Y-6.2823
G01 X13.2891 Y-6.2391
G01 X13.3371 Y-6.1934
G01 X13.3828 Y-6.1454
G01 X13.4260 Y-6.0952
G01 X13.4668 Y-6.0430
G01 X13.5049 Y-5.9888
G01 X13.5404 Y-5.9328
G01 X13.5731 Y-5.8752
G01 X13.6028 Y-5.8160
G01 X13.6297 Y-5.7554
G01 X13.6535 Y-5.6936
G01 X13.6743 Y-5.6307
G01 X13.6920 Y-5.5668
G01 X13.7065 Y-5.5022
G01 X13.7178 Y-5.4369
G01 X13.7260 Y-5.3711
G01 X13.7308 Y-5.3050
G01 X13.7325 Y-5.2388
G00 Z2.0000
G00 X13.8075 Y-5.2388
G01 F70.00
G01 Z-0.0700
G01 F120.00
G01 X13.8058 Y-5.1689
G01 X13.8006 Y-5.0991
G01 X13.7921 Y-5.0297
G01 X13.7801 Y-4.9608
G01 X13.7648 Y-4.8926
G01 X13.7461 Y-4.8252
G01 X13.7242 Y-4.7587
G01 X13.6990 Y-4.6935
G01 X13.6707 Y-4.6295
G01 X13.6392 Y-4.5671
G01 X13.6047 Y-4.5062
G01 X13.5673 Y-4.4471
G01 X13.5271 Y-4.3899
G01 X13.4840 Y-4.3348
G01 X13.4383 Y-4.2818
G01 X13.3901 Y-4.2312
G01 X13.3395 Y-4.1830
G01 X13.2865 Y-4.1373
G01 X13.2314 Y-4.0942
G01 X13.1742 Y-4.0540
G01 X13.1151 Y-4.0166
G01 X13.0542 Y-3.9821
G01 X12.9918 Y-3.9506
G01 X12.9278 Y-3.9223
G01 X12.8626 Y-3.8971
G01 X12.7961 Y-3.8752
G01 X12.7287 Y-3.8565
G01 X12.6605 Y-3.8412
G01 X12.5916 Y-3.8292
G01 X12.5222 Y-3.8207
G01 X12.4524 Y-3.8155
G01 X12.3825 Y-3.8138
G01 X12.3126 Y-3.8155
G01 X12.2428 Y-3.8207
G01 X12.1734 Y-3.8292
G01 X12.1045 Y-3.8412
G01 X12.0363 Y-3.8565
G01 X11.9689 Y-3.8752
G01 X11.9024 Y-3.8971
G01 X11.8372 Y-3.9223
G01 X11.7732 Y-3.9506
G01 X11.7108 Y-3.9821
G01 X11.6499 Y-4.0166
G01 X11.5908 Y-4.0540
G01 X11.5336 Y-4.0942
G01 X11.4785 Y-4.1373
G01 X11.4255 Y-4.1830
G01 X11.3749 Y-4.2312
G01 X11.3267 Y-4.2818
G01 X11.2810 Y-4.3348
G01 X11.2379 Y-4.3899
G01 X11.1977 Y-4.4471
G01 X11.1603 Y-4.5062
G01 X11.1258 Y-4.5671
G01 X11.0943 Y-4.6295
G01 X11.0660 Y-4.6935
G01 X11.0408 Y-4.7587
G01 X11.0189 Y-4.8252
G01 X11.0002 Y-4.8926
G01 X10.9849 Y-4.9608
G01 X10.9729 Y-5.0297
G01 X10.9644 Y-5.0991
G01 X10.9592 Y-5.1689
G01 X10.9575 Y-5.2388
G01 X10.9592 Y-5.3087
G01 X10.9644 Y-5.3785
G01 X10.9729 Y-5.4479
G01 X10.9849 Y-5.5168
G01 X11.0002 Y-5.5850
G01 X11.0189 Y-5.6524
G01 X11.0408 Y-5.7189
G01 X11.0660 Y-5.7841
G01 X11.0943 Y-5.8481
G01 X11.1258 Y-5.9105
G01 X11.1603 Y-5.9714
G01 X11.1977 Y-6.0305
G01 X11.2379 Y-6.0877
G01 X11.2810 Y-6.1428
G01 X11.3267 Y-6.1958
G01 X11.3749 Y-6.2464
G01 X11.4255 Y-6.2946
G01 X11.4785 Y-6.3403
G01 X11.5336 Y-6.3834
G01 X11.5908 Y-6.4236
G01 X11.6499 Y-6.4610
G01 X11.7108 Y-6.4955
G01 X11.7732 Y-6.5270
G01 X11.8372 Y-6.5553
G01 X11.9024 Y-6.5805
G01 X11.9689 Y-6.6024
G01 X12.0363 Y-6.6211
G01 X12.1045 Y-6.6364
G01 X12.1734 Y-6.6484
G01 X12.2428 Y-6.6569
G01 X12.3126 Y-6.6621
G01 X12.3825 Y-6.6638
G01 X12.4524 Y-6.6621
G01 X12.5222 Y-6.6569
G01 X12.5916 Y-6.6484
G01 X12.6605 Y-6.6364
G01 X12.7287 Y-6.6211
G01 X12.7961 Y-6.6024
G01 X12.8626 Y-6.5805
G01 X12.9278 Y-6.5553
G01 X12.9918 Y-6.5270
G01 X13.0542 Y-6.4955
G01 X13.1151 Y-6.4610
G01 X13.1742 Y-6.4236
G01 X13.2314 Y-6.3834
G01 X13.2865 Y-6.3403
G01 X13.3395 Y-6.2946
G01 X13.3901 Y-6.2464
G01 X13.4383 Y-6.1958
G01 X13.4840 Y-6.1428
G01 X13.5271 Y-6.0877
G01 X13.5673 Y-6.0305
G01 X13.6047 Y-5.9714
G01 X13.6392 Y-5.9105
G01 X13.6707 Y-5.8481
G01 X13.6990 Y-5.7841
G01 X13.7242 Y-5.7189
G01 X13.7461 Y-5.6524
G01 X13.7648 Y-5.5850
G01 X13.7801 Y-5.5168
G01 X13.7921 Y-5.4479
G01 X13.8006 Y-5.3785
G01 X13.8058 Y-5.3087
G01 X13.8075 Y-5.2388
G00 Z2.0000
G00 X17.3924 Y-14.2875
G01 F70.00
G01 Z-0.0700
G01 F120.00
G01 X17.3910 Y-14.2286
G01 X17.3866 Y-14.1699
G01 X17.3794 Y-14.1114
G01 X17.3694 Y-14.0534
G01 X17.3564 Y-13.9959
G01 X17.3407 Y-13.9392
G01 X17.3223 Y-13.8833
G01 X17.3011 Y-13.8283
G01 X17.2772 Y-13.7745
G01 X17.2507 Y-13.7219
G01 X17.2217 Y-13.6706
G01 X17.1902 Y-13.6209
G01 X17.1563 Y-13.5727
G01 X17.1200 Y-13.5263
G01 X17.0816 Y-13.4817
G01 X17.0410 Y-13.4390
G01 X16.9983 Y-13.3984
G01 X16.9537 Y-13.3600
G01 X16.9073 Y-13.3237
G01 X16.8591 Y-13.2898
G01 X16.8094 Y-13.2583
G01 X16.7581 Y-13.2293
G01 X16.7055 Y-13.2028
G01 X16.6517 Y-13.1789
G01 X16.5967 Y-13.1577
G01 X16.5408 Y-13.1393
G01 X16.4841 Y-13.1236
G01 X16.4266 Y-13.1106
G01 X16.3686 Y-13.1006
G01 X16.3101 Y-13.0934
G01 X16.2514 Y-13.0890
G01 X16.1925 Y-13.0876
G01 X16.1336 Y-13.0890
G01 X16.0749 Y-13.0934
G01 X16.0164 Y-13.1006
G01 X15.9584 Y-13.1106
G01 X15.9009 Y-13.1236
G01 X15.8442 Y-13.1393
G01 X15.7883 Y-13.1577
G01 X15.7333 Y-13.1789
G01 X15.6795 Y-13.2028
G01 X15.6269 Y-13.2293
G01 X15.5756 Y-13.2583
G01 X15.5259 Y-13.2898
G01 X15.4777 Y-13.3237
G01 X15.4313 Y-13.3600
G01 X15.3867 Y-13.3984
G01 X15.3440 Y-13.4390
G01 X15.3034 Y-13.4817
G01 X15.2650 Y-13.5263
G01 X15.2287 Y-13.5727
G01 X15.1948 Y-13.6209
G01 X15.1633 Y-13.6706
G01 X15.1343 Y-13.7219
G01 X15.1078 Y-13.7745
G01 X15.0839 Y-13.8283
G01 X15.0627 Y-13.8833
G01 X15.0443 Y-13.9392
G01 X15.0286 Y-13.9959
G01 X15.0156 Y-14.0534
G01 X15.0056 Y-14.1114
G01 X14.9984 Y-14.1699
G01 X14.9940 Y-14.2286
G01 X14.9926 Y-14.2875
G01 X14.9940 Y-14.3464
G01 X14.9984 Y-14.4051
G01 X15.0056 Y-14.4636
G01 X15.0156 Y-14.5216
G01 X15.0286 Y-14.5791
G01 X15.0443 Y-14.6358
G01 X15.0627 Y-14.6917
G01 X15.0839 Y-14.7467
G01 X15.1078 Y-14.8005
G01 X15.1343 Y-14.8531
G01 X15.1633 Y-14.9044
G01 X15.1948 Y-14.9541
G01 X15.2287 Y-15.0023
G01 X15.2650 Y-15.0487
G01 X15.3034 Y-15.0933
G01 X15.3440 Y-15.1360
G01 X15.3867 Y-15.1766
G01 X15.4313 Y-15.2150
G01 X15.4777 Y-15.2513
G01 X15.5259 Y-15.2852
G01 X15.5756 Y-15.3167
G01 X15.6269 Y-15.3457
G01 X15.6795 Y-15.3722
G01 X15.7333 Y-15.3961
G01 X15.7883 Y-15.4173
G01 X15.8442 Y-15.4357
G01 X15.9009 Y-15.4514
G01 X15.9584 Y-15.4644
G01 X16.0164 Y-15.4744
G01 X16.0749 Y-15.4816
G01 X16.1336 Y-15.4860
G01 X16.1925 Y-15.4874
G01 X16.2514 Y-15.4860
G01 X16.3101 Y-15.4816
G01 X16.3686 Y-15.4744
G01 X16.4266 Y-15.4644
G01 X16.4841 Y-15.4514
G01 X16.5408 Y-15.4357
G01 X16.5967 Y-15.4173
G01 X16.6517 Y-15.3961
G01 X16.7055 Y-15.3722
G01 X16.7581 Y-15.3457
G01 X16.8094 Y-15.3167
G01 X16.8591 Y-15.2852
G01 X16.9073 Y-15.2513
G01 X16.9537 Y-15.2150
G01 X16.9983 Y-15.1766
G01 X17.0410 Y-15.1360
G01 X17.0816 Y-15.0933
G01 X17.1200 Y-15.0487
G01 X17.1563 Y-15.0023
G01 X17.1902 Y-14.9541
G01 X17.2217 Y-14.9044
G01 X17.2507 Y-14.8531
G01 X17.2772 Y-14.8005
G01 X17.3011 Y-14.7467
G01 X17.3223 Y-14.6917
G01 X17.3407 Y-14.6358
G01 X17.3564 Y-14.5791
G01 X17.3694 Y-14.5216
G01 X17.3794 Y-14.4636
G01 X17.3866 Y-14.4051
G01 X17.3910 Y-14.3464
G01 X17.3924 Y-14.2875
G00 Z2.0000
G00 X17.4674 Y-14.2875
G01 F70.00
G01 Z-0.0700
G01 F120.00
G01 X17.4659 Y-14.2249
G01 X17.4613 Y-14.1625
G01 X17.4536 Y-14.1004
G01 X17.4429 Y-14.0388
G01 X17.4292 Y-13.9777
G01 X17.4125 Y-13.9174
G01 X17.3929 Y-13.8580
G01 X17.3704 Y-13.7996
G01 X17.3450 Y-13.7424
G01 X17.3169 Y-13.6865
G01 X17.2860 Y-13.6321
G01 X17.2526 Y-13.5792
G01 X17.2165 Y-13.5280
G01 X17.1780 Y-13.4787
G01 X17.1372 Y-13.4313
G01 X17.0940 Y-13.3860
G01 X17.0487 Y-13.3428
G01 X17.0013 Y-13.3020
G01 X16.9520 Y-13.2635
G01 X16.9008 Y-13.2274
G01 X16.8479 Y-13.1940
G01 X16.7935 Y-13.1631
G01 X16.7376 Y-13.1350
G01 X16.6804 Y-13.1096
G01 X16.6220 Y-13.0871
G01 X16.5626 Y-13.0675
G01 X16.5023 Y-13.0508
G01 X16.4412 Y-13.0371
G01 X16.3796 Y-13.0264
G01 X16.3175 Y-13.0187
G01 X16.2551 Y-13.0141
G01 X16.1925 Y-13.0126
G01 X16.1299 Y-13.0141
G01 X16.0675 Y-13.0187
G01 X16.0054 Y-13.0264
G01 X15.9438 Y-13.0371
G01 X15.8827 Y-13.0508
G01 X15.8224 Y-13.0675
G01 X15.7630 Y-13.0871
G01 X15.7046 Y-13.1096
G01 X15.6474 Y-13.1350
G01 X15.5915 Y-13.1631
G01 X15.5371 Y-13.1940
G01 X15.4842 Y-13.2274
G01 X15.4330 Y-13.2635
G01 X15.3837 Y-13.3020
G01 X15.3363 Y-13.3428
G01 X15.2910 Y-13.3860
G01 X15.2478 Y-13.4313
G01 X15.2070 Y-13.4787
G01 X15.1685 Y-13.5280
G01 X15.1324 Y-13.5792
G01 X15.0990 Y-13.6321
G01 X15.0681 Y-13.6865
G01 X15.0400 Y-13.7424
G01 X15.0146 Y-13.7996
G01 X14.9921 Y-13.8580
G01 X14.9725 Y-13.9174
G01 X14.9558 Y-13.9777
G01 X14.9421 Y-14.0388
G01 X14.9314 Y-14.1004
G01 X14.9237 Y-14.1625
G01 X14.9191 Y-14.2249
G01 X14.9176 Y-14.2875
G01 X14.9191 Y-14.3501
G01 X14.9237 Y-14.4125
G01 X14.9314 Y-14.4746
G01 X14.9421 Y-14.5362
G01 X14.9558 Y-14.5973
G01 X14.9725 Y-14.6576
G01 X14.9921 Y-14.7170
G01 X15.0146 Y-14.7754
G01 X15.0400 Y-14.8326
G01 X15.0681 Y-14.8885
G01 X15.0990 Y-14.9429
G01 X15.1324 Y-14.9958
G01 X15.1685 Y-15.0470
G01 X15.2070 Y-15.0963
G01 X15.2478 Y-15.1437
G01 X15.2910 Y-15.1890
G01 X15.3363 Y-15.2322
G01 X15.3837 Y-15.2730
G01 X15.4330 Y-15.3115
G01 X15.4842 Y-15.3476
G01 X15.5371 Y-15.3810
G01 X15.5915 Y-15.4119
G01 X15.6474 Y-15.4400
G01 X15.7046 Y-15.4654
G01 X15.7630 Y-15.4879
G01 X15.8224 Y-15.5075
G01 X15.8827 Y-15.5242
G01 X15.9438 Y-15.5379
G01 X16.0054 Y-15.5486
G01 X16.0675 Y-15.5563
G01 X16.1299 Y-15.5609
G01 X16.1925 Y-15.5624
G01 X16.2551 Y-15.5609
G01 X16.3175 Y-15.5563
G01 X16.3796 Y-15.5486
G01 X16.4412 Y-15.5379
G01 X16.5023 Y-15.5242
G01 X16.5626 Y-15.5075
G01 X16.6220 Y-15.4879
G01 X16.6804 Y-15.4654
G01 X16.7376 Y-15.4400
G01 X16.7935 Y-15.4119
G01 X16.8479 Y-15.3810
G01 X16.9008 Y-15.3476
G01 X16.9520 Y-15.3115
G01 X17.0013 Y-15.2730
G01 X17.0487 Y-15.2322
G01 X17.0940 Y-15.1890
G01 X17.1372 Y-15.1437
G01 X17.1780 Y-15.0963
G01 X17.2165 Y-15.0470
G01 X17.2526 Y-14.9958
G01 X17.2860 Y-14.9429
G01 X17.3169 Y-14.8885
G01 X17.3450 Y-14.8326
G01 X17.3704 Y-14.7754
G01 X17.3929 Y-14.7170
G01 X17.4125 Y-14.6576
G01 X17.4292 Y-14.5973
G01 X17.4429 Y-14.5362
G01 X17.4536 Y-14.4746
G01 X17.4613 Y-14.4125
G01 X17.4659 Y-14.3501
G01 X17.4674 Y-14.2875
G00 Z2.0000
G00 X17.5425 Y-14.2875
G01 F70.00
G01 Z-0.0700
G01 F120.00
G01 X17.5408 Y-14.2213
G01 X17.5360 Y-14.1552
G01 X17.5278 Y-14.0894
G01 X17.5165 Y-14.0241
G01 X17.5020 Y-13.9595
G01 X17.4843 Y-13.8956
G01 X17.4635 Y-13.8327
G01 X17.4397 Y-13.7709
G01 X17.4128 Y-13.7103
G01 X17.3831 Y-13.6511
G01 X17.3504 Y-13.5935
G01 X17.3149 Y-13.5375
G01 X17.2768 Y-13.4833
G01 X17.2360 Y-13.4311
G01 X17.1928 Y-13.3809
G01 X17.1471 Y-13.3329
G01 X17.0991 Y-13.2872
G01 X17.0489 Y-13.2440
G01 X16.9967 Y-13.2032
G01 X16.9425 Y-13.1651
G01 X16.8865 Y-13.1296
G01 X16.8289 Y-13.0969
G01 X16.7697 Y-13.0672
G01 X16.7091 Y-13.0403
G01 X16.6473 Y-13.0165
G01 X16.5844 Y-12.9957
G01 X16.5205 Y-12.9780
G01 X16.4559 Y-12.9635
G01 X16.3906 Y-12.9522
G01 X16.3248 Y-12.9440
G01 X16.2587 Y-12.9392
G01 X16.1925 Y-12.9375
G01 X16.1263 Y-12.9392
G01 X16.0602 Y-12.9440
G01 X15.9944 Y-12.9522
G01 X15.9291 Y-12.9635
G01 X15.8645 Y-12.9780
G01 X15.8006 Y-12.9957
G01 X15.7377 Y-13.0165
G01 X15.6759 Y-13.0403
G01 X15.6153 Y-13.0672
G01 X15.5561 Y-13.0969
G01 X15.4985 Y-13.1296
G01 X15.4425 Y-13.1651
G01 X15.3883 Y-13.2032
G01 X15.3361 Y-13.2440
G01 X15.2859 Y-13.2872
G01 X15.2379 Y-13.3329
G01 X15.1922 Y-13.3809
G01 X15.1490 Y-13.4311
G01 X15.1082 Y-13.4833
G01 X15.0701 Y-13.5375
G01 X15.0346 Y-13.5935
G01 X15.0019 Y-13.6511
G01 X14.9722 Y-13.7103
G01 X14.9453 Y-13.7709
G01 X14.9215 Y-13.8327
G01 X14.9007 Y-13.8956
G01 X14.8830 Y-13.9595
G01 X14.8685 Y-14.0241
G01 X14.8572 Y-14.0894
G01 X14.8490 Y-14.1552
G01 X14.8442 Y-14.2213
G01 X14.8425 Y-14.2875
G01 X14.8442 Y-14.3537
G01 X14.8490 Y-14.4198
G01 X14.8572 Y-14.4856
G01 X14.8685 Y-14.5509
G01 X14.8830 Y-14.6155
G01 X14.9007 Y-14.6794
G01 X14.9215 Y-14.7423
G01 X14.9453 Y-14.8041
G01 X14.9722 Y-14.8647
G01 X15.0019 Y-14.9239
G01 X15.0346 Y-14.9815
G01 X15.0701 Y-15.0375
G01 X15.1082 Y-15.0917
G01 X15.1490 Y-15.1439
G01 X15.1922 Y-15.1941
G01 X15.2379 Y-15.2421
G01 X15.2859 Y-15.2878
G01 X15.3361 Y-15.3310
G01 X15.3883 Y-15.3718
G01 X15.4425 Y-15.4099
G01 X15.4985 Y-15.4454
G01 X15.5561 Y-15.4781
G01 X15.6153 Y-15.5078
G01 X15.6759 Y-15.5347
G01 X15.7377 Y-15.5585
G01 X15.8006 Y-15.5793
G01 X15.8645 Y-15.5970
G01 X15.9291 Y-15.6115
G01 X15.9944 Y-15.6228
G01 X16.0602 Y-15.6310
G01 X16.1263 Y-15.6358
G01 X16.1925 Y-15.6375
G01 X16.2587 Y-15.6358
G01 X16.3248 Y-15.6310
G01 X16.3906 Y-15.6228
G01 X16.4559 Y-15.6115
G01 X16.5205 Y-15.5970
G01 X16.5844 Y-15.5793
G01 X16.6473 Y-15.5585
G01 X16.7091 Y-15.5347
G01 X16.7697 Y-15.5078
G01 X16.8289 Y-15.4781
G01 X16.8865 Y-15.4454
G01 X16.9425 Y-15.4099
G01 X16.9967 Y-15.3718
G01 X17.0489 Y-15.3310
G01 X17.0991 Y-15.2878
G01 X17.1471 Y-15.2421
G01 X17.1928 Y-15.1941
G01 X17.2360 Y-15.1439
G01 X17.2768 Y-15.0917
G01 X17.3149 Y-15.0375
G01 X17.3504 Y-14.9815
G01 X17.3831 Y-14.9239
G01 X17.4128 Y-14.8647
G01 X17.4397 Y-14.8041
G01 X17.4635 Y-14.7423
G01 X17.4843 Y-14.6794
G01 X17.5020 Y-14.6155
G01 X17.5165 Y-14.5509
G01 X17.5278 Y-14.4856
G01 X17.5360 Y-14.4198
G01 X17.5408 Y-14.3537
G01 X17.5425 Y-14.2875
G00 Z2.0000
G00 X17.6175 Y-14.2875
G01 F70.00
G01 Z-0.0700
G01 F120.00
G01 X17.6158 Y-14.2176
G01 X17.6106 Y-14.1478
G01 X17.6021 Y-14.0784
G01 X17.5901 Y-14.0095
G01 X17.5748 Y-13.9413
G01 X17.5561 Y-13.8739
G01 X17.5342 Y-13.8074
G01 X17.5090 Y-13.7422
G01 X17.4807 Y-13.6782
G01 X17.4492 Y-13.6158
G01 X17.4147 Y-13.5549
G01 X17.3773 Y-13.4958
G01 X17.3371 Y-13.4386
G01 X17.2940 Y-13.3835
G01 X17.2483 Y-13.3305
G01 X17.2001 Y-13.2799
G01 X17.1495 Y-13.2317
G01 X17.0965 Y-13.1860
G01 X17.0414 Y-13.1429
G01 X16.9842 Y-13.1027
G01 X16.9251 Y-13.0653
G01 X16.8642 Y-13.0308
G01 X16.8018 Y-12.9993
G01 X16.7378 Y-12.9710
G01 X16.6726 Y-12.9458
G01 X16.6061 Y-12.9239
G01 X16.5387 Y-12.9052
G01 X16.4705 Y-12.8899
G01 X16.4016 Y-12.8779
G01 X16.3322 Y-12.8694
G01 X16.2624 Y-12.8642
G01 X16.1925 Y-12.8625
G01 X16.1226 Y-12.8642
G01 X16.0528 Y-12.8694
G01 X15.9834 Y-12.8779
G01 X15.9145 Y-12.8899
G01 X15.8463 Y-12.9052
G01 X15.7789 Y-12.9239
G01 X15.7124 Y-12.9458
G01 X15.6472 Y-12.9710
G01 X15.5832 Y-12.9993
G01 X15.5208 Y-13.0308
G01 X15.4599 Y-13.0653
G01 X15.4008 Y-13.1027
G01 X15.3436 Y-13.1429
G01 X15.2885 Y-13.1860
G01 X15.2355 Y-13.2317
G01 X15.1849 Y-13.2799
G01 X15.1367 Y-13.3305
G01 X15.0910 Y-13.3835
G01 X15.0479 Y-13.4386
G01 X15.0077 Y-13.4958
G01 X14.9703 Y-13.5549
G01 X14.9358 Y-13.6158
G01 X14.9043 Y-13.6782
G01 X14.8760 Y-13.7422
G01 X14.8508 Y-13.8074
G01 X14.8289 Y-13.8739
G01 X14.8102 Y-13.9413
G01 X14.7949 Y-14.0095
G01 X14.7829 Y-14.0784
G01 X14.7744 Y-14.1478
G01 X14.7692 Y-14.2176
G01 X14.7675 Y-14.2875
G01 X14.7692 Y-14.3574
G01 X14.7744 Y-14.4272
G01 X14.7829 Y-14.4966
G01 X14.7949 Y-14.5655
G01 X14.8102 Y-14.6337
G01 X14.8289 Y-14.7011
G01 X14.8508 Y-14.7676
G01 X14.8760 Y-14.8328
G01 X14.9043 Y-14.8968
G01 X14.9358 Y-14.9592
G01 X14.9703 Y-15.0201
G01 X15.0077 Y-15.0792
G01 X15.0479 Y-15.1364
G01 X15.0910 Y-15.1915
G01 X15.1367 Y-15.2445
G01 X15.1849 Y-15.2951
G01 X15.2355 Y-15.3433
G01 X15.2885 Y-15.3890
G01 X15.3436 Y-15.4321
G01 X15.4008 Y-15.4723
G01 X15.4599 Y-15.5097
G01 X15.5208 Y-15.5442
G01 X15.5832 Y-15.5757
G01 X15.6472 Y-15.6040
G01 X15.7124 Y-15.6292
G01 X15.7789 Y-15.6511
G01 X15.8463 Y-15.6698
G01 X15.9145 Y-15.6851
G01 X15.9834 Y-15.6971
G01 X16.0528 Y-15.7056
G01 X16.1226 Y-15.7108
G01 X16.1925 Y-15.7125
G01 X16.2624 Y-15.7108
G01 X16.3322 Y-15.7056
G01 X16.4016 Y-15.6971
G01 X16.4705 Y-15.6851
G01 X16.5387 Y-15.6698
G01 X16.6061 Y-15.6511
G01 X16.6726 Y-15.6292
G01 X16.7378 Y-15.6040
G01 X16.8018 Y-15.5757
G01 X16.8642 Y-15.5442
G01 X16.9251 Y-15.5097
G01 X16.9842 Y-15.4723
G01 X17.0414 Y-15.4321
G01 X17.0965 Y-15.3890
G01 X17.1495 Y-15.3433
G01 X17.2001 Y-15.2951
G01 X17.2483 Y-15.2445
G01 X17.2940 Y-15.1915
G01 X17.3371 Y-15.1364
G01 X17.3773 Y-15.0792
G01 X17.4147 Y-15.0201
G01 X17.4492 Y-14.9592
G01 X17.4807 Y-14.8968
G01 X17.5090 Y-14.8328
G01 X17.5342 Y-14.7676
G01 X17.5561 Y-14.7011
G01 X17.5748 Y-14.6337
G01 X17.5901 Y-14.5655
G01 X17.6021 Y-14.4966
G01 X17.6106 Y-14.4272
G01 X17.6158 Y-14.3574
G01 X17.6175 Y-14.2875
G00 Z2.0000
M05
G00 Z2.0000
G00 Z25.00

