(G-CODE GENERATED BY FLATCAM v8.993 - www.flatcam.org - Version Date: 2020/06/05)

(Name: ThermoSensor_Ф1_верх.gbr_cutout_cnc)
(Type: G-code from Geometry)
(Units: MM)

(Created on Wednesday, 07 October 2020 at 05:32)

(This preprocessor is the default preprocessor used by FlatCAM.)
(It is made to work with MACH3 compatible motion controllers.)

(TOOL DIAMETER: 0.8 mm)
(Feedrate_XY: 60.0 mm/min)
(Feedrate_Z: 70.0 mm/min)
(Feedrate rapids 1500.0 mm/min)

(Z_Cut: -1.8 mm)
(DepthPerCut: 0.1 mm <=>18 passes)
(Z_Move: 2.0 mm)
(Z Start: None mm)
(Z End: 25.0 mm)
(Steps per circle: 128)
(Preprocessor Geometry: default)

(X range:   -0.1510 ...   16.1510  mm)
(Y range:   -8.4510 ...    0.1510  mm)

(Spindle Speed: None RPM)
G21
G90
G94



G01 F60.00
G00 Z2.0000

M03
G00 X16.0010 Y-8.4510
G01 F70.00
G01 Z-0.1000
G01 F60.00
G01 X-0.0010 Y-8.4510
G01 X-0.0157 Y-8.4503
G01 X-0.0303 Y-8.4481
G01 X-0.0445 Y-8.4445
G01 X-0.0584 Y-8.4396
G01 X-0.0717 Y-8.4333
G01 X-0.0843 Y-8.4257
G01 X-0.0962 Y-8.4170
G01 X-0.1071 Y-8.4071
G01 X-0.1170 Y-8.3962
G01 X-0.1257 Y-8.3843
G01 X-0.1333 Y-8.3717
G01 X-0.1396 Y-8.3584
G01 X-0.1445 Y-8.3445
G01 X-0.1481 Y-8.3303
G01 X-0.1503 Y-8.3157
G01 X-0.1510 Y-8.3010
G01 X-0.1510 Y0.0010
G01 X-0.1503 Y0.0157
G01 X-0.1481 Y0.0303
G01 X-0.1445 Y0.0445
G01 X-0.1396 Y0.0584
G01 X-0.1333 Y0.0717
G01 X-0.1257 Y0.0843
G01 X-0.1170 Y0.0962
G01 X-0.1071 Y0.1071
G01 X-0.0962 Y0.1170
G01 X-0.0843 Y0.1257
G01 X-0.0717 Y0.1333
G01 X-0.0584 Y0.1396
G01 X-0.0445 Y0.1445
G01 X-0.0303 Y0.1481
G01 X-0.0157 Y0.1503
G01 X-0.0010 Y0.1510
G01 X16.0010 Y0.1510
G01 X16.0157 Y0.1503
G01 X16.0303 Y0.1481
G01 X16.0445 Y0.1445
G01 X16.0584 Y0.1396
G01 X16.0717 Y0.1333
G01 X16.0843 Y0.1257
G01 X16.0962 Y0.1170
G01 X16.1071 Y0.1071
G01 X16.1170 Y0.0962
G01 X16.1257 Y0.0843
G01 X16.1333 Y0.0717
G01 X16.1396 Y0.0584
G01 X16.1445 Y0.0445
G01 X16.1481 Y0.0303
G01 X16.1503 Y0.0157
G01 X16.1510 Y0.0010
G01 X16.1510 Y-8.3010
G01 X16.1503 Y-8.3157
G01 X16.1481 Y-8.3303
G01 X16.1445 Y-8.3445
G01 X16.1396 Y-8.3584
G01 X16.1333 Y-8.3717
G01 X16.1257 Y-8.3843
G01 X16.1170 Y-8.3962
G01 X16.1071 Y-8.4071
G01 X16.0962 Y-8.4170
G01 X16.0843 Y-8.4257
G01 X16.0717 Y-8.4333
G01 X16.0584 Y-8.4396
G01 X16.0445 Y-8.4445
G01 X16.0303 Y-8.4481
G01 X16.0157 Y-8.4503
G01 X16.0010 Y-8.4510
G00 X16.0010 Y-8.4510
G01 F70.00
G01 Z-0.2000
G01 F60.00
G01 X16.0157 Y-8.4503
G01 X16.0303 Y-8.4481
G01 X16.0445 Y-8.4445
G01 X16.0584 Y-8.4396
G01 X16.0717 Y-8.4333
G01 X16.0843 Y-8.4257
G01 X16.0962 Y-8.4170
G01 X16.1071 Y-8.4071
G01 X16.1170 Y-8.3962
G01 X16.1257 Y-8.3843
G01 X16.1333 Y-8.3717
G01 X16.1396 Y-8.3584
G01 X16.1445 Y-8.3445
G01 X16.1481 Y-8.3303
G01 X16.1503 Y-8.3157
G01 X16.1510 Y-8.3010
G01 X16.1510 Y0.0010
G01 X16.1503 Y0.0157
G01 X16.1481 Y0.0303
G01 X16.1445 Y0.0445
G01 X16.1396 Y0.0584
G01 X16.1333 Y0.0717
G01 X16.1257 Y0.0843
G01 X16.1170 Y0.0962
G01 X16.1071 Y0.1071
G01 X16.0962 Y0.1170
G01 X16.0843 Y0.1257
G01 X16.0717 Y0.1333
G01 X16.0584 Y0.1396
G01 X16.0445 Y0.1445
G01 X16.0303 Y0.1481
G01 X16.0157 Y0.1503
G01 X16.0010 Y0.1510
G01 X-0.0010 Y0.1510
G01 X-0.0157 Y0.1503
G01 X-0.0303 Y0.1481
G01 X-0.0445 Y0.1445
G01 X-0.0584 Y0.1396
G01 X-0.0717 Y0.1333
G01 X-0.0843 Y0.1257
G01 X-0.0962 Y0.1170
G01 X-0.1071 Y0.1071
G01 X-0.1170 Y0.0962
G01 X-0.1257 Y0.0843
G01 X-0.1333 Y0.0717
G01 X-0.1396 Y0.0584
G01 X-0.1445 Y0.0445
G01 X-0.1481 Y0.0303
G01 X-0.1503 Y0.0157
G01 X-0.1510 Y0.0010
G01 X-0.1510 Y-8.3010
G01 X-0.1503 Y-8.3157
G01 X-0.1481 Y-8.3303
G01 X-0.1445 Y-8.3445
G01 X-0.1396 Y-8.3584
G01 X-0.1333 Y-8.3717
G01 X-0.1257 Y-8.3843
G01 X-0.1170 Y-8.3962
G01 X-0.1071 Y-8.4071
G01 X-0.0962 Y-8.4170
G01 X-0.0843 Y-8.4257
G01 X-0.0717 Y-8.4333
G01 X-0.0584 Y-8.4396
G01 X-0.0445 Y-8.4445
G01 X-0.0303 Y-8.4481
G01 X-0.0157 Y-8.4503
G01 X-0.0010 Y-8.4510
G01 X16.0010 Y-8.4510
G00 X16.0010 Y-8.4510
G01 F70.00
G01 Z-0.3000
G01 F60.00
G01 X-0.0010 Y-8.4510
G01 X-0.0157 Y-8.4503
G01 X-0.0303 Y-8.4481
G01 X-0.0445 Y-8.4445
G01 X-0.0584 Y-8.4396
G01 X-0.0717 Y-8.4333
G01 X-0.0843 Y-8.4257
G01 X-0.0962 Y-8.4170
G01 X-0.1071 Y-8.4071
G01 X-0.1170 Y-8.3962
G01 X-0.1257 Y-8.3843
G01 X-0.1333 Y-8.3717
G01 X-0.1396 Y-8.3584
G01 X-0.1445 Y-8.3445
G01 X-0.1481 Y-8.3303
G01 X-0.1503 Y-8.3157
G01 X-0.1510 Y-8.3010
G01 X-0.1510 Y0.0010
G01 X-0.1503 Y0.0157
G01 X-0.1481 Y0.0303
G01 X-0.1445 Y0.0445
G01 X-0.1396 Y0.0584
G01 X-0.1333 Y0.0717
G01 X-0.1257 Y0.0843
G01 X-0.1170 Y0.0962
G01 X-0.1071 Y0.1071
G01 X-0.0962 Y0.1170
G01 X-0.0843 Y0.1257
G01 X-0.0717 Y0.1333
G01 X-0.0584 Y0.1396
G01 X-0.0445 Y0.1445
G01 X-0.0303 Y0.1481
G01 X-0.0157 Y0.1503
G01 X-0.0010 Y0.1510
G01 X16.0010 Y0.1510
G01 X16.0157 Y0.1503
G01 X16.0303 Y0.1481
G01 X16.0445 Y0.1445
G01 X16.0584 Y0.1396
G01 X16.0717 Y0.1333
G01 X16.0843 Y0.1257
G01 X16.0962 Y0.1170
G01 X16.1071 Y0.1071
G01 X16.1170 Y0.0962
G01 X16.1257 Y0.0843
G01 X16.1333 Y0.0717
G01 X16.1396 Y0.0584
G01 X16.1445 Y0.0445
G01 X16.1481 Y0.0303
G01 X16.1503 Y0.0157
G01 X16.1510 Y0.0010
G01 X16.1510 Y-8.3010
G01 X16.1503 Y-8.3157
G01 X16.1481 Y-8.3303
G01 X16.1445 Y-8.3445
G01 X16.1396 Y-8.3584
G01 X16.1333 Y-8.3717
G01 X16.1257 Y-8.3843
G01 X16.1170 Y-8.3962
G01 X16.1071 Y-8.4071
G01 X16.0962 Y-8.4170
G01 X16.0843 Y-8.4257
G01 X16.0717 Y-8.4333
G01 X16.0584 Y-8.4396
G01 X16.0445 Y-8.4445
G01 X16.0303 Y-8.4481
G01 X16.0157 Y-8.4503
G01 X16.0010 Y-8.4510
G00 X16.0010 Y-8.4510
G01 F70.00
G01 Z-0.4000
G01 F60.00
G01 X16.0157 Y-8.4503
G01 X16.0303 Y-8.4481
G01 X16.0445 Y-8.4445
G01 X16.0584 Y-8.4396
G01 X16.0717 Y-8.4333
G01 X16.0843 Y-8.4257
G01 X16.0962 Y-8.4170
G01 X16.1071 Y-8.4071
G01 X16.1170 Y-8.3962
G01 X16.1257 Y-8.3843
G01 X16.1333 Y-8.3717
G01 X16.1396 Y-8.3584
G01 X16.1445 Y-8.3445
G01 X16.1481 Y-8.3303
G01 X16.1503 Y-8.3157
G01 X16.1510 Y-8.3010
G01 X16.1510 Y0.0010
G01 X16.1503 Y0.0157
G01 X16.1481 Y0.0303
G01 X16.1445 Y0.0445
G01 X16.1396 Y0.0584
G01 X16.1333 Y0.0717
G01 X16.1257 Y0.0843
G01 X16.1170 Y0.0962
G01 X16.1071 Y0.1071
G01 X16.0962 Y0.1170
G01 X16.0843 Y0.1257
G01 X16.0717 Y0.1333
G01 X16.0584 Y0.1396
G01 X16.0445 Y0.1445
G01 X16.0303 Y0.1481
G01 X16.0157 Y0.1503
G01 X16.0010 Y0.1510
G01 X-0.0010 Y0.1510
G01 X-0.0157 Y0.1503
G01 X-0.0303 Y0.1481
G01 X-0.0445 Y0.1445
G01 X-0.0584 Y0.1396
G01 X-0.0717 Y0.1333
G01 X-0.0843 Y0.1257
G01 X-0.0962 Y0.1170
G01 X-0.1071 Y0.1071
G01 X-0.1170 Y0.0962
G01 X-0.1257 Y0.0843
G01 X-0.1333 Y0.0717
G01 X-0.1396 Y0.0584
G01 X-0.1445 Y0.0445
G01 X-0.1481 Y0.0303
G01 X-0.1503 Y0.0157
G01 X-0.1510 Y0.0010
G01 X-0.1510 Y-8.3010
G01 X-0.1503 Y-8.3157
G01 X-0.1481 Y-8.3303
G01 X-0.1445 Y-8.3445
G01 X-0.1396 Y-8.3584
G01 X-0.1333 Y-8.3717
G01 X-0.1257 Y-8.3843
G01 X-0.1170 Y-8.3962
G01 X-0.1071 Y-8.4071
G01 X-0.0962 Y-8.4170
G01 X-0.0843 Y-8.4257
G01 X-0.0717 Y-8.4333
G01 X-0.0584 Y-8.4396
G01 X-0.0445 Y-8.4445
G01 X-0.0303 Y-8.4481
G01 X-0.0157 Y-8.4503
G01 X-0.0010 Y-8.4510
G01 X16.0010 Y-8.4510
G00 X16.0010 Y-8.4510
G01 F70.00
G01 Z-0.5000
G01 F60.00
G01 X-0.0010 Y-8.4510
G01 X-0.0157 Y-8.4503
G01 X-0.0303 Y-8.4481
G01 X-0.0445 Y-8.4445
G01 X-0.0584 Y-8.4396
G01 X-0.0717 Y-8.4333
G01 X-0.0843 Y-8.4257
G01 X-0.0962 Y-8.4170
G01 X-0.1071 Y-8.4071
G01 X-0.1170 Y-8.3962
G01 X-0.1257 Y-8.3843
G01 X-0.1333 Y-8.3717
G01 X-0.1396 Y-8.3584
G01 X-0.1445 Y-8.3445
G01 X-0.1481 Y-8.3303
G01 X-0.1503 Y-8.3157
G01 X-0.1510 Y-8.3010
G01 X-0.1510 Y0.0010
G01 X-0.1503 Y0.0157
G01 X-0.1481 Y0.0303
G01 X-0.1445 Y0.0445
G01 X-0.1396 Y0.0584
G01 X-0.1333 Y0.0717
G01 X-0.1257 Y0.0843
G01 X-0.1170 Y0.0962
G01 X-0.1071 Y0.1071
G01 X-0.0962 Y0.1170
G01 X-0.0843 Y0.1257
G01 X-0.0717 Y0.1333
G01 X-0.0584 Y0.1396
G01 X-0.0445 Y0.1445
G01 X-0.0303 Y0.1481
G01 X-0.0157 Y0.1503
G01 X-0.0010 Y0.1510
G01 X16.0010 Y0.1510
G01 X16.0157 Y0.1503
G01 X16.0303 Y0.1481
G01 X16.0445 Y0.1445
G01 X16.0584 Y0.1396
G01 X16.0717 Y0.1333
G01 X16.0843 Y0.1257
G01 X16.0962 Y0.1170
G01 X16.1071 Y0.1071
G01 X16.1170 Y0.0962
G01 X16.1257 Y0.0843
G01 X16.1333 Y0.0717
G01 X16.1396 Y0.0584
G01 X16.1445 Y0.0445
G01 X16.1481 Y0.0303
G01 X16.1503 Y0.0157
G01 X16.1510 Y0.0010
G01 X16.1510 Y-8.3010
G01 X16.1503 Y-8.3157
G01 X16.1481 Y-8.3303
G01 X16.1445 Y-8.3445
G01 X16.1396 Y-8.3584
G01 X16.1333 Y-8.3717
G01 X16.1257 Y-8.3843
G01 X16.1170 Y-8.3962
G01 X16.1071 Y-8.4071
G01 X16.0962 Y-8.4170
G01 X16.0843 Y-8.4257
G01 X16.0717 Y-8.4333
G01 X16.0584 Y-8.4396
G01 X16.0445 Y-8.4445
G01 X16.0303 Y-8.4481
G01 X16.0157 Y-8.4503
G01 X16.0010 Y-8.4510
G00 X16.0010 Y-8.4510
G01 F70.00
G01 Z-0.6000
G01 F60.00
G01 X16.0157 Y-8.4503
G01 X16.0303 Y-8.4481
G01 X16.0445 Y-8.4445
G01 X16.0584 Y-8.4396
G01 X16.0717 Y-8.4333
G01 X16.0843 Y-8.4257
G01 X16.0962 Y-8.4170
G01 X16.1071 Y-8.4071
G01 X16.1170 Y-8.3962
G01 X16.1257 Y-8.3843
G01 X16.1333 Y-8.3717
G01 X16.1396 Y-8.3584
G01 X16.1445 Y-8.3445
G01 X16.1481 Y-8.3303
G01 X16.1503 Y-8.3157
G01 X16.1510 Y-8.3010
G01 X16.1510 Y0.0010
G01 X16.1503 Y0.0157
G01 X16.1481 Y0.0303
G01 X16.1445 Y0.0445
G01 X16.1396 Y0.0584
G01 X16.1333 Y0.0717
G01 X16.1257 Y0.0843
G01 X16.1170 Y0.0962
G01 X16.1071 Y0.1071
G01 X16.0962 Y0.1170
G01 X16.0843 Y0.1257
G01 X16.0717 Y0.1333
G01 X16.0584 Y0.1396
G01 X16.0445 Y0.1445
G01 X16.0303 Y0.1481
G01 X16.0157 Y0.1503
G01 X16.0010 Y0.1510
G01 X-0.0010 Y0.1510
G01 X-0.0157 Y0.1503
G01 X-0.0303 Y0.1481
G01 X-0.0445 Y0.1445
G01 X-0.0584 Y0.1396
G01 X-0.0717 Y0.1333
G01 X-0.0843 Y0.1257
G01 X-0.0962 Y0.1170
G01 X-0.1071 Y0.1071
G01 X-0.1170 Y0.0962
G01 X-0.1257 Y0.0843
G01 X-0.1333 Y0.0717
G01 X-0.1396 Y0.0584
G01 X-0.1445 Y0.0445
G01 X-0.1481 Y0.0303
G01 X-0.1503 Y0.0157
G01 X-0.1510 Y0.0010
G01 X-0.1510 Y-8.3010
G01 X-0.1503 Y-8.3157
G01 X-0.1481 Y-8.3303
G01 X-0.1445 Y-8.3445
G01 X-0.1396 Y-8.3584
G01 X-0.1333 Y-8.3717
G01 X-0.1257 Y-8.3843
G01 X-0.1170 Y-8.3962
G01 X-0.1071 Y-8.4071
G01 X-0.0962 Y-8.4170
G01 X-0.0843 Y-8.4257
G01 X-0.0717 Y-8.4333
G01 X-0.0584 Y-8.4396
G01 X-0.0445 Y-8.4445
G01 X-0.0303 Y-8.4481
G01 X-0.0157 Y-8.4503
G01 X-0.0010 Y-8.4510
G01 X16.0010 Y-8.4510
G00 X16.0010 Y-8.4510
G01 F70.00
G01 Z-0.7000
G01 F60.00
G01 X-0.0010 Y-8.4510
G01 X-0.0157 Y-8.4503
G01 X-0.0303 Y-8.4481
G01 X-0.0445 Y-8.4445
G01 X-0.0584 Y-8.4396
G01 X-0.0717 Y-8.4333
G01 X-0.0843 Y-8.4257
G01 X-0.0962 Y-8.4170
G01 X-0.1071 Y-8.4071
G01 X-0.1170 Y-8.3962
G01 X-0.1257 Y-8.3843
G01 X-0.1333 Y-8.3717
G01 X-0.1396 Y-8.3584
G01 X-0.1445 Y-8.3445
G01 X-0.1481 Y-8.3303
G01 X-0.1503 Y-8.3157
G01 X-0.1510 Y-8.3010
G01 X-0.1510 Y0.0010
G01 X-0.1503 Y0.0157
G01 X-0.1481 Y0.0303
G01 X-0.1445 Y0.0445
G01 X-0.1396 Y0.0584
G01 X-0.1333 Y0.0717
G01 X-0.1257 Y0.0843
G01 X-0.1170 Y0.0962
G01 X-0.1071 Y0.1071
G01 X-0.0962 Y0.1170
G01 X-0.0843 Y0.1257
G01 X-0.0717 Y0.1333
G01 X-0.0584 Y0.1396
G01 X-0.0445 Y0.1445
G01 X-0.0303 Y0.1481
G01 X-0.0157 Y0.1503
G01 X-0.0010 Y0.1510
G01 X16.0010 Y0.1510
G01 X16.0157 Y0.1503
G01 X16.0303 Y0.1481
G01 X16.0445 Y0.1445
G01 X16.0584 Y0.1396
G01 X16.0717 Y0.1333
G01 X16.0843 Y0.1257
G01 X16.0962 Y0.1170
G01 X16.1071 Y0.1071
G01 X16.1170 Y0.0962
G01 X16.1257 Y0.0843
G01 X16.1333 Y0.0717
G01 X16.1396 Y0.0584
G01 X16.1445 Y0.0445
G01 X16.1481 Y0.0303
G01 X16.1503 Y0.0157
G01 X16.1510 Y0.0010
G01 X16.1510 Y-8.3010
G01 X16.1503 Y-8.3157
G01 X16.1481 Y-8.3303
G01 X16.1445 Y-8.3445
G01 X16.1396 Y-8.3584
G01 X16.1333 Y-8.3717
G01 X16.1257 Y-8.3843
G01 X16.1170 Y-8.3962
G01 X16.1071 Y-8.4071
G01 X16.0962 Y-8.4170
G01 X16.0843 Y-8.4257
G01 X16.0717 Y-8.4333
G01 X16.0584 Y-8.4396
G01 X16.0445 Y-8.4445
G01 X16.0303 Y-8.4481
G01 X16.0157 Y-8.4503
G01 X16.0010 Y-8.4510
G00 X16.0010 Y-8.4510
G01 F70.00
G01 Z-0.8000
G01 F60.00
G01 X16.0157 Y-8.4503
G01 X16.0303 Y-8.4481
G01 X16.0445 Y-8.4445
G01 X16.0584 Y-8.4396
G01 X16.0717 Y-8.4333
G01 X16.0843 Y-8.4257
G01 X16.0962 Y-8.4170
G01 X16.1071 Y-8.4071
G01 X16.1170 Y-8.3962
G01 X16.1257 Y-8.3843
G01 X16.1333 Y-8.3717
G01 X16.1396 Y-8.3584
G01 X16.1445 Y-8.3445
G01 X16.1481 Y-8.3303
G01 X16.1503 Y-8.3157
G01 X16.1510 Y-8.3010
G01 X16.1510 Y0.0010
G01 X16.1503 Y0.0157
G01 X16.1481 Y0.0303
G01 X16.1445 Y0.0445
G01 X16.1396 Y0.0584
G01 X16.1333 Y0.0717
G01 X16.1257 Y0.0843
G01 X16.1170 Y0.0962
G01 X16.1071 Y0.1071
G01 X16.0962 Y0.1170
G01 X16.0843 Y0.1257
G01 X16.0717 Y0.1333
G01 X16.0584 Y0.1396
G01 X16.0445 Y0.1445
G01 X16.0303 Y0.1481
G01 X16.0157 Y0.1503
G01 X16.0010 Y0.1510
G01 X-0.0010 Y0.1510
G01 X-0.0157 Y0.1503
G01 X-0.0303 Y0.1481
G01 X-0.0445 Y0.1445
G01 X-0.0584 Y0.1396
G01 X-0.0717 Y0.1333
G01 X-0.0843 Y0.1257
G01 X-0.0962 Y0.1170
G01 X-0.1071 Y0.1071
G01 X-0.1170 Y0.0962
G01 X-0.1257 Y0.0843
G01 X-0.1333 Y0.0717
G01 X-0.1396 Y0.0584
G01 X-0.1445 Y0.0445
G01 X-0.1481 Y0.0303
G01 X-0.1503 Y0.0157
G01 X-0.1510 Y0.0010
G01 X-0.1510 Y-8.3010
G01 X-0.1503 Y-8.3157
G01 X-0.1481 Y-8.3303
G01 X-0.1445 Y-8.3445
G01 X-0.1396 Y-8.3584
G01 X-0.1333 Y-8.3717
G01 X-0.1257 Y-8.3843
G01 X-0.1170 Y-8.3962
G01 X-0.1071 Y-8.4071
G01 X-0.0962 Y-8.4170
G01 X-0.0843 Y-8.4257
G01 X-0.0717 Y-8.4333
G01 X-0.0584 Y-8.4396
G01 X-0.0445 Y-8.4445
G01 X-0.0303 Y-8.4481
G01 X-0.0157 Y-8.4503
G01 X-0.0010 Y-8.4510
G01 X16.0010 Y-8.4510
G00 X16.0010 Y-8.4510
G01 F70.00
G01 Z-0.9000
G01 F60.00
G01 X-0.0010 Y-8.4510
G01 X-0.0157 Y-8.4503
G01 X-0.0303 Y-8.4481
G01 X-0.0445 Y-8.4445
G01 X-0.0584 Y-8.4396
G01 X-0.0717 Y-8.4333
G01 X-0.0843 Y-8.4257
G01 X-0.0962 Y-8.4170
G01 X-0.1071 Y-8.4071
G01 X-0.1170 Y-8.3962
G01 X-0.1257 Y-8.3843
G01 X-0.1333 Y-8.3717
G01 X-0.1396 Y-8.3584
G01 X-0.1445 Y-8.3445
G01 X-0.1481 Y-8.3303
G01 X-0.1503 Y-8.3157
G01 X-0.1510 Y-8.3010
G01 X-0.1510 Y0.0010
G01 X-0.1503 Y0.0157
G01 X-0.1481 Y0.0303
G01 X-0.1445 Y0.0445
G01 X-0.1396 Y0.0584
G01 X-0.1333 Y0.0717
G01 X-0.1257 Y0.0843
G01 X-0.1170 Y0.0962
G01 X-0.1071 Y0.1071
G01 X-0.0962 Y0.1170
G01 X-0.0843 Y0.1257
G01 X-0.0717 Y0.1333
G01 X-0.0584 Y0.1396
G01 X-0.0445 Y0.1445
G01 X-0.0303 Y0.1481
G01 X-0.0157 Y0.1503
G01 X-0.0010 Y0.1510
G01 X16.0010 Y0.1510
G01 X16.0157 Y0.1503
G01 X16.0303 Y0.1481
G01 X16.0445 Y0.1445
G01 X16.0584 Y0.1396
G01 X16.0717 Y0.1333
G01 X16.0843 Y0.1257
G01 X16.0962 Y0.1170
G01 X16.1071 Y0.1071
G01 X16.1170 Y0.0962
G01 X16.1257 Y0.0843
G01 X16.1333 Y0.0717
G01 X16.1396 Y0.0584
G01 X16.1445 Y0.0445
G01 X16.1481 Y0.0303
G01 X16.1503 Y0.0157
G01 X16.1510 Y0.0010
G01 X16.1510 Y-8.3010
G01 X16.1503 Y-8.3157
G01 X16.1481 Y-8.3303
G01 X16.1445 Y-8.3445
G01 X16.1396 Y-8.3584
G01 X16.1333 Y-8.3717
G01 X16.1257 Y-8.3843
G01 X16.1170 Y-8.3962
G01 X16.1071 Y-8.4071
G01 X16.0962 Y-8.4170
G01 X16.0843 Y-8.4257
G01 X16.0717 Y-8.4333
G01 X16.0584 Y-8.4396
G01 X16.0445 Y-8.4445
G01 X16.0303 Y-8.4481
G01 X16.0157 Y-8.4503
G01 X16.0010 Y-8.4510
G00 X16.0010 Y-8.4510
G01 F70.00
G01 Z-1.0000
G01 F60.00
G01 X16.0157 Y-8.4503
G01 X16.0303 Y-8.4481
G01 X16.0445 Y-8.4445
G01 X16.0584 Y-8.4396
G01 X16.0717 Y-8.4333
G01 X16.0843 Y-8.4257
G01 X16.0962 Y-8.4170
G01 X16.1071 Y-8.4071
G01 X16.1170 Y-8.3962
G01 X16.1257 Y-8.3843
G01 X16.1333 Y-8.3717
G01 X16.1396 Y-8.3584
G01 X16.1445 Y-8.3445
G01 X16.1481 Y-8.3303
G01 X16.1503 Y-8.3157
G01 X16.1510 Y-8.3010
G01 X16.1510 Y0.0010
G01 X16.1503 Y0.0157
G01 X16.1481 Y0.0303
G01 X16.1445 Y0.0445
G01 X16.1396 Y0.0584
G01 X16.1333 Y0.0717
G01 X16.1257 Y0.0843
G01 X16.1170 Y0.0962
G01 X16.1071 Y0.1071
G01 X16.0962 Y0.1170
G01 X16.0843 Y0.1257
G01 X16.0717 Y0.1333
G01 X16.0584 Y0.1396
G01 X16.0445 Y0.1445
G01 X16.0303 Y0.1481
G01 X16.0157 Y0.1503
G01 X16.0010 Y0.1510
G01 X-0.0010 Y0.1510
G01 X-0.0157 Y0.1503
G01 X-0.0303 Y0.1481
G01 X-0.0445 Y0.1445
G01 X-0.0584 Y0.1396
G01 X-0.0717 Y0.1333
G01 X-0.0843 Y0.1257
G01 X-0.0962 Y0.1170
G01 X-0.1071 Y0.1071
G01 X-0.1170 Y0.0962
G01 X-0.1257 Y0.0843
G01 X-0.1333 Y0.0717
G01 X-0.1396 Y0.0584
G01 X-0.1445 Y0.0445
G01 X-0.1481 Y0.0303
G01 X-0.1503 Y0.0157
G01 X-0.1510 Y0.0010
G01 X-0.1510 Y-8.3010
G01 X-0.1503 Y-8.3157
G01 X-0.1481 Y-8.3303
G01 X-0.1445 Y-8.3445
G01 X-0.1396 Y-8.3584
G01 X-0.1333 Y-8.3717
G01 X-0.1257 Y-8.3843
G01 X-0.1170 Y-8.3962
G01 X-0.1071 Y-8.4071
G01 X-0.0962 Y-8.4170
G01 X-0.0843 Y-8.4257
G01 X-0.0717 Y-8.4333
G01 X-0.0584 Y-8.4396
G01 X-0.0445 Y-8.4445
G01 X-0.0303 Y-8.4481
G01 X-0.0157 Y-8.4503
G01 X-0.0010 Y-8.4510
G01 X16.0010 Y-8.4510
G00 X16.0010 Y-8.4510
G01 F70.00
G01 Z-1.1000
G01 F60.00
G01 X-0.0010 Y-8.4510
G01 X-0.0157 Y-8.4503
G01 X-0.0303 Y-8.4481
G01 X-0.0445 Y-8.4445
G01 X-0.0584 Y-8.4396
G01 X-0.0717 Y-8.4333
G01 X-0.0843 Y-8.4257
G01 X-0.0962 Y-8.4170
G01 X-0.1071 Y-8.4071
G01 X-0.1170 Y-8.3962
G01 X-0.1257 Y-8.3843
G01 X-0.1333 Y-8.3717
G01 X-0.1396 Y-8.3584
G01 X-0.1445 Y-8.3445
G01 X-0.1481 Y-8.3303
G01 X-0.1503 Y-8.3157
G01 X-0.1510 Y-8.3010
G01 X-0.1510 Y0.0010
G01 X-0.1503 Y0.0157
G01 X-0.1481 Y0.0303
G01 X-0.1445 Y0.0445
G01 X-0.1396 Y0.0584
G01 X-0.1333 Y0.0717
G01 X-0.1257 Y0.0843
G01 X-0.1170 Y0.0962
G01 X-0.1071 Y0.1071
G01 X-0.0962 Y0.1170
G01 X-0.0843 Y0.1257
G01 X-0.0717 Y0.1333
G01 X-0.0584 Y0.1396
G01 X-0.0445 Y0.1445
G01 X-0.0303 Y0.1481
G01 X-0.0157 Y0.1503
G01 X-0.0010 Y0.1510
G01 X16.0010 Y0.1510
G01 X16.0157 Y0.1503
G01 X16.0303 Y0.1481
G01 X16.0445 Y0.1445
G01 X16.0584 Y0.1396
G01 X16.0717 Y0.1333
G01 X16.0843 Y0.1257
G01 X16.0962 Y0.1170
G01 X16.1071 Y0.1071
G01 X16.1170 Y0.0962
G01 X16.1257 Y0.0843
G01 X16.1333 Y0.0717
G01 X16.1396 Y0.0584
G01 X16.1445 Y0.0445
G01 X16.1481 Y0.0303
G01 X16.1503 Y0.0157
G01 X16.1510 Y0.0010
G01 X16.1510 Y-8.3010
G01 X16.1503 Y-8.3157
G01 X16.1481 Y-8.3303
G01 X16.1445 Y-8.3445
G01 X16.1396 Y-8.3584
G01 X16.1333 Y-8.3717
G01 X16.1257 Y-8.3843
G01 X16.1170 Y-8.3962
G01 X16.1071 Y-8.4071
G01 X16.0962 Y-8.4170
G01 X16.0843 Y-8.4257
G01 X16.0717 Y-8.4333
G01 X16.0584 Y-8.4396
G01 X16.0445 Y-8.4445
G01 X16.0303 Y-8.4481
G01 X16.0157 Y-8.4503
G01 X16.0010 Y-8.4510
G00 X16.0010 Y-8.4510
G01 F70.00
G01 Z-1.2000
G01 F60.00
G01 X16.0157 Y-8.4503
G01 X16.0303 Y-8.4481
G01 X16.0445 Y-8.4445
G01 X16.0584 Y-8.4396
G01 X16.0717 Y-8.4333
G01 X16.0843 Y-8.4257
G01 X16.0962 Y-8.4170
G01 X16.1071 Y-8.4071
G01 X16.1170 Y-8.3962
G01 X16.1257 Y-8.3843
G01 X16.1333 Y-8.3717
G01 X16.1396 Y-8.3584
G01 X16.1445 Y-8.3445
G01 X16.1481 Y-8.3303
G01 X16.1503 Y-8.3157
G01 X16.1510 Y-8.3010
G01 X16.1510 Y0.0010
G01 X16.1503 Y0.0157
G01 X16.1481 Y0.0303
G01 X16.1445 Y0.0445
G01 X16.1396 Y0.0584
G01 X16.1333 Y0.0717
G01 X16.1257 Y0.0843
G01 X16.1170 Y0.0962
G01 X16.1071 Y0.1071
G01 X16.0962 Y0.1170
G01 X16.0843 Y0.1257
G01 X16.0717 Y0.1333
G01 X16.0584 Y0.1396
G01 X16.0445 Y0.1445
G01 X16.0303 Y0.1481
G01 X16.0157 Y0.1503
G01 X16.0010 Y0.1510
G01 X-0.0010 Y0.1510
G01 X-0.0157 Y0.1503
G01 X-0.0303 Y0.1481
G01 X-0.0445 Y0.1445
G01 X-0.0584 Y0.1396
G01 X-0.0717 Y0.1333
G01 X-0.0843 Y0.1257
G01 X-0.0962 Y0.1170
G01 X-0.1071 Y0.1071
G01 X-0.1170 Y0.0962
G01 X-0.1257 Y0.0843
G01 X-0.1333 Y0.0717
G01 X-0.1396 Y0.0584
G01 X-0.1445 Y0.0445
G01 X-0.1481 Y0.0303
G01 X-0.1503 Y0.0157
G01 X-0.1510 Y0.0010
G01 X-0.1510 Y-8.3010
G01 X-0.1503 Y-8.3157
G01 X-0.1481 Y-8.3303
G01 X-0.1445 Y-8.3445
G01 X-0.1396 Y-8.3584
G01 X-0.1333 Y-8.3717
G01 X-0.1257 Y-8.3843
G01 X-0.1170 Y-8.3962
G01 X-0.1071 Y-8.4071
G01 X-0.0962 Y-8.4170
G01 X-0.0843 Y-8.4257
G01 X-0.0717 Y-8.4333
G01 X-0.0584 Y-8.4396
G01 X-0.0445 Y-8.4445
G01 X-0.0303 Y-8.4481
G01 X-0.0157 Y-8.4503
G01 X-0.0010 Y-8.4510
G01 X16.0010 Y-8.4510
G00 X16.0010 Y-8.4510
G01 F70.00
G01 Z-1.3000
G01 F60.00
G01 X-0.0010 Y-8.4510
G01 X-0.0157 Y-8.4503
G01 X-0.0303 Y-8.4481
G01 X-0.0445 Y-8.4445
G01 X-0.0584 Y-8.4396
G01 X-0.0717 Y-8.4333
G01 X-0.0843 Y-8.4257
G01 X-0.0962 Y-8.4170
G01 X-0.1071 Y-8.4071
G01 X-0.1170 Y-8.3962
G01 X-0.1257 Y-8.3843
G01 X-0.1333 Y-8.3717
G01 X-0.1396 Y-8.3584
G01 X-0.1445 Y-8.3445
G01 X-0.1481 Y-8.3303
G01 X-0.1503 Y-8.3157
G01 X-0.1510 Y-8.3010
G01 X-0.1510 Y0.0010
G01 X-0.1503 Y0.0157
G01 X-0.1481 Y0.0303
G01 X-0.1445 Y0.0445
G01 X-0.1396 Y0.0584
G01 X-0.1333 Y0.0717
G01 X-0.1257 Y0.0843
G01 X-0.1170 Y0.0962
G01 X-0.1071 Y0.1071
G01 X-0.0962 Y0.1170
G01 X-0.0843 Y0.1257
G01 X-0.0717 Y0.1333
G01 X-0.0584 Y0.1396
G01 X-0.0445 Y0.1445
G01 X-0.0303 Y0.1481
G01 X-0.0157 Y0.1503
G01 X-0.0010 Y0.1510
G01 X16.0010 Y0.1510
G01 X16.0157 Y0.1503
G01 X16.0303 Y0.1481
G01 X16.0445 Y0.1445
G01 X16.0584 Y0.1396
G01 X16.0717 Y0.1333
G01 X16.0843 Y0.1257
G01 X16.0962 Y0.1170
G01 X16.1071 Y0.1071
G01 X16.1170 Y0.0962
G01 X16.1257 Y0.0843
G01 X16.1333 Y0.0717
G01 X16.1396 Y0.0584
G01 X16.1445 Y0.0445
G01 X16.1481 Y0.0303
G01 X16.1503 Y0.0157
G01 X16.1510 Y0.0010
G01 X16.1510 Y-8.3010
G01 X16.1503 Y-8.3157
G01 X16.1481 Y-8.3303
G01 X16.1445 Y-8.3445
G01 X16.1396 Y-8.3584
G01 X16.1333 Y-8.3717
G01 X16.1257 Y-8.3843
G01 X16.1170 Y-8.3962
G01 X16.1071 Y-8.4071
G01 X16.0962 Y-8.4170
G01 X16.0843 Y-8.4257
G01 X16.0717 Y-8.4333
G01 X16.0584 Y-8.4396
G01 X16.0445 Y-8.4445
G01 X16.0303 Y-8.4481
G01 X16.0157 Y-8.4503
G01 X16.0010 Y-8.4510
G00 X16.0010 Y-8.4510
G01 F70.00
G01 Z-1.4000
G01 F60.00
G01 X16.0157 Y-8.4503
G01 X16.0303 Y-8.4481
G01 X16.0445 Y-8.4445
G01 X16.0584 Y-8.4396
G01 X16.0717 Y-8.4333
G01 X16.0843 Y-8.4257
G01 X16.0962 Y-8.4170
G01 X16.1071 Y-8.4071
G01 X16.1170 Y-8.3962
G01 X16.1257 Y-8.3843
G01 X16.1333 Y-8.3717
G01 X16.1396 Y-8.3584
G01 X16.1445 Y-8.3445
G01 X16.1481 Y-8.3303
G01 X16.1503 Y-8.3157
G01 X16.1510 Y-8.3010
G01 X16.1510 Y0.0010
G01 X16.1503 Y0.0157
G01 X16.1481 Y0.0303
G01 X16.1445 Y0.0445
G01 X16.1396 Y0.0584
G01 X16.1333 Y0.0717
G01 X16.1257 Y0.0843
G01 X16.1170 Y0.0962
G01 X16.1071 Y0.1071
G01 X16.0962 Y0.1170
G01 X16.0843 Y0.1257
G01 X16.0717 Y0.1333
G01 X16.0584 Y0.1396
G01 X16.0445 Y0.1445
G01 X16.0303 Y0.1481
G01 X16.0157 Y0.1503
G01 X16.0010 Y0.1510
G01 X-0.0010 Y0.1510
G01 X-0.0157 Y0.1503
G01 X-0.0303 Y0.1481
G01 X-0.0445 Y0.1445
G01 X-0.0584 Y0.1396
G01 X-0.0717 Y0.1333
G01 X-0.0843 Y0.1257
G01 X-0.0962 Y0.1170
G01 X-0.1071 Y0.1071
G01 X-0.1170 Y0.0962
G01 X-0.1257 Y0.0843
G01 X-0.1333 Y0.0717
G01 X-0.1396 Y0.0584
G01 X-0.1445 Y0.0445
G01 X-0.1481 Y0.0303
G01 X-0.1503 Y0.0157
G01 X-0.1510 Y0.0010
G01 X-0.1510 Y-8.3010
G01 X-0.1503 Y-8.3157
G01 X-0.1481 Y-8.3303
G01 X-0.1445 Y-8.3445
G01 X-0.1396 Y-8.3584
G01 X-0.1333 Y-8.3717
G01 X-0.1257 Y-8.3843
G01 X-0.1170 Y-8.3962
G01 X-0.1071 Y-8.4071
G01 X-0.0962 Y-8.4170
G01 X-0.0843 Y-8.4257
G01 X-0.0717 Y-8.4333
G01 X-0.0584 Y-8.4396
G01 X-0.0445 Y-8.4445
G01 X-0.0303 Y-8.4481
G01 X-0.0157 Y-8.4503
G01 X-0.0010 Y-8.4510
G01 X16.0010 Y-8.4510
G00 X16.0010 Y-8.4510
G01 F70.00
G01 Z-1.5000
G01 F60.00
G01 X-0.0010 Y-8.4510
G01 X-0.0157 Y-8.4503
G01 X-0.0303 Y-8.4481
G01 X-0.0445 Y-8.4445
G01 X-0.0584 Y-8.4396
G01 X-0.0717 Y-8.4333
G01 X-0.0843 Y-8.4257
G01 X-0.0962 Y-8.4170
G01 X-0.1071 Y-8.4071
G01 X-0.1170 Y-8.3962
G01 X-0.1257 Y-8.3843
G01 X-0.1333 Y-8.3717
G01 X-0.1396 Y-8.3584
G01 X-0.1445 Y-8.3445
G01 X-0.1481 Y-8.3303
G01 X-0.1503 Y-8.3157
G01 X-0.1510 Y-8.3010
G01 X-0.1510 Y0.0010
G01 X-0.1503 Y0.0157
G01 X-0.1481 Y0.0303
G01 X-0.1445 Y0.0445
G01 X-0.1396 Y0.0584
G01 X-0.1333 Y0.0717
G01 X-0.1257 Y0.0843
G01 X-0.1170 Y0.0962
G01 X-0.1071 Y0.1071
G01 X-0.0962 Y0.1170
G01 X-0.0843 Y0.1257
G01 X-0.0717 Y0.1333
G01 X-0.0584 Y0.1396
G01 X-0.0445 Y0.1445
G01 X-0.0303 Y0.1481
G01 X-0.0157 Y0.1503
G01 X-0.0010 Y0.1510
G01 X16.0010 Y0.1510
G01 X16.0157 Y0.1503
G01 X16.0303 Y0.1481
G01 X16.0445 Y0.1445
G01 X16.0584 Y0.1396
G01 X16.0717 Y0.1333
G01 X16.0843 Y0.1257
G01 X16.0962 Y0.1170
G01 X16.1071 Y0.1071
G01 X16.1170 Y0.0962
G01 X16.1257 Y0.0843
G01 X16.1333 Y0.0717
G01 X16.1396 Y0.0584
G01 X16.1445 Y0.0445
G01 X16.1481 Y0.0303
G01 X16.1503 Y0.0157
G01 X16.1510 Y0.0010
G01 X16.1510 Y-8.3010
G01 X16.1503 Y-8.3157
G01 X16.1481 Y-8.3303
G01 X16.1445 Y-8.3445
G01 X16.1396 Y-8.3584
G01 X16.1333 Y-8.3717
G01 X16.1257 Y-8.3843
G01 X16.1170 Y-8.3962
G01 X16.1071 Y-8.4071
G01 X16.0962 Y-8.4170
G01 X16.0843 Y-8.4257
G01 X16.0717 Y-8.4333
G01 X16.0584 Y-8.4396
G01 X16.0445 Y-8.4445
G01 X16.0303 Y-8.4481
G01 X16.0157 Y-8.4503
G01 X16.0010 Y-8.4510
G00 X16.0010 Y-8.4510
G01 F70.00
G01 Z-1.6000
G01 F60.00
G01 X16.0157 Y-8.4503
G01 X16.0303 Y-8.4481
G01 X16.0445 Y-8.4445
G01 X16.0584 Y-8.4396
G01 X16.0717 Y-8.4333
G01 X16.0843 Y-8.4257
G01 X16.0962 Y-8.4170
G01 X16.1071 Y-8.4071
G01 X16.1170 Y-8.3962
G01 X16.1257 Y-8.3843
G01 X16.1333 Y-8.3717
G01 X16.1396 Y-8.3584
G01 X16.1445 Y-8.3445
G01 X16.1481 Y-8.3303
G01 X16.1503 Y-8.3157
G01 X16.1510 Y-8.3010
G01 X16.1510 Y0.0010
G01 X16.1503 Y0.0157
G01 X16.1481 Y0.0303
G01 X16.1445 Y0.0445
G01 X16.1396 Y0.0584
G01 X16.1333 Y0.0717
G01 X16.1257 Y0.0843
G01 X16.1170 Y0.0962
G01 X16.1071 Y0.1071
G01 X16.0962 Y0.1170
G01 X16.0843 Y0.1257
G01 X16.0717 Y0.1333
G01 X16.0584 Y0.1396
G01 X16.0445 Y0.1445
G01 X16.0303 Y0.1481
G01 X16.0157 Y0.1503
G01 X16.0010 Y0.1510
G01 X-0.0010 Y0.1510
G01 X-0.0157 Y0.1503
G01 X-0.0303 Y0.1481
G01 X-0.0445 Y0.1445
G01 X-0.0584 Y0.1396
G01 X-0.0717 Y0.1333
G01 X-0.0843 Y0.1257
G01 X-0.0962 Y0.1170
G01 X-0.1071 Y0.1071
G01 X-0.1170 Y0.0962
G01 X-0.1257 Y0.0843
G01 X-0.1333 Y0.0717
G01 X-0.1396 Y0.0584
G01 X-0.1445 Y0.0445
G01 X-0.1481 Y0.0303
G01 X-0.1503 Y0.0157
G01 X-0.1510 Y0.0010
G01 X-0.1510 Y-8.3010
G01 X-0.1503 Y-8.3157
G01 X-0.1481 Y-8.3303
G01 X-0.1445 Y-8.3445
G01 X-0.1396 Y-8.3584
G01 X-0.1333 Y-8.3717
G01 X-0.1257 Y-8.3843
G01 X-0.1170 Y-8.3962
G01 X-0.1071 Y-8.4071
G01 X-0.0962 Y-8.4170
G01 X-0.0843 Y-8.4257
G01 X-0.0717 Y-8.4333
G01 X-0.0584 Y-8.4396
G01 X-0.0445 Y-8.4445
G01 X-0.0303 Y-8.4481
G01 X-0.0157 Y-8.4503
G01 X-0.0010 Y-8.4510
G01 X16.0010 Y-8.4510
G00 X16.0010 Y-8.4510
G01 F70.00
G01 Z-1.7000
G01 F60.00
G01 X-0.0010 Y-8.4510
G01 X-0.0157 Y-8.4503
G01 X-0.0303 Y-8.4481
G01 X-0.0445 Y-8.4445
G01 X-0.0584 Y-8.4396
G01 X-0.0717 Y-8.4333
G01 X-0.0843 Y-8.4257
G01 X-0.0962 Y-8.4170
G01 X-0.1071 Y-8.4071
G01 X-0.1170 Y-8.3962
G01 X-0.1257 Y-8.3843
G01 X-0.1333 Y-8.3717
G01 X-0.1396 Y-8.3584
G01 X-0.1445 Y-8.3445
G01 X-0.1481 Y-8.3303
G01 X-0.1503 Y-8.3157
G01 X-0.1510 Y-8.3010
G01 X-0.1510 Y0.0010
G01 X-0.1503 Y0.0157
G01 X-0.1481 Y0.0303
G01 X-0.1445 Y0.0445
G01 X-0.1396 Y0.0584
G01 X-0.1333 Y0.0717
G01 X-0.1257 Y0.0843
G01 X-0.1170 Y0.0962
G01 X-0.1071 Y0.1071
G01 X-0.0962 Y0.1170
G01 X-0.0843 Y0.1257
G01 X-0.0717 Y0.1333
G01 X-0.0584 Y0.1396
G01 X-0.0445 Y0.1445
G01 X-0.0303 Y0.1481
G01 X-0.0157 Y0.1503
G01 X-0.0010 Y0.1510
G01 X16.0010 Y0.1510
G01 X16.0157 Y0.1503
G01 X16.0303 Y0.1481
G01 X16.0445 Y0.1445
G01 X16.0584 Y0.1396
G01 X16.0717 Y0.1333
G01 X16.0843 Y0.1257
G01 X16.0962 Y0.1170
G01 X16.1071 Y0.1071
G01 X16.1170 Y0.0962
G01 X16.1257 Y0.0843
G01 X16.1333 Y0.0717
G01 X16.1396 Y0.0584
G01 X16.1445 Y0.0445
G01 X16.1481 Y0.0303
G01 X16.1503 Y0.0157
G01 X16.1510 Y0.0010
G01 X16.1510 Y-8.3010
G01 X16.1503 Y-8.3157
G01 X16.1481 Y-8.3303
G01 X16.1445 Y-8.3445
G01 X16.1396 Y-8.3584
G01 X16.1333 Y-8.3717
G01 X16.1257 Y-8.3843
G01 X16.1170 Y-8.3962
G01 X16.1071 Y-8.4071
G01 X16.0962 Y-8.4170
G01 X16.0843 Y-8.4257
G01 X16.0717 Y-8.4333
G01 X16.0584 Y-8.4396
G01 X16.0445 Y-8.4445
G01 X16.0303 Y-8.4481
G01 X16.0157 Y-8.4503
G01 X16.0010 Y-8.4510
G00 X16.0010 Y-8.4510
G01 F70.00
G01 Z-1.8000
G01 F60.00
G01 X16.0157 Y-8.4503
G01 X16.0303 Y-8.4481
G01 X16.0445 Y-8.4445
G01 X16.0584 Y-8.4396
G01 X16.0717 Y-8.4333
G01 X16.0843 Y-8.4257
G01 X16.0962 Y-8.4170
G01 X16.1071 Y-8.4071
G01 X16.1170 Y-8.3962
G01 X16.1257 Y-8.3843
G01 X16.1333 Y-8.3717
G01 X16.1396 Y-8.3584
G01 X16.1445 Y-8.3445
G01 X16.1481 Y-8.3303
G01 X16.1503 Y-8.3157
G01 X16.1510 Y-8.3010
G01 X16.1510 Y0.0010
G01 X16.1503 Y0.0157
G01 X16.1481 Y0.0303
G01 X16.1445 Y0.0445
G01 X16.1396 Y0.0584
G01 X16.1333 Y0.0717
G01 X16.1257 Y0.0843
G01 X16.1170 Y0.0962
G01 X16.1071 Y0.1071
G01 X16.0962 Y0.1170
G01 X16.0843 Y0.1257
G01 X16.0717 Y0.1333
G01 X16.0584 Y0.1396
G01 X16.0445 Y0.1445
G01 X16.0303 Y0.1481
G01 X16.0157 Y0.1503
G01 X16.0010 Y0.1510
G01 X-0.0010 Y0.1510
G01 X-0.0157 Y0.1503
G01 X-0.0303 Y0.1481
G01 X-0.0445 Y0.1445
G01 X-0.0584 Y0.1396
G01 X-0.0717 Y0.1333
G01 X-0.0843 Y0.1257
G01 X-0.0962 Y0.1170
G01 X-0.1071 Y0.1071
G01 X-0.1170 Y0.0962
G01 X-0.1257 Y0.0843
G01 X-0.1333 Y0.0717
G01 X-0.1396 Y0.0584
G01 X-0.1445 Y0.0445
G01 X-0.1481 Y0.0303
G01 X-0.1503 Y0.0157
G01 X-0.1510 Y0.0010
G01 X-0.1510 Y-8.3010
G01 X-0.1503 Y-8.3157
G01 X-0.1481 Y-8.3303
G01 X-0.1445 Y-8.3445
G01 X-0.1396 Y-8.3584
G01 X-0.1333 Y-8.3717
G01 X-0.1257 Y-8.3843
G01 X-0.1170 Y-8.3962
G01 X-0.1071 Y-8.4071
G01 X-0.0962 Y-8.4170
G01 X-0.0843 Y-8.4257
G01 X-0.0717 Y-8.4333
G01 X-0.0584 Y-8.4396
G01 X-0.0445 Y-8.4445
G01 X-0.0303 Y-8.4481
G01 X-0.0157 Y-8.4503
G01 X-0.0010 Y-8.4510
G01 X16.0010 Y-8.4510
G00 Z2.0000
M05
G00 Z2.0000
G00 Z25.00

