(G-CODE GENERATED BY FLATCAM v8.993 - www.flatcam.org - Version Date: 2020/06/05)

(Name: ThermoSensor_Ф1_верх.gbr_iso_combined_cnc)
(Type: G-code from Geometry)
(Units: MM)

(Created on Wednesday, 07 October 2020 at 04:06)

(This preprocessor is the default preprocessor used by FlatCAM.)
(It is made to work with MACH3 compatible motion controllers.)

(TOOL DIAMETER: 0.15 mm)
(Feedrate_XY: 60.0 mm/min)
(Feedrate_Z: 70.0 mm/min)
(Feedrate rapids 1500.0 mm/min)

(Z_Cut: -0.06 mm)
(Z_Move: 2.0 mm)
(Z Start: None mm)
(Z End: 25.0 mm)
(Steps per circle: 128)
(Preprocessor Geometry: default)

(X range:    0.2424 ...   13.1725  mm)
(Y range:   -8.0126 ...   -0.2424  mm)

(Spindle Speed: None RPM)
G21
G90
G94



G01 F60.00
G00 Z2.0000

M03
G00 X0.3176 Y-4.9471
G01 F70.00
G01 Z-0.0600
G01 F60.00
G01 X0.3177 Y-7.7929
G01 X0.3201 Y-7.8149
G01 X0.3257 Y-7.8362
G01 X0.3336 Y-7.8549
G01 X0.3449 Y-7.8738
G01 X0.3589 Y-7.8909
G01 X0.3753 Y-7.9057
G01 X0.3936 Y-7.9179
G01 X0.4136 Y-7.9274
G01 X0.4276 Y-7.9320
G01 X0.4401 Y-7.9349
G01 X0.4547 Y-7.9369
G01 X0.4676 Y-7.9374
G01 X7.7893 Y-7.9374
G01 X7.8113 Y-7.9355
G01 X7.8327 Y-7.9304
G01 X7.8532 Y-7.9222
G01 X7.8723 Y-7.9111
G01 X7.8909 Y-7.8961
G01 X7.9057 Y-7.8797
G01 X7.9179 Y-7.8614
G01 X7.9274 Y-7.8414
G01 X7.9315 Y-7.8292
G01 X7.9345 Y-7.8167
G01 X7.9367 Y-7.8021
G01 X7.9374 Y-7.7893
G01 X7.9371 Y-6.4628
G01 X7.9342 Y-6.4409
G01 X7.9286 Y-6.4214
G01 X7.9205 Y-6.4028
G01 X7.9089 Y-6.3840
G01 X7.8946 Y-6.3671
G01 X7.8795 Y-6.3536
G01 X7.8610 Y-6.3413
G01 X7.8410 Y-6.3319
G01 X7.8180 Y-6.3252
G01 X0.4946 Y-4.7995
G01 X0.4782 Y-4.7974
G01 X0.4616 Y-4.7972
G01 X0.4452 Y-4.7987
G01 X0.4290 Y-4.8021
G01 X0.4133 Y-4.8072
G01 X0.3982 Y-4.8141
G01 X0.3840 Y-4.8225
G01 X0.3708 Y-4.8324
G01 X0.3588 Y-4.8438
G01 X0.3492 Y-4.8549
G01 X0.3398 Y-4.8685
G01 X0.3319 Y-4.8830
G01 X0.3257 Y-4.8984
G01 X0.3212 Y-4.9143
G01 X0.3185 Y-4.9306
G01 X0.3176 Y-4.9471
G00 Z2.0000
G00 X0.3926 Y-4.9471
G01 F70.00
G01 Z-0.0600
G01 F60.00
G01 X0.3926 Y-7.7883
G01 X0.3935 Y-7.7993
G01 X0.3961 Y-7.8101
G01 X0.4002 Y-7.8203
G01 X0.4063 Y-7.8306
G01 X0.4133 Y-7.8391
G01 X0.4214 Y-7.8466
G01 X0.4306 Y-7.8527
G01 X0.4406 Y-7.8574
G01 X0.4538 Y-7.8612
G01 X0.4676 Y-7.8624
G01 X7.7874 Y-7.8624
G01 X7.7993 Y-7.8615
G01 X7.8101 Y-7.8589
G01 X7.8203 Y-7.8548
G01 X7.8299 Y-7.8493
G01 X7.8385 Y-7.8424
G01 X7.8460 Y-7.8343
G01 X7.8522 Y-7.8252
G01 X7.8574 Y-7.8144
G01 X7.8612 Y-7.8012
G01 X7.8624 Y-7.7874
G01 X7.8624 Y-6.4702
G01 X7.8613 Y-6.4592
G01 X7.8586 Y-6.4485
G01 X7.8544 Y-6.4382
G01 X7.8487 Y-6.4288
G01 X7.8417 Y-6.4202
G01 X7.8334 Y-6.4128
G01 X7.8242 Y-6.4067
G01 X7.8142 Y-6.4020
G01 X7.8027 Y-6.3986
G01 X0.4820 Y-4.8735
G01 X0.4655 Y-4.8721
G01 X0.4492 Y-4.8744
G01 X0.4337 Y-4.8801
G01 X0.4199 Y-4.8892
G01 X0.4084 Y-4.9010
G01 X0.3998 Y-4.9151
G01 X0.3944 Y-4.9307
G01 X0.3926 Y-4.9471
G00 Z2.0000
G00 X0.3174 Y-7.9357
G01 F70.00
G01 Z-0.0600
G01 F60.00
G01 X0.3175 Y-0.3175
G01 X7.9375 Y-0.3175
G01 X7.9375 Y-7.9375
G01 X0.3193 Y-7.9376
G01 X0.3175 Y-7.9375
G01 X0.3174 Y-7.9357
G00 Z2.0000
G00 X0.2424 Y-7.9366
G01 F70.00
G01 Z-0.0600
G01 F60.00
G01 X0.2424 Y-0.3184
G01 X0.2439 Y-0.3029
G01 X0.2482 Y-0.2888
G01 X0.2551 Y-0.2758
G01 X0.2644 Y-0.2644
G01 X0.2758 Y-0.2551
G01 X0.2888 Y-0.2482
G01 X0.3029 Y-0.2439
G01 X0.3184 Y-0.2424
G01 X7.9366 Y-0.2424
G01 X7.9521 Y-0.2439
G01 X7.9662 Y-0.2482
G01 X7.9792 Y-0.2551
G01 X7.9906 Y-0.2644
G01 X7.9999 Y-0.2758
G01 X8.0068 Y-0.2888
G01 X8.0111 Y-0.3029
G01 X8.0126 Y-0.3184
G01 X8.0126 Y-7.9366
G01 X8.0111 Y-7.9521
G01 X8.0068 Y-7.9662
G01 X7.9999 Y-7.9792
G01 X7.9906 Y-7.9906
G01 X7.9792 Y-7.9999
G01 X7.9662 Y-8.0068
G01 X7.9521 Y-8.0111
G01 X7.9366 Y-8.0126
G01 X0.3184 Y-8.0126
G01 X0.3029 Y-8.0111
G01 X0.2888 Y-8.0068
G01 X0.2758 Y-7.9999
G01 X0.2644 Y-7.9906
G01 X0.2551 Y-7.9792
G01 X0.2482 Y-7.9662
G01 X0.2439 Y-7.9521
G01 X0.2424 Y-7.9366
G00 Z2.0000
G00 X7.8624 Y-6.1654
G01 F70.00
G01 Z-0.0600
G01 F60.00
G01 X7.8624 Y-1.9298
G01 X7.8615 Y-1.9189
G01 X7.8589 Y-1.9082
G01 X7.8544 Y-1.8971
G01 X7.8488 Y-1.8876
G01 X7.8418 Y-1.8791
G01 X7.8329 Y-1.8712
G01 X7.8237 Y-1.8651
G01 X7.8128 Y-1.8602
G01 X7.8031 Y-1.8574
G01 X7.7922 Y-1.8559
G01 X7.7821 Y-1.8560
G01 X7.7721 Y-1.8573
G01 X0.4523 Y-3.3823
G01 X0.4425 Y-3.3850
G01 X0.4340 Y-3.3887
G01 X0.4261 Y-3.3933
G01 X0.4187 Y-3.3988
G01 X0.4121 Y-3.4053
G01 X0.4058 Y-3.4132
G01 X0.4010 Y-3.4211
G01 X0.3973 Y-3.4295
G01 X0.3938 Y-3.4420
G01 X0.3926 Y-3.4557
G01 X0.3926 Y-4.6432
G01 X0.3938 Y-4.6542
G01 X0.3967 Y-4.6649
G01 X0.4010 Y-4.6751
G01 X0.4069 Y-4.6845
G01 X0.4140 Y-4.6929
G01 X0.4223 Y-4.7003
G01 X0.4316 Y-4.7063
G01 X0.4416 Y-4.7108
G01 X0.4523 Y-4.7139
G01 X7.7730 Y-6.2390
G01 X7.7895 Y-6.2404
G01 X7.8058 Y-6.2381
G01 X7.8213 Y-6.2324
G01 X7.8351 Y-6.2233
G01 X7.8466 Y-6.2115
G01 X7.8552 Y-6.1974
G01 X7.8606 Y-6.1818
G01 X7.8624 Y-6.1654
G00 Z2.0000
G00 X7.9374 Y-6.1654
G01 F70.00
G01 Z-0.0600
G01 F60.00
G01 X7.9374 Y-1.9271
G01 X7.9352 Y-1.9052
G01 X7.9293 Y-1.8821
G01 X7.9206 Y-1.8618
G01 X7.9091 Y-1.8430
G01 X7.8949 Y-1.8262
G01 X7.8785 Y-1.8115
G01 X7.8600 Y-1.7995
G01 X7.8383 Y-1.7896
G01 X7.8189 Y-1.7841
G01 X7.7989 Y-1.7812
G01 X7.7768 Y-1.7811
G01 X7.7568 Y-1.7839
G01 X0.4352 Y-3.3093
G01 X0.4175 Y-3.3144
G01 X0.4005 Y-3.3216
G01 X0.3830 Y-3.3318
G01 X0.3684 Y-3.3432
G01 X0.3542 Y-3.3576
G01 X0.3430 Y-3.3722
G01 X0.3337 Y-3.3881
G01 X0.3264 Y-3.4051
G01 X0.3226 Y-3.4174
G01 X0.3198 Y-3.4300
G01 X0.3176 Y-3.4539
G01 X0.3179 Y-4.6497
G01 X0.3208 Y-4.6716
G01 X0.3270 Y-4.6928
G01 X0.3363 Y-4.7130
G01 X0.3472 Y-4.7300
G01 X0.3617 Y-4.7467
G01 X0.3785 Y-4.7611
G01 X0.3972 Y-4.7729
G01 X0.4157 Y-4.7812
G01 X0.4370 Y-4.7873
G01 X7.7604 Y-6.3130
G01 X7.7768 Y-6.3151
G01 X7.7934 Y-6.3153
G01 X7.8098 Y-6.3138
G01 X7.8260 Y-6.3104
G01 X7.8417 Y-6.3053
G01 X7.8568 Y-6.2984
G01 X7.8710 Y-6.2900
G01 X7.8842 Y-6.2801
G01 X7.8962 Y-6.2687
G01 X7.9058 Y-6.2576
G01 X7.9152 Y-6.2440
G01 X7.9231 Y-6.2295
G01 X7.9293 Y-6.2141
G01 X7.9338 Y-6.1982
G01 X7.9365 Y-6.1819
G01 X7.9374 Y-6.1654
G00 Z2.0000
G00 X7.9374 Y-1.6242
G01 F70.00
G01 Z-0.0600
G01 F60.00
G01 X7.9374 Y-0.4676
G01 X7.9367 Y-0.4529
G01 X7.9349 Y-0.4401
G01 X7.9320 Y-0.4276
G01 X7.9238 Y-0.4051
G01 X7.9121 Y-0.3842
G01 X7.8973 Y-0.3655
G01 X7.8797 Y-0.3493
G01 X7.8598 Y-0.3362
G01 X7.8380 Y-0.3263
G01 X7.8257 Y-0.3225
G01 X7.8131 Y-0.3198
G01 X7.8003 Y-0.3181
G01 X7.7874 Y-0.3176
G01 X0.4676 Y-0.3176
G01 X0.4529 Y-0.3183
G01 X0.4383 Y-0.3205
G01 X0.4258 Y-0.3235
G01 X0.4136 Y-0.3276
G01 X0.3920 Y-0.3380
G01 X0.3724 Y-0.3516
G01 X0.3628 Y-0.3602
G01 X0.3540 Y-0.3696
G01 X0.3399 Y-0.3889
G01 X0.3336 Y-0.4001
G01 X0.3283 Y-0.4119
G01 X0.3240 Y-0.4240
G01 X0.3208 Y-0.4365
G01 X0.3187 Y-0.4492
G01 X0.3177 Y-0.4621
G01 X0.3176 Y-3.1491
G01 X0.3183 Y-3.1638
G01 X0.3204 Y-3.1783
G01 X0.3240 Y-3.1926
G01 X0.3290 Y-3.2064
G01 X0.3352 Y-3.2197
G01 X0.3428 Y-3.2323
G01 X0.3515 Y-3.2442
G01 X0.3614 Y-3.2551
G01 X0.3722 Y-3.2649
G01 X0.3840 Y-3.2737
G01 X0.3966 Y-3.2813
G01 X0.4116 Y-3.2883
G01 X0.4255 Y-3.2931
G01 X0.4397 Y-3.2965
G01 X0.4543 Y-3.2985
G01 X0.4690 Y-3.2991
G01 X0.4837 Y-3.2983
G01 X0.4982 Y-3.2960
G01 X7.8198 Y-1.7706
G01 X7.8323 Y-1.7673
G01 X7.8444 Y-1.7629
G01 X7.8658 Y-1.7521
G01 X7.8765 Y-1.7448
G01 X7.8866 Y-1.7367
G01 X7.8959 Y-1.7278
G01 X7.9044 Y-1.7181
G01 X7.9120 Y-1.7077
G01 X7.9187 Y-1.6967
G01 X7.9245 Y-1.6851
G01 X7.9292 Y-1.6731
G01 X7.9352 Y-1.6499
G01 X7.9369 Y-1.6371
G01 X7.9374 Y-1.6242
G00 Z2.0000
G00 X7.8624 Y-1.6242
G01 F70.00
G01 Z-0.0600
G01 F60.00
G01 X7.8623 Y-0.4639
G01 X7.8608 Y-0.4520
G01 X7.8571 Y-0.4397
G01 X7.8513 Y-0.4282
G01 X7.8436 Y-0.4179
G01 X7.8343 Y-0.4090
G01 X7.8236 Y-0.4019
G01 X7.8118 Y-0.3967
G01 X7.7993 Y-0.3935
G01 X7.7874 Y-0.3926
G01 X0.4676 Y-0.3926
G01 X0.4520 Y-0.3942
G01 X0.4397 Y-0.3979
G01 X0.4290 Y-0.4032
G01 X0.4186 Y-0.4108
G01 X0.4102 Y-0.4193
G01 X0.4028 Y-0.4298
G01 X0.3976 Y-0.4406
G01 X0.3940 Y-0.4529
G01 X0.3926 Y-0.4657
G01 X0.3926 Y-3.1491
G01 X0.3942 Y-3.1646
G01 X0.3986 Y-3.1786
G01 X0.4057 Y-3.1915
G01 X0.4151 Y-3.2027
G01 X0.4266 Y-3.2119
G01 X0.4396 Y-3.2187
G01 X0.4537 Y-3.2228
G01 X0.4683 Y-3.2241
G01 X0.4829 Y-3.2226
G01 X7.8036 Y-1.6974
G01 X7.8159 Y-1.6935
G01 X7.8274 Y-1.6876
G01 X7.8370 Y-1.6805
G01 X7.8459 Y-1.6711
G01 X7.8531 Y-1.6604
G01 X7.8580 Y-1.6495
G01 X7.8613 Y-1.6370
G01 X7.8624 Y-1.6242
G00 Z2.0000
G00 X12.9474 Y-4.1275
G01 F70.00
G01 Z-0.0600
G01 F60.00
G01 X12.9460 Y-4.1864
G01 X12.9416 Y-4.2451
G01 X12.9344 Y-4.3036
G01 X12.9244 Y-4.3616
G01 X12.9114 Y-4.4191
G01 X12.8957 Y-4.4758
G01 X12.8773 Y-4.5317
G01 X12.8561 Y-4.5867
G01 X12.8322 Y-4.6405
G01 X12.8057 Y-4.6931
G01 X12.7767 Y-4.7444
G01 X12.7452 Y-4.7941
G01 X12.7113 Y-4.8423
G01 X12.6750 Y-4.8887
G01 X12.6366 Y-4.9333
G01 X12.5960 Y-4.9760
G01 X12.5533 Y-5.0166
G01 X12.5087 Y-5.0550
G01 X12.4623 Y-5.0913
G01 X12.4141 Y-5.1252
G01 X12.3644 Y-5.1567
G01 X12.3131 Y-5.1857
G01 X12.2605 Y-5.2122
G01 X12.2067 Y-5.2361
G01 X12.1517 Y-5.2573
G01 X12.0958 Y-5.2757
G01 X12.0391 Y-5.2914
G01 X11.9816 Y-5.3044
G01 X11.9236 Y-5.3144
G01 X11.8651 Y-5.3216
G01 X11.8064 Y-5.3260
G01 X11.7475 Y-5.3274
G01 X11.6886 Y-5.3260
G01 X11.6299 Y-5.3216
G01 X11.5714 Y-5.3144
G01 X11.5134 Y-5.3044
G01 X11.4559 Y-5.2914
G01 X11.3992 Y-5.2757
G01 X11.3433 Y-5.2573
G01 X11.2883 Y-5.2361
G01 X11.2345 Y-5.2122
G01 X11.1819 Y-5.1857
G01 X11.1306 Y-5.1567
G01 X11.0809 Y-5.1252
G01 X11.0327 Y-5.0913
G01 X10.9863 Y-5.0550
G01 X10.9417 Y-5.0166
G01 X10.8990 Y-4.9760
G01 X10.8584 Y-4.9333
G01 X10.8200 Y-4.8887
G01 X10.7837 Y-4.8423
G01 X10.7498 Y-4.7941
G01 X10.7183 Y-4.7444
G01 X10.6893 Y-4.6931
G01 X10.6628 Y-4.6405
G01 X10.6389 Y-4.5867
G01 X10.6177 Y-4.5317
G01 X10.5993 Y-4.4758
G01 X10.5836 Y-4.4191
G01 X10.5706 Y-4.3616
G01 X10.5606 Y-4.3036
G01 X10.5534 Y-4.2451
G01 X10.5490 Y-4.1864
G01 X10.5476 Y-4.1275
G01 X10.5490 Y-4.0686
G01 X10.5534 Y-4.0099
G01 X10.5606 Y-3.9514
G01 X10.5706 Y-3.8934
G01 X10.5836 Y-3.8359
G01 X10.5993 Y-3.7792
G01 X10.6177 Y-3.7233
G01 X10.6389 Y-3.6683
G01 X10.6628 Y-3.6145
G01 X10.6893 Y-3.5619
G01 X10.7183 Y-3.5106
G01 X10.7498 Y-3.4609
G01 X10.7837 Y-3.4127
G01 X10.8200 Y-3.3663
G01 X10.8584 Y-3.3217
G01 X10.8990 Y-3.2790
G01 X10.9417 Y-3.2384
G01 X10.9863 Y-3.2000
G01 X11.0327 Y-3.1637
G01 X11.0809 Y-3.1298
G01 X11.1306 Y-3.0983
G01 X11.1819 Y-3.0693
G01 X11.2345 Y-3.0428
G01 X11.2883 Y-3.0189
G01 X11.3433 Y-2.9977
G01 X11.3992 Y-2.9793
G01 X11.4559 Y-2.9636
G01 X11.5134 Y-2.9506
G01 X11.5714 Y-2.9406
G01 X11.6299 Y-2.9334
G01 X11.6886 Y-2.9290
G01 X11.7475 Y-2.9276
G01 X11.8064 Y-2.9290
G01 X11.8651 Y-2.9334
G01 X11.9236 Y-2.9406
G01 X11.9816 Y-2.9506
G01 X12.0391 Y-2.9636
G01 X12.0958 Y-2.9793
G01 X12.1517 Y-2.9977
G01 X12.2067 Y-3.0189
G01 X12.2605 Y-3.0428
G01 X12.3131 Y-3.0693
G01 X12.3644 Y-3.0983
G01 X12.4141 Y-3.1298
G01 X12.4623 Y-3.1637
G01 X12.5087 Y-3.2000
G01 X12.5533 Y-3.2384
G01 X12.5960 Y-3.2790
G01 X12.6366 Y-3.3217
G01 X12.6750 Y-3.3663
G01 X12.7113 Y-3.4127
G01 X12.7452 Y-3.4609
G01 X12.7767 Y-3.5106
G01 X12.8057 Y-3.5619
G01 X12.8322 Y-3.6145
G01 X12.8561 Y-3.6683
G01 X12.8773 Y-3.7233
G01 X12.8957 Y-3.7792
G01 X12.9114 Y-3.8359
G01 X12.9244 Y-3.8934
G01 X12.9344 Y-3.9514
G01 X12.9416 Y-4.0099
G01 X12.9460 Y-4.0686
G01 X12.9474 Y-4.1275
G00 Z2.0000
G00 X13.0224 Y-4.1275
G01 F70.00
G01 Z-0.0600
G01 F60.00
G01 X13.0209 Y-4.1901
G01 X13.0163 Y-4.2525
G01 X13.0086 Y-4.3146
G01 X12.9979 Y-4.3762
G01 X12.9842 Y-4.4373
G01 X12.9675 Y-4.4976
G01 X12.9479 Y-4.5570
G01 X12.9254 Y-4.6154
G01 X12.9000 Y-4.6726
G01 X12.8719 Y-4.7285
G01 X12.8410 Y-4.7829
G01 X12.8076 Y-4.8358
G01 X12.7715 Y-4.8870
G01 X12.7330 Y-4.9363
G01 X12.6922 Y-4.9837
G01 X12.6490 Y-5.0290
G01 X12.6037 Y-5.0722
G01 X12.5563 Y-5.1130
G01 X12.5070 Y-5.1515
G01 X12.4558 Y-5.1876
G01 X12.4029 Y-5.2210
G01 X12.3485 Y-5.2519
G01 X12.2926 Y-5.2800
G01 X12.2354 Y-5.3054
G01 X12.1770 Y-5.3279
G01 X12.1176 Y-5.3475
G01 X12.0573 Y-5.3642
G01 X11.9962 Y-5.3779
G01 X11.9346 Y-5.3886
G01 X11.8725 Y-5.3963
G01 X11.8101 Y-5.4009
G01 X11.7475 Y-5.4024
G01 X11.6849 Y-5.4009
G01 X11.6225 Y-5.3963
G01 X11.5604 Y-5.3886
G01 X11.4988 Y-5.3779
G01 X11.4377 Y-5.3642
G01 X11.3774 Y-5.3475
G01 X11.3180 Y-5.3279
G01 X11.2596 Y-5.3054
G01 X11.2024 Y-5.2800
G01 X11.1465 Y-5.2519
G01 X11.0921 Y-5.2210
G01 X11.0392 Y-5.1876
G01 X10.9880 Y-5.1515
G01 X10.9387 Y-5.1130
G01 X10.8913 Y-5.0722
G01 X10.8460 Y-5.0290
G01 X10.8028 Y-4.9837
G01 X10.7620 Y-4.9363
G01 X10.7235 Y-4.8870
G01 X10.6874 Y-4.8358
G01 X10.6540 Y-4.7829
G01 X10.6231 Y-4.7285
G01 X10.5950 Y-4.6726
G01 X10.5696 Y-4.6154
G01 X10.5471 Y-4.5570
G01 X10.5275 Y-4.4976
G01 X10.5108 Y-4.4373
G01 X10.4971 Y-4.3762
G01 X10.4864 Y-4.3146
G01 X10.4787 Y-4.2525
G01 X10.4741 Y-4.1901
G01 X10.4726 Y-4.1275
G01 X10.4741 Y-4.0649
G01 X10.4787 Y-4.0025
G01 X10.4864 Y-3.9404
G01 X10.4971 Y-3.8788
G01 X10.5108 Y-3.8177
G01 X10.5275 Y-3.7574
G01 X10.5471 Y-3.6980
G01 X10.5696 Y-3.6396
G01 X10.5950 Y-3.5824
G01 X10.6231 Y-3.5265
G01 X10.6540 Y-3.4721
G01 X10.6874 Y-3.4192
G01 X10.7235 Y-3.3680
G01 X10.7620 Y-3.3187
G01 X10.8028 Y-3.2713
G01 X10.8460 Y-3.2260
G01 X10.8913 Y-3.1828
G01 X10.9387 Y-3.1420
G01 X10.9880 Y-3.1035
G01 X11.0392 Y-3.0674
G01 X11.0921 Y-3.0340
G01 X11.1465 Y-3.0031
G01 X11.2024 Y-2.9750
G01 X11.2596 Y-2.9496
G01 X11.3180 Y-2.9271
G01 X11.3774 Y-2.9075
G01 X11.4377 Y-2.8908
G01 X11.4988 Y-2.8771
G01 X11.5604 Y-2.8664
G01 X11.6225 Y-2.8587
G01 X11.6849 Y-2.8541
G01 X11.7475 Y-2.8526
G01 X11.8101 Y-2.8541
G01 X11.8725 Y-2.8587
G01 X11.9346 Y-2.8664
G01 X11.9962 Y-2.8771
G01 X12.0573 Y-2.8908
G01 X12.1176 Y-2.9075
G01 X12.1770 Y-2.9271
G01 X12.2354 Y-2.9496
G01 X12.2926 Y-2.9750
G01 X12.3485 Y-3.0031
G01 X12.4029 Y-3.0340
G01 X12.4558 Y-3.0674
G01 X12.5070 Y-3.1035
G01 X12.5563 Y-3.1420
G01 X12.6037 Y-3.1828
G01 X12.6490 Y-3.2260
G01 X12.6922 Y-3.2713
G01 X12.7330 Y-3.3187
G01 X12.7715 Y-3.3680
G01 X12.8076 Y-3.4192
G01 X12.8410 Y-3.4721
G01 X12.8719 Y-3.5265
G01 X12.9000 Y-3.5824
G01 X12.9254 Y-3.6396
G01 X12.9479 Y-3.6980
G01 X12.9675 Y-3.7574
G01 X12.9842 Y-3.8177
G01 X12.9979 Y-3.8788
G01 X13.0086 Y-3.9404
G01 X13.0163 Y-4.0025
G01 X13.0209 Y-4.0649
G01 X13.0224 Y-4.1275
G00 Z2.0000
G00 X13.0975 Y-4.1275
G01 F70.00
G01 Z-0.0600
G01 F60.00
G01 X13.0958 Y-4.1937
G01 X13.0910 Y-4.2598
G01 X13.0828 Y-4.3256
G01 X13.0715 Y-4.3909
G01 X13.0570 Y-4.4555
G01 X13.0393 Y-4.5194
G01 X13.0185 Y-4.5823
G01 X12.9947 Y-4.6441
G01 X12.9678 Y-4.7047
G01 X12.9381 Y-4.7639
G01 X12.9054 Y-4.8215
G01 X12.8699 Y-4.8775
G01 X12.8318 Y-4.9317
G01 X12.7910 Y-4.9839
G01 X12.7478 Y-5.0341
G01 X12.7021 Y-5.0821
G01 X12.6541 Y-5.1278
G01 X12.6039 Y-5.1710
G01 X12.5517 Y-5.2118
G01 X12.4975 Y-5.2499
G01 X12.4415 Y-5.2854
G01 X12.3839 Y-5.3181
G01 X12.3247 Y-5.3478
G01 X12.2641 Y-5.3747
G01 X12.2023 Y-5.3985
G01 X12.1394 Y-5.4193
G01 X12.0755 Y-5.4370
G01 X12.0109 Y-5.4515
G01 X11.9456 Y-5.4628
G01 X11.8798 Y-5.4710
G01 X11.8137 Y-5.4758
G01 X11.7475 Y-5.4775
G01 X11.6813 Y-5.4758
G01 X11.6152 Y-5.4710
G01 X11.5494 Y-5.4628
G01 X11.4841 Y-5.4515
G01 X11.4195 Y-5.4370
G01 X11.3556 Y-5.4193
G01 X11.2927 Y-5.3985
G01 X11.2309 Y-5.3747
G01 X11.1703 Y-5.3478
G01 X11.1111 Y-5.3181
G01 X11.0535 Y-5.2854
G01 X10.9975 Y-5.2499
G01 X10.9433 Y-5.2118
G01 X10.8911 Y-5.1710
G01 X10.8409 Y-5.1278
G01 X10.7929 Y-5.0821
G01 X10.7472 Y-5.0341
G01 X10.7040 Y-4.9839
G01 X10.6632 Y-4.9317
G01 X10.6251 Y-4.8775
G01 X10.5896 Y-4.8215
G01 X10.5569 Y-4.7639
G01 X10.5272 Y-4.7047
G01 X10.5003 Y-4.6441
G01 X10.4765 Y-4.5823
G01 X10.4557 Y-4.5194
G01 X10.4380 Y-4.4555
G01 X10.4235 Y-4.3909
G01 X10.4122 Y-4.3256
G01 X10.4040 Y-4.2598
G01 X10.3992 Y-4.1937
G01 X10.3975 Y-4.1275
G01 X10.3992 Y-4.0613
G01 X10.4040 Y-3.9952
G01 X10.4122 Y-3.9294
G01 X10.4235 Y-3.8641
G01 X10.4380 Y-3.7995
G01 X10.4557 Y-3.7356
G01 X10.4765 Y-3.6727
G01 X10.5003 Y-3.6109
G01 X10.5272 Y-3.5503
G01 X10.5569 Y-3.4911
G01 X10.5896 Y-3.4335
G01 X10.6251 Y-3.3775
G01 X10.6632 Y-3.3233
G01 X10.7040 Y-3.2711
G01 X10.7472 Y-3.2209
G01 X10.7929 Y-3.1729
G01 X10.8409 Y-3.1272
G01 X10.8911 Y-3.0840
G01 X10.9433 Y-3.0432
G01 X10.9975 Y-3.0051
G01 X11.0535 Y-2.9696
G01 X11.1111 Y-2.9369
G01 X11.1703 Y-2.9072
G01 X11.2309 Y-2.8803
G01 X11.2927 Y-2.8565
G01 X11.3556 Y-2.8357
G01 X11.4195 Y-2.8180
G01 X11.4841 Y-2.8035
G01 X11.5494 Y-2.7922
G01 X11.6152 Y-2.7840
G01 X11.6813 Y-2.7792
G01 X11.7475 Y-2.7775
G01 X11.8137 Y-2.7792
G01 X11.8798 Y-2.7840
G01 X11.9456 Y-2.7922
G01 X12.0109 Y-2.8035
G01 X12.0755 Y-2.8180
G01 X12.1394 Y-2.8357
G01 X12.2023 Y-2.8565
G01 X12.2641 Y-2.8803
G01 X12.3247 Y-2.9072
G01 X12.3839 Y-2.9369
G01 X12.4415 Y-2.9696
G01 X12.4975 Y-3.0051
G01 X12.5517 Y-3.0432
G01 X12.6039 Y-3.0840
G01 X12.6541 Y-3.1272
G01 X12.7021 Y-3.1729
G01 X12.7478 Y-3.2209
G01 X12.7910 Y-3.2711
G01 X12.8318 Y-3.3233
G01 X12.8699 Y-3.3775
G01 X12.9054 Y-3.4335
G01 X12.9381 Y-3.4911
G01 X12.9678 Y-3.5503
G01 X12.9947 Y-3.6109
G01 X13.0185 Y-3.6727
G01 X13.0393 Y-3.7356
G01 X13.0570 Y-3.7995
G01 X13.0715 Y-3.8641
G01 X13.0828 Y-3.9294
G01 X13.0910 Y-3.9952
G01 X13.0958 Y-4.0613
G01 X13.0975 Y-4.1275
G00 Z2.0000
G00 X13.1725 Y-4.1275
G01 F70.00
G01 Z-0.0600
G01 F60.00
G01 X13.1708 Y-4.1974
G01 X13.1656 Y-4.2672
G01 X13.1571 Y-4.3366
G01 X13.1451 Y-4.4055
G01 X13.1298 Y-4.4737
G01 X13.1111 Y-4.5411
G01 X13.0892 Y-4.6076
G01 X13.0640 Y-4.6728
G01 X13.0357 Y-4.7368
G01 X13.0042 Y-4.7992
G01 X12.9697 Y-4.8601
G01 X12.9323 Y-4.9192
G01 X12.8921 Y-4.9764
G01 X12.8490 Y-5.0315
G01 X12.8033 Y-5.0845
G01 X12.7551 Y-5.1351
G01 X12.7045 Y-5.1833
G01 X12.6515 Y-5.2290
G01 X12.5964 Y-5.2721
G01 X12.5392 Y-5.3123
G01 X12.4801 Y-5.3497
G01 X12.4192 Y-5.3842
G01 X12.3568 Y-5.4157
G01 X12.2928 Y-5.4440
G01 X12.2276 Y-5.4692
G01 X12.1611 Y-5.4911
G01 X12.0937 Y-5.5098
G01 X12.0255 Y-5.5251
G01 X11.9566 Y-5.5371
G01 X11.8872 Y-5.5456
G01 X11.8174 Y-5.5508
G01 X11.7475 Y-5.5525
G01 X11.6776 Y-5.5508
G01 X11.6078 Y-5.5456
G01 X11.5384 Y-5.5371
G01 X11.4695 Y-5.5251
G01 X11.4013 Y-5.5098
G01 X11.3339 Y-5.4911
G01 X11.2674 Y-5.4692
G01 X11.2022 Y-5.4440
G01 X11.1382 Y-5.4157
G01 X11.0758 Y-5.3842
G01 X11.0149 Y-5.3497
G01 X10.9558 Y-5.3123
G01 X10.8986 Y-5.2721
G01 X10.8435 Y-5.2290
G01 X10.7905 Y-5.1833
G01 X10.7399 Y-5.1351
G01 X10.6917 Y-5.0845
G01 X10.6460 Y-5.0315
G01 X10.6029 Y-4.9764
G01 X10.5627 Y-4.9192
G01 X10.5253 Y-4.8601
G01 X10.4908 Y-4.7992
G01 X10.4593 Y-4.7368
G01 X10.4310 Y-4.6728
G01 X10.4058 Y-4.6076
G01 X10.3839 Y-4.5411
G01 X10.3652 Y-4.4737
G01 X10.3499 Y-4.4055
G01 X10.3379 Y-4.3366
G01 X10.3294 Y-4.2672
G01 X10.3242 Y-4.1974
G01 X10.3225 Y-4.1275
G01 X10.3242 Y-4.0576
G01 X10.3294 Y-3.9878
G01 X10.3379 Y-3.9184
G01 X10.3499 Y-3.8495
G01 X10.3652 Y-3.7813
G01 X10.3839 Y-3.7139
G01 X10.4058 Y-3.6474
G01 X10.4310 Y-3.5822
G01 X10.4593 Y-3.5182
G01 X10.4908 Y-3.4558
G01 X10.5253 Y-3.3949
G01 X10.5627 Y-3.3358
G01 X10.6029 Y-3.2786
G01 X10.6460 Y-3.2235
G01 X10.6917 Y-3.1705
G01 X10.7399 Y-3.1199
G01 X10.7905 Y-3.0717
G01 X10.8435 Y-3.0260
G01 X10.8986 Y-2.9829
G01 X10.9558 Y-2.9427
G01 X11.0149 Y-2.9053
G01 X11.0758 Y-2.8708
G01 X11.1382 Y-2.8393
G01 X11.2022 Y-2.8110
G01 X11.2674 Y-2.7858
G01 X11.3339 Y-2.7639
G01 X11.4013 Y-2.7452
G01 X11.4695 Y-2.7299
G01 X11.5384 Y-2.7179
G01 X11.6078 Y-2.7094
G01 X11.6776 Y-2.7042
G01 X11.7475 Y-2.7025
G01 X11.8174 Y-2.7042
G01 X11.8872 Y-2.7094
G01 X11.9566 Y-2.7179
G01 X12.0255 Y-2.7299
G01 X12.0937 Y-2.7452
G01 X12.1611 Y-2.7639
G01 X12.2276 Y-2.7858
G01 X12.2928 Y-2.8110
G01 X12.3568 Y-2.8393
G01 X12.4192 Y-2.8708
G01 X12.4801 Y-2.9053
G01 X12.5392 Y-2.9427
G01 X12.5964 Y-2.9829
G01 X12.6515 Y-3.0260
G01 X12.7045 Y-3.0717
G01 X12.7551 Y-3.1199
G01 X12.8033 Y-3.1705
G01 X12.8490 Y-3.2235
G01 X12.8921 Y-3.2786
G01 X12.9323 Y-3.3358
G01 X12.9697 Y-3.3949
G01 X13.0042 Y-3.4558
G01 X13.0357 Y-3.5182
G01 X13.0640 Y-3.5822
G01 X13.0892 Y-3.6474
G01 X13.1111 Y-3.7139
G01 X13.1298 Y-3.7813
G01 X13.1451 Y-3.8495
G01 X13.1571 Y-3.9184
G01 X13.1656 Y-3.9878
G01 X13.1708 Y-4.0576
G01 X13.1725 Y-4.1275
G00 Z2.0000
M05
G00 Z2.0000
G00 Z25.00

