(G-CODE GENERATED BY FLATCAM v8.993 - www.flatcam.org - Version Date: 2020/06/05)

(Name: TL431_Ф2_низ.gbr_1_cutout_cnc)
(Type: G-code from Geometry)
(Units: MM)

(Created on Friday, 06 November 2020 at 01:44)

(This preprocessor is the default preprocessor used by FlatCAM.)
(It is made to work with MACH3 compatible motion controllers.)

(TOOL DIAMETER: 2.0 mm)
(Feedrate_XY: 120.0 mm/min)
(Feedrate_Z: 70.0 mm/min)
(Feedrate rapids 1500.0 mm/min)

(Z_Cut: -1.7 mm)
(DepthPerCut: 0.1 mm <=>17 passes)
(Z_Move: 2.0 mm)
(Z Start: None mm)
(Z End: 25.0 mm)
(Steps per circle: 128)
(Preprocessor Geometry: default)

(X range:  -11.1000 ...    1.1000  mm)
(Y range:  -16.1000 ...    1.1000  mm)

(Spindle Speed: 10000 RPM)
G21
G90
G94



G01 F120.00
G00 Z2.0000

M03 S10000
G00 X-0.0000 Y-16.1000
G01 F70.00
G01 Z-0.1000
G01 F120.00
G01 X-10.0000 Y-16.1000
G01 X-10.1078 Y-16.0947
G01 X-10.2146 Y-16.0789
G01 X-10.3193 Y-16.0526
G01 X-10.4210 Y-16.0163
G01 X-10.5185 Y-15.9701
G01 X-10.6111 Y-15.9146
G01 X-10.6978 Y-15.8503
G01 X-10.7778 Y-15.7778
G01 X-10.8503 Y-15.6978
G01 X-10.9146 Y-15.6111
G01 X-10.9701 Y-15.5185
G01 X-11.0163 Y-15.4210
G01 X-11.0526 Y-15.3193
G01 X-11.0789 Y-15.2146
G01 X-11.0947 Y-15.1078
G01 X-11.1000 Y-15.0000
G01 X-11.1000 Y-0.0000
G01 X-11.0947 Y0.1078
G01 X-11.0789 Y0.2146
G01 X-11.0526 Y0.3193
G01 X-11.0163 Y0.4210
G01 X-10.9701 Y0.5185
G01 X-10.9146 Y0.6111
G01 X-10.8503 Y0.6978
G01 X-10.7778 Y0.7778
G01 X-10.6978 Y0.8503
G01 X-10.6111 Y0.9146
G01 X-10.5185 Y0.9701
G01 X-10.4210 Y1.0163
G01 X-10.3193 Y1.0526
G01 X-10.2146 Y1.0789
G01 X-10.1078 Y1.0947
G01 X-10.0000 Y1.1000
G01 X-0.0000 Y1.1000
G01 X0.1078 Y1.0947
G01 X0.2146 Y1.0789
G01 X0.3193 Y1.0526
G01 X0.4210 Y1.0163
G01 X0.5185 Y0.9701
G01 X0.6111 Y0.9146
G01 X0.6978 Y0.8503
G01 X0.7778 Y0.7778
G01 X0.8503 Y0.6978
G01 X0.9146 Y0.6111
G01 X0.9701 Y0.5185
G01 X1.0163 Y0.4210
G01 X1.0526 Y0.3193
G01 X1.0789 Y0.2146
G01 X1.0947 Y0.1078
G01 X1.1000 Y-0.0000
G01 X1.1000 Y-15.0000
G01 X1.0947 Y-15.1078
G01 X1.0789 Y-15.2146
G01 X1.0526 Y-15.3193
G01 X1.0163 Y-15.4210
G01 X0.9701 Y-15.5185
G01 X0.9146 Y-15.6111
G01 X0.8503 Y-15.6978
G01 X0.7778 Y-15.7778
G01 X0.6978 Y-15.8503
G01 X0.6111 Y-15.9146
G01 X0.5185 Y-15.9701
G01 X0.4210 Y-16.0163
G01 X0.3193 Y-16.0526
G01 X0.2146 Y-16.0789
G01 X0.1078 Y-16.0947
G01 X-0.0000 Y-16.1000
G00 X-0.0000 Y-16.1000
G01 F70.00
G01 Z-0.2000
G01 F120.00
G01 X0.1078 Y-16.0947
G01 X0.2146 Y-16.0789
G01 X0.3193 Y-16.0526
G01 X0.4210 Y-16.0163
G01 X0.5185 Y-15.9701
G01 X0.6111 Y-15.9146
G01 X0.6978 Y-15.8503
G01 X0.7778 Y-15.7778
G01 X0.8503 Y-15.6978
G01 X0.9146 Y-15.6111
G01 X0.9701 Y-15.5185
G01 X1.0163 Y-15.4210
G01 X1.0526 Y-15.3193
G01 X1.0789 Y-15.2146
G01 X1.0947 Y-15.1078
G01 X1.1000 Y-15.0000
G01 X1.1000 Y-0.0000
G01 X1.0947 Y0.1078
G01 X1.0789 Y0.2146
G01 X1.0526 Y0.3193
G01 X1.0163 Y0.4210
G01 X0.9701 Y0.5185
G01 X0.9146 Y0.6111
G01 X0.8503 Y0.6978
G01 X0.7778 Y0.7778
G01 X0.6978 Y0.8503
G01 X0.6111 Y0.9146
G01 X0.5185 Y0.9701
G01 X0.4210 Y1.0163
G01 X0.3193 Y1.0526
G01 X0.2146 Y1.0789
G01 X0.1078 Y1.0947
G01 X-0.0000 Y1.1000
G01 X-10.0000 Y1.1000
G01 X-10.1078 Y1.0947
G01 X-10.2146 Y1.0789
G01 X-10.3193 Y1.0526
G01 X-10.4210 Y1.0163
G01 X-10.5185 Y0.9701
G01 X-10.6111 Y0.9146
G01 X-10.6978 Y0.8503
G01 X-10.7778 Y0.7778
G01 X-10.8503 Y0.6978
G01 X-10.9146 Y0.6111
G01 X-10.9701 Y0.5185
G01 X-11.0163 Y0.4210
G01 X-11.0526 Y0.3193
G01 X-11.0789 Y0.2146
G01 X-11.0947 Y0.1078
G01 X-11.1000 Y-0.0000
G01 X-11.1000 Y-15.0000
G01 X-11.0947 Y-15.1078
G01 X-11.0789 Y-15.2146
G01 X-11.0526 Y-15.3193
G01 X-11.0163 Y-15.4210
G01 X-10.9701 Y-15.5185
G01 X-10.9146 Y-15.6111
G01 X-10.8503 Y-15.6978
G01 X-10.7778 Y-15.7778
G01 X-10.6978 Y-15.8503
G01 X-10.6111 Y-15.9146
G01 X-10.5185 Y-15.9701
G01 X-10.4210 Y-16.0163
G01 X-10.3193 Y-16.0526
G01 X-10.2146 Y-16.0789
G01 X-10.1078 Y-16.0947
G01 X-10.0000 Y-16.1000
G01 X-0.0000 Y-16.1000
G00 X-0.0000 Y-16.1000
G01 F70.00
G01 Z-0.3000
G01 F120.00
G01 X-10.0000 Y-16.1000
G01 X-10.1078 Y-16.0947
G01 X-10.2146 Y-16.0789
G01 X-10.3193 Y-16.0526
G01 X-10.4210 Y-16.0163
G01 X-10.5185 Y-15.9701
G01 X-10.6111 Y-15.9146
G01 X-10.6978 Y-15.8503
G01 X-10.7778 Y-15.7778
G01 X-10.8503 Y-15.6978
G01 X-10.9146 Y-15.6111
G01 X-10.9701 Y-15.5185
G01 X-11.0163 Y-15.4210
G01 X-11.0526 Y-15.3193
G01 X-11.0789 Y-15.2146
G01 X-11.0947 Y-15.1078
G01 X-11.1000 Y-15.0000
G01 X-11.1000 Y-0.0000
G01 X-11.0947 Y0.1078
G01 X-11.0789 Y0.2146
G01 X-11.0526 Y0.3193
G01 X-11.0163 Y0.4210
G01 X-10.9701 Y0.5185
G01 X-10.9146 Y0.6111
G01 X-10.8503 Y0.6978
G01 X-10.7778 Y0.7778
G01 X-10.6978 Y0.8503
G01 X-10.6111 Y0.9146
G01 X-10.5185 Y0.9701
G01 X-10.4210 Y1.0163
G01 X-10.3193 Y1.0526
G01 X-10.2146 Y1.0789
G01 X-10.1078 Y1.0947
G01 X-10.0000 Y1.1000
G01 X-0.0000 Y1.1000
G01 X0.1078 Y1.0947
G01 X0.2146 Y1.0789
G01 X0.3193 Y1.0526
G01 X0.4210 Y1.0163
G01 X0.5185 Y0.9701
G01 X0.6111 Y0.9146
G01 X0.6978 Y0.8503
G01 X0.7778 Y0.7778
G01 X0.8503 Y0.6978
G01 X0.9146 Y0.6111
G01 X0.9701 Y0.5185
G01 X1.0163 Y0.4210
G01 X1.0526 Y0.3193
G01 X1.0789 Y0.2146
G01 X1.0947 Y0.1078
G01 X1.1000 Y-0.0000
G01 X1.1000 Y-15.0000
G01 X1.0947 Y-15.1078
G01 X1.0789 Y-15.2146
G01 X1.0526 Y-15.3193
G01 X1.0163 Y-15.4210
G01 X0.9701 Y-15.5185
G01 X0.9146 Y-15.6111
G01 X0.8503 Y-15.6978
G01 X0.7778 Y-15.7778
G01 X0.6978 Y-15.8503
G01 X0.6111 Y-15.9146
G01 X0.5185 Y-15.9701
G01 X0.4210 Y-16.0163
G01 X0.3193 Y-16.0526
G01 X0.2146 Y-16.0789
G01 X0.1078 Y-16.0947
G01 X-0.0000 Y-16.1000
G00 X-0.0000 Y-16.1000
G01 F70.00
G01 Z-0.4000
G01 F120.00
G01 X0.1078 Y-16.0947
G01 X0.2146 Y-16.0789
G01 X0.3193 Y-16.0526
G01 X0.4210 Y-16.0163
G01 X0.5185 Y-15.9701
G01 X0.6111 Y-15.9146
G01 X0.6978 Y-15.8503
G01 X0.7778 Y-15.7778
G01 X0.8503 Y-15.6978
G01 X0.9146 Y-15.6111
G01 X0.9701 Y-15.5185
G01 X1.0163 Y-15.4210
G01 X1.0526 Y-15.3193
G01 X1.0789 Y-15.2146
G01 X1.0947 Y-15.1078
G01 X1.1000 Y-15.0000
G01 X1.1000 Y-0.0000
G01 X1.0947 Y0.1078
G01 X1.0789 Y0.2146
G01 X1.0526 Y0.3193
G01 X1.0163 Y0.4210
G01 X0.9701 Y0.5185
G01 X0.9146 Y0.6111
G01 X0.8503 Y0.6978
G01 X0.7778 Y0.7778
G01 X0.6978 Y0.8503
G01 X0.6111 Y0.9146
G01 X0.5185 Y0.9701
G01 X0.4210 Y1.0163
G01 X0.3193 Y1.0526
G01 X0.2146 Y1.0789
G01 X0.1078 Y1.0947
G01 X-0.0000 Y1.1000
G01 X-10.0000 Y1.1000
G01 X-10.1078 Y1.0947
G01 X-10.2146 Y1.0789
G01 X-10.3193 Y1.0526
G01 X-10.4210 Y1.0163
G01 X-10.5185 Y0.9701
G01 X-10.6111 Y0.9146
G01 X-10.6978 Y0.8503
G01 X-10.7778 Y0.7778
G01 X-10.8503 Y0.6978
G01 X-10.9146 Y0.6111
G01 X-10.9701 Y0.5185
G01 X-11.0163 Y0.4210
G01 X-11.0526 Y0.3193
G01 X-11.0789 Y0.2146
G01 X-11.0947 Y0.1078
G01 X-11.1000 Y-0.0000
G01 X-11.1000 Y-15.0000
G01 X-11.0947 Y-15.1078
G01 X-11.0789 Y-15.2146
G01 X-11.0526 Y-15.3193
G01 X-11.0163 Y-15.4210
G01 X-10.9701 Y-15.5185
G01 X-10.9146 Y-15.6111
G01 X-10.8503 Y-15.6978
G01 X-10.7778 Y-15.7778
G01 X-10.6978 Y-15.8503
G01 X-10.6111 Y-15.9146
G01 X-10.5185 Y-15.9701
G01 X-10.4210 Y-16.0163
G01 X-10.3193 Y-16.0526
G01 X-10.2146 Y-16.0789
G01 X-10.1078 Y-16.0947
G01 X-10.0000 Y-16.1000
G01 X-0.0000 Y-16.1000
G00 X-0.0000 Y-16.1000
G01 F70.00
G01 Z-0.5000
G01 F120.00
G01 X-10.0000 Y-16.1000
G01 X-10.1078 Y-16.0947
G01 X-10.2146 Y-16.0789
G01 X-10.3193 Y-16.0526
G01 X-10.4210 Y-16.0163
G01 X-10.5185 Y-15.9701
G01 X-10.6111 Y-15.9146
G01 X-10.6978 Y-15.8503
G01 X-10.7778 Y-15.7778
G01 X-10.8503 Y-15.6978
G01 X-10.9146 Y-15.6111
G01 X-10.9701 Y-15.5185
G01 X-11.0163 Y-15.4210
G01 X-11.0526 Y-15.3193
G01 X-11.0789 Y-15.2146
G01 X-11.0947 Y-15.1078
G01 X-11.1000 Y-15.0000
G01 X-11.1000 Y-0.0000
G01 X-11.0947 Y0.1078
G01 X-11.0789 Y0.2146
G01 X-11.0526 Y0.3193
G01 X-11.0163 Y0.4210
G01 X-10.9701 Y0.5185
G01 X-10.9146 Y0.6111
G01 X-10.8503 Y0.6978
G01 X-10.7778 Y0.7778
G01 X-10.6978 Y0.8503
G01 X-10.6111 Y0.9146
G01 X-10.5185 Y0.9701
G01 X-10.4210 Y1.0163
G01 X-10.3193 Y1.0526
G01 X-10.2146 Y1.0789
G01 X-10.1078 Y1.0947
G01 X-10.0000 Y1.1000
G01 X-0.0000 Y1.1000
G01 X0.1078 Y1.0947
G01 X0.2146 Y1.0789
G01 X0.3193 Y1.0526
G01 X0.4210 Y1.0163
G01 X0.5185 Y0.9701
G01 X0.6111 Y0.9146
G01 X0.6978 Y0.8503
G01 X0.7778 Y0.7778
G01 X0.8503 Y0.6978
G01 X0.9146 Y0.6111
G01 X0.9701 Y0.5185
G01 X1.0163 Y0.4210
G01 X1.0526 Y0.3193
G01 X1.0789 Y0.2146
G01 X1.0947 Y0.1078
G01 X1.1000 Y-0.0000
G01 X1.1000 Y-15.0000
G01 X1.0947 Y-15.1078
G01 X1.0789 Y-15.2146
G01 X1.0526 Y-15.3193
G01 X1.0163 Y-15.4210
G01 X0.9701 Y-15.5185
G01 X0.9146 Y-15.6111
G01 X0.8503 Y-15.6978
G01 X0.7778 Y-15.7778
G01 X0.6978 Y-15.8503
G01 X0.6111 Y-15.9146
G01 X0.5185 Y-15.9701
G01 X0.4210 Y-16.0163
G01 X0.3193 Y-16.0526
G01 X0.2146 Y-16.0789
G01 X0.1078 Y-16.0947
G01 X-0.0000 Y-16.1000
G00 X-0.0000 Y-16.1000
G01 F70.00
G01 Z-0.6000
G01 F120.00
G01 X0.1078 Y-16.0947
G01 X0.2146 Y-16.0789
G01 X0.3193 Y-16.0526
G01 X0.4210 Y-16.0163
G01 X0.5185 Y-15.9701
G01 X0.6111 Y-15.9146
G01 X0.6978 Y-15.8503
G01 X0.7778 Y-15.7778
G01 X0.8503 Y-15.6978
G01 X0.9146 Y-15.6111
G01 X0.9701 Y-15.5185
G01 X1.0163 Y-15.4210
G01 X1.0526 Y-15.3193
G01 X1.0789 Y-15.2146
G01 X1.0947 Y-15.1078
G01 X1.1000 Y-15.0000
G01 X1.1000 Y-0.0000
G01 X1.0947 Y0.1078
G01 X1.0789 Y0.2146
G01 X1.0526 Y0.3193
G01 X1.0163 Y0.4210
G01 X0.9701 Y0.5185
G01 X0.9146 Y0.6111
G01 X0.8503 Y0.6978
G01 X0.7778 Y0.7778
G01 X0.6978 Y0.8503
G01 X0.6111 Y0.9146
G01 X0.5185 Y0.9701
G01 X0.4210 Y1.0163
G01 X0.3193 Y1.0526
G01 X0.2146 Y1.0789
G01 X0.1078 Y1.0947
G01 X-0.0000 Y1.1000
G01 X-10.0000 Y1.1000
G01 X-10.1078 Y1.0947
G01 X-10.2146 Y1.0789
G01 X-10.3193 Y1.0526
G01 X-10.4210 Y1.0163
G01 X-10.5185 Y0.9701
G01 X-10.6111 Y0.9146
G01 X-10.6978 Y0.8503
G01 X-10.7778 Y0.7778
G01 X-10.8503 Y0.6978
G01 X-10.9146 Y0.6111
G01 X-10.9701 Y0.5185
G01 X-11.0163 Y0.4210
G01 X-11.0526 Y0.3193
G01 X-11.0789 Y0.2146
G01 X-11.0947 Y0.1078
G01 X-11.1000 Y-0.0000
G01 X-11.1000 Y-15.0000
G01 X-11.0947 Y-15.1078
G01 X-11.0789 Y-15.2146
G01 X-11.0526 Y-15.3193
G01 X-11.0163 Y-15.4210
G01 X-10.9701 Y-15.5185
G01 X-10.9146 Y-15.6111
G01 X-10.8503 Y-15.6978
G01 X-10.7778 Y-15.7778
G01 X-10.6978 Y-15.8503
G01 X-10.6111 Y-15.9146
G01 X-10.5185 Y-15.9701
G01 X-10.4210 Y-16.0163
G01 X-10.3193 Y-16.0526
G01 X-10.2146 Y-16.0789
G01 X-10.1078 Y-16.0947
G01 X-10.0000 Y-16.1000
G01 X-0.0000 Y-16.1000
G00 X-0.0000 Y-16.1000
G01 F70.00
G01 Z-0.7000
G01 F120.00
G01 X-10.0000 Y-16.1000
G01 X-10.1078 Y-16.0947
G01 X-10.2146 Y-16.0789
G01 X-10.3193 Y-16.0526
G01 X-10.4210 Y-16.0163
G01 X-10.5185 Y-15.9701
G01 X-10.6111 Y-15.9146
G01 X-10.6978 Y-15.8503
G01 X-10.7778 Y-15.7778
G01 X-10.8503 Y-15.6978
G01 X-10.9146 Y-15.6111
G01 X-10.9701 Y-15.5185
G01 X-11.0163 Y-15.4210
G01 X-11.0526 Y-15.3193
G01 X-11.0789 Y-15.2146
G01 X-11.0947 Y-15.1078
G01 X-11.1000 Y-15.0000
G01 X-11.1000 Y-0.0000
G01 X-11.0947 Y0.1078
G01 X-11.0789 Y0.2146
G01 X-11.0526 Y0.3193
G01 X-11.0163 Y0.4210
G01 X-10.9701 Y0.5185
G01 X-10.9146 Y0.6111
G01 X-10.8503 Y0.6978
G01 X-10.7778 Y0.7778
G01 X-10.6978 Y0.8503
G01 X-10.6111 Y0.9146
G01 X-10.5185 Y0.9701
G01 X-10.4210 Y1.0163
G01 X-10.3193 Y1.0526
G01 X-10.2146 Y1.0789
G01 X-10.1078 Y1.0947
G01 X-10.0000 Y1.1000
G01 X-0.0000 Y1.1000
G01 X0.1078 Y1.0947
G01 X0.2146 Y1.0789
G01 X0.3193 Y1.0526
G01 X0.4210 Y1.0163
G01 X0.5185 Y0.9701
G01 X0.6111 Y0.9146
G01 X0.6978 Y0.8503
G01 X0.7778 Y0.7778
G01 X0.8503 Y0.6978
G01 X0.9146 Y0.6111
G01 X0.9701 Y0.5185
G01 X1.0163 Y0.4210
G01 X1.0526 Y0.3193
G01 X1.0789 Y0.2146
G01 X1.0947 Y0.1078
G01 X1.1000 Y-0.0000
G01 X1.1000 Y-15.0000
G01 X1.0947 Y-15.1078
G01 X1.0789 Y-15.2146
G01 X1.0526 Y-15.3193
G01 X1.0163 Y-15.4210
G01 X0.9701 Y-15.5185
G01 X0.9146 Y-15.6111
G01 X0.8503 Y-15.6978
G01 X0.7778 Y-15.7778
G01 X0.6978 Y-15.8503
G01 X0.6111 Y-15.9146
G01 X0.5185 Y-15.9701
G01 X0.4210 Y-16.0163
G01 X0.3193 Y-16.0526
G01 X0.2146 Y-16.0789
G01 X0.1078 Y-16.0947
G01 X-0.0000 Y-16.1000
G00 X-0.0000 Y-16.1000
G01 F70.00
G01 Z-0.8000
G01 F120.00
G01 X0.1078 Y-16.0947
G01 X0.2146 Y-16.0789
G01 X0.3193 Y-16.0526
G01 X0.4210 Y-16.0163
G01 X0.5185 Y-15.9701
G01 X0.6111 Y-15.9146
G01 X0.6978 Y-15.8503
G01 X0.7778 Y-15.7778
G01 X0.8503 Y-15.6978
G01 X0.9146 Y-15.6111
G01 X0.9701 Y-15.5185
G01 X1.0163 Y-15.4210
G01 X1.0526 Y-15.3193
G01 X1.0789 Y-15.2146
G01 X1.0947 Y-15.1078
G01 X1.1000 Y-15.0000
G01 X1.1000 Y-0.0000
G01 X1.0947 Y0.1078
G01 X1.0789 Y0.2146
G01 X1.0526 Y0.3193
G01 X1.0163 Y0.4210
G01 X0.9701 Y0.5185
G01 X0.9146 Y0.6111
G01 X0.8503 Y0.6978
G01 X0.7778 Y0.7778
G01 X0.6978 Y0.8503
G01 X0.6111 Y0.9146
G01 X0.5185 Y0.9701
G01 X0.4210 Y1.0163
G01 X0.3193 Y1.0526
G01 X0.2146 Y1.0789
G01 X0.1078 Y1.0947
G01 X-0.0000 Y1.1000
G01 X-10.0000 Y1.1000
G01 X-10.1078 Y1.0947
G01 X-10.2146 Y1.0789
G01 X-10.3193 Y1.0526
G01 X-10.4210 Y1.0163
G01 X-10.5185 Y0.9701
G01 X-10.6111 Y0.9146
G01 X-10.6978 Y0.8503
G01 X-10.7778 Y0.7778
G01 X-10.8503 Y0.6978
G01 X-10.9146 Y0.6111
G01 X-10.9701 Y0.5185
G01 X-11.0163 Y0.4210
G01 X-11.0526 Y0.3193
G01 X-11.0789 Y0.2146
G01 X-11.0947 Y0.1078
G01 X-11.1000 Y-0.0000
G01 X-11.1000 Y-15.0000
G01 X-11.0947 Y-15.1078
G01 X-11.0789 Y-15.2146
G01 X-11.0526 Y-15.3193
G01 X-11.0163 Y-15.4210
G01 X-10.9701 Y-15.5185
G01 X-10.9146 Y-15.6111
G01 X-10.8503 Y-15.6978
G01 X-10.7778 Y-15.7778
G01 X-10.6978 Y-15.8503
G01 X-10.6111 Y-15.9146
G01 X-10.5185 Y-15.9701
G01 X-10.4210 Y-16.0163
G01 X-10.3193 Y-16.0526
G01 X-10.2146 Y-16.0789
G01 X-10.1078 Y-16.0947
G01 X-10.0000 Y-16.1000
G01 X-0.0000 Y-16.1000
G00 X-0.0000 Y-16.1000
G01 F70.00
G01 Z-0.9000
G01 F120.00
G01 X-10.0000 Y-16.1000
G01 X-10.1078 Y-16.0947
G01 X-10.2146 Y-16.0789
G01 X-10.3193 Y-16.0526
G01 X-10.4210 Y-16.0163
G01 X-10.5185 Y-15.9701
G01 X-10.6111 Y-15.9146
G01 X-10.6978 Y-15.8503
G01 X-10.7778 Y-15.7778
G01 X-10.8503 Y-15.6978
G01 X-10.9146 Y-15.6111
G01 X-10.9701 Y-15.5185
G01 X-11.0163 Y-15.4210
G01 X-11.0526 Y-15.3193
G01 X-11.0789 Y-15.2146
G01 X-11.0947 Y-15.1078
G01 X-11.1000 Y-15.0000
G01 X-11.1000 Y-0.0000
G01 X-11.0947 Y0.1078
G01 X-11.0789 Y0.2146
G01 X-11.0526 Y0.3193
G01 X-11.0163 Y0.4210
G01 X-10.9701 Y0.5185
G01 X-10.9146 Y0.6111
G01 X-10.8503 Y0.6978
G01 X-10.7778 Y0.7778
G01 X-10.6978 Y0.8503
G01 X-10.6111 Y0.9146
G01 X-10.5185 Y0.9701
G01 X-10.4210 Y1.0163
G01 X-10.3193 Y1.0526
G01 X-10.2146 Y1.0789
G01 X-10.1078 Y1.0947
G01 X-10.0000 Y1.1000
G01 X-0.0000 Y1.1000
G01 X0.1078 Y1.0947
G01 X0.2146 Y1.0789
G01 X0.3193 Y1.0526
G01 X0.4210 Y1.0163
G01 X0.5185 Y0.9701
G01 X0.6111 Y0.9146
G01 X0.6978 Y0.8503
G01 X0.7778 Y0.7778
G01 X0.8503 Y0.6978
G01 X0.9146 Y0.6111
G01 X0.9701 Y0.5185
G01 X1.0163 Y0.4210
G01 X1.0526 Y0.3193
G01 X1.0789 Y0.2146
G01 X1.0947 Y0.1078
G01 X1.1000 Y-0.0000
G01 X1.1000 Y-15.0000
G01 X1.0947 Y-15.1078
G01 X1.0789 Y-15.2146
G01 X1.0526 Y-15.3193
G01 X1.0163 Y-15.4210
G01 X0.9701 Y-15.5185
G01 X0.9146 Y-15.6111
G01 X0.8503 Y-15.6978
G01 X0.7778 Y-15.7778
G01 X0.6978 Y-15.8503
G01 X0.6111 Y-15.9146
G01 X0.5185 Y-15.9701
G01 X0.4210 Y-16.0163
G01 X0.3193 Y-16.0526
G01 X0.2146 Y-16.0789
G01 X0.1078 Y-16.0947
G01 X-0.0000 Y-16.1000
G00 X-0.0000 Y-16.1000
G01 F70.00
G01 Z-1.0000
G01 F120.00
G01 X0.1078 Y-16.0947
G01 X0.2146 Y-16.0789
G01 X0.3193 Y-16.0526
G01 X0.4210 Y-16.0163
G01 X0.5185 Y-15.9701
G01 X0.6111 Y-15.9146
G01 X0.6978 Y-15.8503
G01 X0.7778 Y-15.7778
G01 X0.8503 Y-15.6978
G01 X0.9146 Y-15.6111
G01 X0.9701 Y-15.5185
G01 X1.0163 Y-15.4210
G01 X1.0526 Y-15.3193
G01 X1.0789 Y-15.2146
G01 X1.0947 Y-15.1078
G01 X1.1000 Y-15.0000
G01 X1.1000 Y-0.0000
G01 X1.0947 Y0.1078
G01 X1.0789 Y0.2146
G01 X1.0526 Y0.3193
G01 X1.0163 Y0.4210
G01 X0.9701 Y0.5185
G01 X0.9146 Y0.6111
G01 X0.8503 Y0.6978
G01 X0.7778 Y0.7778
G01 X0.6978 Y0.8503
G01 X0.6111 Y0.9146
G01 X0.5185 Y0.9701
G01 X0.4210 Y1.0163
G01 X0.3193 Y1.0526
G01 X0.2146 Y1.0789
G01 X0.1078 Y1.0947
G01 X-0.0000 Y1.1000
G01 X-10.0000 Y1.1000
G01 X-10.1078 Y1.0947
G01 X-10.2146 Y1.0789
G01 X-10.3193 Y1.0526
G01 X-10.4210 Y1.0163
G01 X-10.5185 Y0.9701
G01 X-10.6111 Y0.9146
G01 X-10.6978 Y0.8503
G01 X-10.7778 Y0.7778
G01 X-10.8503 Y0.6978
G01 X-10.9146 Y0.6111
G01 X-10.9701 Y0.5185
G01 X-11.0163 Y0.4210
G01 X-11.0526 Y0.3193
G01 X-11.0789 Y0.2146
G01 X-11.0947 Y0.1078
G01 X-11.1000 Y-0.0000
G01 X-11.1000 Y-15.0000
G01 X-11.0947 Y-15.1078
G01 X-11.0789 Y-15.2146
G01 X-11.0526 Y-15.3193
G01 X-11.0163 Y-15.4210
G01 X-10.9701 Y-15.5185
G01 X-10.9146 Y-15.6111
G01 X-10.8503 Y-15.6978
G01 X-10.7778 Y-15.7778
G01 X-10.6978 Y-15.8503
G01 X-10.6111 Y-15.9146
G01 X-10.5185 Y-15.9701
G01 X-10.4210 Y-16.0163
G01 X-10.3193 Y-16.0526
G01 X-10.2146 Y-16.0789
G01 X-10.1078 Y-16.0947
G01 X-10.0000 Y-16.1000
G01 X-0.0000 Y-16.1000
G00 X-0.0000 Y-16.1000
G01 F70.00
G01 Z-1.1000
G01 F120.00
G01 X-10.0000 Y-16.1000
G01 X-10.1078 Y-16.0947
G01 X-10.2146 Y-16.0789
G01 X-10.3193 Y-16.0526
G01 X-10.4210 Y-16.0163
G01 X-10.5185 Y-15.9701
G01 X-10.6111 Y-15.9146
G01 X-10.6978 Y-15.8503
G01 X-10.7778 Y-15.7778
G01 X-10.8503 Y-15.6978
G01 X-10.9146 Y-15.6111
G01 X-10.9701 Y-15.5185
G01 X-11.0163 Y-15.4210
G01 X-11.0526 Y-15.3193
G01 X-11.0789 Y-15.2146
G01 X-11.0947 Y-15.1078
G01 X-11.1000 Y-15.0000
G01 X-11.1000 Y-0.0000
G01 X-11.0947 Y0.1078
G01 X-11.0789 Y0.2146
G01 X-11.0526 Y0.3193
G01 X-11.0163 Y0.4210
G01 X-10.9701 Y0.5185
G01 X-10.9146 Y0.6111
G01 X-10.8503 Y0.6978
G01 X-10.7778 Y0.7778
G01 X-10.6978 Y0.8503
G01 X-10.6111 Y0.9146
G01 X-10.5185 Y0.9701
G01 X-10.4210 Y1.0163
G01 X-10.3193 Y1.0526
G01 X-10.2146 Y1.0789
G01 X-10.1078 Y1.0947
G01 X-10.0000 Y1.1000
G01 X-0.0000 Y1.1000
G01 X0.1078 Y1.0947
G01 X0.2146 Y1.0789
G01 X0.3193 Y1.0526
G01 X0.4210 Y1.0163
G01 X0.5185 Y0.9701
G01 X0.6111 Y0.9146
G01 X0.6978 Y0.8503
G01 X0.7778 Y0.7778
G01 X0.8503 Y0.6978
G01 X0.9146 Y0.6111
G01 X0.9701 Y0.5185
G01 X1.0163 Y0.4210
G01 X1.0526 Y0.3193
G01 X1.0789 Y0.2146
G01 X1.0947 Y0.1078
G01 X1.1000 Y-0.0000
G01 X1.1000 Y-15.0000
G01 X1.0947 Y-15.1078
G01 X1.0789 Y-15.2146
G01 X1.0526 Y-15.3193
G01 X1.0163 Y-15.4210
G01 X0.9701 Y-15.5185
G01 X0.9146 Y-15.6111
G01 X0.8503 Y-15.6978
G01 X0.7778 Y-15.7778
G01 X0.6978 Y-15.8503
G01 X0.6111 Y-15.9146
G01 X0.5185 Y-15.9701
G01 X0.4210 Y-16.0163
G01 X0.3193 Y-16.0526
G01 X0.2146 Y-16.0789
G01 X0.1078 Y-16.0947
G01 X-0.0000 Y-16.1000
G00 X-0.0000 Y-16.1000
G01 F70.00
G01 Z-1.2000
G01 F120.00
G01 X0.1078 Y-16.0947
G01 X0.2146 Y-16.0789
G01 X0.3193 Y-16.0526
G01 X0.4210 Y-16.0163
G01 X0.5185 Y-15.9701
G01 X0.6111 Y-15.9146
G01 X0.6978 Y-15.8503
G01 X0.7778 Y-15.7778
G01 X0.8503 Y-15.6978
G01 X0.9146 Y-15.6111
G01 X0.9701 Y-15.5185
G01 X1.0163 Y-15.4210
G01 X1.0526 Y-15.3193
G01 X1.0789 Y-15.2146
G01 X1.0947 Y-15.1078
G01 X1.1000 Y-15.0000
G01 X1.1000 Y-0.0000
G01 X1.0947 Y0.1078
G01 X1.0789 Y0.2146
G01 X1.0526 Y0.3193
G01 X1.0163 Y0.4210
G01 X0.9701 Y0.5185
G01 X0.9146 Y0.6111
G01 X0.8503 Y0.6978
G01 X0.7778 Y0.7778
G01 X0.6978 Y0.8503
G01 X0.6111 Y0.9146
G01 X0.5185 Y0.9701
G01 X0.4210 Y1.0163
G01 X0.3193 Y1.0526
G01 X0.2146 Y1.0789
G01 X0.1078 Y1.0947
G01 X-0.0000 Y1.1000
G01 X-10.0000 Y1.1000
G01 X-10.1078 Y1.0947
G01 X-10.2146 Y1.0789
G01 X-10.3193 Y1.0526
G01 X-10.4210 Y1.0163
G01 X-10.5185 Y0.9701
G01 X-10.6111 Y0.9146
G01 X-10.6978 Y0.8503
G01 X-10.7778 Y0.7778
G01 X-10.8503 Y0.6978
G01 X-10.9146 Y0.6111
G01 X-10.9701 Y0.5185
G01 X-11.0163 Y0.4210
G01 X-11.0526 Y0.3193
G01 X-11.0789 Y0.2146
G01 X-11.0947 Y0.1078
G01 X-11.1000 Y-0.0000
G01 X-11.1000 Y-15.0000
G01 X-11.0947 Y-15.1078
G01 X-11.0789 Y-15.2146
G01 X-11.0526 Y-15.3193
G01 X-11.0163 Y-15.4210
G01 X-10.9701 Y-15.5185
G01 X-10.9146 Y-15.6111
G01 X-10.8503 Y-15.6978
G01 X-10.7778 Y-15.7778
G01 X-10.6978 Y-15.8503
G01 X-10.6111 Y-15.9146
G01 X-10.5185 Y-15.9701
G01 X-10.4210 Y-16.0163
G01 X-10.3193 Y-16.0526
G01 X-10.2146 Y-16.0789
G01 X-10.1078 Y-16.0947
G01 X-10.0000 Y-16.1000
G01 X-0.0000 Y-16.1000
G00 X-0.0000 Y-16.1000
G01 F70.00
G01 Z-1.3000
G01 F120.00
G01 X-10.0000 Y-16.1000
G01 X-10.1078 Y-16.0947
G01 X-10.2146 Y-16.0789
G01 X-10.3193 Y-16.0526
G01 X-10.4210 Y-16.0163
G01 X-10.5185 Y-15.9701
G01 X-10.6111 Y-15.9146
G01 X-10.6978 Y-15.8503
G01 X-10.7778 Y-15.7778
G01 X-10.8503 Y-15.6978
G01 X-10.9146 Y-15.6111
G01 X-10.9701 Y-15.5185
G01 X-11.0163 Y-15.4210
G01 X-11.0526 Y-15.3193
G01 X-11.0789 Y-15.2146
G01 X-11.0947 Y-15.1078
G01 X-11.1000 Y-15.0000
G01 X-11.1000 Y-0.0000
G01 X-11.0947 Y0.1078
G01 X-11.0789 Y0.2146
G01 X-11.0526 Y0.3193
G01 X-11.0163 Y0.4210
G01 X-10.9701 Y0.5185
G01 X-10.9146 Y0.6111
G01 X-10.8503 Y0.6978
G01 X-10.7778 Y0.7778
G01 X-10.6978 Y0.8503
G01 X-10.6111 Y0.9146
G01 X-10.5185 Y0.9701
G01 X-10.4210 Y1.0163
G01 X-10.3193 Y1.0526
G01 X-10.2146 Y1.0789
G01 X-10.1078 Y1.0947
G01 X-10.0000 Y1.1000
G01 X-0.0000 Y1.1000
G01 X0.1078 Y1.0947
G01 X0.2146 Y1.0789
G01 X0.3193 Y1.0526
G01 X0.4210 Y1.0163
G01 X0.5185 Y0.9701
G01 X0.6111 Y0.9146
G01 X0.6978 Y0.8503
G01 X0.7778 Y0.7778
G01 X0.8503 Y0.6978
G01 X0.9146 Y0.6111
G01 X0.9701 Y0.5185
G01 X1.0163 Y0.4210
G01 X1.0526 Y0.3193
G01 X1.0789 Y0.2146
G01 X1.0947 Y0.1078
G01 X1.1000 Y-0.0000
G01 X1.1000 Y-15.0000
G01 X1.0947 Y-15.1078
G01 X1.0789 Y-15.2146
G01 X1.0526 Y-15.3193
G01 X1.0163 Y-15.4210
G01 X0.9701 Y-15.5185
G01 X0.9146 Y-15.6111
G01 X0.8503 Y-15.6978
G01 X0.7778 Y-15.7778
G01 X0.6978 Y-15.8503
G01 X0.6111 Y-15.9146
G01 X0.5185 Y-15.9701
G01 X0.4210 Y-16.0163
G01 X0.3193 Y-16.0526
G01 X0.2146 Y-16.0789
G01 X0.1078 Y-16.0947
G01 X-0.0000 Y-16.1000
G00 X-0.0000 Y-16.1000
G01 F70.00
G01 Z-1.4000
G01 F120.00
G01 X0.1078 Y-16.0947
G01 X0.2146 Y-16.0789
G01 X0.3193 Y-16.0526
G01 X0.4210 Y-16.0163
G01 X0.5185 Y-15.9701
G01 X0.6111 Y-15.9146
G01 X0.6978 Y-15.8503
G01 X0.7778 Y-15.7778
G01 X0.8503 Y-15.6978
G01 X0.9146 Y-15.6111
G01 X0.9701 Y-15.5185
G01 X1.0163 Y-15.4210
G01 X1.0526 Y-15.3193
G01 X1.0789 Y-15.2146
G01 X1.0947 Y-15.1078
G01 X1.1000 Y-15.0000
G01 X1.1000 Y-0.0000
G01 X1.0947 Y0.1078
G01 X1.0789 Y0.2146
G01 X1.0526 Y0.3193
G01 X1.0163 Y0.4210
G01 X0.9701 Y0.5185
G01 X0.9146 Y0.6111
G01 X0.8503 Y0.6978
G01 X0.7778 Y0.7778
G01 X0.6978 Y0.8503
G01 X0.6111 Y0.9146
G01 X0.5185 Y0.9701
G01 X0.4210 Y1.0163
G01 X0.3193 Y1.0526
G01 X0.2146 Y1.0789
G01 X0.1078 Y1.0947
G01 X-0.0000 Y1.1000
G01 X-10.0000 Y1.1000
G01 X-10.1078 Y1.0947
G01 X-10.2146 Y1.0789
G01 X-10.3193 Y1.0526
G01 X-10.4210 Y1.0163
G01 X-10.5185 Y0.9701
G01 X-10.6111 Y0.9146
G01 X-10.6978 Y0.8503
G01 X-10.7778 Y0.7778
G01 X-10.8503 Y0.6978
G01 X-10.9146 Y0.6111
G01 X-10.9701 Y0.5185
G01 X-11.0163 Y0.4210
G01 X-11.0526 Y0.3193
G01 X-11.0789 Y0.2146
G01 X-11.0947 Y0.1078
G01 X-11.1000 Y-0.0000
G01 X-11.1000 Y-15.0000
G01 X-11.0947 Y-15.1078
G01 X-11.0789 Y-15.2146
G01 X-11.0526 Y-15.3193
G01 X-11.0163 Y-15.4210
G01 X-10.9701 Y-15.5185
G01 X-10.9146 Y-15.6111
G01 X-10.8503 Y-15.6978
G01 X-10.7778 Y-15.7778
G01 X-10.6978 Y-15.8503
G01 X-10.6111 Y-15.9146
G01 X-10.5185 Y-15.9701
G01 X-10.4210 Y-16.0163
G01 X-10.3193 Y-16.0526
G01 X-10.2146 Y-16.0789
G01 X-10.1078 Y-16.0947
G01 X-10.0000 Y-16.1000
G01 X-0.0000 Y-16.1000
G00 X-0.0000 Y-16.1000
G01 F70.00
G01 Z-1.5000
G01 F120.00
G01 X-10.0000 Y-16.1000
G01 X-10.1078 Y-16.0947
G01 X-10.2146 Y-16.0789
G01 X-10.3193 Y-16.0526
G01 X-10.4210 Y-16.0163
G01 X-10.5185 Y-15.9701
G01 X-10.6111 Y-15.9146
G01 X-10.6978 Y-15.8503
G01 X-10.7778 Y-15.7778
G01 X-10.8503 Y-15.6978
G01 X-10.9146 Y-15.6111
G01 X-10.9701 Y-15.5185
G01 X-11.0163 Y-15.4210
G01 X-11.0526 Y-15.3193
G01 X-11.0789 Y-15.2146
G01 X-11.0947 Y-15.1078
G01 X-11.1000 Y-15.0000
G01 X-11.1000 Y-0.0000
G01 X-11.0947 Y0.1078
G01 X-11.0789 Y0.2146
G01 X-11.0526 Y0.3193
G01 X-11.0163 Y0.4210
G01 X-10.9701 Y0.5185
G01 X-10.9146 Y0.6111
G01 X-10.8503 Y0.6978
G01 X-10.7778 Y0.7778
G01 X-10.6978 Y0.8503
G01 X-10.6111 Y0.9146
G01 X-10.5185 Y0.9701
G01 X-10.4210 Y1.0163
G01 X-10.3193 Y1.0526
G01 X-10.2146 Y1.0789
G01 X-10.1078 Y1.0947
G01 X-10.0000 Y1.1000
G01 X-0.0000 Y1.1000
G01 X0.1078 Y1.0947
G01 X0.2146 Y1.0789
G01 X0.3193 Y1.0526
G01 X0.4210 Y1.0163
G01 X0.5185 Y0.9701
G01 X0.6111 Y0.9146
G01 X0.6978 Y0.8503
G01 X0.7778 Y0.7778
G01 X0.8503 Y0.6978
G01 X0.9146 Y0.6111
G01 X0.9701 Y0.5185
G01 X1.0163 Y0.4210
G01 X1.0526 Y0.3193
G01 X1.0789 Y0.2146
G01 X1.0947 Y0.1078
G01 X1.1000 Y-0.0000
G01 X1.1000 Y-15.0000
G01 X1.0947 Y-15.1078
G01 X1.0789 Y-15.2146
G01 X1.0526 Y-15.3193
G01 X1.0163 Y-15.4210
G01 X0.9701 Y-15.5185
G01 X0.9146 Y-15.6111
G01 X0.8503 Y-15.6978
G01 X0.7778 Y-15.7778
G01 X0.6978 Y-15.8503
G01 X0.6111 Y-15.9146
G01 X0.5185 Y-15.9701
G01 X0.4210 Y-16.0163
G01 X0.3193 Y-16.0526
G01 X0.2146 Y-16.0789
G01 X0.1078 Y-16.0947
G01 X-0.0000 Y-16.1000
G00 X-0.0000 Y-16.1000
G01 F70.00
G01 Z-1.6000
G01 F120.00
G01 X0.1078 Y-16.0947
G01 X0.2146 Y-16.0789
G01 X0.3193 Y-16.0526
G01 X0.4210 Y-16.0163
G01 X0.5185 Y-15.9701
G01 X0.6111 Y-15.9146
G01 X0.6978 Y-15.8503
G01 X0.7778 Y-15.7778
G01 X0.8503 Y-15.6978
G01 X0.9146 Y-15.6111
G01 X0.9701 Y-15.5185
G01 X1.0163 Y-15.4210
G01 X1.0526 Y-15.3193
G01 X1.0789 Y-15.2146
G01 X1.0947 Y-15.1078
G01 X1.1000 Y-15.0000
G01 X1.1000 Y-0.0000
G01 X1.0947 Y0.1078
G01 X1.0789 Y0.2146
G01 X1.0526 Y0.3193
G01 X1.0163 Y0.4210
G01 X0.9701 Y0.5185
G01 X0.9146 Y0.6111
G01 X0.8503 Y0.6978
G01 X0.7778 Y0.7778
G01 X0.6978 Y0.8503
G01 X0.6111 Y0.9146
G01 X0.5185 Y0.9701
G01 X0.4210 Y1.0163
G01 X0.3193 Y1.0526
G01 X0.2146 Y1.0789
G01 X0.1078 Y1.0947
G01 X-0.0000 Y1.1000
G01 X-10.0000 Y1.1000
G01 X-10.1078 Y1.0947
G01 X-10.2146 Y1.0789
G01 X-10.3193 Y1.0526
G01 X-10.4210 Y1.0163
G01 X-10.5185 Y0.9701
G01 X-10.6111 Y0.9146
G01 X-10.6978 Y0.8503
G01 X-10.7778 Y0.7778
G01 X-10.8503 Y0.6978
G01 X-10.9146 Y0.6111
G01 X-10.9701 Y0.5185
G01 X-11.0163 Y0.4210
G01 X-11.0526 Y0.3193
G01 X-11.0789 Y0.2146
G01 X-11.0947 Y0.1078
G01 X-11.1000 Y-0.0000
G01 X-11.1000 Y-15.0000
G01 X-11.0947 Y-15.1078
G01 X-11.0789 Y-15.2146
G01 X-11.0526 Y-15.3193
G01 X-11.0163 Y-15.4210
G01 X-10.9701 Y-15.5185
G01 X-10.9146 Y-15.6111
G01 X-10.8503 Y-15.6978
G01 X-10.7778 Y-15.7778
G01 X-10.6978 Y-15.8503
G01 X-10.6111 Y-15.9146
G01 X-10.5185 Y-15.9701
G01 X-10.4210 Y-16.0163
G01 X-10.3193 Y-16.0526
G01 X-10.2146 Y-16.0789
G01 X-10.1078 Y-16.0947
G01 X-10.0000 Y-16.1000
G01 X-0.0000 Y-16.1000
G00 X-0.0000 Y-16.1000
G01 F70.00
G01 Z-1.7000
G01 F120.00
G01 X-10.0000 Y-16.1000
G01 X-10.1078 Y-16.0947
G01 X-10.2146 Y-16.0789
G01 X-10.3193 Y-16.0526
G01 X-10.4210 Y-16.0163
G01 X-10.5185 Y-15.9701
G01 X-10.6111 Y-15.9146
G01 X-10.6978 Y-15.8503
G01 X-10.7778 Y-15.7778
G01 X-10.8503 Y-15.6978
G01 X-10.9146 Y-15.6111
G01 X-10.9701 Y-15.5185
G01 X-11.0163 Y-15.4210
G01 X-11.0526 Y-15.3193
G01 X-11.0789 Y-15.2146
G01 X-11.0947 Y-15.1078
G01 X-11.1000 Y-15.0000
G01 X-11.1000 Y-0.0000
G01 X-11.0947 Y0.1078
G01 X-11.0789 Y0.2146
G01 X-11.0526 Y0.3193
G01 X-11.0163 Y0.4210
G01 X-10.9701 Y0.5185
G01 X-10.9146 Y0.6111
G01 X-10.8503 Y0.6978
G01 X-10.7778 Y0.7778
G01 X-10.6978 Y0.8503
G01 X-10.6111 Y0.9146
G01 X-10.5185 Y0.9701
G01 X-10.4210 Y1.0163
G01 X-10.3193 Y1.0526
G01 X-10.2146 Y1.0789
G01 X-10.1078 Y1.0947
G01 X-10.0000 Y1.1000
G01 X-0.0000 Y1.1000
G01 X0.1078 Y1.0947
G01 X0.2146 Y1.0789
G01 X0.3193 Y1.0526
G01 X0.4210 Y1.0163
G01 X0.5185 Y0.9701
G01 X0.6111 Y0.9146
G01 X0.6978 Y0.8503
G01 X0.7778 Y0.7778
G01 X0.8503 Y0.6978
G01 X0.9146 Y0.6111
G01 X0.9701 Y0.5185
G01 X1.0163 Y0.4210
G01 X1.0526 Y0.3193
G01 X1.0789 Y0.2146
G01 X1.0947 Y0.1078
G01 X1.1000 Y-0.0000
G01 X1.1000 Y-15.0000
G01 X1.0947 Y-15.1078
G01 X1.0789 Y-15.2146
G01 X1.0526 Y-15.3193
G01 X1.0163 Y-15.4210
G01 X0.9701 Y-15.5185
G01 X0.9146 Y-15.6111
G01 X0.8503 Y-15.6978
G01 X0.7778 Y-15.7778
G01 X0.6978 Y-15.8503
G01 X0.6111 Y-15.9146
G01 X0.5185 Y-15.9701
G01 X0.4210 Y-16.0163
G01 X0.3193 Y-16.0526
G01 X0.2146 Y-16.0789
G01 X0.1078 Y-16.0947
G01 X-0.0000 Y-16.1000
G00 Z2.0000
M05
G00 Z2.0000
G00 Z25.00

