(G-CODE GENERATED BY FLATCAM v8.993 - www.flatcam.org - Version Date: 2020/06/05)

(Name: TL431_Ф2_низ.gbr_1_iso_combined_cnc)
(Type: G-code from Geometry)
(Units: MM)

(Created on Friday, 06 November 2020 at 01:19)

(This preprocessor is the default preprocessor used by FlatCAM.)
(It is made to work with MACH3 compatible motion controllers.)

(TOOL DIAMETER: 0.14 mm)
(Feedrate_XY: 120.0 mm/min)
(Feedrate_Z: 70.0 mm/min)
(Feedrate rapids 1500.0 mm/min)

(Z_Cut: -0.06 mm)
(Z_Move: 2.0 mm)
(Z Start: None mm)
(Z End: 25.0 mm)
(Steps per circle: 128)
(Preprocessor Geometry: default)

(X range:  -10.2800 ...    0.2800  mm)
(Y range:  -15.2800 ...    0.2800  mm)

(Spindle Speed: 10000 RPM)
G21
G90
G94



G01 F120.00
G00 Z2.0000

M03 S10000
G00 X-0.0000 Y0.0700
G01 F70.00
G01 Z-0.0600
G01 F120.00
G01 X-10.0000 Y0.0700
G01 X-10.0086 Y0.0695
G01 X-10.0170 Y0.0679
G01 X-10.0252 Y0.0653
G01 X-10.0330 Y0.0617
G01 X-10.0403 Y0.0572
G01 X-10.0470 Y0.0519
G01 X-10.0530 Y0.0457
G01 X-10.0582 Y0.0389
G01 X-10.0633 Y0.0299
G01 X-10.0670 Y0.0203
G01 X-10.0692 Y0.0103
G01 X-10.0700 Y-0.0000
G01 X-10.0700 Y-15.0000
G01 X-10.0695 Y-15.0086
G01 X-10.0679 Y-15.0170
G01 X-10.0653 Y-15.0252
G01 X-10.0617 Y-15.0330
G01 X-10.0572 Y-15.0403
G01 X-10.0519 Y-15.0470
G01 X-10.0457 Y-15.0530
G01 X-10.0389 Y-15.0582
G01 X-10.0299 Y-15.0633
G01 X-10.0203 Y-15.0670
G01 X-10.0103 Y-15.0692
G01 X-10.0000 Y-15.0700
G01 X-0.0000 Y-15.0700
G01 X0.0086 Y-15.0695
G01 X0.0170 Y-15.0679
G01 X0.0252 Y-15.0653
G01 X0.0330 Y-15.0617
G01 X0.0403 Y-15.0572
G01 X0.0470 Y-15.0519
G01 X0.0530 Y-15.0457
G01 X0.0582 Y-15.0389
G01 X0.0633 Y-15.0299
G01 X0.0670 Y-15.0203
G01 X0.0692 Y-15.0103
G01 X0.0700 Y-15.0000
G01 X0.0700 Y-0.0000
G01 X0.0687 Y0.0137
G01 X0.0647 Y0.0268
G01 X0.0582 Y0.0389
G01 X0.0495 Y0.0495
G01 X0.0389 Y0.0582
G01 X0.0268 Y0.0647
G01 X0.0137 Y0.0687
G01 X-0.0000 Y0.0700
G00 Z2.0000
G00 X-0.0000 Y0.1400
G01 F70.00
G01 Z-0.0600
G01 F120.00
G01 X-10.0017 Y0.1400
G01 X-10.0171 Y0.1389
G01 X-10.0340 Y0.1358
G01 X-10.0504 Y0.1306
G01 X-10.0660 Y0.1235
G01 X-10.0806 Y0.1145
G01 X-10.0940 Y0.1037
G01 X-10.1060 Y0.0914
G01 X-10.1164 Y0.0778
G01 X-10.1266 Y0.0599
G01 X-10.1340 Y0.0406
G01 X-10.1385 Y0.0205
G01 X-10.1400 Y-0.0000
G01 X-10.1400 Y-15.0000
G01 X-10.1389 Y-15.0171
G01 X-10.1358 Y-15.0340
G01 X-10.1306 Y-15.0504
G01 X-10.1235 Y-15.0660
G01 X-10.1145 Y-15.0806
G01 X-10.1037 Y-15.0940
G01 X-10.0914 Y-15.1060
G01 X-10.0778 Y-15.1164
G01 X-10.0599 Y-15.1266
G01 X-10.0406 Y-15.1340
G01 X-10.0205 Y-15.1385
G01 X-10.0000 Y-15.1400
G01 X-0.0000 Y-15.1400
G01 X0.0171 Y-15.1389
G01 X0.0340 Y-15.1358
G01 X0.0504 Y-15.1306
G01 X0.0660 Y-15.1235
G01 X0.0806 Y-15.1145
G01 X0.0940 Y-15.1037
G01 X0.1060 Y-15.0914
G01 X0.1164 Y-15.0778
G01 X0.1266 Y-15.0599
G01 X0.1340 Y-15.0406
G01 X0.1385 Y-15.0205
G01 X0.1400 Y-15.0000
G01 X0.1400 Y0.0017
G01 X0.1391 Y0.0154
G01 X0.1370 Y0.0290
G01 X0.1335 Y0.0423
G01 X0.1287 Y0.0552
G01 X0.1235 Y0.0660
G01 X0.1164 Y0.0778
G01 X0.1082 Y0.0888
G01 X0.0990 Y0.0990
G01 X0.0888 Y0.1082
G01 X0.0778 Y0.1164
G01 X0.0660 Y0.1235
G01 X0.0536 Y0.1293
G01 X0.0406 Y0.1340
G01 X0.0273 Y0.1373
G01 X0.0137 Y0.1393
G01 X-0.0000 Y0.1400
G00 Z2.0000
G00 X-0.0000 Y0.2100
G01 F70.00
G01 Z-0.0600
G01 F120.00
G01 X-10.0026 Y0.2100
G01 X-10.0283 Y0.2081
G01 X-10.0535 Y0.2031
G01 X-10.0780 Y0.1950
G01 X-10.1013 Y0.1840
G01 X-10.1230 Y0.1702
G01 X-10.1429 Y0.1539
G01 X-10.1607 Y0.1352
G01 X-10.1760 Y0.1145
G01 X-10.1840 Y0.1013
G01 X-10.1909 Y0.0875
G01 X-10.1968 Y0.0732
G01 X-10.2017 Y0.0585
G01 X-10.2054 Y0.0435
G01 X-10.2081 Y0.0283
G01 X-10.2100 Y-0.0000
G01 X-10.2100 Y-15.0000
G01 X-10.2084 Y-15.0257
G01 X-10.2037 Y-15.0510
G01 X-10.1959 Y-15.0756
G01 X-10.1852 Y-15.0990
G01 X-10.1717 Y-15.1209
G01 X-10.1556 Y-15.1410
G01 X-10.1352 Y-15.1607
G01 X-10.1145 Y-15.1760
G01 X-10.1013 Y-15.1840
G01 X-10.0875 Y-15.1909
G01 X-10.0732 Y-15.1968
G01 X-10.0585 Y-15.2017
G01 X-10.0435 Y-15.2054
G01 X-10.0283 Y-15.2081
G01 X-10.0000 Y-15.2100
G01 X-0.0000 Y-15.2100
G01 X0.0283 Y-15.2081
G01 X0.0535 Y-15.2031
G01 X0.0780 Y-15.1950
G01 X0.1013 Y-15.1840
G01 X0.1230 Y-15.1702
G01 X0.1429 Y-15.1539
G01 X0.1607 Y-15.1352
G01 X0.1760 Y-15.1145
G01 X0.1898 Y-15.0898
G01 X0.1959 Y-15.0756
G01 X0.2010 Y-15.0610
G01 X0.2049 Y-15.0460
G01 X0.2077 Y-15.0308
G01 X0.2094 Y-15.0154
G01 X0.2100 Y-15.0000
G01 X0.2100 Y0.0026
G01 X0.2087 Y0.0231
G01 X0.2054 Y0.0435
G01 X0.2002 Y0.0634
G01 X0.1930 Y0.0827
G01 X0.1840 Y0.1013
G01 X0.1732 Y0.1188
G01 X0.1607 Y0.1352
G01 X0.1467 Y0.1503
G01 X0.1312 Y0.1640
G01 X0.1145 Y0.1760
G01 X0.0967 Y0.1864
G01 X0.0780 Y0.1950
G01 X0.0585 Y0.2017
G01 X0.0410 Y0.2060
G01 X0.0206 Y0.2090
G01 X-0.0000 Y0.2100
G00 Z2.0000
G00 X-0.0000 Y0.2800
G01 F70.00
G01 Z-0.0600
G01 F120.00
G01 X-10.0034 Y0.2800
G01 X-10.0206 Y0.2792
G01 X-10.0377 Y0.2775
G01 X-10.0546 Y0.2746
G01 X-10.0714 Y0.2708
G01 X-10.0878 Y0.2659
G01 X-10.1040 Y0.2600
G01 X-10.1197 Y0.2531
G01 X-10.1350 Y0.2453
G01 X-10.1498 Y0.2366
G01 X-10.1640 Y0.2269
G01 X-10.1776 Y0.2164
G01 X-10.1906 Y0.2051
G01 X-10.2028 Y0.1931
G01 X-10.2142 Y0.1803
G01 X-10.2249 Y0.1668
G01 X-10.2347 Y0.1527
G01 X-10.2453 Y0.1350
G01 X-10.2531 Y0.1197
G01 X-10.2612 Y0.1008
G01 X-10.2679 Y0.0813
G01 X-10.2732 Y0.0613
G01 X-10.2770 Y0.0411
G01 X-10.2792 Y0.0206
G01 X-10.2800 Y-0.0000
G01 X-10.2800 Y-15.0000
G01 X-10.2795 Y-15.0172
G01 X-10.2779 Y-15.0343
G01 X-10.2746 Y-15.0546
G01 X-10.2708 Y-15.0714
G01 X-10.2659 Y-15.0878
G01 X-10.2600 Y-15.1040
G01 X-10.2531 Y-15.1197
G01 X-10.2453 Y-15.1350
G01 X-10.2366 Y-15.1498
G01 X-10.2269 Y-15.1640
G01 X-10.2164 Y-15.1776
G01 X-10.2051 Y-15.1906
G01 X-10.1931 Y-15.2028
G01 X-10.1803 Y-15.2142
G01 X-10.1668 Y-15.2249
G01 X-10.1527 Y-15.2347
G01 X-10.1350 Y-15.2453
G01 X-10.1166 Y-15.2546
G01 X-10.0976 Y-15.2625
G01 X-10.0780 Y-15.2689
G01 X-10.0580 Y-15.2739
G01 X-10.0377 Y-15.2775
G01 X-10.0206 Y-15.2792
G01 X-10.0000 Y-15.2800
G01 X0.0034 Y-15.2800
G01 X0.0206 Y-15.2792
G01 X0.0377 Y-15.2775
G01 X0.0546 Y-15.2746
G01 X0.0714 Y-15.2708
G01 X0.0878 Y-15.2659
G01 X0.1040 Y-15.2600
G01 X0.1197 Y-15.2531
G01 X0.1350 Y-15.2453
G01 X0.1498 Y-15.2366
G01 X0.1640 Y-15.2269
G01 X0.1776 Y-15.2164
G01 X0.1906 Y-15.2051
G01 X0.2028 Y-15.1931
G01 X0.2142 Y-15.1803
G01 X0.2249 Y-15.1668
G01 X0.2347 Y-15.1527
G01 X0.2453 Y-15.1350
G01 X0.2546 Y-15.1166
G01 X0.2625 Y-15.0976
G01 X0.2689 Y-15.0780
G01 X0.2739 Y-15.0580
G01 X0.2775 Y-15.0377
G01 X0.2795 Y-15.0172
G01 X0.2800 Y-15.0000
G01 X0.2800 Y0.0034
G01 X0.2783 Y0.0309
G01 X0.2739 Y0.0580
G01 X0.2669 Y0.0846
G01 X0.2574 Y0.1103
G01 X0.2453 Y0.1350
G01 X0.2309 Y0.1584
G01 X0.2142 Y0.1803
G01 X0.1955 Y0.2004
G01 X0.1750 Y0.2186
G01 X0.1527 Y0.2347
G01 X0.1320 Y0.2469
G01 X0.1072 Y0.2587
G01 X0.0813 Y0.2679
G01 X0.0546 Y0.2746
G01 X0.0274 Y0.2787
G01 X-0.0000 Y0.2800
G00 Z2.0000
G00 X-4.4806 Y-1.7400
G01 F70.00
G01 Z-0.0600
G01 F120.00
G01 X-4.4555 Y-1.7540
G01 X-4.4428 Y-1.7629
G01 X-4.4309 Y-1.7727
G01 X-4.4197 Y-1.7833
G01 X-4.4093 Y-1.7948
G01 X-4.3926 Y-1.8177
G01 X-4.3791 Y-1.8425
G01 X-4.3732 Y-1.8568
G01 X-4.3683 Y-1.8715
G01 X-4.3623 Y-1.8992
G01 X-4.3606 Y-1.9146
G01 X-4.3600 Y-1.9298
G01 X-4.2590 Y-1.9298
G01 X-4.2713 Y-1.9236
G01 X-4.2845 Y-1.9156
G01 X-4.2972 Y-1.9067
G01 X-4.3091 Y-1.8969
G01 X-4.3290 Y-1.8768
G01 X-4.3387 Y-1.8647
G01 X-4.3474 Y-1.8519
G01 X-4.3609 Y-1.8270
G01 X-4.3668 Y-1.8128
G01 X-4.3717 Y-1.7981
G01 X-4.3777 Y-1.7704
G01 X-4.3794 Y-1.7550
G01 X-4.3800 Y-1.7400
G01 X-4.4806 Y-1.7400
G00 Z2.0000
G00 X-5.7800 Y-1.8406
G01 F70.00
G01 Z-0.0600
G01 F120.00
G01 X-5.7714 Y-1.8243
G01 X-5.7617 Y-1.8091
G01 X-5.7507 Y-1.7948
G01 X-5.7385 Y-1.7815
G01 X-5.7252 Y-1.7693
G01 X-5.7109 Y-1.7583
G01 X-5.6957 Y-1.7486
G01 X-5.6794 Y-1.7400
G01 X-5.7800 Y-1.7400
G01 X-5.7800 Y-1.8406
G00 Z2.0000
G00 X-5.5900 Y-3.2200
G01 F70.00
G01 Z-0.0600
G01 F120.00
G01 X-4.5700 Y-3.2200
G01 X-4.5606 Y-3.2194
G01 X-4.5513 Y-3.2175
G01 X-4.5416 Y-3.2140
G01 X-4.5326 Y-3.2091
G01 X-4.5243 Y-3.2030
G01 X-4.5176 Y-3.1964
G01 X-4.5113 Y-3.1882
G01 X-4.5064 Y-3.1791
G01 X-4.5028 Y-3.1695
G01 X-4.5008 Y-3.1603
G01 X-4.5000 Y-3.1509
G01 X-4.5000 Y-3.0102
G01 X-4.0048 Y-3.0102
G01 X-3.0102 Y-4.0048
G01 X-3.0102 Y-9.2707
G01 X-3.4400 Y-9.2707
G01 X-3.4494 Y-9.2713
G01 X-3.4620 Y-9.2742
G01 X-3.4738 Y-9.2794
G01 X-3.4844 Y-9.2866
G01 X-3.4930 Y-9.2950
G01 X-3.5005 Y-9.3055
G01 X-3.5056 Y-9.3163
G01 X-3.5088 Y-9.3279
G01 X-3.5100 Y-9.3407
G01 X-3.5100 Y-11.1407
G01 X-3.5087 Y-11.1544
G01 X-3.5056 Y-11.1651
G01 X-3.5009 Y-11.1752
G01 X-3.4947 Y-11.1844
G01 X-3.4870 Y-11.1926
G01 X-3.4789 Y-11.1989
G01 X-3.4691 Y-11.2043
G01 X-3.4587 Y-11.2082
G01 X-3.4477 Y-11.2103
G01 X-3.0102 Y-11.2107
G01 X-3.0102 Y-11.8107
G01 X-3.4477 Y-11.8111
G01 X-3.4578 Y-11.8130
G01 X-3.4676 Y-11.8164
G01 X-3.4767 Y-11.8211
G01 X-3.4857 Y-11.8277
G01 X-3.4936 Y-11.8356
G01 X-3.4996 Y-11.8440
G01 X-3.5043 Y-11.8531
G01 X-3.5077 Y-11.8629
G01 X-3.5095 Y-11.8721
G01 X-3.5100 Y-11.8807
G01 X-3.5100 Y-13.6807
G01 X-3.5092 Y-13.6910
G01 X-3.5065 Y-13.7027
G01 X-3.5017 Y-13.7137
G01 X-3.4947 Y-13.7244
G01 X-3.4864 Y-13.7331
G01 X-3.4760 Y-13.7407
G01 X-3.4652 Y-13.7460
G01 X-3.4537 Y-13.7494
G01 X-3.4417 Y-13.7507
G01 X-1.6400 Y-13.7507
G01 X-1.6272 Y-13.7495
G01 X-1.6156 Y-13.7463
G01 X-1.6062 Y-13.7420
G01 X-1.5976 Y-13.7364
G01 X-1.5899 Y-13.7296
G01 X-1.5833 Y-13.7217
G01 X-1.5779 Y-13.7129
G01 X-1.5738 Y-13.7035
G01 X-1.5710 Y-13.6927
G01 X-1.5700 Y-13.6824
G01 X-1.5700 Y-11.8807
G01 X-1.5719 Y-11.8645
G01 X-1.5753 Y-11.8539
G01 X-1.5800 Y-11.8447
G01 X-1.5864 Y-11.8356
G01 X-1.5936 Y-11.8283
G01 X-1.6026 Y-11.8216
G01 X-1.6116 Y-11.8167
G01 X-1.6213 Y-11.8132
G01 X-1.6323 Y-11.8111
G01 X-2.0698 Y-11.8107
G01 X-2.0698 Y-11.2107
G01 X-1.6323 Y-11.2103
G01 X-1.6213 Y-11.2082
G01 X-1.6109 Y-11.2043
G01 X-1.6018 Y-11.1994
G01 X-1.5930 Y-11.1926
G01 X-1.5853 Y-11.1844
G01 X-1.5791 Y-11.1752
G01 X-1.5744 Y-11.1651
G01 X-1.5713 Y-11.1544
G01 X-1.5700 Y-11.1407
G01 X-1.5700 Y-9.3407
G01 X-1.5710 Y-9.3287
G01 X-1.5744 Y-9.3163
G01 X-1.5800 Y-9.3047
G01 X-1.5876 Y-9.2943
G01 X-1.5969 Y-9.2855
G01 X-1.6070 Y-9.2790
G01 X-1.6180 Y-9.2742
G01 X-1.6306 Y-9.2713
G01 X-1.6400 Y-9.2707
G01 X-2.0698 Y-9.2707
G01 X-2.0698 Y-3.8100
G01 X-2.0704 Y-3.7869
G01 X-2.0721 Y-3.7639
G01 X-2.0749 Y-3.7410
G01 X-2.0785 Y-3.7200
G01 X-2.0843 Y-3.6941
G01 X-2.0900 Y-3.6735
G01 X-2.0976 Y-3.6508
G01 X-2.1056 Y-3.6301
G01 X-2.1149 Y-3.6090
G01 X-2.1253 Y-3.5883
G01 X-2.1376 Y-3.5668
G01 X-2.1490 Y-3.5488
G01 X-2.1613 Y-3.5313
G01 X-2.1755 Y-3.5130
G01 X-2.1916 Y-3.4942
G01 X-2.2063 Y-3.4787
G01 X-3.4775 Y-2.2075
G01 X-3.4942 Y-2.1916
G01 X-3.5104 Y-2.1776
G01 X-3.5306 Y-2.1618
G01 X-3.5488 Y-2.1490
G01 X-3.5668 Y-2.1376
G01 X-3.5883 Y-2.1253
G01 X-3.6105 Y-2.1142
G01 X-3.6301 Y-2.1056
G01 X-3.6500 Y-2.0979
G01 X-3.6735 Y-2.0900
G01 X-3.6974 Y-2.0835
G01 X-3.7183 Y-2.0788
G01 X-3.7393 Y-2.0752
G01 X-3.7639 Y-2.0721
G01 X-3.7869 Y-2.0704
G01 X-3.8100 Y-2.0698
G01 X-4.5000 Y-2.0698
G01 X-4.5000 Y-1.9291
G01 X-4.5008 Y-1.9197
G01 X-4.5028 Y-1.9105
G01 X-4.5064 Y-1.9009
G01 X-4.5113 Y-1.8918
G01 X-4.5170 Y-1.8843
G01 X-4.5243 Y-1.8770
G01 X-4.5326 Y-1.8709
G01 X-4.5416 Y-1.8660
G01 X-4.5513 Y-1.8625
G01 X-4.5614 Y-1.8605
G01 X-4.5700 Y-1.8600
G01 X-5.5917 Y-1.8600
G01 X-5.6070 Y-1.8621
G01 X-5.6215 Y-1.8675
G01 X-5.6351 Y-1.8764
G01 X-5.6457 Y-1.8876
G01 X-5.6517 Y-1.8970
G01 X-5.6562 Y-1.9072
G01 X-5.6590 Y-1.9180
G01 X-5.6600 Y-1.9291
G01 X-5.6600 Y-3.1526
G01 X-5.6583 Y-3.1653
G01 X-5.6540 Y-3.1784
G01 X-5.6472 Y-3.1903
G01 X-5.6383 Y-3.2007
G01 X-5.6274 Y-3.2091
G01 X-5.6160 Y-3.2150
G01 X-5.6037 Y-3.2187
G01 X-5.5900 Y-3.2200
G00 Z2.0000
G00 X-5.5900 Y-3.2900
G01 F70.00
G01 Z-0.0600
G01 F120.00
G01 X-4.5700 Y-3.2900
G01 X-4.5512 Y-3.2887
G01 X-4.5360 Y-3.2858
G01 X-4.5212 Y-3.2812
G01 X-4.5055 Y-3.2743
G01 X-4.4922 Y-3.2664
G01 X-4.4786 Y-3.2560
G01 X-4.4674 Y-3.2453
G01 X-4.4576 Y-3.2334
G01 X-4.4490 Y-3.2205
G01 X-4.4427 Y-3.2083
G01 X-4.4376 Y-3.1955
G01 X-4.4338 Y-3.1823
G01 X-4.4313 Y-3.1688
G01 X-4.4300 Y-3.1517
G01 X-4.4300 Y-3.0802
G01 X-4.0338 Y-3.0802
G01 X-3.0802 Y-4.0338
G01 X-3.0802 Y-9.2007
G01 X-3.4417 Y-9.2007
G01 X-3.4605 Y-9.2022
G01 X-3.4773 Y-9.2058
G01 X-3.4983 Y-9.2134
G01 X-3.5178 Y-9.2243
G01 X-3.5275 Y-9.2314
G01 X-3.5365 Y-9.2393
G01 X-3.5514 Y-9.2559
G01 X-3.5583 Y-9.2658
G01 X-3.5643 Y-9.2762
G01 X-3.5729 Y-9.2968
G01 X-3.5782 Y-9.3185
G01 X-3.5800 Y-9.3407
G01 X-3.5800 Y-11.1407
G01 X-3.5793 Y-11.1544
G01 X-3.5770 Y-11.1697
G01 X-3.5718 Y-11.1879
G01 X-3.5635 Y-11.2067
G01 X-3.5524 Y-11.2241
G01 X-3.5390 Y-11.2397
G01 X-3.5248 Y-11.2521
G01 X-3.5075 Y-11.2633
G01 X-3.4888 Y-11.2719
G01 X-3.4707 Y-11.2773
G01 X-3.4571 Y-11.2796
G01 X-3.4417 Y-11.2807
G01 X-3.0802 Y-11.2807
G01 X-3.0802 Y-11.7407
G01 X-3.4417 Y-11.7407
G01 X-3.4554 Y-11.7416
G01 X-3.4690 Y-11.7437
G01 X-3.4888 Y-11.7495
G01 X-3.5060 Y-11.7572
G01 X-3.5220 Y-11.7672
G01 X-3.5378 Y-11.7805
G01 X-3.5504 Y-11.7946
G01 X-3.5610 Y-11.8102
G01 X-3.5693 Y-11.8271
G01 X-3.5758 Y-11.8467
G01 X-3.5789 Y-11.8636
G01 X-3.5800 Y-11.8807
G01 X-3.5800 Y-13.6807
G01 X-3.5785 Y-13.7012
G01 X-3.5735 Y-13.7230
G01 X-3.5693 Y-13.7343
G01 X-3.5643 Y-13.7452
G01 X-3.5583 Y-13.7556
G01 X-3.5514 Y-13.7655
G01 X-3.5437 Y-13.7747
G01 X-3.5353 Y-13.7833
G01 X-3.5261 Y-13.7911
G01 X-3.5163 Y-13.7981
G01 X-3.5060 Y-13.8042
G01 X-3.4952 Y-13.8094
G01 X-3.4839 Y-13.8136
G01 X-3.4723 Y-13.8169
G01 X-3.4605 Y-13.8192
G01 X-3.4486 Y-13.8204
G01 X-1.6400 Y-13.8207
G01 X-1.6280 Y-13.8202
G01 X-1.6144 Y-13.8183
G01 X-1.6010 Y-13.8152
G01 X-1.5896 Y-13.8113
G01 X-1.5710 Y-13.8025
G01 X-1.5539 Y-13.7911
G01 X-1.5386 Y-13.7772
G01 X-1.5265 Y-13.7627
G01 X-1.5165 Y-13.7467
G01 X-1.5082 Y-13.7279
G01 X-1.5027 Y-13.7080
G01 X-1.5002 Y-13.6876
G01 X-1.5000 Y-11.8807
G01 X-1.5007 Y-11.8670
G01 X-1.5027 Y-11.8534
G01 X-1.5082 Y-11.8335
G01 X-1.5165 Y-11.8147
G01 X-1.5276 Y-11.7973
G01 X-1.5398 Y-11.7829
G01 X-1.5552 Y-11.7693
G01 X-1.5725 Y-11.7581
G01 X-1.5912 Y-11.7495
G01 X-1.6093 Y-11.7441
G01 X-1.6229 Y-11.7418
G01 X-1.6383 Y-11.7407
G01 X-1.9998 Y-11.7407
G01 X-1.9998 Y-11.2807
G01 X-1.6383 Y-11.2807
G01 X-1.6246 Y-11.2798
G01 X-1.6093 Y-11.2773
G01 X-1.5896 Y-11.2713
G01 X-1.5725 Y-11.2633
G01 X-1.5552 Y-11.2521
G01 X-1.5398 Y-11.2385
G01 X-1.5265 Y-11.2227
G01 X-1.5165 Y-11.2067
G01 X-1.5088 Y-11.1895
G01 X-1.5030 Y-11.1697
G01 X-1.5007 Y-11.1544
G01 X-1.5000 Y-11.1407
G01 X-1.5000 Y-9.3407
G01 X-1.5005 Y-9.3287
G01 X-1.5021 Y-9.3168
G01 X-1.5076 Y-9.2952
G01 X-1.5165 Y-9.2747
G01 X-1.5286 Y-9.2559
G01 X-1.5363 Y-9.2467
G01 X-1.5447 Y-9.2381
G01 X-1.5622 Y-9.2243
G01 X-1.5817 Y-9.2134
G01 X-1.6027 Y-9.2058
G01 X-1.6212 Y-9.2020
G01 X-1.6383 Y-9.2007
G01 X-1.9998 Y-9.2007
G01 X-1.9998 Y-3.8100
G01 X-2.0005 Y-3.7835
G01 X-2.0024 Y-3.7571
G01 X-2.0056 Y-3.7307
G01 X-2.0096 Y-3.7080
G01 X-2.0169 Y-3.6754
G01 X-2.0236 Y-3.6515
G01 X-2.0326 Y-3.6248
G01 X-2.0423 Y-3.6001
G01 X-2.0517 Y-3.5790
G01 X-2.0620 Y-3.5584
G01 X-2.0758 Y-3.5338
G01 X-2.0890 Y-3.5128
G01 X-2.1061 Y-3.4882
G01 X-2.1213 Y-3.4686
G01 X-2.1397 Y-3.4472
G01 X-2.1556 Y-3.4305
G01 X-3.4280 Y-2.1580
G01 X-3.4472 Y-2.1397
G01 X-3.4647 Y-2.1246
G01 X-3.4896 Y-2.1051
G01 X-3.5128 Y-2.0890
G01 X-3.5323 Y-2.0767
G01 X-3.5523 Y-2.0652
G01 X-3.5790 Y-2.0517
G01 X-3.6065 Y-2.0396
G01 X-3.6280 Y-2.0314
G01 X-3.6499 Y-2.0241
G01 X-3.6787 Y-2.0160
G01 X-3.7080 Y-2.0096
G01 X-3.7307 Y-2.0056
G01 X-3.7553 Y-2.0026
G01 X-3.7835 Y-2.0005
G01 X-3.8100 Y-1.9998
G01 X-4.4300 Y-1.9998
G01 X-4.4300 Y-1.9283
G01 X-4.4313 Y-1.9112
G01 X-4.4338 Y-1.8977
G01 X-4.4376 Y-1.8845
G01 X-4.4427 Y-1.8717
G01 X-4.4499 Y-1.8580
G01 X-4.4596 Y-1.8439
G01 X-4.4698 Y-1.8322
G01 X-4.4825 Y-1.8207
G01 X-4.4951 Y-1.8117
G01 X-4.5086 Y-1.8042
G01 X-4.5245 Y-1.7976
G01 X-4.5393 Y-1.7934
G01 X-4.5563 Y-1.7907
G01 X-4.5700 Y-1.7900
G01 X-5.5969 Y-1.7902
G01 X-5.6122 Y-1.7918
G01 X-5.6273 Y-1.7951
G01 X-5.6420 Y-1.8000
G01 X-5.6575 Y-1.8074
G01 X-5.6720 Y-1.8165
G01 X-5.6840 Y-1.8263
G01 X-5.6949 Y-1.8373
G01 X-5.7054 Y-1.8508
G01 X-5.7158 Y-1.8686
G01 X-5.7235 Y-1.8877
G01 X-5.7282 Y-1.9078
G01 X-5.7300 Y-1.9283
G01 X-5.7300 Y-3.1500
G01 X-5.7295 Y-3.1620
G01 X-5.7276 Y-3.1756
G01 X-5.7249 Y-3.1873
G01 X-5.7206 Y-3.2004
G01 X-5.7158 Y-3.2114
G01 X-5.7092 Y-3.2234
G01 X-5.7024 Y-3.2334
G01 X-5.6937 Y-3.2440
G01 X-5.6840 Y-3.2537
G01 X-5.6748 Y-3.2614
G01 X-5.6634 Y-3.2692
G01 X-5.6514 Y-3.2758
G01 X-5.6404 Y-3.2806
G01 X-5.6273 Y-3.2849
G01 X-5.6156 Y-3.2876
G01 X-5.6020 Y-3.2895
G01 X-5.5900 Y-3.2900
G00 Z2.0000
G00 X-5.6794 Y-3.3400
G01 F70.00
G01 Z-0.0600
G01 F120.00
G01 X-5.6957 Y-3.3314
G01 X-5.7109 Y-3.3217
G01 X-5.7252 Y-3.3107
G01 X-5.7385 Y-3.2985
G01 X-5.7507 Y-3.2852
G01 X-5.7617 Y-3.2709
G01 X-5.7714 Y-3.2557
G01 X-5.7800 Y-3.2394
G01 X-5.7800 Y-3.3400
G01 X-5.6794 Y-3.3400
G00 Z2.0000
G00 X-5.5006 Y-4.0300
G01 F70.00
G01 Z-0.0600
G01 F120.00
G01 X-5.4843 Y-4.0386
G01 X-5.4691 Y-4.0483
G01 X-5.4548 Y-4.0593
G01 X-5.4415 Y-4.0715
G01 X-5.4293 Y-4.0848
G01 X-5.4183 Y-4.0991
G01 X-5.4086 Y-4.1143
G01 X-5.4000 Y-4.1306
G01 X-5.4000 Y-4.0300
G01 X-5.5006 Y-4.0300
G00 Z2.0000
G00 X-4.7600 Y-4.1306
G01 F70.00
G01 Z-0.0600
G01 F120.00
G01 X-4.7514 Y-4.1143
G01 X-4.7417 Y-4.0991
G01 X-4.7307 Y-4.0848
G01 X-4.7185 Y-4.0715
G01 X-4.7052 Y-4.0593
G01 X-4.6909 Y-4.0483
G01 X-4.6757 Y-4.0386
G01 X-4.6594 Y-4.0300
G01 X-4.7600 Y-4.0300
G01 X-4.7600 Y-4.1306
G00 Z2.0000
G00 X-4.2590 Y-3.1502
G01 F70.00
G01 Z-0.0600
G01 F120.00
G01 X-4.3600 Y-3.1502
G01 X-4.3606 Y-3.1654
G01 X-4.3623 Y-3.1808
G01 X-4.3683 Y-3.2085
G01 X-4.3780 Y-3.2351
G01 X-4.3848 Y-3.2490
G01 X-4.3926 Y-3.2623
G01 X-4.4013 Y-3.2751
G01 X-4.4110 Y-3.2872
G01 X-4.4309 Y-3.3073
G01 X-4.4428 Y-3.3171
G01 X-4.4555 Y-3.3260
G01 X-4.4806 Y-3.3400
G01 X-4.3800 Y-3.3400
G01 X-4.3794 Y-3.3250
G01 X-4.3777 Y-3.3096
G01 X-4.3717 Y-3.2819
G01 X-4.3620 Y-3.2553
G01 X-4.3552 Y-3.2414
G01 X-4.3474 Y-3.2281
G01 X-4.3387 Y-3.2153
G01 X-4.3290 Y-3.2032
G01 X-4.3091 Y-3.1831
G01 X-4.2972 Y-3.1733
G01 X-4.2845 Y-3.1644
G01 X-4.2713 Y-3.1564
G01 X-4.2590 Y-3.1502
G00 Z2.0000
G00 X-3.5725 Y-4.0100
G01 F70.00
G01 Z-0.0600
G01 F120.00
G01 X-3.5448 Y-4.0101
G01 X-3.5269 Y-4.0113
G01 X-3.5065 Y-4.0146
G01 X-3.4866 Y-4.0198
G01 X-3.4673 Y-4.0270
G01 X-3.4487 Y-4.0360
G01 X-3.4312 Y-4.0468
G01 X-3.4148 Y-4.0593
G01 X-3.3997 Y-4.0733
G01 X-3.3860 Y-4.0888
G01 X-3.3740 Y-4.1055
G01 X-3.3624 Y-4.1256
G01 X-3.3541 Y-4.1444
G01 X-3.3476 Y-4.1640
G01 X-3.3431 Y-4.1841
G01 X-3.3406 Y-4.2046
G01 X-3.3400 Y-4.2200
G01 X-3.3400 Y-5.4400
G01 X-3.3408 Y-5.4580
G01 X-3.3451 Y-5.4860
G01 X-3.3532 Y-5.5132
G01 X-3.3648 Y-5.5390
G01 X-3.3783 Y-5.5609
G01 X-3.3961 Y-5.5829
G01 X-3.4148 Y-5.6007
G01 X-3.4377 Y-5.6174
G01 X-3.4606 Y-5.6300
G01 X-3.3404 Y-5.6300
G01 X-3.3250 Y-5.6306
G01 X-3.3096 Y-5.6323
G01 X-3.2944 Y-5.6351
G01 X-3.2794 Y-5.6390
G01 X-3.2648 Y-5.6441
G01 X-3.2483 Y-5.6513
G01 X-3.2302 Y-5.6612
G01 X-3.2132 Y-5.6729
G01 X-3.1975 Y-5.6861
G01 X-3.1831 Y-5.7009
G01 X-3.1702 Y-5.7170
G01 X-3.1590 Y-5.7343
G01 X-3.1502 Y-5.7510
G01 X-3.1502 Y-4.0628
G01 X-3.4645 Y-3.7484
G01 X-3.4589 Y-3.7665
G01 X-3.4546 Y-3.7866
G01 X-3.4525 Y-3.8046
G01 X-3.4520 Y-3.8252
G01 X-3.4535 Y-3.8457
G01 X-3.4565 Y-3.8635
G01 X-3.4617 Y-3.8834
G01 X-3.4679 Y-3.9004
G01 X-3.4767 Y-3.9190
G01 X-3.4859 Y-3.9345
G01 X-3.4980 Y-3.9512
G01 X-3.5098 Y-3.9648
G01 X-3.5228 Y-3.9773
G01 X-3.5389 Y-3.9902
G01 X-3.5562 Y-4.0014
G01 X-3.5725 Y-4.0100
G00 Z2.0000
G00 X-3.4251 Y-3.9694
G01 F70.00
G01 Z-0.0600
G01 F120.00
G01 X-3.4090 Y-3.9781
G01 X-3.3944 Y-3.9872
G01 X-3.3805 Y-3.9972
G01 X-3.3671 Y-4.0080
G01 X-3.3545 Y-4.0196
G01 X-3.3425 Y-4.0320
G01 X-3.3314 Y-4.0450
G01 X-3.3211 Y-4.0588
G01 X-3.3116 Y-4.0731
G01 X-3.3031 Y-4.0880
G01 X-3.2954 Y-4.1034
G01 X-3.2888 Y-4.1192
G01 X-3.2831 Y-4.1354
G01 X-3.2784 Y-4.1520
G01 X-3.2747 Y-4.1687
G01 X-3.2721 Y-4.1857
G01 X-3.2705 Y-4.2028
G01 X-3.2700 Y-4.2200
G01 X-3.2701 Y-5.4469
G01 X-3.2725 Y-5.4777
G01 X-3.2784 Y-5.5080
G01 X-3.2875 Y-5.5376
G01 X-3.2985 Y-5.5632
G01 X-3.2791 Y-5.5668
G01 X-3.2591 Y-5.5721
G01 X-3.2396 Y-5.5788
G01 X-3.2202 Y-5.5871
G01 X-3.2202 Y-4.0917
G01 X-3.3981 Y-3.9138
G01 X-3.4103 Y-3.9428
G01 X-3.4251 Y-3.9694
G00 Z2.0000
G00 X-3.6589 Y-5.6500
G01 F70.00
G01 Z-0.0600
G01 F120.00
G01 X-3.7038 Y-5.6500
G01 X-3.7189 Y-5.6924
G01 X-3.7049 Y-5.6795
G01 X-3.6906 Y-5.6684
G01 X-3.6754 Y-5.6587
G01 X-3.6589 Y-5.6500
G00 Z2.0000
G00 X-5.0593 Y-5.8198
G01 F70.00
G01 Z-0.0600
G01 F120.00
G01 X-5.0406 Y-5.7672
G01 X-5.0525 Y-5.7784
G01 X-5.0648 Y-5.7882
G01 X-5.0614 Y-5.8038
G01 X-5.0593 Y-5.8198
G00 Z2.0000
G00 X-5.4000 Y-5.5294
G01 F70.00
G01 Z-0.0600
G01 F120.00
G01 X-5.4086 Y-5.5457
G01 X-5.4183 Y-5.5609
G01 X-5.4293 Y-5.5752
G01 X-5.4415 Y-5.5885
G01 X-5.4548 Y-5.6007
G01 X-5.4691 Y-5.6117
G01 X-5.4843 Y-5.6214
G01 X-5.5006 Y-5.6300
G01 X-5.3997 Y-5.6300
G01 X-5.4000 Y-5.5294
G00 Z2.0000
G00 X-5.8185 Y-5.6500
G01 F70.00
G01 Z-0.0600
G01 F120.00
G01 X-5.8437 Y-5.6500
G01 X-5.8555 Y-5.6723
G01 X-5.8374 Y-5.6601
G01 X-5.8185 Y-5.6500
G00 Z2.0000
G00 X-6.8000 Y-4.1306
G01 F70.00
G01 Z-0.0600
G01 F120.00
G01 X-6.7914 Y-4.1143
G01 X-6.7817 Y-4.0991
G01 X-6.7707 Y-4.0848
G01 X-6.7585 Y-4.0715
G01 X-6.7452 Y-4.0593
G01 X-6.7309 Y-4.0483
G01 X-6.7157 Y-4.0386
G01 X-6.6994 Y-4.0300
G01 X-6.8000 Y-4.0300
G01 X-6.8000 Y-4.1306
G00 Z2.0000
G00 X-6.8627 Y-9.2720
G01 F70.00
G01 Z-0.0600
G01 F120.00
G01 X-6.8397 Y-9.2899
G01 X-6.7940 Y-9.3293
G01 X-6.7503 Y-9.3710
G01 X-6.7086 Y-9.4147
G01 X-6.6692 Y-9.4604
G01 X-6.6321 Y-9.5080
G01 X-6.5973 Y-9.5574
G01 X-6.5650 Y-9.6084
G01 X-6.5353 Y-9.6609
G01 X-6.5081 Y-9.7148
G01 X-6.4836 Y-9.7700
G01 X-6.4619 Y-9.8263
G01 X-6.4430 Y-9.8837
G01 X-6.4269 Y-9.9418
G01 X-6.4175 Y-9.9834
G01 X-6.4121 Y-9.9970
G01 X-6.4067 Y-10.0057
G01 X-6.4007 Y-10.0130
G01 X-6.3931 Y-10.0199
G01 X-6.3852 Y-10.0252
G01 X-6.3760 Y-10.0297
G01 X-6.3670 Y-10.0326
G01 X-6.3577 Y-10.0343
G01 X-6.3483 Y-10.0347
G01 X-6.3389 Y-10.0338
G01 X-6.3297 Y-10.0317
G01 X-6.3208 Y-10.0284
G01 X-6.3126 Y-10.0239
G01 X-6.3049 Y-10.0183
G01 X-6.2981 Y-10.0117
G01 X-6.2923 Y-10.0043
G01 X-6.2879 Y-9.9970
G01 X-6.2825 Y-9.9834
G01 X-6.2731 Y-9.9418
G01 X-6.2570 Y-9.8837
G01 X-6.2381 Y-9.8263
G01 X-6.2164 Y-9.7700
G01 X-6.1919 Y-9.7148
G01 X-6.1647 Y-9.6609
G01 X-6.1350 Y-9.6084
G01 X-6.1027 Y-9.5574
G01 X-6.0679 Y-9.5080
G01 X-6.0308 Y-9.4604
G01 X-5.9914 Y-9.4147
G01 X-5.9497 Y-9.3710
G01 X-5.9060 Y-9.3293
G01 X-5.8603 Y-9.2899
G01 X-5.8315 Y-9.2669
G01 X-5.8232 Y-9.2571
G01 X-5.8168 Y-9.2460
G01 X-5.8121 Y-9.2322
G01 X-5.8104 Y-9.2168
G01 X-5.8104 Y-7.7016
G01 X-5.8095 Y-7.6651
G01 X-5.8069 Y-7.6296
G01 X-5.8026 Y-7.5942
G01 X-5.7965 Y-7.5591
G01 X-5.7888 Y-7.5244
G01 X-5.7793 Y-7.4900
G01 X-5.7680 Y-7.4554
G01 X-5.2015 Y-5.8610
G01 X-5.1988 Y-5.8484
G01 X-5.1984 Y-5.8364
G01 X-5.2002 Y-5.8237
G01 X-5.2043 Y-5.8115
G01 X-5.2101 Y-5.8010
G01 X-5.2182 Y-5.7911
G01 X-5.2280 Y-5.7827
G01 X-5.2392 Y-5.7763
G01 X-5.2530 Y-5.7717
G01 X-5.2674 Y-5.7700
G01 X-5.7317 Y-5.7700
G01 X-5.7470 Y-5.7723
G01 X-5.7607 Y-5.7775
G01 X-5.7736 Y-5.7860
G01 X-5.7839 Y-5.7964
G01 X-5.7910 Y-5.8072
G01 X-6.8830 Y-7.8698
G01 X-6.8879 Y-7.8843
G01 X-6.8896 Y-7.8995
G01 X-6.8896 Y-9.2177
G01 X-6.8877 Y-9.2330
G01 X-6.8821 Y-9.2483
G01 X-6.8737 Y-9.2612
G01 X-6.8627 Y-9.2720
G00 Z2.0000
G00 X-6.9057 Y-9.3272
G01 F70.00
G01 Z-0.0600
G01 F120.00
G01 X-6.9174 Y-9.3170
G01 X-6.9278 Y-9.3056
G01 X-6.9370 Y-9.2932
G01 X-6.9447 Y-9.2798
G01 X-6.9508 Y-9.2656
G01 X-6.9554 Y-9.2508
G01 X-6.9583 Y-9.2357
G01 X-6.9596 Y-9.2202
G01 X-6.9596 Y-7.8978
G01 X-6.9588 Y-7.8842
G01 X-6.9563 Y-7.8691
G01 X-6.9526 Y-7.8559
G01 X-6.9478 Y-7.8432
G01 X-5.8528 Y-5.7745
G01 X-5.8467 Y-5.7641
G01 X-5.8398 Y-5.7542
G01 X-5.8308 Y-5.7438
G01 X-5.8195 Y-5.7331
G01 X-5.8086 Y-5.7247
G01 X-5.7968 Y-5.7175
G01 X-5.7845 Y-5.7114
G01 X-5.7715 Y-5.7066
G01 X-5.7582 Y-5.7031
G01 X-5.7429 Y-5.7007
G01 X-5.7291 Y-5.7000
G01 X-5.3046 Y-5.7000
G01 X-5.3158 Y-5.6811
G01 X-5.3235 Y-5.6620
G01 X-5.3282 Y-5.6419
G01 X-5.3300 Y-5.6214
G01 X-5.3300 Y-3.9600
G01 X-6.8700 Y-3.9600
G01 X-6.8700 Y-4.8399
G01 X-6.8708 Y-4.8535
G01 X-6.8726 Y-4.8653
G01 X-6.8755 Y-4.8769
G01 X-6.8799 Y-4.8898
G01 X-6.8863 Y-4.9037
G01 X-8.2028 Y-7.3902
G01 X-8.2179 Y-7.4205
G01 X-8.2309 Y-7.4499
G01 X-8.2424 Y-7.4799
G01 X-8.2524 Y-7.5105
G01 X-8.2609 Y-7.5415
G01 X-8.2679 Y-7.5729
G01 X-8.2733 Y-7.6046
G01 X-8.2772 Y-7.6365
G01 X-8.2796 Y-7.6686
G01 X-8.2804 Y-7.7024
G01 X-8.2804 Y-9.2168
G01 X-8.2811 Y-9.2305
G01 X-8.2831 Y-9.2441
G01 X-8.2880 Y-9.2624
G01 X-8.2953 Y-9.2798
G01 X-8.3050 Y-9.2960
G01 X-8.3167 Y-9.3108
G01 X-8.3290 Y-9.3228
G01 X-8.3559 Y-9.3440
G01 X-8.3990 Y-9.3812
G01 X-8.4402 Y-9.4205
G01 X-8.4795 Y-9.4617
G01 X-8.5167 Y-9.5048
G01 X-8.5517 Y-9.5497
G01 X-8.5845 Y-9.5963
G01 X-8.6149 Y-9.6444
G01 X-8.6430 Y-9.6939
G01 X-8.6686 Y-9.7448
G01 X-8.6917 Y-9.7968
G01 X-8.7122 Y-9.8499
G01 X-8.7300 Y-9.9040
G01 X-8.7452 Y-9.9589
G01 X-8.7577 Y-10.0144
G01 X-8.7674 Y-10.0705
G01 X-8.7744 Y-10.1270
G01 X-8.7786 Y-10.1838
G01 X-8.7800 Y-10.2407
G01 X-8.7786 Y-10.2976
G01 X-8.7744 Y-10.3544
G01 X-8.7674 Y-10.4109
G01 X-8.7577 Y-10.4670
G01 X-8.7452 Y-10.5225
G01 X-8.7300 Y-10.5774
G01 X-8.7122 Y-10.6315
G01 X-8.6917 Y-10.6846
G01 X-8.6686 Y-10.7366
G01 X-8.6430 Y-10.7875
G01 X-8.6149 Y-10.8370
G01 X-8.5845 Y-10.8851
G01 X-8.5517 Y-10.9317
G01 X-8.5167 Y-10.9766
G01 X-8.4795 Y-11.0197
G01 X-8.4402 Y-11.0609
G01 X-8.3990 Y-11.1002
G01 X-8.3559 Y-11.1374
G01 X-8.3290 Y-11.1586
G01 X-8.3202 Y-11.1668
G01 X-8.3122 Y-11.1758
G01 X-8.2994 Y-11.1941
G01 X-8.2938 Y-11.2047
G01 X-8.2892 Y-11.2158
G01 X-8.2831 Y-11.2373
G01 X-8.2813 Y-11.2492
G01 X-8.2804 Y-11.2612
G01 X-8.2804 Y-11.7585
G01 X-8.2811 Y-11.7705
G01 X-8.2828 Y-11.7824
G01 X-8.2855 Y-11.7942
G01 X-8.2892 Y-11.8056
G01 X-8.2946 Y-11.8182
G01 X-8.3012 Y-11.8303
G01 X-8.3100 Y-11.8429
G01 X-8.3190 Y-11.8533
G01 X-8.3303 Y-11.8639
G01 X-8.3559 Y-11.8840
G01 X-8.3990 Y-11.9212
G01 X-8.4402 Y-11.9605
G01 X-8.4795 Y-12.0017
G01 X-8.5167 Y-12.0448
G01 X-8.5517 Y-12.0897
G01 X-8.5845 Y-12.1363
G01 X-8.6149 Y-12.1844
G01 X-8.6430 Y-12.2339
G01 X-8.6686 Y-12.2848
G01 X-8.6917 Y-12.3368
G01 X-8.7122 Y-12.3899
G01 X-8.7300 Y-12.4440
G01 X-8.7452 Y-12.4989
G01 X-8.7577 Y-12.5544
G01 X-8.7674 Y-12.6105
G01 X-8.7744 Y-12.6670
G01 X-8.7786 Y-12.7238
G01 X-8.7800 Y-12.7807
G01 X-8.7786 Y-12.8376
G01 X-8.7744 Y-12.8944
G01 X-8.7674 Y-12.9509
G01 X-8.7577 Y-13.0070
G01 X-8.7452 Y-13.0625
G01 X-8.7300 Y-13.1174
G01 X-8.7122 Y-13.1715
G01 X-8.6917 Y-13.2246
G01 X-8.6686 Y-13.2766
G01 X-8.6430 Y-13.3275
G01 X-8.6149 Y-13.3770
G01 X-8.5845 Y-13.4251
G01 X-8.5517 Y-13.4717
G01 X-8.5167 Y-13.5166
G01 X-8.4795 Y-13.5597
G01 X-8.4402 Y-13.6009
G01 X-8.3990 Y-13.6402
G01 X-8.3559 Y-13.6774
G01 X-8.3110 Y-13.7124
G01 X-8.2644 Y-13.7452
G01 X-8.2163 Y-13.7756
G01 X-8.1668 Y-13.8037
G01 X-8.1159 Y-13.8293
G01 X-8.0639 Y-13.8524
G01 X-8.0108 Y-13.8729
G01 X-7.9567 Y-13.8907
G01 X-7.9018 Y-13.9059
G01 X-7.8463 Y-13.9184
G01 X-7.7902 Y-13.9281
G01 X-7.7337 Y-13.9351
G01 X-7.6769 Y-13.9393
G01 X-7.6200 Y-13.9407
G01 X-7.5631 Y-13.9393
G01 X-7.5063 Y-13.9351
G01 X-7.4498 Y-13.9281
G01 X-7.3937 Y-13.9184
G01 X-7.3382 Y-13.9059
G01 X-7.2833 Y-13.8907
G01 X-7.2292 Y-13.8729
G01 X-7.1761 Y-13.8524
G01 X-7.1241 Y-13.8293
G01 X-7.0732 Y-13.8037
G01 X-7.0237 Y-13.7756
G01 X-6.9756 Y-13.7452
G01 X-6.9290 Y-13.7124
G01 X-6.8841 Y-13.6774
G01 X-6.8410 Y-13.6402
G01 X-6.7998 Y-13.6009
G01 X-6.7605 Y-13.5597
G01 X-6.7233 Y-13.5166
G01 X-6.6883 Y-13.4717
G01 X-6.6555 Y-13.4251
G01 X-6.6251 Y-13.3770
G01 X-6.5970 Y-13.3275
G01 X-6.5714 Y-13.2766
G01 X-6.5483 Y-13.2246
G01 X-6.5278 Y-13.1715
G01 X-6.5100 Y-13.1174
G01 X-6.4948 Y-13.0625
G01 X-6.4862 Y-13.0243
G01 X-6.4824 Y-13.0111
G01 X-6.4743 Y-12.9922
G01 X-6.4635 Y-12.9747
G01 X-6.4514 Y-12.9601
G01 X-6.4361 Y-12.9463
G01 X-6.4205 Y-12.9357
G01 X-6.4020 Y-12.9267
G01 X-6.3823 Y-12.9205
G01 X-6.3620 Y-12.9172
G01 X-6.3414 Y-12.9169
G01 X-6.3227 Y-12.9194
G01 X-6.3094 Y-12.9227
G01 X-6.2948 Y-12.9280
G01 X-6.2810 Y-12.9349
G01 X-6.2680 Y-12.9432
G01 X-6.2560 Y-12.9529
G01 X-6.2451 Y-12.9639
G01 X-6.2355 Y-12.9761
G01 X-6.2274 Y-12.9892
G01 X-6.2207 Y-13.0031
G01 X-6.2155 Y-13.0177
G01 X-6.2052 Y-13.0625
G01 X-6.1900 Y-13.1174
G01 X-6.1722 Y-13.1715
G01 X-6.1517 Y-13.2246
G01 X-6.1286 Y-13.2766
G01 X-6.1030 Y-13.3275
G01 X-6.0749 Y-13.3770
G01 X-6.0445 Y-13.4251
G01 X-6.0117 Y-13.4717
G01 X-5.9767 Y-13.5166
G01 X-5.9395 Y-13.5597
G01 X-5.9002 Y-13.6009
G01 X-5.8590 Y-13.6402
G01 X-5.8159 Y-13.6774
G01 X-5.7710 Y-13.7124
G01 X-5.7244 Y-13.7452
G01 X-5.6763 Y-13.7756
G01 X-5.6268 Y-13.8037
G01 X-5.5759 Y-13.8293
G01 X-5.5239 Y-13.8524
G01 X-5.4708 Y-13.8729
G01 X-5.4167 Y-13.8907
G01 X-5.3618 Y-13.9059
G01 X-5.3063 Y-13.9184
G01 X-5.2502 Y-13.9281
G01 X-5.1937 Y-13.9351
G01 X-5.1369 Y-13.9393
G01 X-5.0800 Y-13.9407
G01 X-5.0231 Y-13.9393
G01 X-4.9663 Y-13.9351
G01 X-4.9098 Y-13.9281
G01 X-4.8537 Y-13.9184
G01 X-4.7982 Y-13.9059
G01 X-4.7433 Y-13.8907
G01 X-4.6892 Y-13.8729
G01 X-4.6361 Y-13.8524
G01 X-4.5841 Y-13.8293
G01 X-4.5332 Y-13.8037
G01 X-4.4837 Y-13.7756
G01 X-4.4356 Y-13.7452
G01 X-4.3890 Y-13.7124
G01 X-4.3441 Y-13.6774
G01 X-4.3010 Y-13.6402
G01 X-4.2598 Y-13.6009
G01 X-4.2205 Y-13.5597
G01 X-4.1833 Y-13.5166
G01 X-4.1483 Y-13.4717
G01 X-4.1155 Y-13.4251
G01 X-4.0851 Y-13.3770
G01 X-4.0570 Y-13.3275
G01 X-4.0314 Y-13.2766
G01 X-4.0083 Y-13.2246
G01 X-3.9878 Y-13.1715
G01 X-3.9687 Y-13.1151
G01 X-3.9601 Y-13.0983
G01 X-3.9482 Y-13.0814
G01 X-3.9365 Y-13.0689
G01 X-3.9234 Y-13.0578
G01 X-3.9090 Y-13.0484
G01 X-3.8936 Y-13.0409
G01 X-3.8773 Y-13.0353
G01 X-3.8605 Y-13.0318
G01 X-3.8434 Y-13.0303
G01 X-3.8263 Y-13.0309
G01 X-3.8043 Y-13.0349
G01 X-3.7928 Y-13.0384
G01 X-3.7817 Y-13.0430
G01 X-3.7710 Y-13.0484
G01 X-3.7608 Y-13.0548
G01 X-3.7512 Y-13.0620
G01 X-3.7422 Y-13.0700
G01 X-3.7340 Y-13.0788
G01 X-3.7265 Y-13.0882
G01 X-3.7149 Y-13.1073
G01 X-3.7100 Y-13.1183
G01 X-3.7060 Y-13.1296
G01 X-3.7013 Y-13.1514
G01 X-3.7000 Y-13.1702
G01 X-3.7000 Y-13.9407
G01 X-1.3800 Y-13.9407
G01 X-1.3800 Y-9.0807
G01 X-1.7413 Y-9.0807
G01 X-1.7584 Y-9.0794
G01 X-1.7753 Y-9.0761
G01 X-1.7963 Y-9.0687
G01 X-1.8159 Y-9.0581
G01 X-1.8336 Y-9.0444
G01 X-1.8478 Y-9.0295
G01 X-1.8606 Y-9.0112
G01 X-1.8702 Y-8.9911
G01 X-1.8766 Y-8.9697
G01 X-1.8794 Y-8.9476
G01 X-1.8796 Y-3.8117
G01 X-1.8804 Y-3.7776
G01 X-1.8828 Y-3.7453
G01 X-1.8868 Y-3.7131
G01 X-1.8923 Y-3.6812
G01 X-1.8994 Y-3.6495
G01 X-1.9081 Y-3.6183
G01 X-1.9182 Y-3.5875
G01 X-1.9299 Y-3.5573
G01 X-1.9430 Y-3.5277
G01 X-1.9576 Y-3.4987
G01 X-1.9736 Y-3.4705
G01 X-1.9909 Y-3.4431
G01 X-2.0096 Y-3.4166
G01 X-2.0295 Y-3.3911
G01 X-2.0507 Y-3.3665
G01 X-2.0742 Y-3.3418
G01 X-3.3418 Y-2.0742
G01 X-3.3665 Y-2.0507
G01 X-3.3911 Y-2.0295
G01 X-3.4166 Y-2.0096
G01 X-3.4431 Y-1.9909
G01 X-3.4705 Y-1.9736
G01 X-3.4987 Y-1.9576
G01 X-3.5277 Y-1.9430
G01 X-3.5573 Y-1.9299
G01 X-3.5875 Y-1.9182
G01 X-3.6183 Y-1.9081
G01 X-3.6495 Y-1.8994
G01 X-3.6812 Y-1.8923
G01 X-3.7131 Y-1.8868
G01 X-3.7453 Y-1.8828
G01 X-3.7776 Y-1.8804
G01 X-3.8117 Y-1.8796
G01 X-4.1734 Y-1.8796
G01 X-4.1956 Y-1.8772
G01 X-4.2155 Y-1.8720
G01 X-4.2283 Y-1.8669
G01 X-4.2405 Y-1.8606
G01 X-4.2520 Y-1.8531
G01 X-4.2627 Y-1.8445
G01 X-4.2726 Y-1.8349
G01 X-4.2814 Y-1.8244
G01 X-4.2901 Y-1.8116
G01 X-4.2966 Y-1.7995
G01 X-4.3012 Y-1.7884
G01 X-4.3049 Y-1.7769
G01 X-4.3076 Y-1.7652
G01 X-4.3093 Y-1.7533
G01 X-4.3100 Y-1.7413
G01 X-4.3100 Y-1.6700
G01 X-5.8500 Y-1.6700
G01 X-5.8500 Y-3.4100
G01 X-4.3100 Y-3.4100
G01 X-4.3099 Y-3.3352
G01 X-4.3089 Y-3.3233
G01 X-4.3066 Y-3.3097
G01 X-4.3012 Y-3.2916
G01 X-4.2935 Y-3.2744
G01 X-4.2835 Y-3.2584
G01 X-4.2726 Y-3.2451
G01 X-4.2588 Y-3.2322
G01 X-4.2420 Y-3.2203
G01 X-4.2252 Y-3.2117
G01 X-4.2073 Y-3.2055
G01 X-4.1905 Y-3.2019
G01 X-4.1734 Y-3.2004
G01 X-4.1364 Y-3.2005
G01 X-4.1159 Y-3.2028
G01 X-4.0976 Y-3.2075
G01 X-4.0786 Y-3.2153
G01 X-4.0623 Y-3.2250
G01 X-4.0463 Y-3.2378
G01 X-3.5594 Y-3.7247
G01 X-3.5495 Y-3.7366
G01 X-3.5410 Y-3.7495
G01 X-3.5339 Y-3.7633
G01 X-3.5285 Y-3.7777
G01 X-3.5246 Y-3.7927
G01 X-3.5225 Y-3.8080
G01 X-3.5220 Y-3.8234
G01 X-3.5232 Y-3.8388
G01 X-3.5280 Y-3.8606
G01 X-3.5319 Y-3.8720
G01 X-3.5369 Y-3.8829
G01 X-3.5485 Y-3.9020
G01 X-3.5559 Y-3.9114
G01 X-3.5642 Y-3.9202
G01 X-3.5731 Y-3.9282
G01 X-3.5827 Y-3.9354
G01 X-3.5929 Y-3.9418
G01 X-3.6036 Y-3.9473
G01 X-3.6246 Y-3.9549
G01 X-3.6363 Y-3.9576
G01 X-3.6482 Y-3.9593
G01 X-3.6619 Y-3.9600
G01 X-4.8300 Y-3.9600
G01 X-4.8300 Y-5.0005
G01 X-4.8310 Y-5.0175
G01 X-4.8341 Y-5.0343
G01 X-4.8381 Y-5.0474
G01 X-5.0619 Y-5.6761
G01 X-5.0698 Y-5.6914
G01 X-5.0784 Y-5.7042
G01 X-5.0884 Y-5.7160
G01 X-5.0997 Y-5.7266
G01 X-5.1135 Y-5.7369
G01 X-5.1269 Y-5.7446
G01 X-5.1410 Y-5.7508
G01 X-5.1566 Y-5.7556
G01 X-5.1474 Y-5.7694
G01 X-5.1397 Y-5.7847
G01 X-5.1344 Y-5.7992
G01 X-5.1304 Y-5.8158
G01 X-5.1286 Y-5.8312
G01 X-5.1285 Y-5.8483
G01 X-5.1306 Y-5.8653
G01 X-5.1347 Y-5.8820
G01 X-5.7017 Y-7.4780
G01 X-5.7123 Y-7.5102
G01 X-5.7208 Y-7.5413
G01 X-5.7278 Y-7.5727
G01 X-5.7333 Y-7.6044
G01 X-5.7372 Y-7.6364
G01 X-5.7396 Y-7.6685
G01 X-5.7404 Y-7.7024
G01 X-5.7404 Y-9.2168
G01 X-5.7409 Y-9.2288
G01 X-5.7428 Y-9.2424
G01 X-5.7459 Y-9.2558
G01 X-5.7498 Y-9.2672
G01 X-5.7553 Y-9.2798
G01 X-5.7621 Y-9.2917
G01 X-5.7700 Y-9.3029
G01 X-5.7790 Y-9.3133
G01 X-5.7903 Y-9.3239
G01 X-5.8159 Y-9.3440
G01 X-5.8590 Y-9.3812
G01 X-5.9002 Y-9.4205
G01 X-5.9395 Y-9.4617
G01 X-5.9767 Y-9.5048
G01 X-6.0117 Y-9.5497
G01 X-6.0445 Y-9.5963
G01 X-6.0749 Y-9.6444
G01 X-6.1030 Y-9.6939
G01 X-6.1286 Y-9.7448
G01 X-6.1517 Y-9.7968
G01 X-6.1722 Y-9.8499
G01 X-6.1900 Y-9.9040
G01 X-6.2052 Y-9.9589
G01 X-6.2138 Y-9.9971
G01 X-6.2176 Y-10.0103
G01 X-6.2249 Y-10.0277
G01 X-6.2355 Y-10.0453
G01 X-6.2451 Y-10.0575
G01 X-6.2573 Y-10.0696
G01 X-6.2694 Y-10.0792
G01 X-6.2825 Y-10.0874
G01 X-6.2964 Y-10.0941
G01 X-6.3127 Y-10.0997
G01 X-6.3278 Y-10.1029
G01 X-6.3431 Y-10.1046
G01 X-6.3603 Y-10.1043
G01 X-6.3773 Y-10.1020
G01 X-6.3955 Y-10.0971
G01 X-6.4114 Y-10.0905
G01 X-6.4263 Y-10.0821
G01 X-6.4401 Y-10.0718
G01 X-6.4526 Y-10.0600
G01 X-6.4635 Y-10.0467
G01 X-6.4743 Y-10.0292
G01 X-6.4824 Y-10.0103
G01 X-6.4862 Y-9.9971
G01 X-6.4948 Y-9.9589
G01 X-6.5100 Y-9.9040
G01 X-6.5278 Y-9.8499
G01 X-6.5483 Y-9.7968
G01 X-6.5714 Y-9.7448
G01 X-6.5970 Y-9.6939
G01 X-6.6251 Y-9.6444
G01 X-6.6555 Y-9.5963
G01 X-6.6883 Y-9.5497
G01 X-6.7233 Y-9.5048
G01 X-6.7605 Y-9.4617
G01 X-6.7998 Y-9.4205
G01 X-6.8410 Y-9.3812
G01 X-6.8841 Y-9.3440
G01 X-6.9057 Y-9.3272
G00 Z2.0000
G00 X-7.0098 Y-9.3058
G01 F70.00
G01 Z-0.0600
G01 F120.00
G01 X-7.0098 Y-9.3136
G01 X-7.0040 Y-9.3173
G01 X-7.0072 Y-9.3112
G01 X-7.0098 Y-9.3058
G00 Z2.0000
G00 X-8.0902 Y-9.3925
G01 F70.00
G01 Z-0.0600
G01 F120.00
G01 X-8.1187 Y-9.4087
G01 X-8.1575 Y-9.4332
G01 X-8.1971 Y-9.4611
G01 X-8.2354 Y-9.4909
G01 X-8.2720 Y-9.5226
G01 X-8.3071 Y-9.5560
G01 X-8.3387 Y-9.5893
G01 X-8.3687 Y-9.6240
G01 X-8.3991 Y-9.6629
G01 X-8.4260 Y-9.7011
G01 X-8.4520 Y-9.7420
G01 X-8.4755 Y-9.7834
G01 X-8.4969 Y-9.8260
G01 X-8.5168 Y-9.8711
G01 X-8.5339 Y-9.9155
G01 X-8.5482 Y-9.9591
G01 X-8.5605 Y-10.0033
G01 X-8.5714 Y-10.0515
G01 X-8.5796 Y-10.0992
G01 X-8.5853 Y-10.1456
G01 X-8.5887 Y-10.1914
G01 X-8.5900 Y-10.2407
G01 X-8.5888 Y-10.2883
G01 X-8.5855 Y-10.3341
G01 X-8.5795 Y-10.3830
G01 X-8.5714 Y-10.4299
G01 X-8.5613 Y-10.4747
G01 X-8.5482 Y-10.5223
G01 X-8.5333 Y-10.5675
G01 X-8.5168 Y-10.6103
G01 X-8.4965 Y-10.6562
G01 X-8.4755 Y-10.6980
G01 X-8.4529 Y-10.7379
G01 X-8.4265 Y-10.7796
G01 X-8.3991 Y-10.8185
G01 X-8.3709 Y-10.8547
G01 X-8.3381 Y-10.8927
G01 X-8.3059 Y-10.9266
G01 X-8.2727 Y-10.9583
G01 X-8.2347 Y-10.9911
G01 X-8.1978 Y-11.0198
G01 X-8.1589 Y-11.0472
G01 X-8.1187 Y-11.0727
G01 X-8.0902 Y-11.0889
G01 X-8.0902 Y-11.9325
G01 X-8.1187 Y-11.9487
G01 X-8.1589 Y-11.9742
G01 X-8.1978 Y-12.0016
G01 X-8.2347 Y-12.0303
G01 X-8.2727 Y-12.0631
G01 X-8.3059 Y-12.0948
G01 X-8.3381 Y-12.1287
G01 X-8.3709 Y-12.1667
G01 X-8.3991 Y-12.2029
G01 X-8.4265 Y-12.2418
G01 X-8.4529 Y-12.2835
G01 X-8.4755 Y-12.3234
G01 X-8.4965 Y-12.3652
G01 X-8.5168 Y-12.4111
G01 X-8.5333 Y-12.4539
G01 X-8.5482 Y-12.4991
G01 X-8.5613 Y-12.5467
G01 X-8.5714 Y-12.5915
G01 X-8.5795 Y-12.6384
G01 X-8.5853 Y-12.6856
G01 X-8.5887 Y-12.7314
G01 X-8.5900 Y-12.7807
G01 X-8.5887 Y-12.8300
G01 X-8.5853 Y-12.8758
G01 X-8.5796 Y-12.9222
G01 X-8.5714 Y-12.9699
G01 X-8.5609 Y-13.0164
G01 X-8.5482 Y-13.0623
G01 X-8.5333 Y-13.1075
G01 X-8.5162 Y-13.1519
G01 X-8.4969 Y-13.1954
G01 X-8.4755 Y-13.2380
G01 X-8.4520 Y-13.2794
G01 X-8.4265 Y-13.3196
G01 X-8.3991 Y-13.3585
G01 X-8.3698 Y-13.3961
G01 X-8.3387 Y-13.4321
G01 X-8.3059 Y-13.4666
G01 X-8.2714 Y-13.4994
G01 X-8.2354 Y-13.5305
G01 X-8.1978 Y-13.5598
G01 X-8.1589 Y-13.5872
G01 X-8.1187 Y-13.6127
G01 X-8.0773 Y-13.6362
G01 X-8.0347 Y-13.6576
G01 X-7.9912 Y-13.6769
G01 X-7.9468 Y-13.6940
G01 X-7.9016 Y-13.7089
G01 X-7.8557 Y-13.7216
G01 X-7.8092 Y-13.7321
G01 X-7.7623 Y-13.7402
G01 X-7.7151 Y-13.7460
G01 X-7.6676 Y-13.7495
G01 X-7.6200 Y-13.7507
G01 X-7.5724 Y-13.7495
G01 X-7.5249 Y-13.7460
G01 X-7.4785 Y-13.7403
G01 X-7.4308 Y-13.7321
G01 X-7.3860 Y-13.7220
G01 X-7.3368 Y-13.7084
G01 X-7.2932 Y-13.6940
G01 X-7.2488 Y-13.6769
G01 X-7.2053 Y-13.6576
G01 X-7.1627 Y-13.6362
G01 X-7.1213 Y-13.6127
G01 X-7.0825 Y-13.5882
G01 X-7.0408 Y-13.5588
G01 X-7.0046 Y-13.5305
G01 X-6.9686 Y-13.4994
G01 X-6.9341 Y-13.4666
G01 X-6.9013 Y-13.4321
G01 X-6.8702 Y-13.3961
G01 X-6.8419 Y-13.3599
G01 X-6.8125 Y-13.3182
G01 X-6.7880 Y-13.2794
G01 X-6.7645 Y-13.2380
G01 X-6.7431 Y-13.1954
G01 X-6.7238 Y-13.1519
G01 X-6.7067 Y-13.1075
G01 X-6.6923 Y-13.0639
G01 X-6.6787 Y-13.0147
G01 X-6.6686 Y-12.9699
G01 X-6.6605 Y-12.9230
G01 X-6.6547 Y-12.8758
G01 X-6.6512 Y-12.8292
G01 X-6.6500 Y-12.7790
G01 X-6.6512 Y-12.7331
G01 X-6.6545 Y-12.6873
G01 X-6.6605 Y-12.6384
G01 X-6.6690 Y-12.5898
G01 X-6.6791 Y-12.5450
G01 X-6.6913 Y-12.5008
G01 X-6.7067 Y-12.4539
G01 X-6.7238 Y-12.4095
G01 X-6.7424 Y-12.3675
G01 X-6.7649 Y-12.3227
G01 X-6.7880 Y-12.2820
G01 X-6.8125 Y-12.2432
G01 X-6.8409 Y-12.2029
G01 X-6.8713 Y-12.1640
G01 X-6.9013 Y-12.1293
G01 X-6.9335 Y-12.0954
G01 X-6.9699 Y-12.0608
G01 X-7.0046 Y-12.0309
G01 X-7.0415 Y-12.0021
G01 X-7.0818 Y-11.9737
G01 X-7.1213 Y-11.9487
G01 X-7.1498 Y-11.9325
G01 X-7.1498 Y-11.0889
G01 X-7.1213 Y-11.0727
G01 X-7.0818 Y-11.0477
G01 X-7.0415 Y-11.0193
G01 X-7.0046 Y-10.9905
G01 X-6.9699 Y-10.9606
G01 X-6.9347 Y-10.9272
G01 X-6.9001 Y-10.8908
G01 X-6.8702 Y-10.8561
G01 X-6.8419 Y-10.8199
G01 X-6.8135 Y-10.7796
G01 X-6.7876 Y-10.7386
G01 X-6.7645 Y-10.6980
G01 X-6.7439 Y-10.6570
G01 X-6.7238 Y-10.6119
G01 X-6.7061 Y-10.5659
G01 X-6.6918 Y-10.5223
G01 X-6.6795 Y-10.4781
G01 X-6.6686 Y-10.4299
G01 X-6.6603 Y-10.3813
G01 X-6.6547 Y-10.3358
G01 X-6.6513 Y-10.2900
G01 X-6.6500 Y-10.2407
G01 X-6.6513 Y-10.1914
G01 X-6.6547 Y-10.1456
G01 X-6.6603 Y-10.1001
G01 X-6.6686 Y-10.0515
G01 X-6.6795 Y-10.0033
G01 X-6.6918 Y-9.9591
G01 X-6.7061 Y-9.9155
G01 X-6.7238 Y-9.8695
G01 X-6.7439 Y-9.8244
G01 X-6.7645 Y-9.7834
G01 X-6.7876 Y-9.7428
G01 X-6.8135 Y-9.7018
G01 X-6.8419 Y-9.6615
G01 X-6.8702 Y-9.6253
G01 X-6.9001 Y-9.5906
G01 X-6.9347 Y-9.5542
G01 X-6.9699 Y-9.5208
G01 X-7.0046 Y-9.4909
G01 X-7.0415 Y-9.4621
G01 X-7.0818 Y-9.4337
G01 X-7.1213 Y-9.4087
G01 X-7.1498 Y-9.3925
G01 X-7.1498 Y-7.8175
G01 X-5.9280 Y-5.5100
G01 X-5.5823 Y-5.5096
G01 X-5.5730 Y-5.5079
G01 X-5.5640 Y-5.5050
G01 X-5.5562 Y-5.5013
G01 X-5.5483 Y-5.4962
G01 X-5.5411 Y-5.4901
G01 X-5.5348 Y-5.4831
G01 X-5.5300 Y-5.4760
G01 X-5.5257 Y-5.4676
G01 X-5.5215 Y-5.4545
G01 X-5.5200 Y-5.4400
G01 X-5.5200 Y-4.2183
G01 X-5.5209 Y-4.2089
G01 X-5.5230 Y-4.1997
G01 X-5.5264 Y-4.1909
G01 X-5.5309 Y-4.1826
G01 X-5.5370 Y-4.1743
G01 X-5.5436 Y-4.1676
G01 X-5.5511 Y-4.1618
G01 X-5.5593 Y-4.1571
G01 X-5.5738 Y-4.1519
G01 X-5.5891 Y-4.1500
G01 X-6.6117 Y-4.1500
G01 X-6.6211 Y-4.1509
G01 X-6.6311 Y-4.1533
G01 X-6.6399 Y-4.1567
G01 X-6.6482 Y-4.1613
G01 X-6.6557 Y-4.1670
G01 X-6.6624 Y-4.1736
G01 X-6.6682 Y-4.1811
G01 X-6.6729 Y-4.1893
G01 X-6.6781 Y-4.2038
G01 X-6.6800 Y-4.2191
G01 X-6.6800 Y-4.9206
G01 X-8.0355 Y-7.4807
G01 X-8.0458 Y-7.5012
G01 X-8.0556 Y-7.5237
G01 X-8.0698 Y-7.5636
G01 X-8.0759 Y-7.5857
G01 X-8.0813 Y-7.6097
G01 X-8.0854 Y-7.6339
G01 X-8.0895 Y-7.6761
G01 X-8.0902 Y-7.6998
G01 X-8.0902 Y-9.3925
G00 Z2.0000
G00 X-8.1602 Y-9.3521
G01 F70.00
G01 Z-0.0600
G01 F120.00
G01 X-8.1978 Y-9.3760
G01 X-8.2367 Y-9.4034
G01 X-8.2771 Y-9.4346
G01 X-8.3184 Y-9.4701
G01 X-8.3529 Y-9.5029
G01 X-8.3906 Y-9.5423
G01 X-8.4239 Y-9.5809
G01 X-8.4553 Y-9.6212
G01 X-8.4847 Y-9.6629
G01 X-8.5120 Y-9.7060
G01 X-8.5388 Y-9.7535
G01 X-8.5601 Y-9.7960
G01 X-8.5795 Y-9.8396
G01 X-8.5980 Y-9.8871
G01 X-8.6152 Y-9.9388
G01 X-8.6288 Y-9.9880
G01 X-8.6400 Y-10.0378
G01 X-8.6490 Y-10.0898
G01 X-8.6550 Y-10.1388
G01 X-8.6585 Y-10.1862
G01 X-8.6600 Y-10.2407
G01 X-8.6587 Y-10.2917
G01 X-8.6553 Y-10.3392
G01 X-8.6487 Y-10.3933
G01 X-8.6400 Y-10.4436
G01 X-8.6296 Y-10.4901
G01 X-8.6152 Y-10.5426
G01 X-8.5980 Y-10.5943
G01 X-8.5808 Y-10.6387
G01 X-8.5601 Y-10.6854
G01 X-8.5372 Y-10.7310
G01 X-8.5138 Y-10.7724
G01 X-8.4847 Y-10.8185
G01 X-8.4553 Y-10.8602
G01 X-8.4261 Y-10.8978
G01 X-8.3906 Y-10.9391
G01 X-8.3554 Y-10.9761
G01 X-8.3209 Y-11.0090
G01 X-8.2798 Y-11.0446
G01 X-8.2367 Y-11.0780
G01 X-8.1978 Y-11.1054
G01 X-8.1602 Y-11.1293
G01 X-8.1602 Y-11.8921
G01 X-8.1978 Y-11.9160
G01 X-8.2367 Y-11.9434
G01 X-8.2798 Y-11.9768
G01 X-8.3184 Y-12.0101
G01 X-8.3529 Y-12.0429
G01 X-8.3906 Y-12.0823
G01 X-8.4261 Y-12.1236
G01 X-8.4553 Y-12.1612
G01 X-8.4847 Y-12.2029
G01 X-8.5120 Y-12.2460
G01 X-8.5355 Y-12.2874
G01 X-8.5601 Y-12.3360
G01 X-8.5821 Y-12.3859
G01 X-8.5992 Y-12.4303
G01 X-8.6152 Y-12.4788
G01 X-8.6296 Y-12.5313
G01 X-8.6400 Y-12.5778
G01 X-8.6487 Y-12.6281
G01 X-8.6550 Y-12.6788
G01 X-8.6585 Y-12.7262
G01 X-8.6600 Y-12.7807
G01 X-8.6587 Y-12.8317
G01 X-8.6553 Y-12.8792
G01 X-8.6485 Y-12.9350
G01 X-8.6400 Y-12.9836
G01 X-8.6288 Y-13.0334
G01 X-8.6152 Y-13.0826
G01 X-8.5992 Y-13.1311
G01 X-8.5808 Y-13.1787
G01 X-8.5601 Y-13.2254
G01 X-8.5372 Y-13.2710
G01 X-8.5120 Y-13.3154
G01 X-8.4847 Y-13.3585
G01 X-8.4553 Y-13.4002
G01 X-8.4239 Y-13.4405
G01 X-8.3906 Y-13.4791
G01 X-8.3554 Y-13.5161
G01 X-8.3184 Y-13.5513
G01 X-8.2798 Y-13.5846
G01 X-8.2395 Y-13.6160
G01 X-8.1978 Y-13.6454
G01 X-8.1547 Y-13.6727
G01 X-8.1103 Y-13.6979
G01 X-8.0647 Y-13.7208
G01 X-8.0180 Y-13.7415
G01 X-7.9704 Y-13.7599
G01 X-7.9219 Y-13.7759
G01 X-7.8727 Y-13.7895
G01 X-7.8229 Y-13.8007
G01 X-7.7726 Y-13.8094
G01 X-7.7219 Y-13.8157
G01 X-7.6710 Y-13.8194
G01 X-7.6200 Y-13.8207
G01 X-7.5690 Y-13.8194
G01 X-7.5181 Y-13.8157
G01 X-7.4657 Y-13.8092
G01 X-7.4171 Y-13.8007
G01 X-7.3673 Y-13.7895
G01 X-7.3181 Y-13.7759
G01 X-7.2729 Y-13.7610
G01 X-7.2189 Y-13.7402
G01 X-7.1753 Y-13.7208
G01 X-7.1297 Y-13.6979
G01 X-7.0853 Y-13.6727
G01 X-7.0451 Y-13.6473
G01 X-6.9977 Y-13.6140
G01 X-6.9602 Y-13.5846
G01 X-6.9216 Y-13.5513
G01 X-6.8846 Y-13.5161
G01 X-6.8494 Y-13.4791
G01 X-6.8161 Y-13.4405
G01 X-6.7867 Y-13.4030
G01 X-6.7534 Y-13.3556
G01 X-6.7280 Y-13.3154
G01 X-6.7028 Y-13.2710
G01 X-6.6799 Y-13.2254
G01 X-6.6592 Y-13.1787
G01 X-6.6408 Y-13.1311
G01 X-6.6258 Y-13.0859
G01 X-6.6104 Y-13.0301
G01 X-6.6000 Y-12.9836
G01 X-6.5913 Y-12.9333
G01 X-6.5850 Y-12.8826
G01 X-6.5813 Y-12.8334
G01 X-6.5800 Y-12.7773
G01 X-6.5813 Y-12.7297
G01 X-6.5847 Y-12.6822
G01 X-6.5913 Y-12.6281
G01 X-6.6007 Y-12.5744
G01 X-6.6112 Y-12.5280
G01 X-6.6238 Y-12.4821
G01 X-6.6408 Y-12.4303
G01 X-6.6592 Y-12.3827
G01 X-6.6784 Y-12.3392
G01 X-6.7028 Y-12.2904
G01 X-6.7298 Y-12.2431
G01 X-6.7553 Y-12.2029
G01 X-6.7827 Y-12.1640
G01 X-6.8161 Y-12.1209
G01 X-6.8517 Y-12.0798
G01 X-6.8846 Y-12.0453
G01 X-6.9191 Y-12.0124
G01 X-6.9602 Y-11.9768
G01 X-7.0033 Y-11.9434
G01 X-7.0422 Y-11.9160
G01 X-7.0798 Y-11.8921
G01 X-7.0798 Y-11.1293
G01 X-7.0422 Y-11.1054
G01 X-7.0033 Y-11.0780
G01 X-6.9602 Y-11.0446
G01 X-6.9191 Y-11.0090
G01 X-6.8846 Y-10.9761
G01 X-6.8517 Y-10.9416
G01 X-6.8161 Y-10.9005
G01 X-6.7827 Y-10.8574
G01 X-6.7534 Y-10.8156
G01 X-6.7280 Y-10.7754
G01 X-6.7045 Y-10.7340
G01 X-6.6799 Y-10.6854
G01 X-6.6579 Y-10.6355
G01 X-6.6408 Y-10.5911
G01 X-6.6258 Y-10.5459
G01 X-6.6112 Y-10.4934
G01 X-6.6000 Y-10.4436
G01 X-6.5908 Y-10.3899
G01 X-6.5850 Y-10.3426
G01 X-6.5815 Y-10.2952
G01 X-6.5800 Y-10.2407
G01 X-6.5813 Y-10.1897
G01 X-6.5854 Y-10.1353
G01 X-6.5913 Y-10.0881
G01 X-6.5994 Y-10.0412
G01 X-6.6112 Y-9.9880
G01 X-6.6258 Y-9.9355
G01 X-6.6408 Y-9.8903
G01 X-6.6579 Y-9.8459
G01 X-6.6799 Y-9.7960
G01 X-6.7045 Y-9.7474
G01 X-6.7298 Y-9.7031
G01 X-6.7553 Y-9.6629
G01 X-6.7827 Y-9.6240
G01 X-6.8161 Y-9.5809
G01 X-6.8517 Y-9.5398
G01 X-6.8846 Y-9.5053
G01 X-6.9191 Y-9.4724
G01 X-6.9602 Y-9.4368
G01 X-7.0033 Y-9.4034
G01 X-7.0422 Y-9.3760
G01 X-7.0798 Y-9.3521
G01 X-7.0798 Y-7.8349
G01 X-5.8859 Y-5.5800
G01 X-5.5883 Y-5.5800
G01 X-5.5763 Y-5.5793
G01 X-5.5627 Y-5.5773
G01 X-5.5461 Y-5.5729
G01 X-5.5301 Y-5.5666
G01 X-5.5151 Y-5.5583
G01 X-5.5012 Y-5.5482
G01 X-5.4886 Y-5.5365
G01 X-5.4776 Y-5.5234
G01 X-5.4682 Y-5.5090
G01 X-5.4607 Y-5.4936
G01 X-5.4565 Y-5.4823
G01 X-5.4530 Y-5.4690
G01 X-5.4509 Y-5.4554
G01 X-5.4500 Y-5.4417
G01 X-5.4502 Y-4.2131
G01 X-5.4524 Y-4.1944
G01 X-5.4571 Y-4.1761
G01 X-5.4634 Y-4.1601
G01 X-5.4726 Y-4.1437
G01 X-5.4829 Y-4.1299
G01 X-5.4960 Y-4.1163
G01 X-5.5108 Y-4.1046
G01 X-5.5271 Y-4.0949
G01 X-5.5412 Y-4.0888
G01 X-5.5560 Y-4.0842
G01 X-5.5729 Y-4.0811
G01 X-5.5883 Y-4.0800
G01 X-6.6169 Y-4.0802
G01 X-6.6356 Y-4.0824
G01 X-6.6523 Y-4.0865
G01 X-6.6699 Y-4.0934
G01 X-6.6863 Y-4.1026
G01 X-6.7014 Y-4.1140
G01 X-6.7137 Y-4.1260
G01 X-6.7254 Y-4.1408
G01 X-6.7351 Y-4.1571
G01 X-6.7412 Y-4.1712
G01 X-6.7458 Y-4.1860
G01 X-6.7487 Y-4.2012
G01 X-6.7500 Y-4.2166
G01 X-6.7500 Y-4.9032
G01 X-8.0974 Y-7.4479
G01 X-8.1091 Y-7.4715
G01 X-8.1210 Y-7.4987
G01 X-8.1291 Y-7.5201
G01 X-8.1363 Y-7.5419
G01 X-8.1434 Y-7.5672
G01 X-8.1500 Y-7.5961
G01 X-8.1549 Y-7.6254
G01 X-8.1576 Y-7.6482
G01 X-8.1594 Y-7.6710
G01 X-8.1602 Y-7.6990
G01 X-8.1602 Y-9.3521
G00 Z2.0000
G00 X-8.2360 Y-9.3173
G01 F70.00
G01 Z-0.0600
G01 F120.00
G01 X-8.2302 Y-9.3136
G01 X-8.2302 Y-9.3058
G01 X-8.2328 Y-9.3112
G01 X-8.2360 Y-9.3173
G00 Z2.0000
G00 X-8.2302 Y-11.1756
G01 F70.00
G01 Z-0.0600
G01 F120.00
G01 X-8.2302 Y-11.1678
G01 X-8.2360 Y-11.1641
G01 X-8.2328 Y-11.1702
G01 X-8.2302 Y-11.1756
G00 Z2.0000
G00 X-8.2360 Y-11.8573
G01 F70.00
G01 Z-0.0600
G01 F120.00
G01 X-8.2302 Y-11.8536
G01 X-8.2302 Y-11.8458
G01 X-8.2328 Y-11.8512
G01 X-8.2360 Y-11.8573
G00 Z2.0000
G00 X-7.0040 Y-11.8573
G01 F70.00
G01 Z-0.0600
G01 F120.00
G01 X-7.0072 Y-11.8512
G01 X-7.0098 Y-11.8458
G01 X-7.0098 Y-11.8536
G01 X-7.0040 Y-11.8573
G00 Z2.0000
G00 X-7.0098 Y-11.1756
G01 F70.00
G01 Z-0.0600
G01 F120.00
G01 X-7.0072 Y-11.1702
G01 X-7.0040 Y-11.1641
G01 X-7.0098 Y-11.1678
G01 X-7.0098 Y-11.1756
G00 Z2.0000
G00 X-6.4866 Y-10.4860
G01 F70.00
G01 Z-0.0600
G01 F120.00
G01 X-6.4948 Y-10.5225
G01 X-6.5100 Y-10.5774
G01 X-6.5278 Y-10.6315
G01 X-6.5483 Y-10.6846
G01 X-6.5714 Y-10.7366
G01 X-6.5970 Y-10.7875
G01 X-6.6251 Y-10.8370
G01 X-6.6555 Y-10.8851
G01 X-6.6883 Y-10.9317
G01 X-6.7233 Y-10.9766
G01 X-6.7605 Y-11.0197
G01 X-6.7998 Y-11.0609
G01 X-6.8410 Y-11.1002
G01 X-6.8841 Y-11.1374
G01 X-6.9097 Y-11.1575
G01 X-6.9198 Y-11.1668
G01 X-6.9289 Y-11.1771
G01 X-6.9379 Y-11.1897
G01 X-6.9454 Y-11.2032
G01 X-6.9508 Y-11.2158
G01 X-6.9545 Y-11.2272
G01 X-6.9572 Y-11.2390
G01 X-6.9589 Y-11.2509
G01 X-6.9596 Y-11.2629
G01 X-6.9592 Y-11.7671
G01 X-6.9558 Y-11.7892
G01 X-6.9496 Y-11.8088
G01 X-6.9406 Y-11.8273
G01 X-6.9289 Y-11.8443
G01 X-6.9210 Y-11.8533
G01 X-6.9123 Y-11.8617
G01 X-6.8841 Y-11.8840
G01 X-6.8410 Y-11.9212
G01 X-6.7998 Y-11.9605
G01 X-6.7605 Y-12.0017
G01 X-6.7233 Y-12.0448
G01 X-6.6883 Y-12.0897
G01 X-6.6555 Y-12.1363
G01 X-6.6251 Y-12.1844
G01 X-6.5970 Y-12.2339
G01 X-6.5714 Y-12.2848
G01 X-6.5483 Y-12.3368
G01 X-6.5278 Y-12.3899
G01 X-6.5100 Y-12.4440
G01 X-6.4948 Y-12.4989
G01 X-6.4862 Y-12.5371
G01 X-6.4824 Y-12.5503
G01 X-6.4751 Y-12.5677
G01 X-6.4645 Y-12.5853
G01 X-6.4537 Y-12.5987
G01 X-6.4401 Y-12.6118
G01 X-6.4263 Y-12.6221
G01 X-6.4099 Y-12.6313
G01 X-6.3923 Y-12.6382
G01 X-6.3756 Y-12.6424
G01 X-6.3569 Y-12.6446
G01 X-6.3397 Y-12.6443
G01 X-6.3227 Y-12.6420
G01 X-6.3077 Y-12.6382
G01 X-6.2917 Y-12.6320
G01 X-6.2766 Y-12.6239
G01 X-6.2625 Y-12.6140
G01 X-6.2498 Y-12.6025
G01 X-6.2386 Y-12.5895
G01 X-6.2299 Y-12.5767
G01 X-6.2220 Y-12.5615
G01 X-6.2160 Y-12.5454
G01 X-6.2052 Y-12.4989
G01 X-6.1900 Y-12.4440
G01 X-6.1722 Y-12.3899
G01 X-6.1517 Y-12.3368
G01 X-6.1286 Y-12.2848
G01 X-6.1030 Y-12.2339
G01 X-6.0749 Y-12.1844
G01 X-6.0445 Y-12.1363
G01 X-6.0117 Y-12.0897
G01 X-5.9767 Y-12.0448
G01 X-5.9395 Y-12.0017
G01 X-5.9002 Y-11.9605
G01 X-5.8590 Y-11.9212
G01 X-5.8159 Y-11.8840
G01 X-5.7903 Y-11.8639
G01 X-5.7778 Y-11.8521
G01 X-5.7700 Y-11.8429
G01 X-5.7630 Y-11.8332
G01 X-5.7569 Y-11.8228
G01 X-5.7517 Y-11.8120
G01 X-5.7469 Y-11.7991
G01 X-5.7434 Y-11.7858
G01 X-5.7415 Y-11.7740
G01 X-5.7404 Y-11.7602
G01 X-5.7408 Y-11.2543
G01 X-5.7442 Y-11.2322
G01 X-5.7504 Y-11.2126
G01 X-5.7594 Y-11.1941
G01 X-5.7711 Y-11.1771
G01 X-5.7790 Y-11.1681
G01 X-5.7877 Y-11.1597
G01 X-5.8159 Y-11.1374
G01 X-5.8590 Y-11.1002
G01 X-5.9002 Y-11.0609
G01 X-5.9395 Y-11.0197
G01 X-5.9767 Y-10.9766
G01 X-6.0117 Y-10.9317
G01 X-6.0445 Y-10.8851
G01 X-6.0749 Y-10.8370
G01 X-6.1030 Y-10.7875
G01 X-6.1286 Y-10.7366
G01 X-6.1517 Y-10.6846
G01 X-6.1722 Y-10.6315
G01 X-6.1900 Y-10.5774
G01 X-6.2052 Y-10.5225
G01 X-6.2142 Y-10.4827
G01 X-6.2188 Y-10.4679
G01 X-6.2249 Y-10.4537
G01 X-6.2317 Y-10.4418
G01 X-6.2407 Y-10.4292
G01 X-6.2498 Y-10.4189
G01 X-6.2639 Y-10.4063
G01 X-6.2795 Y-10.3957
G01 X-6.2964 Y-10.3873
G01 X-6.3143 Y-10.3813
G01 X-6.3329 Y-10.3777
G01 X-6.3517 Y-10.3767
G01 X-6.3688 Y-10.3780
G01 X-6.3873 Y-10.3817
G01 X-6.4052 Y-10.3880
G01 X-6.4220 Y-10.3966
G01 X-6.4375 Y-10.4074
G01 X-6.4514 Y-10.4201
G01 X-6.4635 Y-10.4347
G01 X-6.4735 Y-10.4507
G01 X-6.4812 Y-10.4679
G01 X-6.4866 Y-10.4860
G00 Z2.0000
G00 X-6.4183 Y-10.5013
G01 F70.00
G01 Z-0.0600
G01 F120.00
G01 X-6.4269 Y-10.5396
G01 X-6.4430 Y-10.5977
G01 X-6.4619 Y-10.6551
G01 X-6.4836 Y-10.7114
G01 X-6.5081 Y-10.7666
G01 X-6.5353 Y-10.8205
G01 X-6.5650 Y-10.8730
G01 X-6.5973 Y-10.9240
G01 X-6.6321 Y-10.9734
G01 X-6.6692 Y-11.0210
G01 X-6.7086 Y-11.0667
G01 X-6.7503 Y-11.1104
G01 X-6.7940 Y-11.1521
G01 X-6.8397 Y-11.1915
G01 X-6.8685 Y-11.2145
G01 X-6.8783 Y-11.2264
G01 X-6.8852 Y-11.2402
G01 X-6.8884 Y-11.2518
G01 X-6.8896 Y-11.2637
G01 X-6.8896 Y-11.7594
G01 X-6.8883 Y-11.7705
G01 X-6.8849 Y-11.7820
G01 X-6.8796 Y-11.7928
G01 X-6.8726 Y-11.8025
G01 X-6.8647 Y-11.8104
G01 X-6.8397 Y-11.8299
G01 X-6.7940 Y-11.8693
G01 X-6.7503 Y-11.9110
G01 X-6.7086 Y-11.9547
G01 X-6.6692 Y-12.0004
G01 X-6.6321 Y-12.0480
G01 X-6.5973 Y-12.0974
G01 X-6.5650 Y-12.1484
G01 X-6.5353 Y-12.2009
G01 X-6.5081 Y-12.2548
G01 X-6.4836 Y-12.3100
G01 X-6.4619 Y-12.3663
G01 X-6.4430 Y-12.4237
G01 X-6.4269 Y-12.4818
G01 X-6.4175 Y-12.5234
G01 X-6.4121 Y-12.5370
G01 X-6.4067 Y-12.5457
G01 X-6.4007 Y-12.5530
G01 X-6.3931 Y-12.5599
G01 X-6.3852 Y-12.5652
G01 X-6.3760 Y-12.5697
G01 X-6.3670 Y-12.5726
G01 X-6.3577 Y-12.5743
G01 X-6.3474 Y-12.5747
G01 X-6.3389 Y-12.5738
G01 X-6.3297 Y-12.5717
G01 X-6.3208 Y-12.5684
G01 X-6.3126 Y-12.5639
G01 X-6.3049 Y-12.5583
G01 X-6.2981 Y-12.5517
G01 X-6.2923 Y-12.5443
G01 X-6.2879 Y-12.5370
G01 X-6.2825 Y-12.5234
G01 X-6.2731 Y-12.4818
G01 X-6.2570 Y-12.4237
G01 X-6.2381 Y-12.3663
G01 X-6.2164 Y-12.3100
G01 X-6.1919 Y-12.2548
G01 X-6.1647 Y-12.2009
G01 X-6.1350 Y-12.1484
G01 X-6.1027 Y-12.0974
G01 X-6.0679 Y-12.0480
G01 X-6.0308 Y-12.0004
G01 X-5.9914 Y-11.9547
G01 X-5.9497 Y-11.9110
G01 X-5.9060 Y-11.8693
G01 X-5.8603 Y-11.8299
G01 X-5.8315 Y-11.8069
G01 X-5.8222 Y-11.7957
G01 X-5.8157 Y-11.7836
G01 X-5.8117 Y-11.7705
G01 X-5.8104 Y-11.7577
G01 X-5.8104 Y-11.2620
G01 X-5.8119 Y-11.2501
G01 X-5.8154 Y-11.2386
G01 X-5.8213 Y-11.2271
G01 X-5.8285 Y-11.2176
G01 X-5.8353 Y-11.2110
G01 X-5.8603 Y-11.1915
G01 X-5.9060 Y-11.1521
G01 X-5.9497 Y-11.1104
G01 X-5.9914 Y-11.0667
G01 X-6.0308 Y-11.0210
G01 X-6.0679 Y-10.9734
G01 X-6.1027 Y-10.9240
G01 X-6.1350 Y-10.8730
G01 X-6.1647 Y-10.8205
G01 X-6.1919 Y-10.7666
G01 X-6.2164 Y-10.7114
G01 X-6.2381 Y-10.6551
G01 X-6.2570 Y-10.5977
G01 X-6.2731 Y-10.5396
G01 X-6.2835 Y-10.4947
G01 X-6.2887 Y-10.4829
G01 X-6.2953 Y-10.4729
G01 X-6.3024 Y-10.4654
G01 X-6.3097 Y-10.4594
G01 X-6.3185 Y-10.4542
G01 X-6.3272 Y-10.4505
G01 X-6.3372 Y-10.4479
G01 X-6.3466 Y-10.4468
G01 X-6.3560 Y-10.4469
G01 X-6.3653 Y-10.4484
G01 X-6.3744 Y-10.4511
G01 X-6.3838 Y-10.4554
G01 X-6.3924 Y-10.4610
G01 X-6.3995 Y-10.4672
G01 X-6.4057 Y-10.4743
G01 X-6.4113 Y-10.4829
G01 X-6.4156 Y-10.4923
G01 X-6.4183 Y-10.5013
G00 Z2.0000
G00 X-6.5208 Y-10.3946
G01 F70.00
G01 Z-0.0600
G01 F120.00
G01 X-6.5056 Y-10.3756
G01 X-6.4872 Y-10.3577
G01 X-6.4667 Y-10.3421
G01 X-6.4467 Y-10.3303
G01 X-6.4232 Y-10.3198
G01 X-6.3985 Y-10.3124
G01 X-6.3757 Y-10.3083
G01 X-6.3500 Y-10.3067
G01 X-6.3243 Y-10.3083
G01 X-6.2990 Y-10.3130
G01 X-6.2744 Y-10.3207
G01 X-6.2533 Y-10.3303
G01 X-6.2333 Y-10.3421
G01 X-6.2128 Y-10.3577
G01 X-6.1944 Y-10.3756
G01 X-6.1792 Y-10.3946
G01 X-6.1847 Y-10.3495
G01 X-6.1883 Y-10.3003
G01 X-6.1900 Y-10.2407
G01 X-6.1883 Y-10.1811
G01 X-6.1847 Y-10.1319
G01 X-6.1792 Y-10.0868
G01 X-6.1944 Y-10.1058
G01 X-6.2128 Y-10.1237
G01 X-6.2333 Y-10.1393
G01 X-6.2533 Y-10.1511
G01 X-6.2768 Y-10.1616
G01 X-6.3015 Y-10.1690
G01 X-6.3243 Y-10.1731
G01 X-6.3500 Y-10.1747
G01 X-6.3757 Y-10.1731
G01 X-6.3985 Y-10.1690
G01 X-6.4232 Y-10.1616
G01 X-6.4467 Y-10.1511
G01 X-6.4667 Y-10.1393
G01 X-6.4872 Y-10.1237
G01 X-6.5056 Y-10.1058
G01 X-6.5208 Y-10.0868
G01 X-6.5153 Y-10.1319
G01 X-6.5117 Y-10.1811
G01 X-6.5100 Y-10.2407
G01 X-6.5117 Y-10.3003
G01 X-6.5153 Y-10.3495
G01 X-6.5208 Y-10.3946
G00 Z2.0000
G00 X-6.4402 Y-10.2516
G01 F70.00
G01 Z-0.0600
G01 F120.00
G01 X-6.4180 Y-10.2451
G01 X-6.3973 Y-10.2407
G01 X-6.4180 Y-10.2363
G01 X-6.4402 Y-10.2298
G01 X-6.4402 Y-10.2516
G00 Z2.0000
G00 X-6.3027 Y-10.2407
G01 F70.00
G01 Z-0.0600
G01 F120.00
G01 X-6.2820 Y-10.2451
G01 X-6.2598 Y-10.2516
G01 X-6.2598 Y-10.2298
G01 X-6.2820 Y-10.2363
G01 X-6.3027 Y-10.2407
G00 Z2.0000
G00 X-5.6960 Y-9.3173
G01 F70.00
G01 Z-0.0600
G01 F120.00
G01 X-5.6902 Y-9.3136
G01 X-5.6902 Y-9.3058
G01 X-5.6928 Y-9.3112
G01 X-5.6960 Y-9.3173
G00 Z2.0000
G00 X-5.6202 Y-9.3521
G01 F70.00
G01 Z-0.0600
G01 F120.00
G01 X-5.6578 Y-9.3760
G01 X-5.6967 Y-9.4034
G01 X-5.7371 Y-9.4346
G01 X-5.7784 Y-9.4701
G01 X-5.8129 Y-9.5029
G01 X-5.8506 Y-9.5423
G01 X-5.8839 Y-9.5809
G01 X-5.9153 Y-9.6212
G01 X-5.9447 Y-9.6629
G01 X-5.9720 Y-9.7060
G01 X-5.9988 Y-9.7535
G01 X-6.0216 Y-9.7992
G01 X-6.0408 Y-9.8427
G01 X-6.0580 Y-9.8871
G01 X-6.0752 Y-9.9388
G01 X-6.0888 Y-9.9880
G01 X-6.1000 Y-10.0378
G01 X-6.1090 Y-10.0898
G01 X-6.1150 Y-10.1388
G01 X-6.1185 Y-10.1862
G01 X-6.1200 Y-10.2407
G01 X-6.1187 Y-10.2917
G01 X-6.1153 Y-10.3392
G01 X-6.1087 Y-10.3933
G01 X-6.0993 Y-10.4470
G01 X-6.0888 Y-10.4934
G01 X-6.0752 Y-10.5426
G01 X-6.0580 Y-10.5943
G01 X-6.0408 Y-10.6387
G01 X-6.0201 Y-10.6854
G01 X-5.9955 Y-10.7340
G01 X-5.9720 Y-10.7754
G01 X-5.9447 Y-10.8185
G01 X-5.9133 Y-10.8630
G01 X-5.8839 Y-10.9005
G01 X-5.8506 Y-10.9391
G01 X-5.8154 Y-10.9761
G01 X-5.7809 Y-11.0090
G01 X-5.7398 Y-11.0446
G01 X-5.6967 Y-11.0780
G01 X-5.6578 Y-11.1054
G01 X-5.6202 Y-11.1293
G01 X-5.6202 Y-11.8921
G01 X-5.6578 Y-11.9160
G01 X-5.6967 Y-11.9434
G01 X-5.7398 Y-11.9768
G01 X-5.7809 Y-12.0124
G01 X-5.8154 Y-12.0453
G01 X-5.8506 Y-12.0823
G01 X-5.8861 Y-12.1236
G01 X-5.9153 Y-12.1612
G01 X-5.9447 Y-12.2029
G01 X-5.9720 Y-12.2460
G01 X-5.9955 Y-12.2874
G01 X-6.0201 Y-12.3360
G01 X-6.0421 Y-12.3859
G01 X-6.0592 Y-12.4303
G01 X-6.0752 Y-12.4788
G01 X-6.0896 Y-12.5313
G01 X-6.1000 Y-12.5778
G01 X-6.1087 Y-12.6281
G01 X-6.1153 Y-12.6822
G01 X-6.1187 Y-12.7297
G01 X-6.1200 Y-12.7807
G01 X-6.1187 Y-12.8317
G01 X-6.1153 Y-12.8792
G01 X-6.1085 Y-12.9350
G01 X-6.1000 Y-12.9836
G01 X-6.0888 Y-13.0334
G01 X-6.0752 Y-13.0826
G01 X-6.0592 Y-13.1311
G01 X-6.0408 Y-13.1787
G01 X-6.0201 Y-13.2254
G01 X-5.9972 Y-13.2710
G01 X-5.9720 Y-13.3154
G01 X-5.9447 Y-13.3585
G01 X-5.9153 Y-13.4002
G01 X-5.8839 Y-13.4405
G01 X-5.8506 Y-13.4791
G01 X-5.8154 Y-13.5161
G01 X-5.7784 Y-13.5513
G01 X-5.7398 Y-13.5846
G01 X-5.6995 Y-13.6160
G01 X-5.6578 Y-13.6454
G01 X-5.6147 Y-13.6727
G01 X-5.5703 Y-13.6979
G01 X-5.5247 Y-13.7208
G01 X-5.4780 Y-13.7415
G01 X-5.4304 Y-13.7599
G01 X-5.3819 Y-13.7759
G01 X-5.3327 Y-13.7895
G01 X-5.2829 Y-13.8007
G01 X-5.2326 Y-13.8094
G01 X-5.1819 Y-13.8157
G01 X-5.1310 Y-13.8194
G01 X-5.0800 Y-13.8207
G01 X-5.0290 Y-13.8194
G01 X-4.9781 Y-13.8157
G01 X-4.9257 Y-13.8092
G01 X-4.8771 Y-13.8007
G01 X-4.8306 Y-13.7903
G01 X-4.7748 Y-13.7749
G01 X-4.7296 Y-13.7599
G01 X-4.6820 Y-13.7415
G01 X-4.6353 Y-13.7208
G01 X-4.5928 Y-13.6995
G01 X-4.5424 Y-13.6709
G01 X-4.5022 Y-13.6454
G01 X-4.4605 Y-13.6160
G01 X-4.4202 Y-13.5846
G01 X-4.3842 Y-13.5536
G01 X-4.3446 Y-13.5161
G01 X-4.3094 Y-13.4791
G01 X-4.2783 Y-13.4431
G01 X-4.2427 Y-13.3974
G01 X-4.2153 Y-13.3585
G01 X-4.1880 Y-13.3154
G01 X-4.1628 Y-13.2710
G01 X-4.1414 Y-13.2284
G01 X-4.1179 Y-13.1755
G01 X-4.1008 Y-13.1311
G01 X-4.0848 Y-13.0826
G01 X-4.0704 Y-13.0301
G01 X-4.0600 Y-12.9836
G01 X-4.0513 Y-12.9333
G01 X-4.0447 Y-12.8792
G01 X-4.0413 Y-12.8317
G01 X-4.0400 Y-12.7807
G01 X-4.0415 Y-12.7262
G01 X-4.0450 Y-12.6788
G01 X-4.0513 Y-12.6281
G01 X-4.0607 Y-12.5744
G01 X-4.0712 Y-12.5280
G01 X-4.0848 Y-12.4788
G01 X-4.1020 Y-12.4271
G01 X-4.1192 Y-12.3827
G01 X-4.1399 Y-12.3360
G01 X-4.1645 Y-12.2874
G01 X-4.1880 Y-12.2460
G01 X-4.2153 Y-12.2029
G01 X-4.2467 Y-12.1584
G01 X-4.2761 Y-12.1209
G01 X-4.3094 Y-12.0823
G01 X-4.3446 Y-12.0453
G01 X-4.3791 Y-12.0124
G01 X-4.4202 Y-11.9768
G01 X-4.4633 Y-11.9434
G01 X-4.5022 Y-11.9160
G01 X-4.5398 Y-11.8921
G01 X-4.5398 Y-11.1293
G01 X-4.5022 Y-11.1054
G01 X-4.4633 Y-11.0780
G01 X-4.4202 Y-11.0446
G01 X-4.3791 Y-11.0090
G01 X-4.3446 Y-10.9761
G01 X-4.3117 Y-10.9416
G01 X-4.2761 Y-10.9005
G01 X-4.2427 Y-10.8574
G01 X-4.2134 Y-10.8156
G01 X-4.1880 Y-10.7754
G01 X-4.1645 Y-10.7340
G01 X-4.1399 Y-10.6854
G01 X-4.1179 Y-10.6355
G01 X-4.1008 Y-10.5911
G01 X-4.0858 Y-10.5459
G01 X-4.0712 Y-10.4934
G01 X-4.0600 Y-10.4436
G01 X-4.0508 Y-10.3899
G01 X-4.0450 Y-10.3426
G01 X-4.0415 Y-10.2952
G01 X-4.0400 Y-10.2407
G01 X-4.0413 Y-10.1897
G01 X-4.0454 Y-10.1353
G01 X-4.0513 Y-10.0881
G01 X-4.0594 Y-10.0412
G01 X-4.0712 Y-9.9880
G01 X-4.0858 Y-9.9355
G01 X-4.1008 Y-9.8903
G01 X-4.1179 Y-9.8459
G01 X-4.1399 Y-9.7960
G01 X-4.1645 Y-9.7474
G01 X-4.1898 Y-9.7031
G01 X-4.2153 Y-9.6629
G01 X-4.2427 Y-9.6240
G01 X-4.2761 Y-9.5809
G01 X-4.3117 Y-9.5398
G01 X-4.3446 Y-9.5053
G01 X-4.3791 Y-9.4724
G01 X-4.4202 Y-9.4368
G01 X-4.4633 Y-9.4034
G01 X-4.5022 Y-9.3760
G01 X-4.5398 Y-9.3521
G01 X-4.5398 Y-7.7938
G01 X-3.7532 Y-5.5800
G01 X-3.5466 Y-5.5800
G01 X-3.5278 Y-5.5782
G01 X-3.5094 Y-5.5740
G01 X-3.4933 Y-5.5680
G01 X-3.4780 Y-5.5601
G01 X-3.4639 Y-5.5504
G01 X-3.4498 Y-5.5378
G01 X-3.4386 Y-5.5248
G01 X-3.4282 Y-5.5090
G01 X-3.4207 Y-5.4936
G01 X-3.4151 Y-5.4773
G01 X-3.4113 Y-5.4588
G01 X-3.4100 Y-5.4400
G01 X-3.4103 Y-4.2114
G01 X-3.4130 Y-4.1910
G01 X-3.4182 Y-4.1728
G01 X-3.4257 Y-4.1555
G01 X-3.4365 Y-4.1380
G01 X-3.4498 Y-4.1222
G01 X-3.4639 Y-4.1096
G01 X-3.4795 Y-4.0990
G01 X-3.4980 Y-4.0900
G01 X-3.5110 Y-4.0855
G01 X-3.5227 Y-4.0827
G01 X-3.5363 Y-4.0807
G01 X-3.5483 Y-4.0800
G01 X-4.5786 Y-4.0803
G01 X-4.5990 Y-4.0830
G01 X-4.6172 Y-4.0882
G01 X-4.6345 Y-4.0957
G01 X-4.6520 Y-4.1065
G01 X-4.6665 Y-4.1186
G01 X-4.6804 Y-4.1339
G01 X-4.6918 Y-4.1510
G01 X-4.7000 Y-4.1680
G01 X-4.7040 Y-4.1794
G01 X-4.7073 Y-4.1927
G01 X-4.7093 Y-4.2063
G01 X-4.7100 Y-4.2183
G01 X-4.7100 Y-5.0459
G01 X-5.5890 Y-7.5198
G01 X-5.5972 Y-7.5449
G01 X-5.6034 Y-7.5670
G01 X-5.6106 Y-7.5993
G01 X-5.6144 Y-7.6219
G01 X-5.6176 Y-7.6481
G01 X-5.6196 Y-7.6744
G01 X-5.6202 Y-7.7007
G01 X-5.6202 Y-9.3521
G00 Z2.0000
G00 X-5.5502 Y-9.3925
G01 F70.00
G01 Z-0.0600
G01 F120.00
G01 X-5.5787 Y-9.4087
G01 X-5.6175 Y-9.4332
G01 X-5.6571 Y-9.4611
G01 X-5.6954 Y-9.4909
G01 X-5.7320 Y-9.5226
G01 X-5.7659 Y-9.5548
G01 X-5.7999 Y-9.5906
G01 X-5.8298 Y-9.6253
G01 X-5.8581 Y-9.6615
G01 X-5.8860 Y-9.7011
G01 X-5.9120 Y-9.7420
G01 X-5.9355 Y-9.7834
G01 X-5.9569 Y-9.8260
G01 X-5.9768 Y-9.8711
G01 X-5.9933 Y-9.9139
G01 X-6.0077 Y-9.9575
G01 X-6.0205 Y-10.0033
G01 X-6.0314 Y-10.0515
G01 X-6.0396 Y-10.0992
G01 X-6.0453 Y-10.1456
G01 X-6.0487 Y-10.1914
G01 X-6.0500 Y-10.2407
G01 X-6.0488 Y-10.2883
G01 X-6.0455 Y-10.3341
G01 X-6.0395 Y-10.3830
G01 X-6.0310 Y-10.4316
G01 X-6.0209 Y-10.4764
G01 X-6.0082 Y-10.5223
G01 X-5.9933 Y-10.5675
G01 X-5.9768 Y-10.6103
G01 X-5.9565 Y-10.6562
G01 X-5.9355 Y-10.6980
G01 X-5.9129 Y-10.7379
G01 X-5.8865 Y-10.7796
G01 X-5.8591 Y-10.8185
G01 X-5.8309 Y-10.8547
G01 X-5.7981 Y-10.8927
G01 X-5.7659 Y-10.9266
G01 X-5.7327 Y-10.9583
G01 X-5.6947 Y-10.9911
G01 X-5.6578 Y-11.0198
G01 X-5.6189 Y-11.0472
G01 X-5.5787 Y-11.0727
G01 X-5.5502 Y-11.0889
G01 X-5.5502 Y-11.9325
G01 X-5.5787 Y-11.9487
G01 X-5.6189 Y-11.9742
G01 X-5.6578 Y-12.0016
G01 X-5.6947 Y-12.0303
G01 X-5.7327 Y-12.0631
G01 X-5.7659 Y-12.0948
G01 X-5.7981 Y-12.1287
G01 X-5.8309 Y-12.1667
G01 X-5.8591 Y-12.2029
G01 X-5.8865 Y-12.2418
G01 X-5.9129 Y-12.2835
G01 X-5.9355 Y-12.3234
G01 X-5.9565 Y-12.3652
G01 X-5.9768 Y-12.4111
G01 X-5.9933 Y-12.4539
G01 X-6.0082 Y-12.4991
G01 X-6.0213 Y-12.5467
G01 X-6.0314 Y-12.5915
G01 X-6.0395 Y-12.6384
G01 X-6.0455 Y-12.6873
G01 X-6.0488 Y-12.7331
G01 X-6.0500 Y-12.7807
G01 X-6.0487 Y-12.8300
G01 X-6.0453 Y-12.8758
G01 X-6.0396 Y-12.9222
G01 X-6.0314 Y-12.9699
G01 X-6.0209 Y-13.0164
G01 X-6.0082 Y-13.0623
G01 X-5.9933 Y-13.1075
G01 X-5.9762 Y-13.1519
G01 X-5.9569 Y-13.1954
G01 X-5.9355 Y-13.2380
G01 X-5.9120 Y-13.2794
G01 X-5.8865 Y-13.3196
G01 X-5.8591 Y-13.3585
G01 X-5.8298 Y-13.3961
G01 X-5.7987 Y-13.4321
G01 X-5.7659 Y-13.4666
G01 X-5.7314 Y-13.4994
G01 X-5.6954 Y-13.5305
G01 X-5.6578 Y-13.5598
G01 X-5.6189 Y-13.5872
G01 X-5.5787 Y-13.6127
G01 X-5.5373 Y-13.6362
G01 X-5.4947 Y-13.6576
G01 X-5.4512 Y-13.6769
G01 X-5.4068 Y-13.6940
G01 X-5.3616 Y-13.7089
G01 X-5.3157 Y-13.7216
G01 X-5.2692 Y-13.7321
G01 X-5.2223 Y-13.7402
G01 X-5.1751 Y-13.7460
G01 X-5.1276 Y-13.7495
G01 X-5.0800 Y-13.7507
G01 X-5.0324 Y-13.7495
G01 X-4.9849 Y-13.7460
G01 X-4.9385 Y-13.7403
G01 X-4.8891 Y-13.7317
G01 X-4.8443 Y-13.7216
G01 X-4.7984 Y-13.7089
G01 X-4.7532 Y-13.6940
G01 X-4.7104 Y-13.6775
G01 X-4.6637 Y-13.6568
G01 X-4.6227 Y-13.6362
G01 X-4.5813 Y-13.6127
G01 X-4.5411 Y-13.5872
G01 X-4.5036 Y-13.5608
G01 X-4.4633 Y-13.5294
G01 X-4.4286 Y-13.4994
G01 X-4.3941 Y-13.4666
G01 X-4.3613 Y-13.4321
G01 X-4.3313 Y-13.3974
G01 X-4.2999 Y-13.3571
G01 X-4.2735 Y-13.3196
G01 X-4.2480 Y-13.2794
G01 X-4.2245 Y-13.2380
G01 X-4.2039 Y-13.1970
G01 X-4.1832 Y-13.1503
G01 X-4.1667 Y-13.1075
G01 X-4.1518 Y-13.0623
G01 X-4.1387 Y-13.0147
G01 X-4.1286 Y-12.9699
G01 X-4.1205 Y-12.9230
G01 X-4.1145 Y-12.8741
G01 X-4.1112 Y-12.8283
G01 X-4.1100 Y-12.7807
G01 X-4.1113 Y-12.7314
G01 X-4.1147 Y-12.6856
G01 X-4.1205 Y-12.6384
G01 X-4.1290 Y-12.5898
G01 X-4.1391 Y-12.5450
G01 X-4.1518 Y-12.4991
G01 X-4.1667 Y-12.4539
G01 X-4.1832 Y-12.4111
G01 X-4.2035 Y-12.3652
G01 X-4.2245 Y-12.3234
G01 X-4.2471 Y-12.2835
G01 X-4.2735 Y-12.2418
G01 X-4.3009 Y-12.2029
G01 X-4.3291 Y-12.1667
G01 X-4.3619 Y-12.1287
G01 X-4.3941 Y-12.0948
G01 X-4.4273 Y-12.0631
G01 X-4.4653 Y-12.0303
G01 X-4.5022 Y-12.0016
G01 X-4.5411 Y-11.9742
G01 X-4.5813 Y-11.9487
G01 X-4.6098 Y-11.9325
G01 X-4.6098 Y-11.0889
G01 X-4.5813 Y-11.0727
G01 X-4.5418 Y-11.0477
G01 X-4.5015 Y-11.0193
G01 X-4.4646 Y-10.9905
G01 X-4.4299 Y-10.9606
G01 X-4.3947 Y-10.9272
G01 X-4.3601 Y-10.8908
G01 X-4.3302 Y-10.8561
G01 X-4.3019 Y-10.8199
G01 X-4.2735 Y-10.7796
G01 X-4.2476 Y-10.7386
G01 X-4.2245 Y-10.6980
G01 X-4.2039 Y-10.6570
G01 X-4.1838 Y-10.6119
G01 X-4.1661 Y-10.5659
G01 X-4.1518 Y-10.5223
G01 X-4.1395 Y-10.4781
G01 X-4.1286 Y-10.4299
G01 X-4.1203 Y-10.3813
G01 X-4.1147 Y-10.3358
G01 X-4.1113 Y-10.2900
G01 X-4.1100 Y-10.2407
G01 X-4.1113 Y-10.1914
G01 X-4.1147 Y-10.1456
G01 X-4.1203 Y-10.1001
G01 X-4.1286 Y-10.0515
G01 X-4.1395 Y-10.0033
G01 X-4.1518 Y-9.9591
G01 X-4.1661 Y-9.9155
G01 X-4.1838 Y-9.8695
G01 X-4.2039 Y-9.8244
G01 X-4.2245 Y-9.7834
G01 X-4.2476 Y-9.7428
G01 X-4.2735 Y-9.7018
G01 X-4.3019 Y-9.6615
G01 X-4.3302 Y-9.6253
G01 X-4.3601 Y-9.5906
G01 X-4.3947 Y-9.5542
G01 X-4.4299 Y-9.5208
G01 X-4.4646 Y-9.4909
G01 X-4.5015 Y-9.4621
G01 X-4.5418 Y-9.4337
G01 X-4.5813 Y-9.4087
G01 X-4.6098 Y-9.3925
G01 X-4.6098 Y-7.7818
G01 X-3.8026 Y-5.5100
G01 X-3.5500 Y-5.5100
G01 X-3.5389 Y-5.5091
G01 X-3.5297 Y-5.5070
G01 X-3.5209 Y-5.5036
G01 X-3.5118 Y-5.4987
G01 X-3.5043 Y-5.4930
G01 X-3.4976 Y-5.4864
G01 X-3.4913 Y-5.4782
G01 X-3.4867 Y-5.4699
G01 X-3.4830 Y-5.4603
G01 X-3.4808 Y-5.4503
G01 X-3.4800 Y-5.4400
G01 X-3.4800 Y-4.2174
G01 X-3.4810 Y-4.2080
G01 X-3.4835 Y-4.1980
G01 X-3.4875 Y-4.1885
G01 X-3.4928 Y-4.1797
G01 X-3.4993 Y-4.1717
G01 X-3.5069 Y-4.1648
G01 X-3.5155 Y-4.1591
G01 X-3.5248 Y-4.1547
G01 X-3.5372 Y-4.1512
G01 X-3.5500 Y-4.1500
G01 X-4.5726 Y-4.1500
G01 X-4.5820 Y-4.1510
G01 X-4.5920 Y-4.1535
G01 X-4.6015 Y-4.1575
G01 X-4.6103 Y-4.1628
G01 X-4.6183 Y-4.1693
G01 X-4.6252 Y-4.1769
G01 X-4.6309 Y-4.1855
G01 X-4.6353 Y-4.1948
G01 X-4.6388 Y-4.2072
G01 X-4.6400 Y-4.2200
G01 X-4.6400 Y-5.0580
G01 X-5.5231 Y-7.5433
G01 X-5.5302 Y-7.5651
G01 X-5.5359 Y-7.5855
G01 X-5.5416 Y-7.6112
G01 X-5.5452 Y-7.6321
G01 X-5.5480 Y-7.6549
G01 X-5.5496 Y-7.6778
G01 X-5.5502 Y-7.7007
G01 X-5.5502 Y-9.3925
G00 Z2.0000
G00 X-4.4698 Y-9.3058
G01 F70.00
G01 Z-0.0600
G01 F120.00
G01 X-4.4698 Y-9.3136
G01 X-4.4640 Y-9.3173
G01 X-4.4672 Y-9.3112
G01 X-4.4698 Y-9.3058
G00 Z2.0000
G00 X-4.3657 Y-9.3272
G01 F70.00
G01 Z-0.0600
G01 F120.00
G01 X-4.3441 Y-9.3440
G01 X-4.3010 Y-9.3812
G01 X-4.2598 Y-9.4205
G01 X-4.2205 Y-9.4617
G01 X-4.1833 Y-9.5048
G01 X-4.1483 Y-9.5497
G01 X-4.1155 Y-9.5963
G01 X-4.0851 Y-9.6444
G01 X-4.0570 Y-9.6939
G01 X-4.0314 Y-9.7448
G01 X-4.0083 Y-9.7968
G01 X-3.9878 Y-9.8499
G01 X-3.9687 Y-9.9063
G01 X-3.9583 Y-9.9261
G01 X-3.9460 Y-9.9426
G01 X-3.9327 Y-9.9560
G01 X-3.9163 Y-9.9685
G01 X-3.8983 Y-9.9784
G01 X-3.8790 Y-9.9856
G01 X-3.8588 Y-9.9899
G01 X-3.8383 Y-9.9911
G01 X-3.8178 Y-9.9894
G01 X-3.7994 Y-9.9851
G01 X-3.7817 Y-9.9784
G01 X-3.7637 Y-9.9685
G01 X-3.7473 Y-9.9560
G01 X-3.7329 Y-9.9413
G01 X-3.7208 Y-9.9246
G01 X-3.7113 Y-9.9063
G01 X-3.7046 Y-9.8868
G01 X-3.7009 Y-9.8666
G01 X-3.7000 Y-9.8512
G01 X-3.7000 Y-9.0807
G01 X-3.3387 Y-9.0807
G01 X-3.3250 Y-9.0798
G01 X-3.3131 Y-9.0780
G01 X-3.2949 Y-9.0731
G01 X-3.2759 Y-9.0650
G01 X-3.2598 Y-9.0552
G01 X-3.2451 Y-9.0433
G01 X-3.2322 Y-9.0295
G01 X-3.2212 Y-9.0141
G01 X-3.2124 Y-8.9974
G01 X-3.2059 Y-8.9797
G01 X-3.2017 Y-8.9595
G01 X-3.2004 Y-8.9407
G01 X-3.2004 Y-5.8366
G01 X-3.2025 Y-5.8161
G01 X-3.2080 Y-5.7945
G01 X-3.2169 Y-5.7740
G01 X-3.2290 Y-5.7552
G01 X-3.2439 Y-5.7386
G01 X-3.2612 Y-5.7246
G01 X-3.2805 Y-5.7134
G01 X-3.3014 Y-5.7055
G01 X-3.3199 Y-5.7015
G01 X-3.3387 Y-5.7000
G01 X-3.5712 Y-5.7000
G01 X-3.5934 Y-5.7021
G01 X-3.6085 Y-5.7056
G01 X-3.6231 Y-5.7107
G01 X-3.6371 Y-5.7174
G01 X-3.6516 Y-5.7266
G01 X-3.6636 Y-5.7364
G01 X-3.6745 Y-5.7474
G01 X-3.6840 Y-5.7596
G01 X-3.6930 Y-5.7742
G01 X-3.7014 Y-5.7931
G01 X-4.4141 Y-7.7999
G01 X-4.4181 Y-7.8183
G01 X-4.4196 Y-7.8387
G01 X-4.4195 Y-9.2220
G01 X-4.4181 Y-9.2374
G01 X-4.4150 Y-9.2525
G01 X-4.4102 Y-9.2672
G01 X-4.4039 Y-9.2813
G01 X-4.3960 Y-9.2946
G01 X-4.3867 Y-9.3070
G01 X-4.3761 Y-9.3182
G01 X-4.3657 Y-9.3272
G00 Z2.0000
G00 X-4.3227 Y-9.2720
G01 F70.00
G01 Z-0.0600
G01 F120.00
G01 X-4.2997 Y-9.2899
G01 X-4.2540 Y-9.3293
G01 X-4.2103 Y-9.3710
G01 X-4.1686 Y-9.4147
G01 X-4.1292 Y-9.4604
G01 X-4.0921 Y-9.5080
G01 X-4.0573 Y-9.5574
G01 X-4.0250 Y-9.6084
G01 X-3.9953 Y-9.6609
G01 X-3.9681 Y-9.7148
G01 X-3.9436 Y-9.7700
G01 X-3.9219 Y-9.8263
G01 X-3.9050 Y-9.8771
G01 X-3.9005 Y-9.8864
G01 X-3.8952 Y-9.8942
G01 X-3.8883 Y-9.9019
G01 X-3.8803 Y-9.9084
G01 X-3.8715 Y-9.9137
G01 X-3.8611 Y-9.9179
G01 X-3.8511 Y-9.9203
G01 X-3.8400 Y-9.9212
G01 X-3.8297 Y-9.9204
G01 X-3.8197 Y-9.9181
G01 X-3.8101 Y-9.9144
G01 X-3.8004 Y-9.9089
G01 X-3.7924 Y-9.9024
G01 X-3.7848 Y-9.8942
G01 X-3.7791 Y-9.8857
G01 X-3.7744 Y-9.8755
G01 X-3.7715 Y-9.8657
G01 X-3.7701 Y-9.8546
G01 X-3.7700 Y-9.0107
G01 X-3.3335 Y-9.0104
G01 X-3.3234 Y-9.0086
G01 X-3.3136 Y-9.0054
G01 X-3.3044 Y-9.0007
G01 X-3.2960 Y-8.9948
G01 X-3.2885 Y-8.9877
G01 X-3.2822 Y-8.9796
G01 X-3.2771 Y-8.9706
G01 X-3.2732 Y-8.9602
G01 X-3.2710 Y-8.9501
G01 X-3.2704 Y-8.9407
G01 X-3.2704 Y-5.8391
G01 X-3.2714 Y-5.8280
G01 X-3.2742 Y-5.8172
G01 X-3.2787 Y-5.8070
G01 X-3.2847 Y-5.7976
G01 X-3.2921 Y-5.7893
G01 X-3.3008 Y-5.7823
G01 X-3.3105 Y-5.7767
G01 X-3.3209 Y-5.7728
G01 X-3.3301 Y-5.7708
G01 X-3.3395 Y-5.7700
G01 X-3.5772 Y-5.7704
G01 X-3.5856 Y-5.7719
G01 X-3.5939 Y-5.7744
G01 X-3.6017 Y-5.7779
G01 X-3.6091 Y-5.7823
G01 X-3.6159 Y-5.7876
G01 X-3.6220 Y-5.7937
G01 X-3.6272 Y-5.8005
G01 X-3.6320 Y-5.8087
G01 X-3.6354 Y-5.8166
G01 X-4.3469 Y-7.8193
G01 X-4.3490 Y-7.8293
G01 X-4.3496 Y-7.8387
G01 X-4.3496 Y-9.2177
G01 X-4.3477 Y-9.2330
G01 X-4.3421 Y-9.2483
G01 X-4.3337 Y-9.2612
G01 X-4.3227 Y-9.2720
G00 Z2.0000
G00 X-3.9994 Y-9.9878
G01 F70.00
G01 Z-0.0600
G01 F120.00
G01 X-3.9913 Y-10.0241
G01 X-3.9828 Y-10.0727
G01 X-3.9756 Y-10.1293
G01 X-3.9713 Y-10.1862
G01 X-3.9700 Y-10.2407
G01 X-3.9713 Y-10.2952
G01 X-3.9756 Y-10.3521
G01 X-3.9828 Y-10.4087
G01 X-3.9913 Y-10.4573
G01 X-3.9994 Y-10.4936
G01 X-3.9810 Y-10.4746
G01 X-3.9609 Y-10.4586
G01 X-3.9390 Y-10.4450
G01 X-3.9156 Y-10.4343
G01 X-3.8910 Y-10.4265
G01 X-3.8631 Y-10.4215
G01 X-3.8374 Y-10.4203
G01 X-3.8117 Y-10.4222
G01 X-3.7865 Y-10.4272
G01 X-3.7596 Y-10.4362
G01 X-3.7365 Y-10.4475
G01 X-3.7149 Y-10.4616
G01 X-3.6952 Y-10.4782
G01 X-3.6777 Y-10.4970
G01 X-3.6626 Y-10.5179
G01 X-3.6500 Y-10.5408
G01 X-3.6500 Y-9.9406
G01 X-3.6626 Y-9.9635
G01 X-3.6777 Y-9.9844
G01 X-3.6952 Y-10.0032
G01 X-3.7149 Y-10.0198
G01 X-3.7365 Y-10.0339
G01 X-3.7596 Y-10.0452
G01 X-3.7865 Y-10.0542
G01 X-3.8117 Y-10.0592
G01 X-3.8400 Y-10.0612
G01 X-3.8657 Y-10.0596
G01 X-3.8910 Y-10.0549
G01 X-3.9156 Y-10.0471
G01 X-3.9390 Y-10.0364
G01 X-3.9609 Y-10.0228
G01 X-3.9810 Y-10.0068
G01 X-3.9994 Y-9.9878
G00 Z2.0000
G00 X-3.9059 Y-10.1233
G01 F70.00
G01 Z-0.0600
G01 F120.00
G01 X-3.9014 Y-10.1828
G01 X-3.9000 Y-10.2407
G01 X-3.9014 Y-10.2986
G01 X-3.9059 Y-10.3581
G01 X-3.8845 Y-10.3538
G01 X-3.8606 Y-10.3510
G01 X-3.8366 Y-10.3503
G01 X-3.8126 Y-10.3516
G01 X-3.7887 Y-10.3550
G01 X-3.7653 Y-10.3604
G01 X-3.7424 Y-10.3678
G01 X-3.7200 Y-10.3773
G01 X-3.7200 Y-10.1041
G01 X-3.7424 Y-10.1136
G01 X-3.7653 Y-10.1210
G01 X-3.7887 Y-10.1264
G01 X-3.8126 Y-10.1298
G01 X-3.8366 Y-10.1311
G01 X-3.8606 Y-10.1304
G01 X-3.8845 Y-10.1276
G01 X-3.9059 Y-10.1233
G00 Z2.0000
G00 X-3.5294 Y-9.1507
G01 F70.00
G01 Z-0.0600
G01 F120.00
G01 X-3.6300 Y-9.1507
G01 X-3.6300 Y-9.2513
G01 X-3.6214 Y-9.2350
G01 X-3.6117 Y-9.2198
G01 X-3.6007 Y-9.2055
G01 X-3.5885 Y-9.1922
G01 X-3.5752 Y-9.1800
G01 X-3.5609 Y-9.1690
G01 X-3.5457 Y-9.1593
G01 X-3.5294 Y-9.1507
G00 Z2.0000
G00 X-3.1502 Y-9.0297
G01 F70.00
G01 Z-0.0600
G01 F120.00
G01 X-3.1590 Y-9.0464
G01 X-3.1687 Y-9.0616
G01 X-3.1797 Y-9.0759
G01 X-3.1919 Y-9.0892
G01 X-3.2052 Y-9.1014
G01 X-3.2195 Y-9.1124
G01 X-3.2347 Y-9.1221
G01 X-3.2510 Y-9.1307
G01 X-3.1502 Y-9.1307
G01 X-3.1502 Y-9.0297
G00 Z2.0000
G00 X-1.9298 Y-9.0297
G01 F70.00
G01 Z-0.0600
G01 F120.00
G01 X-1.9298 Y-9.1307
G01 X-1.8290 Y-9.1307
G01 X-1.8453 Y-9.1221
G01 X-1.8605 Y-9.1124
G01 X-1.8748 Y-9.1014
G01 X-1.8881 Y-9.0892
G01 X-1.9003 Y-9.0759
G01 X-1.9113 Y-9.0616
G01 X-1.9210 Y-9.0464
G01 X-1.9298 Y-9.0297
G00 Z2.0000
G00 X-1.5506 Y-9.1507
G01 F70.00
G01 Z-0.0600
G01 F120.00
G01 X-1.5343 Y-9.1593
G01 X-1.5191 Y-9.1690
G01 X-1.5048 Y-9.1800
G01 X-1.4915 Y-9.1922
G01 X-1.4793 Y-9.2055
G01 X-1.4683 Y-9.2198
G01 X-1.4586 Y-9.2350
G01 X-1.4500 Y-9.2513
G01 X-1.4500 Y-9.1507
G01 X-1.5506 Y-9.1507
G00 Z2.0000
G00 X-1.4500 Y-11.2301
G01 F70.00
G01 Z-0.0600
G01 F120.00
G01 X-1.4612 Y-11.2509
G01 X-1.4744 Y-11.2699
G01 X-1.4897 Y-11.2874
G01 X-1.5068 Y-11.3030
G01 X-1.5255 Y-11.3167
G01 X-1.5456 Y-11.3283
G01 X-1.5668 Y-11.3375
G01 X-1.5890 Y-11.3444
G01 X-1.6117 Y-11.3488
G01 X-1.6348 Y-11.3506
G01 X-1.9298 Y-11.3507
G01 X-1.9298 Y-11.6707
G01 X-1.6348 Y-11.6708
G01 X-1.6117 Y-11.6726
G01 X-1.5890 Y-11.6770
G01 X-1.5668 Y-11.6839
G01 X-1.5456 Y-11.6931
G01 X-1.5255 Y-11.7047
G01 X-1.5068 Y-11.7184
G01 X-1.4897 Y-11.7340
G01 X-1.4744 Y-11.7515
G01 X-1.4612 Y-11.7705
G01 X-1.4500 Y-11.7913
G01 X-1.4500 Y-11.2301
G00 Z2.0000
G00 X-1.5200 Y-11.3937
G01 F70.00
G01 Z-0.0600
G01 F120.00
G01 X-1.5424 Y-11.4032
G01 X-1.5686 Y-11.4115
G01 X-1.5955 Y-11.4171
G01 X-1.6194 Y-11.4199
G01 X-1.6400 Y-11.4207
G01 X-1.8598 Y-11.4207
G01 X-1.8598 Y-11.6007
G01 X-1.6400 Y-11.6007
G01 X-1.6194 Y-11.6015
G01 X-1.5955 Y-11.6043
G01 X-1.5686 Y-11.6099
G01 X-1.5424 Y-11.6182
G01 X-1.5200 Y-11.6277
G01 X-1.5200 Y-11.3937
G00 Z2.0000
G00 X-3.5600 Y-11.3937
G01 F70.00
G01 Z-0.0600
G01 F120.00
G01 X-3.5600 Y-11.6277
G01 X-3.5376 Y-11.6182
G01 X-3.5114 Y-11.6099
G01 X-3.4879 Y-11.6048
G01 X-3.4606 Y-11.6015
G01 X-3.4400 Y-11.6007
G01 X-3.2202 Y-11.6007
G01 X-3.2202 Y-11.4207
G01 X-3.4400 Y-11.4207
G01 X-3.4606 Y-11.4199
G01 X-3.4845 Y-11.4171
G01 X-3.5114 Y-11.4115
G01 X-3.5376 Y-11.4032
G01 X-3.5600 Y-11.3937
G00 Z2.0000
G00 X-3.6300 Y-11.2301
G01 F70.00
G01 Z-0.0600
G01 F120.00
G01 X-3.6300 Y-11.7913
G01 X-3.6188 Y-11.7705
G01 X-3.6056 Y-11.7515
G01 X-3.5903 Y-11.7340
G01 X-3.5732 Y-11.7184
G01 X-3.5545 Y-11.7047
G01 X-3.5344 Y-11.6931
G01 X-3.5132 Y-11.6839
G01 X-3.4910 Y-11.6770
G01 X-3.4683 Y-11.6726
G01 X-3.4452 Y-11.6708
G01 X-3.1502 Y-11.6707
G01 X-3.1502 Y-11.3507
G01 X-3.4452 Y-11.3506
G01 X-3.4683 Y-11.3488
G01 X-3.4910 Y-11.3444
G01 X-3.5132 Y-11.3375
G01 X-3.5344 Y-11.3283
G01 X-3.5545 Y-11.3167
G01 X-3.5732 Y-11.3030
G01 X-3.5903 Y-11.2874
G01 X-3.6056 Y-11.2699
G01 X-3.6188 Y-11.2509
G01 X-3.6300 Y-11.2301
G00 Z2.0000
G00 X-4.4698 Y-11.1756
G01 F70.00
G01 Z-0.0600
G01 F120.00
G01 X-4.4672 Y-11.1702
G01 X-4.4640 Y-11.1641
G01 X-4.4698 Y-11.1678
G01 X-4.4698 Y-11.1756
G00 Z2.0000
G00 X-4.3227 Y-11.8120
G01 F70.00
G01 Z-0.0600
G01 F120.00
G01 X-4.2997 Y-11.8299
G01 X-4.2540 Y-11.8693
G01 X-4.2103 Y-11.9110
G01 X-4.1686 Y-11.9547
G01 X-4.1292 Y-12.0004
G01 X-4.0921 Y-12.0480
G01 X-4.0573 Y-12.0974
G01 X-4.0250 Y-12.1484
G01 X-3.9953 Y-12.2009
G01 X-3.9681 Y-12.2548
G01 X-3.9436 Y-12.3100
G01 X-3.9219 Y-12.3663
G01 X-3.9047 Y-12.4179
G01 X-3.9000 Y-12.4271
G01 X-3.8936 Y-12.4362
G01 X-3.8837 Y-12.4458
G01 X-3.8722 Y-12.4533
G01 X-3.8595 Y-12.4584
G01 X-3.8460 Y-12.4609
G01 X-3.8323 Y-12.4607
G01 X-3.8189 Y-12.4579
G01 X-3.8062 Y-12.4525
G01 X-3.7949 Y-12.4447
G01 X-3.7848 Y-12.4342
G01 X-3.7767 Y-12.4211
G01 X-3.7717 Y-12.4065
G01 X-3.7700 Y-12.3920
G01 X-3.7700 Y-10.6294
G01 X-3.7709 Y-10.6191
G01 X-3.7733 Y-10.6091
G01 X-3.7771 Y-10.5995
G01 X-3.7823 Y-10.5906
G01 X-3.7887 Y-10.5826
G01 X-3.7963 Y-10.5756
G01 X-3.8040 Y-10.5702
G01 X-3.8132 Y-10.5656
G01 X-3.8238 Y-10.5621
G01 X-3.8357 Y-10.5604
G01 X-3.8469 Y-10.5606
G01 X-3.8578 Y-10.5626
G01 X-3.8692 Y-10.5666
G01 X-3.8789 Y-10.5720
G01 X-3.8876 Y-10.5790
G01 X-3.8952 Y-10.5872
G01 X-3.9009 Y-10.5957
G01 X-3.9050 Y-10.6043
G01 X-3.9219 Y-10.6551
G01 X-3.9436 Y-10.7114
G01 X-3.9681 Y-10.7666
G01 X-3.9953 Y-10.8205
G01 X-4.0250 Y-10.8730
G01 X-4.0573 Y-10.9240
G01 X-4.0921 Y-10.9734
G01 X-4.1292 Y-11.0210
G01 X-4.1686 Y-11.0667
G01 X-4.2103 Y-11.1104
G01 X-4.2540 Y-11.1521
G01 X-4.2997 Y-11.1915
G01 X-4.3285 Y-11.2145
G01 X-4.3378 Y-11.2257
G01 X-4.3443 Y-11.2378
G01 X-4.3481 Y-11.2501
G01 X-4.3496 Y-11.2637
G01 X-4.3496 Y-11.7594
G01 X-4.3473 Y-11.7747
G01 X-4.3421 Y-11.7883
G01 X-4.3337 Y-11.8012
G01 X-4.3227 Y-11.8120
G00 Z2.0000
G00 X-4.3657 Y-11.8672
G01 F70.00
G01 Z-0.0600
G01 F120.00
G01 X-4.3441 Y-11.8840
G01 X-4.3010 Y-11.9212
G01 X-4.2598 Y-11.9605
G01 X-4.2205 Y-12.0017
G01 X-4.1833 Y-12.0448
G01 X-4.1483 Y-12.0897
G01 X-4.1155 Y-12.1363
G01 X-4.0851 Y-12.1844
G01 X-4.0570 Y-12.2339
G01 X-4.0314 Y-12.2848
G01 X-4.0083 Y-12.3368
G01 X-3.9878 Y-12.3899
G01 X-3.9724 Y-12.4367
G01 X-3.9680 Y-12.4479
G01 X-3.9618 Y-12.4602
G01 X-3.9554 Y-12.4704
G01 X-3.9482 Y-12.4800
G01 X-3.9390 Y-12.4901
G01 X-3.9288 Y-12.4994
G01 X-3.9178 Y-12.5076
G01 X-3.9060 Y-12.5146
G01 X-3.8936 Y-12.5205
G01 X-3.8806 Y-12.5251
G01 X-3.8673 Y-12.5285
G01 X-3.8537 Y-12.5305
G01 X-3.8400 Y-12.5312
G01 X-3.8263 Y-12.5305
G01 X-3.8127 Y-12.5285
G01 X-3.7994 Y-12.5251
G01 X-3.7864 Y-12.5205
G01 X-3.7740 Y-12.5146
G01 X-3.7622 Y-12.5076
G01 X-3.7512 Y-12.4994
G01 X-3.7410 Y-12.4901
G01 X-3.7318 Y-12.4800
G01 X-3.7236 Y-12.4689
G01 X-3.7174 Y-12.4587
G01 X-3.7113 Y-12.4463
G01 X-3.7065 Y-12.4334
G01 X-3.7034 Y-12.4218
G01 X-3.7011 Y-12.4083
G01 X-3.7000 Y-12.3946
G01 X-3.7000 Y-10.6268
G01 X-3.7018 Y-10.6080
G01 X-3.7065 Y-10.5880
G01 X-3.7134 Y-10.5704
G01 X-3.7236 Y-10.5525
G01 X-3.7363 Y-10.5362
G01 X-3.7499 Y-10.5231
G01 X-3.7666 Y-10.5111
G01 X-3.7848 Y-10.5016
G01 X-3.8060 Y-10.4944
G01 X-3.8280 Y-10.4908
G01 X-3.8503 Y-10.4906
G01 X-3.8707 Y-10.4936
G01 X-3.8904 Y-10.4996
G01 X-3.9105 Y-10.5093
G01 X-3.9288 Y-10.5220
G01 X-3.9449 Y-10.5375
G01 X-3.9583 Y-10.5553
G01 X-3.9687 Y-10.5751
G01 X-3.9878 Y-10.6315
G01 X-4.0083 Y-10.6846
G01 X-4.0314 Y-10.7366
G01 X-4.0570 Y-10.7875
G01 X-4.0851 Y-10.8370
G01 X-4.1155 Y-10.8851
G01 X-4.1483 Y-10.9317
G01 X-4.1833 Y-10.9766
G01 X-4.2205 Y-11.0197
G01 X-4.2598 Y-11.0609
G01 X-4.3010 Y-11.1002
G01 X-4.3441 Y-11.1374
G01 X-4.3684 Y-11.1564
G01 X-4.3786 Y-11.1656
G01 X-4.3878 Y-11.1758
G01 X-4.3960 Y-11.1868
G01 X-4.4022 Y-11.1971
G01 X-4.4083 Y-11.2094
G01 X-4.4131 Y-11.2223
G01 X-4.4162 Y-11.2339
G01 X-4.4185 Y-11.2474
G01 X-4.4196 Y-11.2612
G01 X-4.4193 Y-11.7654
G01 X-4.4175 Y-11.7807
G01 X-4.4145 Y-11.7942
G01 X-4.4096 Y-11.8088
G01 X-4.4039 Y-11.8213
G01 X-4.3960 Y-11.8346
G01 X-4.3867 Y-11.8470
G01 X-4.3761 Y-11.8582
G01 X-4.3657 Y-11.8672
G00 Z2.0000
G00 X-4.4640 Y-11.8573
G01 F70.00
G01 Z-0.0600
G01 F120.00
G01 X-4.4672 Y-11.8512
G01 X-4.4698 Y-11.8458
G01 X-4.4698 Y-11.8536
G01 X-4.4640 Y-11.8573
G00 Z2.0000
G00 X-3.6500 Y-12.4806
G01 F70.00
G01 Z-0.0600
G01 F120.00
G01 X-3.6626 Y-12.5035
G01 X-3.6777 Y-12.5244
G01 X-3.6952 Y-12.5432
G01 X-3.7149 Y-12.5598
G01 X-3.7387 Y-12.5751
G01 X-3.7620 Y-12.5861
G01 X-3.7865 Y-12.5942
G01 X-3.8117 Y-12.5992
G01 X-3.8400 Y-12.6012
G01 X-3.8657 Y-12.5996
G01 X-3.8910 Y-12.5949
G01 X-3.9156 Y-12.5871
G01 X-3.9390 Y-12.5764
G01 X-3.9609 Y-12.5628
G01 X-3.9810 Y-12.5468
G01 X-3.9994 Y-12.5278
G01 X-3.9913 Y-12.5641
G01 X-3.9828 Y-12.6127
G01 X-3.9756 Y-12.6693
G01 X-3.9713 Y-12.7262
G01 X-3.9700 Y-12.7807
G01 X-3.9713 Y-12.8352
G01 X-3.9756 Y-12.8921
G01 X-3.9828 Y-12.9487
G01 X-3.9913 Y-12.9973
G01 X-3.9994 Y-13.0336
G01 X-3.9810 Y-13.0146
G01 X-3.9609 Y-12.9986
G01 X-3.9390 Y-12.9850
G01 X-3.9156 Y-12.9743
G01 X-3.8910 Y-12.9665
G01 X-3.8631 Y-12.9615
G01 X-3.8374 Y-12.9603
G01 X-3.8117 Y-12.9622
G01 X-3.7840 Y-12.9679
G01 X-3.7596 Y-12.9762
G01 X-3.7365 Y-12.9875
G01 X-3.7149 Y-13.0016
G01 X-3.6952 Y-13.0182
G01 X-3.6777 Y-13.0370
G01 X-3.6626 Y-13.0579
G01 X-3.6500 Y-13.0808
G01 X-3.6500 Y-12.4806
G00 Z2.0000
G00 X-3.7200 Y-12.6441
G01 F70.00
G01 Z-0.0600
G01 F120.00
G01 X-3.7424 Y-12.6536
G01 X-3.7653 Y-12.6610
G01 X-3.7887 Y-12.6664
G01 X-3.8126 Y-12.6698
G01 X-3.8366 Y-12.6711
G01 X-3.8606 Y-12.6704
G01 X-3.8845 Y-12.6676
G01 X-3.9059 Y-12.6633
G01 X-3.9014 Y-12.7228
G01 X-3.9000 Y-12.7807
G01 X-3.9014 Y-12.8386
G01 X-3.9059 Y-12.8981
G01 X-3.8845 Y-12.8938
G01 X-3.8606 Y-12.8910
G01 X-3.8366 Y-12.8903
G01 X-3.8126 Y-12.8916
G01 X-3.7887 Y-12.8950
G01 X-3.7653 Y-12.9004
G01 X-3.7424 Y-12.9078
G01 X-3.7200 Y-12.9173
G01 X-3.7200 Y-12.6441
G00 Z2.0000
G00 X-3.5294 Y-13.8707
G01 F70.00
G01 Z-0.0600
G01 F120.00
G01 X-3.5457 Y-13.8621
G01 X-3.5609 Y-13.8524
G01 X-3.5752 Y-13.8414
G01 X-3.5885 Y-13.8292
G01 X-3.6007 Y-13.8159
G01 X-3.6117 Y-13.8016
G01 X-3.6214 Y-13.7864
G01 X-3.6300 Y-13.7701
G01 X-3.6300 Y-13.8707
G01 X-3.5294 Y-13.8707
G00 Z2.0000
G00 X-1.4500 Y-13.7701
G01 F70.00
G01 Z-0.0600
G01 F120.00
G01 X-1.4586 Y-13.7864
G01 X-1.4683 Y-13.8016
G01 X-1.4793 Y-13.8159
G01 X-1.4915 Y-13.8292
G01 X-1.5048 Y-13.8414
G01 X-1.5191 Y-13.8524
G01 X-1.5343 Y-13.8621
G01 X-1.5506 Y-13.8707
G01 X-1.4500 Y-13.8707
G01 X-1.4500 Y-13.7701
G00 Z2.0000
G00 X-5.6902 Y-11.8458
G01 F70.00
G01 Z-0.0600
G01 F120.00
G01 X-5.6928 Y-11.8512
G01 X-5.6960 Y-11.8573
G01 X-5.6902 Y-11.8536
G01 X-5.6902 Y-11.8458
G00 Z2.0000
G00 X-5.6960 Y-11.1641
G01 F70.00
G01 Z-0.0600
G01 F120.00
G01 X-5.6928 Y-11.1702
G01 X-5.6902 Y-11.1756
G01 X-5.6902 Y-11.1678
G01 X-5.6960 Y-11.1641
G00 Z2.0000
G00 X-6.2598 Y-12.7916
G01 F70.00
G01 Z-0.0600
G01 F120.00
G01 X-6.2598 Y-12.7698
G01 X-6.2820 Y-12.7763
G01 X-6.3027 Y-12.7807
G01 X-6.2820 Y-12.7851
G01 X-6.2598 Y-12.7916
G00 Z2.0000
G00 X-6.3973 Y-12.7807
G01 F70.00
G01 Z-0.0600
G01 F120.00
G01 X-6.4180 Y-12.7763
G01 X-6.4402 Y-12.7698
G01 X-6.4402 Y-12.7916
G01 X-6.4180 Y-12.7851
G01 X-6.3973 Y-12.7807
G00 Z2.0000
G00 X-6.4183 Y-13.0413
G01 F70.00
G01 Z-0.0600
G01 F120.00
G01 X-6.4153 Y-13.0315
G01 X-6.4113 Y-13.0229
G01 X-6.4062 Y-13.0150
G01 X-6.3995 Y-13.0072
G01 X-6.3917 Y-13.0005
G01 X-6.3838 Y-12.9954
G01 X-6.3744 Y-12.9911
G01 X-6.3653 Y-12.9884
G01 X-6.3560 Y-12.9869
G01 X-6.3457 Y-12.9868
G01 X-6.3363 Y-12.9880
G01 X-6.3264 Y-12.9908
G01 X-6.3178 Y-12.9945
G01 X-6.3097 Y-12.9994
G01 X-6.3017 Y-13.0060
G01 X-6.2953 Y-13.0129
G01 X-6.2883 Y-13.0237
G01 X-6.2835 Y-13.0347
G01 X-6.2731 Y-13.0796
G01 X-6.2570 Y-13.1377
G01 X-6.2381 Y-13.1951
G01 X-6.2164 Y-13.2514
G01 X-6.1919 Y-13.3066
G01 X-6.1647 Y-13.3605
G01 X-6.1350 Y-13.4130
G01 X-6.1027 Y-13.4640
G01 X-6.0679 Y-13.5134
G01 X-6.0308 Y-13.5610
G01 X-5.9914 Y-13.6067
G01 X-5.9497 Y-13.6504
G01 X-5.9060 Y-13.6921
G01 X-5.8603 Y-13.7315
G01 X-5.8127 Y-13.7686
G01 X-5.7633 Y-13.8034
G01 X-5.7123 Y-13.8357
G01 X-5.6598 Y-13.8654
G01 X-5.6059 Y-13.8926
G01 X-5.5507 Y-13.9171
G01 X-5.4944 Y-13.9388
G01 X-5.4370 Y-13.9577
G01 X-5.3789 Y-13.9738
G01 X-5.3200 Y-13.9870
G01 X-5.2605 Y-13.9974
G01 X-5.2006 Y-14.0048
G01 X-5.1404 Y-14.0092
G01 X-5.0800 Y-14.0107
G01 X-5.0196 Y-14.0092
G01 X-4.9594 Y-14.0048
G01 X-4.8995 Y-13.9974
G01 X-4.8400 Y-13.9870
G01 X-4.7811 Y-13.9738
G01 X-4.7230 Y-13.9577
G01 X-4.6656 Y-13.9388
G01 X-4.6093 Y-13.9171
G01 X-4.5541 Y-13.8926
G01 X-4.5002 Y-13.8654
G01 X-4.4477 Y-13.8357
G01 X-4.3967 Y-13.8034
G01 X-4.3473 Y-13.7686
G01 X-4.2997 Y-13.7315
G01 X-4.2540 Y-13.6921
G01 X-4.2103 Y-13.6504
G01 X-4.1686 Y-13.6067
G01 X-4.1292 Y-13.5610
G01 X-4.0921 Y-13.5134
G01 X-4.0573 Y-13.4640
G01 X-4.0250 Y-13.4130
G01 X-3.9953 Y-13.3605
G01 X-3.9681 Y-13.3066
G01 X-3.9436 Y-13.2514
G01 X-3.9219 Y-13.1951
G01 X-3.9056 Y-13.1459
G01 X-3.8991 Y-13.1328
G01 X-3.8941 Y-13.1258
G01 X-3.8883 Y-13.1195
G01 X-3.8810 Y-13.1135
G01 X-3.8738 Y-13.1089
G01 X-3.8660 Y-13.1053
G01 X-3.8578 Y-13.1026
G01 X-3.8486 Y-13.1008
G01 X-3.8400 Y-13.1002
G01 X-3.8272 Y-13.1014
G01 X-3.8148 Y-13.1049
G01 X-3.8033 Y-13.1107
G01 X-3.7924 Y-13.1190
G01 X-3.7833 Y-13.1292
G01 X-3.7767 Y-13.1403
G01 X-3.7723 Y-13.1524
G01 X-3.7702 Y-13.1651
G01 X-3.7700 Y-14.0107
G01 X-1.3100 Y-14.0107
G01 X-1.3100 Y-9.0107
G01 X-1.7396 Y-9.0107
G01 X-1.7482 Y-9.0102
G01 X-1.7591 Y-9.0079
G01 X-1.7703 Y-9.0036
G01 X-1.7806 Y-8.9974
G01 X-1.7897 Y-8.9896
G01 X-1.7973 Y-8.9803
G01 X-1.8032 Y-8.9698
G01 X-1.8073 Y-8.9585
G01 X-1.8093 Y-8.9476
G01 X-1.8096 Y-3.8109
G01 X-1.8105 Y-3.7742
G01 X-1.8131 Y-3.7384
G01 X-1.8175 Y-3.7028
G01 X-1.8237 Y-3.6675
G01 X-1.8315 Y-3.6325
G01 X-1.8411 Y-3.5980
G01 X-1.8523 Y-3.5639
G01 X-1.8652 Y-3.5305
G01 X-1.8797 Y-3.4977
G01 X-1.8959 Y-3.4657
G01 X-1.9135 Y-3.4345
G01 X-1.9327 Y-3.4042
G01 X-1.9534 Y-3.3749
G01 X-1.9754 Y-3.3467
G01 X-1.9988 Y-3.3195
G01 X-2.0241 Y-3.2929
G01 X-3.2929 Y-2.0241
G01 X-3.3195 Y-1.9988
G01 X-3.3467 Y-1.9754
G01 X-3.3749 Y-1.9534
G01 X-3.4042 Y-1.9327
G01 X-3.4345 Y-1.9135
G01 X-3.4657 Y-1.8959
G01 X-3.4977 Y-1.8797
G01 X-3.5305 Y-1.8652
G01 X-3.5639 Y-1.8523
G01 X-3.5980 Y-1.8411
G01 X-3.6325 Y-1.8315
G01 X-3.6675 Y-1.8237
G01 X-3.7028 Y-1.8175
G01 X-3.7384 Y-1.8131
G01 X-3.7742 Y-1.8105
G01 X-3.8109 Y-1.8096
G01 X-4.1709 Y-1.8096
G01 X-4.1837 Y-1.8083
G01 X-4.1968 Y-1.8043
G01 X-4.2045 Y-1.8005
G01 X-4.2117 Y-1.7958
G01 X-4.2183 Y-1.7903
G01 X-4.2241 Y-1.7840
G01 X-4.2329 Y-1.7703
G01 X-4.2362 Y-1.7624
G01 X-4.2385 Y-1.7541
G01 X-4.2400 Y-1.7405
G01 X-4.2400 Y-1.6000
G01 X-5.9200 Y-1.6000
G01 X-5.9200 Y-3.4800
G01 X-4.2400 Y-3.4800
G01 X-4.2399 Y-3.3370
G01 X-4.2377 Y-3.3226
G01 X-4.2321 Y-3.3082
G01 X-4.2252 Y-3.2973
G01 X-4.2164 Y-3.2880
G01 X-4.2060 Y-3.2804
G01 X-4.1936 Y-3.2745
G01 X-4.1837 Y-3.2717
G01 X-4.1734 Y-3.2705
G01 X-4.1398 Y-3.2704
G01 X-4.1304 Y-3.2713
G01 X-4.1204 Y-3.2737
G01 X-4.1101 Y-3.2779
G01 X-4.1005 Y-3.2837
G01 X-4.0927 Y-3.2903
G01 X-3.6101 Y-3.7730
G01 X-3.6037 Y-3.7811
G01 X-3.5983 Y-3.7908
G01 X-3.5947 Y-3.8005
G01 X-3.5925 Y-3.8114
G01 X-3.5920 Y-3.8226
G01 X-3.5931 Y-3.8328
G01 X-3.5960 Y-3.8436
G01 X-3.6006 Y-3.8538
G01 X-3.6057 Y-3.8617
G01 X-3.6112 Y-3.8683
G01 X-3.6182 Y-3.8747
G01 X-3.6252 Y-3.8796
G01 X-3.6336 Y-3.8840
G01 X-3.6424 Y-3.8872
G01 X-3.6508 Y-3.8891
G01 X-3.6602 Y-3.8900
G01 X-4.9000 Y-3.8900
G01 X-4.9000 Y-5.0005
G01 X-4.9009 Y-5.0115
G01 X-4.9040 Y-5.0239
G01 X-5.1256 Y-5.6471
G01 X-5.1303 Y-5.6563
G01 X-5.1364 Y-5.6646
G01 X-5.1429 Y-5.6714
G01 X-5.1510 Y-5.6778
G01 X-5.1592 Y-5.6825
G01 X-5.1688 Y-5.6864
G01 X-5.1788 Y-5.6888
G01 X-5.1891 Y-5.6897
G01 X-5.2027 Y-5.6885
G01 X-5.2159 Y-5.6847
G01 X-5.2281 Y-5.6784
G01 X-5.2382 Y-5.6704
G01 X-5.2472 Y-5.6600
G01 X-5.2540 Y-5.6480
G01 X-5.2581 Y-5.6358
G01 X-5.2600 Y-5.6222
G01 X-5.2600 Y-3.8900
G01 X-6.9400 Y-3.8900
G01 X-6.9400 Y-4.8382
G01 X-6.9407 Y-4.8484
G01 X-6.9432 Y-4.8591
G01 X-6.9481 Y-4.8709
G01 X-8.2651 Y-7.3582
G01 X-8.2814 Y-7.3908
G01 X-8.2957 Y-7.4233
G01 X-8.3084 Y-7.4565
G01 X-8.3194 Y-7.4903
G01 X-8.3288 Y-7.5246
G01 X-8.3366 Y-7.5593
G01 X-8.3426 Y-7.5944
G01 X-8.3469 Y-7.6297
G01 X-8.3495 Y-7.6651
G01 X-8.3504 Y-7.7016
G01 X-8.3504 Y-9.2168
G01 X-8.3517 Y-9.2305
G01 X-8.3542 Y-9.2396
G01 X-8.3583 Y-9.2491
G01 X-8.3632 Y-9.2571
G01 X-8.3697 Y-9.2651
G01 X-8.3760 Y-9.2709
G01 X-8.4003 Y-9.2899
G01 X-8.4460 Y-9.3293
G01 X-8.4897 Y-9.3710
G01 X-8.5314 Y-9.4147
G01 X-8.5708 Y-9.4604
G01 X-8.6079 Y-9.5080
G01 X-8.6427 Y-9.5574
G01 X-8.6750 Y-9.6084
G01 X-8.7047 Y-9.6609
G01 X-8.7319 Y-9.7148
G01 X-8.7564 Y-9.7700
G01 X-8.7781 Y-9.8263
G01 X-8.7970 Y-9.8837
G01 X-8.8131 Y-9.9418
G01 X-8.8263 Y-10.0007
G01 X-8.8367 Y-10.0602
G01 X-8.8441 Y-10.1201
G01 X-8.8485 Y-10.1803
G01 X-8.8500 Y-10.2407
G01 X-8.8485 Y-10.3011
G01 X-8.8441 Y-10.3613
G01 X-8.8367 Y-10.4212
G01 X-8.8263 Y-10.4807
G01 X-8.8131 Y-10.5396
G01 X-8.7970 Y-10.5977
G01 X-8.7781 Y-10.6551
G01 X-8.7564 Y-10.7114
G01 X-8.7319 Y-10.7666
G01 X-8.7047 Y-10.8205
G01 X-8.6750 Y-10.8730
G01 X-8.6427 Y-10.9240
G01 X-8.6079 Y-10.9734
G01 X-8.5708 Y-11.0210
G01 X-8.5314 Y-11.0667
G01 X-8.4897 Y-11.1104
G01 X-8.4460 Y-11.1521
G01 X-8.4003 Y-11.1915
G01 X-8.3753 Y-11.2110
G01 X-8.3685 Y-11.2176
G01 X-8.3613 Y-11.2271
G01 X-8.3561 Y-11.2370
G01 X-8.3523 Y-11.2484
G01 X-8.3506 Y-11.2594
G01 X-8.3504 Y-11.7577
G01 X-8.3516 Y-11.7696
G01 X-8.3545 Y-11.7804
G01 X-8.3613 Y-11.7943
G01 X-8.3703 Y-11.8057
G01 X-8.4003 Y-11.8299
G01 X-8.4460 Y-11.8693
G01 X-8.4897 Y-11.9110
G01 X-8.5314 Y-11.9547
G01 X-8.5708 Y-12.0004
G01 X-8.6079 Y-12.0480
G01 X-8.6427 Y-12.0974
G01 X-8.6750 Y-12.1484
G01 X-8.7047 Y-12.2009
G01 X-8.7319 Y-12.2548
G01 X-8.7564 Y-12.3100
G01 X-8.7781 Y-12.3663
G01 X-8.7970 Y-12.4237
G01 X-8.8131 Y-12.4818
G01 X-8.8263 Y-12.5407
G01 X-8.8367 Y-12.6002
G01 X-8.8441 Y-12.6601
G01 X-8.8485 Y-12.7203
G01 X-8.8500 Y-12.7807
G01 X-8.8485 Y-12.8411
G01 X-8.8441 Y-12.9013
G01 X-8.8367 Y-12.9612
G01 X-8.8263 Y-13.0207
G01 X-8.8131 Y-13.0796
G01 X-8.7970 Y-13.1377
G01 X-8.7781 Y-13.1951
G01 X-8.7564 Y-13.2514
G01 X-8.7319 Y-13.3066
G01 X-8.7047 Y-13.3605
G01 X-8.6750 Y-13.4130
G01 X-8.6427 Y-13.4640
G01 X-8.6079 Y-13.5134
G01 X-8.5708 Y-13.5610
G01 X-8.5314 Y-13.6067
G01 X-8.4897 Y-13.6504
G01 X-8.4460 Y-13.6921
G01 X-8.4003 Y-13.7315
G01 X-8.3527 Y-13.7686
G01 X-8.3033 Y-13.8034
G01 X-8.2523 Y-13.8357
G01 X-8.1998 Y-13.8654
G01 X-8.1459 Y-13.8926
G01 X-8.0907 Y-13.9171
G01 X-8.0344 Y-13.9388
G01 X-7.9770 Y-13.9577
G01 X-7.9189 Y-13.9738
G01 X-7.8600 Y-13.9870
G01 X-7.8005 Y-13.9974
G01 X-7.7406 Y-14.0048
G01 X-7.6804 Y-14.0092
G01 X-7.6200 Y-14.0107
G01 X-7.5596 Y-14.0092
G01 X-7.4994 Y-14.0048
G01 X-7.4395 Y-13.9974
G01 X-7.3800 Y-13.9870
G01 X-7.3211 Y-13.9738
G01 X-7.2630 Y-13.9577
G01 X-7.2056 Y-13.9388
G01 X-7.1493 Y-13.9171
G01 X-7.0941 Y-13.8926
G01 X-7.0402 Y-13.8654
G01 X-6.9877 Y-13.8357
G01 X-6.9367 Y-13.8034
G01 X-6.8873 Y-13.7686
G01 X-6.8397 Y-13.7315
G01 X-6.7940 Y-13.6921
G01 X-6.7503 Y-13.6504
G01 X-6.7086 Y-13.6067
G01 X-6.6692 Y-13.5610
G01 X-6.6321 Y-13.5134
G01 X-6.5973 Y-13.4640
G01 X-6.5650 Y-13.4130
G01 X-6.5353 Y-13.3605
G01 X-6.5081 Y-13.3066
G01 X-6.4836 Y-13.2514
G01 X-6.4619 Y-13.1951
G01 X-6.4430 Y-13.1377
G01 X-6.4269 Y-13.0796
G01 X-6.4183 Y-13.0413
G00 Z2.0000
G00 X-6.1792 Y-12.9346
G01 F70.00
G01 Z-0.0600
G01 F120.00
G01 X-6.1847 Y-12.8895
G01 X-6.1883 Y-12.8403
G01 X-6.1900 Y-12.7807
G01 X-6.1883 Y-12.7211
G01 X-6.1847 Y-12.6719
G01 X-6.1792 Y-12.6268
G01 X-6.1944 Y-12.6458
G01 X-6.2128 Y-12.6637
G01 X-6.2333 Y-12.6793
G01 X-6.2533 Y-12.6911
G01 X-6.2768 Y-12.7016
G01 X-6.3015 Y-12.7090
G01 X-6.3243 Y-12.7131
G01 X-6.3500 Y-12.7147
G01 X-6.3757 Y-12.7131
G01 X-6.3985 Y-12.7090
G01 X-6.4232 Y-12.7016
G01 X-6.4467 Y-12.6911
G01 X-6.4667 Y-12.6793
G01 X-6.4872 Y-12.6637
G01 X-6.5056 Y-12.6458
G01 X-6.5208 Y-12.6268
G01 X-6.5153 Y-12.6719
G01 X-6.5117 Y-12.7211
G01 X-6.5100 Y-12.7807
G01 X-6.5117 Y-12.8403
G01 X-6.5153 Y-12.8895
G01 X-6.5208 Y-12.9346
G01 X-6.5056 Y-12.9156
G01 X-6.4872 Y-12.8977
G01 X-6.4667 Y-12.8821
G01 X-6.4467 Y-12.8703
G01 X-6.4232 Y-12.8598
G01 X-6.3985 Y-12.8524
G01 X-6.3757 Y-12.8483
G01 X-6.3500 Y-12.8467
G01 X-6.3243 Y-12.8483
G01 X-6.2990 Y-12.8530
G01 X-6.2744 Y-12.8607
G01 X-6.2533 Y-12.8703
G01 X-6.2333 Y-12.8821
G01 X-6.2128 Y-12.8977
G01 X-6.1944 Y-12.9156
G01 X-6.1792 Y-12.9346
G00 Z2.0000
M05
G00 Z2.0000
G00 Z25.00

